/* XPM */
static char *b046d40193354fd1c3ea5975a4408e52VfD6a3Rs1mEOJAfZ[] = {
/* columns rows colors chars-per-pixel */
"135 49 247 2 ",
"   c None",
".  c #010203",
"X  c #050609",
"o  c #07090B",
"O  c #090B0D",
"+  c #0C0608",
"@  c #0B0E12",
"#  c #0B0C1B",
"$  c #060717",
"%  c #0E1116",
"&  c #0E1219",
"*  c #0F181D",
"=  c #12141C",
"-  c #14181E",
";  c #17151C",
":  c #160E18",
">  c #0C0C25",
",  c #0E1126",
"<  c #141522",
"1  c #1A1723",
"2  c #151922",
"3  c #1A1B25",
"4  c #15162A",
"5  c #151C2B",
"6  c #1C1D2A",
"7  c #1B162A",
"8  c #1C1B32",
"9  c #1A1939",
"0  c #0F0D2A",
"q  c #221D2B",
"w  c #281C2A",
"e  c #231D33",
"r  c #211C3B",
"t  c #2B1E36",
"y  c #2C172B",
"u  c #1D212C",
"i  c #1E2132",
"p  c #1D233A",
"a  c #22222D",
"s  c #272529",
"d  c #232432",
"f  c #2B2334",
"g  c #252935",
"h  c #2C2C35",
"j  c #24253A",
"k  c #2C243B",
"l  c #262A39",
"z  c #2B2C3B",
"x  c #322234",
"c  c #32253C",
"v  c #322B3D",
"b  c #37283B",
"n  c #2D313E",
"m  c #2F3233",
"M  c #313233",
"N  c #33313E",
"B  c #36393E",
"V  c #31252D",
"C  c #1C1643",
"Z  c #251E44",
"A  c #2D2C43",
"S  c #2A2647",
"D  c #342B43",
"F  c #342C4D",
"G  c #3C2C4B",
"H  c #372745",
"J  c #2E3141",
"K  c #2C344C",
"L  c #333444",
"P  c #3A3643",
"I  c #363945",
"U  c #3B3B45",
"Y  c #34334A",
"T  c #3B334C",
"R  c #363949",
"E  c #3B3C4B",
"W  c #342C53",
"Q  c #3C2D53",
"!  c #342C5A",
"~  c #362A57",
"^  c #3D335A",
"/  c #393856",
"(  c #2B2E54",
")  c #3D3663",
"_  c #1A3D41",
"`  c #462D49",
"'  c #423E4D",
"]  c #45324D",
"[  c #422E53",
"{  c #433254",
"}  c #44345B",
"|  c #48385A",
" . c #433A63",
".. c #4C3C64",
"X. c #463967",
"o. c #513C63",
"O. c #3E414C",
"+. c #3C4046",
"@. c #3F4151",
"#. c #3C4865",
"$. c #42424E",
"%. c #494A4C",
"&. c #434453",
"*. c #494553",
"=. c #464955",
"-. c #4B4B55",
";. c #464A5B",
":. c #4B4D5B",
">. c #48435D",
",. c #524D5B",
"<. c #504E56",
"1. c #4E515A",
"2. c #4E5051",
"3. c #53545D",
"4. c #58555D",
"5. c #4A4365",
"6. c #4B426B",
"7. c #4A4866",
"8. c #544969",
"9. c #4C5265",
"0. c #545463",
"q. c #5A5662",
"w. c #565961",
"e. c #5C5B64",
"r. c #5C5D69",
"t. c #58556B",
"y. c #524972",
"u. c #5A5676",
"i. c #4B4E71",
"p. c #615D66",
"a. c #615E69",
"s. c #635975",
"d. c #604D7A",
"f. c #5E6166",
"g. c #5E6169",
"h. c #5D6373",
"j. c #63636B",
"k. c #66696E",
"l. c #66656A",
"z. c #6B6B73",
"x. c #686676",
"c. c #716E78",
"v. c #6E7176",
"b. c #74737C",
"n. c #79757D",
"m. c #75787D",
"M. c #807E7F",
"N. c #7C7C83",
"B. c #777785",
"V. c #6D6986",
"C. c #7172A2",
"Z. c #616B8C",
"A. c #3677DE",
"S. c #3172DB",
"D. c #1575DC",
"F. c #4B74DD",
"G. c #6B6DDE",
"H. c #887E8E",
"J. c #8679A1",
"K. c #966FDD",
"L. c #9868DF",
"P. c #7C8185",
"I. c #5498B4",
"U. c #1684D9",
"Y. c #3289DB",
"T. c #4788DD",
"R. c #5B88DC",
"E. c #5597DC",
"W. c #6E91DC",
"Q. c #71ACDE",
"!. c #54A5E5",
"~. c #66AAE4",
"^. c #6CB3F7",
"/. c #6D84E1",
"(. c #7BC5DD",
"). c #69C9FC",
"_. c #84858A",
"`. c #8B8B97",
"'. c #939499",
"]. c #8F8F94",
"[. c #9B9BA4",
"{. c #8B90A6",
"}. c #A6A6AB",
"|. c #ABACB2",
" X c #AEACBD",
".X c #B4B4BB",
"XX c #B3B3B7",
"oX c #AFB1B7",
"OX c #A29FB4",
"+X c #9090D5",
"@X c #AC87DF",
"#X c #A898DE",
"$X c #AE96D8",
"%X c #94AED6",
"&X c #B0B0CF",
"*X c #888EE2",
"=X c #AC89E1",
"-X c #B38CE2",
";X c #B88AE2",
":X c #AB98E3",
">X c #BB91E3",
",X c #B59CE4",
"<X c #B695E5",
"1X c #8EADE4",
"2X c #ABA5E7",
"3X c #B7A6E8",
"4X c #ABB4E9",
"5X c #B6B8E9",
"6X c #B7ADF1",
"7X c #C5BBCF",
"8X c #C595E5",
"9X c #CA8FE5",
"0X c #C9A8E6",
"qX c #D9AAE5",
"wX c #D9B8E6",
"eX c #CCB5F2",
"rX c #E7B8E8",
"tX c #EEB3F3",
"yX c #B8CADC",
"uX c #BBD3DB",
"iX c #B7D2DB",
"pX c #B9CAE5",
"aX c #90D1E6",
"sX c #C5C5CA",
"dX c #C7C7CB",
"fX c #CCCDD1",
"gX c #C9CBDE",
"hX c #C8D4DB",
"jX c #D6D5DA",
"kX c #CACCE2",
"lX c #D4D0EC",
"zX c #E9C6EA",
"xX c #E9CAEA",
"cX c #E5C3E6",
"vX c #F6C9EA",
"bX c #F0D3EF",
"nX c #DAF4FA",
"mX c #D2EEF6",
"MX c #E3E3E6",
"NX c #EBEBED",
"BX c #E7E6E9",
"VX c #E9EAF3",
"CX c #F9E8FA",
"ZX c #F4F4F5",
"AX c #FEFEFE",
"SX c #F8F7F9",
"DX c #EFF0F1",
/* pixels */
"                                      _.l.z.2.U B B B B B B B B B B B B B B B B B B B B B B B B B B U m $.z.g.g.z.j.I U +.+.+.+.U +.+.+.+.+.+.+.+.U U U +.N w.z.j.k.k.k.z.v.3.4.g.O.=.+.3.v.j.k.v.3.O.$.3.m.v.z.e.z.k.k.z.z.v.w.r.B.N.[.                                      ",
"                                '.4.% . . O @ % & & % % % & % & & % & % & % & = % & & % & & & % % % = O u 3.$.$.-.$.& 2 2 2 2 2 2 2 3 3 2 3 2 2 2 2 2 2 2 - 2 U =.-.-.=.-.w.d 2 6 d d 5 I j.3.1.4.I 5 u u u n $.-.-.3.1.1.1.w.n g u n +.-.[.oX                                ",
"                            P.% . % = = & = & & = = = & = = = = = = = = = = = = = = = = - = = = = - - O u e.-.-.3.U & 3 3 3 3 3 3 3 3 3 6 3 3 6 3 3 3 3 3 3 3 # u e.3.1.3.3.u d g g g g u d U :.e.j.e.:.+.n d 6 u n U :.w.f.w.n n l -.e.3.e.n u [.                            ",
"                        [.o @ - - - - = - - - - - - - = - = - - = - - - - - - - - - - - - - - - - - 2 - - U 1.4.e.I * u 3 u u u u u u u u 6 u u u u u u u 6 u 2 g j.3.3.e.-.u g g g l g g g d 3 u n =.w.k.g.e.3.$.L g i z &.f.L J z 1.e.w.g.=.z i U fX                        ",
"                    dX- O - - - - - - - - - - - - - - - - - - - - - - - - - - - - 2 - - 2 2 - 2 - - 2 2 3 3 2 g 1.$.< u u u u u u u u u u u u u u u u u u u u 2 g j.w.4.f.O.u z z z l l l l g g g g u 2 g g.e.e.g.j.w.3.j.z.w.J I J w.e.w.g.$.z z g.1.r.jX                    ",
"                  |.. 3 - = = - - 2 2 2 2 - 2 2 - 2 2 2 2 2 - 2 2 2 - 2 2 2 2 2 2 2 2 - 2 2 2 2 2 2 3 3 3 u u u 2 L u u a u u d a u a u u u u u u a u a u u u 2 z k.w.w.j.L i z z z z z z z l z z z g u l j.3.e.e.e.e.j.w.E 3.E I n e.e.w.j.O.d z O.-.e.U jX                  ",
"                z.. 1 1 2 - - - - - - - 2 3 2 2 2 2 2 2 2 2 2 2 2 1 2 2 2 2 2 2 1 2 2 2 2 2 2 2 2 2 3 3 u d u d u z i d d d a a d d d d i d d d i d d d d a d 5 n k.w.e.j.z g z z z z z z z z z z z l z 6 O.z.w.e.e.e.j.-.n L I E O.w.k.k.j.f.w.1.$.L z J 6 `.                ",
"              e.O 3 3 1 1 - 2 2 2 - - 2 - - - 2 3 3 1 1 2 2 2 2 3 2 3 3 3 2 2 3 3 3 2 2 3 3 3 3 2 3 3 3 u d d d d d d d d d d d d d d d g d d d d d d d d d g 6 L k.w.j.e.d z n n n z z z z z z z z z z g n 3.l.f.f.f.k.E L E E E I J J E 1.g.k.j.j.k.g.e.w.L `.              ",
"            j.O 3 3 1 1 1 2 2 2 2 1 2 = 1 1 2 2 2 2 2 3 3 3 3 3 3 3 3 3 3 3 3 3 3 3 3 3 3 3 3 3 3 3 u 6 u g d g g g g d g g g d g g g g g g g g g g g g g d g g 6 w.z.j.-.d n n n z n n n n z z z n n z n l z z.j.j.l.j.L R E E R I U R R J z z 3.z.f.f.j.j.k.4.|.            ",
"          .X. 3 3 3 3 3 3 2 2 1 1 3 X P . O 2 1 1 2 2 2 2 2 3 3 3 6 3 3 3 6 3 3 3 3 3 6 3 3 3 3 3 6 u u u l g g g g g g g g g g g g g g g g g g g g g g g g l g g L =.k.3.d J n n n J J J n n L n n n n n z I z.j.j.z.w.J E R R R R R R I I U z -.z.j.j.j.j.j.z.E jX          ",
"        fX. - 3 6 6 3 3 3 2 1 3 3 O v.tXBXH.a . & 3 3 3 3 3 3 1 1 3 3 6 6 6 6 3 3 3 6 6 3 6 u 6 6 6 a u u z g z z z l g l l l g g g l l g g l g l l g z z g z l z J z z L L L J J L L L L L L L L L L n N z O.v.j.g.z.=.L E R E R E E R R R R U L L j.z.j.j.l.z.3.a jX        ",
"        h - - 1 q 3 3 6 3 3 3 3 3 3 AXqX;XbXCX7Xe.% o 1 3 3 3 3 3 3 3 1 3 3 6 u a 6 3 3 u a 3 6 6 6 a a a z z z z z g z z z z z z z z z z l z z z z z z l z z z n L L L L L L L L L L L L L L L L L L L L J R e.j.j.z.R L E E E E E E E E E E U E L e.z.l.l.k.k.*.-.r.        ",
"      |.o - - 3 a q q q q 3 3 u . jXzXbXL.vXrXzXCXCXOXB . @ 3 3 3 3 3 3 3 3 3 3 3 6 a a u u 6 6 a a a a a z z l l z z z z z z z z z z z z z z z z z z z z z z z J L L L L L L L L L L L L L L L L L L L L I R I z f.b.L E E E E E E E E O.E E E E L e.z.j.j.z.e.$.-.L fX      ",
"      @ 2 2 - 3 f q a a a 3 3 O H.CXzXbX>X9XrXrXrXcXvXCXcXB.- . - 3 3 3 3 6 6 3 6 6 3 a f f s a u a s a d z z z z g z z z z z z z z z z z z z z z z z z z z z n J L L L L L L L L L L L L L L L L L L L L I R E E E =.E E E E E E E E E E E E E $.L j.v.l.l.z.:.$.*.-.U       ",
"    '.O - < - 3 f a a a a 6 2 s AXcXzXxXbXL.rXqXrXrXcXzXrXbXCX&X3.o 3 3 3 3 6 6 6 6 3 a x f f f f a d d d z z z z z z z z z z z z z n z z z z z z z z z z z n z L R U L L L I L I L L I L L L L L L L L L R R E E ' E ' O.&.$.$.$.' $.$.$.$.$.E &.$.&.-.:.w.e.E ;.:.:.N XX    ",
"    a 2 - 2 - 6 f d f a f a . MXxXzXxXzXbXK.8X8XqXqXrXrXcXcXwXlXCXDX& q q 6 6 q q 6 3 f c f f f f d d d d z z z z z z z z z k z z z z z n L N v z v z z z z v N L U P E E E E U E R E U E E E E I L <.$.*.*.*.*.*.*.*.&.&.$.*.*.*.*.*.-.-.-.-.-.%.-.z.j.l.N.P._._.P.N.m.P.    ",
"  '.. - - 2 - 3 f f d f f @ H.CXxXzXzXzXvX0XG.,X8X8X0XqXrXwXcXkXkXBX`.@ 6 6 6 q q q 3 f v f f f f f g g d z z z z z z z z z z z z z z z k z z N L L N v N v L L P E U U U U ' $.$.$.U U P U $.*.<.p.l.4.q.4.q.3.e.q.,.q.3.4.3.,.,.,.,.-.-.*.-.*.-.*.3.1.-.4.k.b.j.j.r.x.&.|.  ",
"  b.@ - 2 2 < 3 c f f f f s AXxXzXxXzXxXrXW.L.F.*X=X<X8XqXwXkXkXkXuXVXO a 6 q 6 a a 3 f D c v k f d $ q g z z z n z z z z z z z z z z z z z v v v v L P L N P P a P ' ' N 3.N P P U -.-.p.p.q.l.p.e.p.<.e.p.4.e.a.j.a.a.p.q.3.p.p.e.j.e.p.e.q.p.q.,.r.q.,.0.:.&.&.&.;.&.&.[.  ",
"  h 2 2 2 2 2 3 c k f k X MXxXxXxXxXxXvX*XR./.F.D.A./.*X<X0X5XkXkXkXVXr.3 a a q d a 6 v D v v k f P fX-.a z z n z z z z z z z n z z z z v N N N N N L L P P P q AX'.h 1 dXAX].' j.l.e.a.e.4.e.q.q.4.e.p.e.j.l.e.e.a.a.p.j.e.p.e.j.a.a.e.p.p.q.e.w.p.p.e.l.j.p.j.p.e.q.0.q.x.  ",
"  . - 2 2 4 2 6 D k f # H.CXxXxXxXxXvX3XR./.E.L.F.A.S.A.A./.2XpXgXkXuXyXX d q d d d 6 k T D v v f *.AXj.6 z n z J n z J n z n N L N N N N N N L N N P P P P P 3 SX].U -.[.SXc.e.l.e.q.e.a.j.e.3.q.e.j.e.3.e.e.e.j.a.j.e.p.j.j.j.e.j.q.p.l.j.j.e.r.e.j.j.w.j.j.j.e.j.p.e.r.&.  ",
"z.X 2 2 2 2 2 3 v k k v CXcXxXxXxXxXrXR./.R.W.3XK.G.A.F.A.D.Y.Q.aXuXuXnXL d d d d g 6 D T D D v k *.AXj.6 n n J J L z 3 4 6 N N N N N v a 6 a N B N v N P L P ' SX}.j.z.4.$.a.l.e.,.p.3.*.P w.j.a.3.e.3.&.*.' w.j.e.q.a.w.r.p.e.j.a.e.w.e.j.e.r.e.j.e.r.j.r.j.j.r.e.j.e.0.;._.",
"'.O 2 2 2 2 2 3 v k 7 C.eXrXxXxXxXvXW.R./.R.%X9X8X9X=XG.F.A.U.E.Q.(.aXiX{.# d d d d e D G D v v k *.AXp.6 N z z N 6 3.oXsX[.h N U U v 4.}..X}.$.*.e.j.a.z.oX.X`.SX}.e.z.b.}.a.t.7._.Y _.dXdXx.E 0.0.*.:.&XfX.X].r.w.e.j.w.r.j.j.e.w.j.e.r.j.p.p.e.e.z.g.r.r.r.r.r.r.0.0.0.&..X",
"v.# 2 2 2 3 2 3 D k ; 2X3XqXxXxXvX#XT.R.F.%X;X8X8X>X8X9X>XK.G.T.Q.Q.(.(.aXf E E ' &.*.:.8.>.,.' D 0.AXN.*.' *.:.' N.AXdX|.BXAX-.w.0.}.AXjXfXAXAXz.z.j.b.AXZXMXSXAX}.:.0.'.AXt.0.Y MXZXSXdXBXAXx.0.7.0.AXMX&XjXAXMXY 0.0.r.0.0.r.0.:.w.0.0.0.9.0.0.0.0.9.0.9.:.:.9.:.7.:.:.&.'.",
"g.2 6 3 6 6 3 q D v / eX3X0XrXbXqXT.R.R.W.,X9X8X8X8X>X>X-X8X8X=X:X4X1X(.aXI.c E T T Y ' | T Y P v *.AXp.q h h h 2 MXfX6 3.*.AX|.j.z.j.:.:.3.j.AX`.;.j fXMX> l 7 AX`.A L B.AX&.&.z dXSX4 E d SXoX$.*.oXSXL =.j NXjX3.k.j.r.j.r.t.0.t.7.;.;.:.7.;.;.;.:.:.:.:.:.:.:.:.:.:.:.>._.",
"w.5 u u u u 5 i A < +X0X3X0XqXtXE.T.T.T.2X9X8X>X>X>X-X-X-X-X-X,X0XjXhXyX%XaX: D D D D G D c v x f 3.AXN.<.j.z.b.,.SXsXe.z.q.SX7X0.e.0.r.r.K p AXN.p 4 MXfX8 R K AX`.K Y B.AX&.E i dXBXe E 8 ZX.Xg d sXNXe E j ZXfXj &.*.:.:.:.:.3.3.0.e.0.w.0.0.0.;.:.:.:.:.:.:.:.:.:.:.;.=.N.",
"f.2 5 5 5 5 2 5 S j t.tX3X,X0X*XY.T.Y.1X;X8X>X>X>X-X-X-X-X-X<X3XgXhXuXuXnXB.f v P *.,.,.p.j.z.b.b.].AX'.0.b.z.x.:.SX.X@.=.9 SXoX4 K 8 p h._.`.AXN.j 4 BXfX4 Y A AX`.A L B.AX&.E 8 dXBX8 E 8 SXXXd i fXNXj @.l DXfXz &.&.&.&.&.&.&.&.&.E &.&.&.&.&.&.;.;.;.:.;.;.;.:.;.;.;.&.N.",
"v.# 2 2 2 2 2 5 j j $ wX3X,X1X~.Y.U.R.>X8X>X>X-X-X-X-X-X-X-X,X0XhXuXuXiXmX6 z k P L E R Y E ' E L 1.AXz.g I J z , SX|., J 5 SXoX4 j j.AXZXfXdXAXN.d 4 NXfX4 L z AX`.z L B.AX&.R 8 dXBX6 E 7 SXXXd 8 dXNXd E d DXfXj &.&.&.@.&.&.@.@.&.O.@.&.&.&.&.&.&.;.&.=.=.=.=.=.=.=.&.E ].",
"'.O 2 2 < 2 2 2 d d < x.eX2X~.Q.E.U.@X;X-X-X-X-X-X-X-X-X=X<X3XhXuXuXuXuX&XX 6 i 6 6 8 r j d e r e E AXr.7 j g g # ZX|.# g # SX|.# $ MXjX. # = AXB.5 $ BXdX# l i AX_.6 g z.AXL z > dXBX, z # SX|.4 , sXNX< J < NXfX4 L L L L L L L Y L L L L L L I R R R R R R E E R R R R l }.",
"v.. - = - - = < 6 6 6 @ zX~.~.~.W.W.;X=X=X=X=X=X-X-X=X=X-X,XgXuXuXuXiXnX9.1 u 6 S X...6.y.X.y.d.y.V.AXV.~ 6.X.X.Z ZX XZ ! 9 SX[.9 0 NX&X0 S 7 AXB.4 $ MXdX$ l < AX_.6 d x.AXL z # dXBX# z # SX|.< < |.ZXX d $ SXfX< L L L L L L < 4 R R 6 , L L l , j R R R R E E E E E R g N.",
"  . % & & = & 2 3 3 3 @ Z.^.!.~.*X>X=X=X=X@X=X=X=X@X=X=X<X0XhXuXuXuXhX&X+ V s f d.B.n.n.n.c.n.M.n._.AX|.`.[.{.B.5.fXDX .! u.AXV.! C jXDXZ 9 `.AXB.9 > &XZX3 > B.AXN.8 i x.AXn g # sXBX# z # SX|.< j 0.AX[.v.fXAXfX4 Y L L L L d BXjX7 4 .XZXE z x.SX_.z R R R Y Y Y R Y R 8   ",
"  s & & & & & 2 2 2 2 1 * ).!.E.:X3X:X:X:X-X=X@X@X@X=X@X,XhXuXuXuXiXnX: V V V x | 8.t.s.x.x.c.n.n._.AXSXAXAXAXXXc.b.NXAXAXAXsX5.y.6.u.AXAXAXjX X{.Z S S AXAXAXMX}.[.8 8 x.AXJ j $ dXMX$ l # SXXX> z , _.BXNX`.jXfX> D D L L A j AXAX4 $ MXAX0.8 `.AX.X7 L L L L L L L L L &.  ",
"  v.@ & & & & < 4 4 4 4 . I.!.*X5X4X4X3X3X,X:X#X@X=X@X-X7XuXiXiXiXnX*.: q q e t c H G G [ { | 8.8.8.| | e.e.e.j.z.c.q.b.N.z.j.n.c.x.r.t.V.y.( ! ! ) / ( 9 @.( 0 9 9 A A p # S l S , # z j A > 8 F A Y r 0 0 $ MXfX0 Y Y Y Y A j S z S Y A E j A i E d L L L L A z z z z z `.  ",
"  '.. = = = = 1 1 - 1 1 - _ ^.6X5X4X4X6X6X3X3X,X:X:X<X3XuXiXiXiXhXOX$ 9 8 r r Z S S H H c c H G [ [ { } ..8.t.t.s.c.z.z.b.n.n.N.N.n.b.b.c.x.u.x.x.u.y.y.6.) ) ) ! W F S S S j j j j j S j j j k S F W W C 9 9 SXsX9 ^  .6.6.5.| ^ W / 5. . .^ / Y A A A A K A K J A A A > [.  ",
"    3 = % % = - 2 2 2 - - . $XlXpX4X6X6X6X6X3X3X,X,X3X5XyXiXiXyXnXC X.) W 6.y.y.u.6.X.^ Z k S k S ~ W F Q Q ~ Q Q ..y.y.s.t.8.0.8.a.b.c.x.r.0.0.r.t.t.s.u.y.7.7.7. . . .^ ! W W S S S  . . .X...y.y.6.AXSXNXAXAXB.s.s.s.x.x.u.y.y.6.6.6.6.X. . .^ ^ / W / / Y Y Y A A A Y     ",
"    '.. @ @ % = = = = = = = . j C.6XlX2X2X2X3X,X2X2X,X2X5XyXyXnX/ r S Z S F F W ^  .X.~ Z Z r r W ! W ~ W ! X...X.X.~ ~ 6.8.6.X. .5.| W ^  .| 0.q.7.| | 5.>.>.5.7.7.7.7.5. . .) W W !  .^ ^  .} ^ ^ ^ S V.{.`.| W } } ^ ^ ^ ^ ^ W F F F Y T F F D D D D A A A A z z j 4 }.    ",
"      O % @ @ @ % = = & @ @ @ @ . X / +XlXeX:X:X2X2X$X#X#X:X5X`.. < & & < < 4 8 r r 8 7 1 1 4 7 8 9 8 8 7 r S W S S Z S W ) ) ! ! ) ) W W ! ! X.X.X. .X.X.X...6.8.s.s.s.s.8...} W F F W W W ^ ^ ^ } ^ Q ^ ~ W ....| ........6.............o.6.o.| | | | | | T D A F Y 1       ",
"      }.. @ @ % @ % = @ @ % @ % & % O . * u.#XlX6X$X#X#X#X#XeX. - & = = & = < < < = < 2 < < = = = = = < < < 4 4 4 5 4 8 r r 9 9 r r Z 9 9 r r Z Z r r S S F Q ^ } } | | | } [ Q G Q Q Q Q { { [ [ [ } } | } | ..o.o.| | { { | | { D D G { T H D T T T T ] | | | G G 7 7X      ",
"        a @ @ @ @ @ @ @ @ @ @ @ @ @ @ @ @ o . a J.eXeX#X#XeXg O % @ @ @ @ @ & & & = & = & # = # & & & & & & = 2 = = < < < < = = < < < < < < 4 < 2 - < < 4 3 r e k H G G G G [ { [ G G H H H H k k c f q e t t 6 1 3 3 3 f e e f k k k k c k D c k v D D D D Y D A k T         ",
"        dX. % @ @ @ @ @ @ @ @ @ @ @ @ @ @ @ @ O . o >.$XVXC.. @ @ @ @ @ @ @ @ @ @ @ @ @ @ % @ @ @ @ % # & & % & & & & - = & & & & & & & & & & = & & - < = & = 4 4 1 4 7 6 q q q e f t e e t c b H H ` ` ] ] ] ` ] ] ] ] ` ` ` ` ` ` H b H b b c c c D G E / / / / > jX        ",
"          oX. @ @ @ @ O @ @ @ @ @ @ @ @ @ @ O O O @ o . u . @ O @ @ @ @ @ @ @ @ @ @ @ @ @ @ @ @ @ @ @ @ @ @ @ @ @ % @ @ % & & & & & = = & & < < < & = = < = & & = ; = - - 1 7 q q q w w w x t x x x x x x x x t f t f w q q q q q q q q q q q q d j A K / 9.7.i.( hX          ",
"            f.. @ O @ O O O O O @ O O O O O O O O O O @ o O @ O O O @ O O @ O O O @ @ @ @ @ @ @ @ @ @ @ @ @ @ @ @ @ & @ @ @ @ @ @ @ @ % % @ @ @ @ @ @ @ @ @ % & & & & = = = = = = = % = = ; ; = y ` x w 1 1 3 3 3 3 1 1 1 1 1 1 1 1 - - 2 2 2 3 3 i A K / #.i.( {.            ",
"              3.. @ O O O O O o O O O O O O O O O O O O O O O O O O O @ O O O O @ O O O @ @ @ O O @ @ @ O @ @ @ @ @ @ @ @ @ @ @ @ @ @ @ @ @ @ @ @ @ @ @ @ @ @ % @ @ @ @ % @ @ % @ @ % % % @ = = ; ; ; ; ; - = - - - ; - - = = = = = = = = = - - - 2 6 i j A , Z.              ",
"                f.. @ O O O O O O O O O O O O O O O O O O O O O O O O O O O O O O O O O O O O O O O O @ O O @ @ O O @ @ O O O @ O @ O @ @ O @ O O @ O @ @ @ @ @ @ @ @ @ @ @ @ @ @ @ @ @ @ @ @ @ % % @ % % % = = = = = % % % = % & % % & = = = = - - 2 3 u X v.                ",
"                  }.. O o o o O o o O o O O o O O O o o O o O o o o O O o O o o O O O O O O O O O O O O O O O O O O O O O O O O O O O O O O O O O O O O O O O @ @ @ @ @ @ @ @ @ @ @ @ @ @ @ @ @ @ @ @ @ % % & = % % % % % % @ % @ % @ @ @ % % % & - - 2 . |.                  ",
"                    sX; . O o o o o o o o O o o o o O o o o o O o o o O o o O o o o o o O O O o O O O o O O O O O O O O O O O O O O o O O O O O O O O o O O O O O @ O O O O O O @ @ O O O O @ @ O O @ @ @ % & % % % % @ @ @ @ @ @ @ @ @ @ @ % % & = O - dX                    ",
"                        ].. . O o o o o o o o o o o o o o o o o o o o o o o o o o o o o o o o o o o o o o o o O o O o o O O o O O o O O o O o o O O O O O O o O O O O O O O O O O O O O O O O O O O O O @ @ % % % % @ @ @ @ @ @ @ @ O @ @ @ % % O . '.                        ",
"                            _.o . . o o X o o o o o o o o . o o o o o o o o o o o o o o o o o o o o o o o o o o o o o O o o o o o o O o O O o o O o o O O o O O O O O O O O O O O O o O o o O O o O O O O @ @ @ @ @ @ @ @ @ @ O O @ @ @ % @ . @ N.                            ",
"                                ].2.O . . . . . o o o . . . . X . o o o o o o o . . o o o o o o o o o o o o o o o o o o o o o o o o o o o o o o o o o o o o o O O o o O O O o o o o o o o o o O o O O O @ O O @ @ O O O O O O O o o . . O 3.].                                ",
"                                      _.j.l.%.B h M M M M m M M m m m M M M M M M M M M M M M M M M M M M M M m M M M M M M M M M M M M M M M M M M M M M M M M M M M M M M M M M M M M M M M M M M M M M M M M M M M M M M M B %.l.j._.                                      "
};
