/* XPM */
static char *e8d8f3797e99465dd9cb014ea62720acWYyVzySr7aHNJha7[] = {
/* columns rows colors chars-per-pixel */
"202 74 255 2 ",
"   c None",
".  c #000102",
"X  c #040609",
"o  c #07090B",
"O  c #090B0D",
"+  c #090406",
"@  c #030413",
"#  c #0B0E12",
"$  c #0C0D1B",
"%  c #060817",
"&  c #0D1116",
"*  c #0E121A",
"=  c #12141C",
"-  c #14181E",
";  c #141319",
":  c #120C1A",
">  c #090B24",
",  c #141522",
"<  c #1A1623",
"1  c #151922",
"2  c #1A1C25",
"3  c #15162A",
"4  c #161B2A",
"5  c #1C1D2A",
"6  c #1A162B",
"7  c #1C1B33",
"8  c #1A1836",
"9  c #0F102C",
"0  c #221D2B",
"q  c #251B28",
"w  c #261D36",
"e  c #220C26",
"r  c #1D212C",
"t  c #1B2128",
"y  c #1E2232",
"u  c #1A2739",
"i  c #22222D",
"p  c #29242C",
"a  c #232433",
"s  c #2A2434",
"d  c #252935",
"f  c #2B2B36",
"g  c #25253B",
"h  c #2C253B",
"j  c #262A39",
"k  c #2B2C3B",
"l  c #332134",
"z  c #32253B",
"x  c #322B3D",
"c  c #38273C",
"v  c #2D313E",
"b  c #2E3037",
"n  c #33323E",
"m  c #39373F",
"M  c #2E292C",
"N  c #251D45",
"B  c #2B2444",
"V  c #2D2C43",
"C  c #2C234D",
"Z  c #282746",
"A  c #332C43",
"S  c #3B2A43",
"D  c #332D4C",
"F  c #3C2C4B",
"G  c #372545",
"H  c #2E3141",
"J  c #2C344B",
"K  c #333444",
"L  c #393543",
"P  c #363946",
"I  c #3A3A45",
"U  c #34334B",
"Y  c #3C324C",
"T  c #363949",
"R  c #3B3C4B",
"E  c #2D2753",
"W  c #342C53",
"Q  c #3C2D54",
"!  c #3A2D5B",
"~  c #352956",
"^  c #3B3354",
"/  c #3C3C53",
"(  c #3D345B",
")  c #363657",
"_  c #293552",
"`  c #3C3562",
"'  c #392D60",
"]  c #1A1946",
"[  c #432D4B",
"{  c #413E4A",
"}  c #42354C",
"|  c #422E53",
" . c #452F54",
".. c #433255",
"X. c #43345B",
"o. c #433A5C",
"O. c #4A375B",
"+. c #52375A",
"@. c #423563",
"#. c #443A63",
"$. c #4C3C63",
"%. c #483D6A",
"&. c #523E65",
"*. c #3E414D",
"=. c #3E4152",
"-. c #27545D",
";. c #3B4563",
":. c #43434E",
">. c #47474C",
",. c #434453",
"<. c #4A4653",
"1. c #464954",
"2. c #4A4B55",
"3. c #45495B",
"4. c #4B4C5B",
"5. c #45445A",
"6. c #524E5B",
"7. c #534D57",
"8. c #4E515A",
"9. c #53535C",
"0. c #59545E",
"q. c #55585E",
"w. c #4A4767",
"e. c #54486A",
"r. c #4C5165",
"t. c #545463",
"y. c #5A5662",
"u. c #565962",
"i. c #5B5B65",
"p. c #5C5C6A",
"a. c #57566A",
"s. c #544A72",
"d. c #5B5575",
"f. c #4C4C72",
"g. c #615C66",
"h. c #625E69",
"j. c #605666",
"k. c #645B77",
"l. c #624F74",
"z. c #5E6167",
"x. c #5E6169",
"c. c #5C6171",
"v. c #63636B",
"b. c #69656D",
"n. c #67686C",
"m. c #6C6C72",
"M. c #686776",
"N. c #726D78",
"B. c #737475",
"V. c #74737B",
"C. c #76797C",
"Z. c #7A787D",
"A. c #6D6F77",
"S. c #482A3E",
"D. c #7B7C82",
"F. c #777784",
"G. c #6E6D89",
"H. c #5F6091",
"J. c #3777DD",
"K. c #2A79DD",
"L. c #1B77DC",
"P. c #4877DD",
"I. c #5271DD",
"U. c #686DDE",
"Y. c #2D788B",
"T. c #827D8A",
"R. c #8177AB",
"E. c #9257DC",
"W. c #9075DE",
"Q. c #A066DE",
"!. c #7E8185",
"~. c #628DA3",
"^. c #348BDA",
"/. c #1584D8",
"(. c #5889DD",
"). c #4F92DC",
"_. c #6589DC",
"`. c #7196DC",
"'. c #73AADD",
"]. c #7488E1",
"[. c #5BAAE6",
"{. c #6CABE6",
"}. c #509CDB",
"|. c #7CC5DD",
" X c #72CBF4",
".X c #828488",
"XX c #898995",
"oX c #96979C",
"OX c #918D99",
"+X c #9B9CA2",
"@X c #9A98A4",
"#X c #9495B0",
"$X c #A6A6AC",
"%X c #ACACB3",
"&X c #B6B6BB",
"*X c #B2AABA",
"=X c #A19BA7",
"-X c #9293D8",
";X c #AC87DF",
":X c #A799DD",
">X c #B194DB",
",X c #92B4DC",
"<X c #BBBBC3",
"1X c #ABAED8",
"2X c #928CE2",
"3X c #AD86E1",
"4X c #AB8BE2",
"5X c #B38DE2",
"6X c #B88CE2",
"7X c #AC98E4",
"8X c #BC91E4",
"9X c #B599E4",
"0X c #95A9E7",
"qX c #ACA5E7",
"wX c #B7A5E8",
"eX c #B4B7EA",
"rX c #B1B1EE",
"tX c #C5B4D4",
"yX c #C596E6",
"uX c #CD8FE5",
"iX c #C7A5E6",
"pX c #D9AAE6",
"aX c #CDB8F0",
"sX c #E6B9E7",
"dX c #E9B2ED",
"fX c #8AC9DD",
"gX c #B7CCDD",
"hX c #BCD2DB",
"jX c #B6D2DC",
"kX c #B8C5CB",
"lX c #B7D1E7",
"zX c #90DFF2",
"xX c #CACACD",
"cX c #C3C4C7",
"vX c #CBCBD6",
"bX c #C6D3DA",
"nX c #D6D6DA",
"mX c #D5CBD7",
"MX c #C9CBE1",
"NX c #D7C5E3",
"BX c #DEDDE2",
"VX c #CDD0F2",
"CX c #E9C5E9",
"ZX c #EACAEA",
"AX c #E5C3E7",
"SX c #F1D1EF",
"DX c #D2EDF3",
"FX c #EBECED",
"GX c #E3E3E6",
"HX c #EDEEF2",
"JX c #FDEAFD",
"KX c #F3F3F4",
"LX c #FEFEFE",
"PX c #F9F4FA",
"IX c #EBF3F8",
/* pixels */
"                                                              cX&XoX.XC.C.C.C.C.C.C.C.C.Z.C.C.C.C.Z.C.C.C.C.C.C.C.C.C.C.C.C.C.C.Z.C.C.C.C.C.C.C.C.C.C.Z.C.B..XoXoXOXoXoXoXoXXXC.C.D.C.D.D.D.D.D.D.D.D.D.D.D.D.D.D.D.D.D.D.D.D.C.D.D.D.C.C.XX+XoXoXoXoXoXoXoXoX+XoXXXXX$X+X.XD..X.XD.XX+X+XoXoXoX+XoX.X!..XD.XX=X=XoXoX+X+X+XoXoXoX+X+XoX+X+XoXoX$XkXcX                                                              ",
"                                                    cXcXZ.>.p X . . . . . . . . . . . . . . . . . . . . . . . . . . . . . . . . . . . . . . . . . . . . . . o n P f f f n I , . . X X X X X X X X . X X X X X X X X X X X X X X . . . . . 2 R n b v n K K K P *.I * . * 2 % % $ % X 2 I R n n K *.b % @ $ @ * k I R :.n t d R K v K P K P *.f $ $ $ * 8..X$XBXxX                                                    ",
"                                              cXoXi.# . X o # = * * * * * * = & & * * * = * * * * = * * * * * * * = = * * = = * * * * * * * * * = * * = * o r 2.8.:.1.:.2.8.b * , 2 2 2 2 2 2 2 2 2 2 2 2 2 2 2 2 2 2 2 2 2 1 1 2 2 1 1 = = f ,.1.1.8.2.2.2.2.u.2.d 2 r r a a a r 2 I x.i.8.8.8.u.1.d 4 r d i t r k I 8.u.8.2.8.8.8.9.8.9.u.*.d k k j R 8.:.v 2.+X&XxX                                              ",
"                                          nXC.# . O & = = * * = = * * * * = * = * * * = = = * * = = * * = = = * = = * = = * = = = = = * = = = * = = = = * O r 2.9.1.1.1.9.8.d * 2 2 2 2 2 2 2 2 2 2 2 2 2 2 2 2 2 2 2 2 2 2 2 2 2 2 2 2 2 2 = * d 4.i.8.8.2.8.i.1.a r d d d d d a r a v :.q.i.i.9.u.q.4.*.K d a a a y r d I 1.8.i.i.9.9.u.i.*.d v v b 1.i.t.9.9.9.k a !.BX                                          ",
"                                      GXz.. o = = * = = = = = = = = = = = = = = * = = = = = = = = = = = = = = = = = = = = = = = = = = = = = = = = = = , = o i 9.u.2.2.1.9.2.i * 2 2 2 2 5 5 2 2 t 5 2 2 5 5 t 5 2 5 5 5 2 5 2 2 5 5 5 2 2 r t * r 8.i.8.9.9.q.i.*.r r d d d d d d d d r 2 5 d I 8.i.z.i.i.i.u.2.*.H j d d a a d v *.4.u.z.i.*.j H k k 2.x.u.9.u.z.2.v 4 $ F.PX                                      ",
"                                  FXC.. o = = = = = = = = = = = - = = = = = = = = = = = = = = = = = = - = = = = = = = = - = = = = = = = = = = = = = = 1 1 * , b 1.9.9.9.q.2.r * 2 4 5 t r r t 5 t t 5 5 t t t 5 5 t r r r r t t r t 5 5 2 t r , d q.x.9.9.9.i.i.P r a d d d d d d d d d d d y 4 2 r n 1.q.v.v.i.z.z.i.9.:.P k j d a a v 2.x.,.k K v K 8.z.u.u.i.x.1.v v k n I &XKX                                  ",
"                                %X# X 1 - - - = = - = = = = = = = = = = = = = = - = = - = = = = = = = = = = = = = - - = = = 1 1 = - , , - - - - - = - 1 1 1 1 1 2 r P 2.v.q.d * 2 t t t r r r r r r r r r r t r r r r r r r r r r r r t r r r , d 9.x.q.q.9.i.q.n 5 d k k d k k d j j d d d d d d d r 2 4 d *.y.x.u.u.i.x.v.i.2.*.2.i.x.v.i.*.v P H P 9.v.i.u.i.z.1.k k k :.v.1.4.nX                                ",
"                            LX9.. - = * = - - 1 1 , = - 1 , = - = = = = - - - - = - 1 - - = = - - - = = = - 1 1 - 1 - - 1 - - - - - 1 1 1 1 1 1 1 1 1 1 1 1 2 r r 5 2 2 n 1.v 2 5 r r r r r r r r r r r r r r r i r r r r r r r r r r r r r r , b u.v.9.t.u.v.8.k y k k k k k k k j j k k j j j d d d d d 2 5 1.x.u.u.u.i.i.i.i.x.x.i.i.n.v.*.v P H R 9.x.u.u.i.z.,.H j j 4.A.v.i.K .XLX                            ",
"                          FX; o 2 1 - = = * = = - - 1 1 1 1 1 , 1 1 1 1 , = - 1 1 1 1 1 , = 1 1 , 1 1 - 1 1 1 , 1 1 1 1 1 1 1 1 1 1 1 1 1 1 1 1 1 1 2 2 2 2 2 r r i a 5 5 b v t r r r r r r a a i r r i r r r a r r i r r i r r r i r r r r y , k i.n.u.u.i.v.2.a a k k k k j j k k k k k k k k k j k d d 4 j 9.v.9.u.i.i.i.i.i.i.n.q.P *.9.1.T P j R i.v.u.u.v.x.*.j k v T *.2.u.x.2.4.PX                          ",
"                        &XX # 1 1 1 1 = = = - - = = = - 1 1 1 1 1 1 , , 1 1 1 1 1 1 1 1 1 1 1 1 1 1 1 1 1 1 1 1 1 1 1 1 1 1 1 1 1 1 1 1 1 1 1 1 1 1 2 2 2 2 5 i a r a r r v v t r a i i r y a a a r y a a a a a a a a y a a r r a a a r r a r , v i.v.u.u.z.v.:.y d k k k k k k k k k f k k k k k k k k j d r K t.v.i.i.i.u.u.i.z.n.9.K v H P R *.*.2.v.n.i.i.z.x.t.,.*.T H k j j K R *.P nX                        ",
"                      &X. - 1 - 1 1 1 = = - , - - 1 1 - = = , 1 1 1 2 1 1 1 1 1 1 1 1 1 1 1 1 1 1 1 1 1 1 2 1 1 1 1 1 2 2 1 1 2 2 2 1 1 1 1 1 1 1 1 2 2 2 2 t i a a a a a d d y a y a a r i a a a a a a a a a a y a a a a a a a a a a a a a a 2 v i.v.u.u.v.v.I y j k k k v k k k k k k k k k k k k k j k k y j q.m.i.i.i.i.i.i.v.v.1.K P R T P K P R *.8.z.n.n.v.z.n.n.v.i.u.8.1.R P K j % xX                      ",
"                    &X. 2 1 1 2 1 1 1 , - 1 , 1 1 = - - 1 1 - - - = 1 2 2 2 1 1 1 1 1 1 1 1 1 2 2 1 1 2 2 2 2 1 1 1 2 2 2 2 2 2 1 1 2 2 2 2 2 2 1 2 2 5 2 2 5 a d a a a a a d d a a a a a a a a a a a a a a a a a d d a d a a d a a a a a d a 4 K z.v.u.u.v.i.K y k v v v v v k k k k k k k k k k k k k k k d k I 9.v.v.i.i.i.z.n.z.*.H R R R R R P P K v v P 1.u.n.n.v.x.i.v.n.v.v.v.i.u.4., vX                    ",
"                  kX. 2 2 1 1 1 1 2 1 1 1 1 1 = 1 1 1 1 - 1 1 1 1 1 1 - 1 1 1 2 2 2 2 2 1 1 2 2 2 2 2 2 2 2 2 2 2 2 2 2 2 2 2 2 2 2 2 2 2 2 2 2 2 2 2 5 5 5 r a d d d d a d a a d d d a a d d a d d d a d a d d d d d a a a a d d d d a a a d y y :.v.v.i.n.9.v a v v v k k k k v v v v k k k k k k v v k k k v r k i.m.z.x.v.v.n.u.T K R R R R I R R P P R P v k H *.2.i.n.v.x.x.z.v.n.n.n.m.R GX                  ",
"                nX. 1 2 2 2 2 1 1 2 2 1 1 1 1 1 1 1 1 2 * = 1 1 1 1 1 1 1 1 1 1 1 1 2 2 5 5 2 2 2 2 2 2 2 2 2 2 2 2 2 2 2 2 2 2 2 2 2 2 2 2 2 2 2 2 5 r r 2 r d d a d d d d d d d d d d d d d d d d d d d d d d d d d d d d d d d d d d d d j d y R n.n.v.n.2.d j v v v v k k v v v v v v v v v k v H v k k k H d K i.m.v.v.v.v.m.8.K K R R R R R P P R R R P P P P k a :.m.v.z.z.v.v.v.v.v.v.n.:.HX                ",
"              LXo # 1 2 2 2 2 2 2 2 2 1 1 1 1 1 1 1 2 O p 2 . # 1 1 1 1 1 1 1 1 1 1 1 , 1 2 2 5 5 5 2 2 2 2 2 5 5 2 2 2 2 2 2 2 5 5 2 2 2 2 2 2 2 2 5 r r r i d j d j d d d d d d d d d d d d d d d d d d j d d j d d d d d d d d d d d d j k d d v P 1.i.A.9.k j H v v v H H H H H H v v v H v H H v v v v v K j P x.m.v.v.v.n.n.1.H T T R R R P T R T R T I P P P K k 2.m.n.z.x.v.v.v.v.v.v.m.i.K LX              ",
"              n o = - 2 2 2 2 2 2 2 2 1 1 1 2 2 1 1 # M dXiX$XI X . = 2 2 2 1 1 2 2 1 2 2 1 1 1 1 2 5 5 5 5 2 2 2 5 2 2 2 2 5 5 5 2 2 2 5 5 5 2 2 5 5 i i r i d k d d j k d d j d d d d d j d d d d j j d d j d d d d d d d d d d j d d d k k k v H k j k R R K k K H H K K K H K H K K H K K H K n K H v v v K j R v.m.z.v.v.m.z.*.K R R R R R T T R R R R T T R I I P K R 9.v.n.v.v.v.v.v.n.m.u.K n.              ",
"            oX. - = , 0 0 5 0 2 2 2 2 2 2 2 2 2 2 2 . mXSXE.JXJXmXF.t . # 2 2 2 2 2 1 2 1 2 2 2 1 1 1 1 2 5 5 i i 5 5 2 5 5 5 5 5 5 5 5 5 5 5 5 2 2 5 i i r i d k j k k k f k f j k k j j k d d d d d d k k d d k f d d k k k k d k k j j k k k k K K K K k k K K K K K K K K H H K K K K K K K K H v K K n K K j R n.A.v.z.v.m.u.P K R R R R R R R R R R R R I R R I I R v K i.B.n.v.v.v.v.m.n.4.,.a <X            ",
"          FX. 1 = = - 2 0 5 2 2 5 0 0 2 2 2 2 2 5 . T.JXSXQ.iXsXSXJXJX*X9.& . # 2 2 2 2 2 2 2 2 2 2 2 2 2 1 1 2 2 5 i i i 5 2 2 2 5 r i r 5 5 5 2 2 i a i i i a k k k k f k f d k k k k k f k k j d k k k k k j j d d j k k k f k j j k k k k k v K K K K K K K K K K K K K K K K K K K K K K K K K K K K K K K v P 9.v.v.v.n.n.4.K I R R R R R R R R R R R R R R R I I R P R u.m.n.v.n.n.n.m.i.1.,.1.f KX          ",
"          I O = - = , 0 i 0 0 0 0 0 5 2 2 2 2 2 # b LXAXSXiXQ.SXsXsXsXSXJXZXOXP . o , 2 2 2 2 2 2 2 2 2 2 2 2 2 2 1 1 2 5 i i i 0 2 2 r 5 5 5 i r 2 i i i i p d k d k k k k k k k k k k k k k k k j k k k k k k k k k k d k k k k k k f k k k k v K K K K K K K K K K K K K K K K L K K K K K K K K K K K K K K P P K K K 1.m.m.,.K R R R R R R R R R R R R R R R R R R *.T P u.m.n.n.n.v.n.m.t.,.1.1.R V.          ",
"        cX. , = = = , 0 i 0 0 i i 0 0 5 2 2 2 2 X BXSXCXCXSXE.pXdXdXsXsXCXCXJXJXtXm.- . # 5 5 2 2 2 2 2 2 2 2 2 2 2 2 2 2 2 2 5 i a i r r r 5 r i i i i i i a j k k k d d j k k k v k k k k k k k k k k k k k k k k k k k k k k k k k k k k k k v K K K K K K K K K K K K K K K K K K K K K K K K K K L K K K T P R R R K *.m.B.1.K R R R R R R R R R R *.R *.R R R R R *.R R y.m.n.v.v.v.m.n.4.:.1.1.1.a BX        ",
"        M * = 1 , = , 0 s 0 0 i i i i 5 2 2 5 . OXJXAXCXCXSX8XQ.sXdXdXsXsXCXCXAXSXJXSX=X1.O o 1 2 2 2 2 2 2 2 5 5 2 2 2 2 5 5 2 2 p s s p a i 0 r i a a p i a k k k k k k j d k k k k k k v k k f k k k k k k k k k k k k k k k k k k k k k v v K K K K K K K K K K K K K K K K K K K K K K K K K L K K K K K T R R R R R R R ,.,.R R R R R R { { R R R R R R R R R R R :.R R i.B.n.n.v.n.m.i.,.,.1.1.1.:.p.        ",
"      cX. 1 = = 1 = , 0 s i 0 i i i i 0 2 2 # I LXAXCXCXCXZXSXE.pXpXdXdXsXsXsXAXCXCXsXSXJXNXT.p . # 2 5 2 2 5 2 2 5 5 5 5 5 2 2 0 s s s s s s p a i i a a i a k k k k k k k k k k k k k k k k A v k k k k k k k k k k k k k k k k k k k k k v v K K K K K K K K K K K K P K K K K K K K K K K K K K K K K K K T R R R R R R R R R R R :.*.R R *.*.R R :.R R R *.{ { R { ,.R R 4.y.i.v.v.n.m.9.R { { { :.<.i GX      ",
"      2.# - , , , = 2 a s p i i i i a 0 2 2 o GXSXCXCXCXCXCXFXW.Q.pXpXpXpXsXsXsXCXAXAXsXsXAXJXPXtXb.= 1 0 5 5 5 5 5 5 5 5 5 5 2 0 s z s s s s s s a i a a i a k k k k k k k k k k k k k h k k k k k k K K x k k k k k k k k k k k k k k k n K x K I R R K K K K I I I I I I I I P P P P P K I R I T K K K K K K T R R =.{ { { { ,.{ ,.,.,.,.:.,.,.,.,.:.,.:.:.:.:.,.:.:.,.1.:.R R R R 1.u.x.8.4.p.c.c.p.r.=.p.      ",
"    xX. 1 = - 1 1 = 1 a s a s s s p s i 5 . @XJXCXCXCXCXCXCXZXNXU.pXyXiXpXpXpXsXsXsXAXAXAXNXNXNXSXLXxXX 0 0 0 0 5 5 5 0 5 5 5 2 i s z s s s s s s a a a a a a k k k k k k k k k k k k k k h k k k k k k k x K K K x k k k k x k k k k k x x n n K R I I R R R R R R I I R R R R R I R R R R R R R K I 2.<.{ <.<.:.,.<.<.,.,.,.,.,.{ ,.,.<.<.<.<.<.<.<.<.2.2.2.2.2.2.2.2.1.:.q.m.n.v.m.C.D.!..X.X!.C.C.C.D.F.u.GX    ",
"    .Xo = = - , 1 = , i s a a a a s s i # I LXAXZXCXCXCXCXCXCXSXE.W.9XyXyXyXiXpXpXsXsXsXsXNXNXNXMXbXLX8.: 5 r 5 5 5 0 0 5 5 r 2 i x x s s s s s s s a a a a a k k k k k k k k k k k k k k k k k k k k k k k h k k K K K K k k k k n n k n K K n K R I I I I I R { { { { { { { { { { { R I I L I :.:.9.m.g.0.0.0.y.j.y.0.i.j.0.7.7.9.9.6.<.<.<.<.<.<.<.2.<.<.<.1.2.1.2.2.2.<.9.m.m.v.v.m.V.C..X.X.X!.C.B.C.C.v.cX    ",
"    i = = = 1 1 1 , , i h s s s s s s 0 O GXSXZXCXCXCXCXCXCXZXaX2XU.2X4X6X8XyXyXiXpXpXsXsXNXNXNXMXMXFX*X. i 5 5 5 5 5 0 5 0 0 2 0 x x z x z s s s a a a s a a k v k k k k k k k k k k k k k k k k k k k k k k k k k k k K L K L K n n x n K L L I R R I R R I L L { { :.:.:.:.R I R L :.2.9.i.0.0.h.b.j.7.2.0.y.0.y.0.9.y.i.y.y.i.y.0.y.g.y.y.y.y.y.0.y.t.9.6.<.4.6.1.<.4.4.1.,.,.,.,.*.R 4.a.r.3.3.3.1.8.t.,.4.    ",
"  <X. - = 1 1 , 1 , 1 0 z s s s s s h . @XJXZXCXCXCXCXCXCXCXsX-X`.Q.P._.2X4X4X5X9XyXpXpXaXNXNXNXMXMXhXPXf < 5 5 i i 0 5 i i 5 2 i x S x z x x f s s 0 2 0 f s k k k k k k v k k k k k k k k k k k k k k k k k k k k x x x k x K K L L n n L I n < 0 { { { { x { L n { I n L { <.<.0.b.b.j.y.g.g.0.0.i.i.9.2.0.h.i.9.u.i.i.v.b.b.v.h.h.i.9.9.y.h.y.0.g.b.g.g.h.h.g.y.g.h.g.9.t.h.p.y.6.t.t.4.<.<.4.4.4.4.3.3.4.k vX  ",
"  .Xo = = , , 1 1 , 1 a z z s s s s , 1.LXCXZXCXCXCXCXCXCXCX:X_.}.W.U.L.J.I.].2X4X5X9XiXiXaXMXMXMXMXhXIXOXX i 0 0 r r 5 i i 5 5 s A S x x x x h s a L <.R a a k v k k k k v k k k k k k k k k k k k k k k k x x x n x x n n n n n n L L L L n <.nXxXL { { i OXLXLXv.n :.7.g.b.g.j.y.0.9.7.7.6.g.v.i.0.6.g.b.v.g.v.h.g.g.v.v.g.g.v.v.v.i.i.i.u.g.v.v.v.h.g.i.h.v.y.9.i.i.u.y.i.v.h.y.i.b.b.h.h.h.p.i.t.t.6.9.8.R %X  ",
"  2.# , 1 , 1 1 1 , , 0 x z s s s s = BXSXZXZXCXCXCXCXCXZXiX_._._._.Q.J.K.J.J.P.(.].2X9XwXeXgXMXMXMXMXbXBX= i i i 0 i 0 a 0 5 5 s S S A x x x h h % &XLXnX@ a k v k v v k k v k k k v k k k H H x k k x x n n n K n n n n x n n L L L I L L n 7.LXKXf n n 0 BXLXLX$X:.j.v.b.9.7.y.v.b.g.i.g.u.7.9.0.y.h.v.0.0.h.g.h.h.y.y.i.v.b.h.y.i.i.i.v.v.g.i.i.h.g.y.i.v.h.g.i.i.h.i.i.h.i.i.b.m.v.i.i.v.v.v.y.p.h.a.y.p.4.XX  ",
"  # 1 - , 1 1 1 1 1 2 s x z h h h @ =XJXCXZXZXZXCXCXCXZXsX]._._._.).E.E.P.J.J.J.J.J.J._.2XqXeXgXbXMXMXhXIXv.# i i 0 a a i a a 5 a S Y S A x x x h $ %XLXxX% d k H v k k H v k k V v v k k n n x n n n n n n K n n n K n n n K L L L L I I I k :.LXHXL <.i.7.oXLXKXm.9.v.v.v.i.y.y.i.i.v.v.i.9.9.y.p.h.v.v.y.9.i.i.i.i.g.h.g.i.v.g.y.g.n.b.v.v.n.h.h.v.y.y.n.b.v.v.v.i.i.h.y.i.n.m.h.9.i.m.v.v.p.y.v.b.p.y.a.a.h.1.  ",
".X. 1 - 1 , 1 1 1 1 , a x h h h 6 6.JXsXZXCXZXZXCXCXCXCX:X(._._._.(.1XW.U.I.I.P.J.P.K.L.K.(.0X,XgXhXMXhXVX1X@ a a a i a a a a 5 a F Y A A A x x x $ %XLXxX% a k H v H v v v K k k K K n n n n n n n K n n n n K n m m L L m L I I m n L I { { h.LXKXy.g.i.g.9.i.9.9.u.i.i.9.9.i.v.i.i.y.9.v.v.p.i.9.9.i.y.6.t.h.y.4.6.b.m.v.y.t.h.m.v.y.i.h.i.p.n.v.v.v.y.y.v.b.v.y.i.b.v.v.m.i.y.v.b.p.y.n.b.v.i.y.i.v.h.p.y.p.1.oX",
".X. = 1 1 = - 1 1 , 2 a x h h h , iXdXsXZXZXZXCXCXCXCXiX(._._._.P.,X0XuX6X2XU.P.I.I.J.K.L.^.).{.,XfXgXgXgXDX,.< a s a s a a s a s Y Y A A A x x h $ %XLXxX% a k K n v K n K K s , $ % : 5 n K n n n n m n s 2 = - < f m n b f f n :.2.:.R :.9.V.LXKXb.B.B.B.m.u.v.m.m.b.v.p.1.y.4.R I K K 4.p.h.y.y.v.h.t.<.R R R { 2.t.y.p.y.i.v.7.1.i.n.v.h.y.h.v.u.y.p.y.y.i.v.v.i.y.t.u.i.n.x.y.p.v.n.n.p.y.p.p.v.p.t.r.t.u./ +X",
".XX , 1 1 1 , , 2 , , a A h h s Y aXpXsXCXZXCXCXCXZXsX`.(._._.(.`.,XuXyXyXuXuX4X].I.I.P.L./.).`.'.|.fXfXgXlX#X% g a g a s a a s h Y } S S A A A x : %XLXxX% f n L n k k k n < <.oX&X<X$XD.5 s L I I K s s m.+X&X%X$Xh.h 4.y.v.v.m.v.n.oX%X&X=XOXLXKX9.y.n.v.V.oXOXk.p.a.a.a.XXD 4.oX&XvX&Xv.K t.r.a.t.4.k A.&XxXcX%X+XF.t.p.y.y.v.h.t.a.p.n.v.v.y.t.u.v.i.u.p.n.n.p.h.v.i.u.x.m.n.p.p.p.p.p.v.p.u.a.y.t.a.a.a.t.R $X",
"n.@ 1 , 1 1 1 1 2 , , a A h h < H.aXiXpXsXZXCXCXZXsX-X)._._._.I.,X3XuX8XyX8X8XyXuXyX2XU.I.P.).}.'.'.|.|.|.fXzXk 5 s s s s s s w h F F Y I I L L S 0 *XLXvXs { I I :.2.2.6.K .XLXLXLXLXLXLXGX2.,.1.9.i.OXPXLXLXLXLXLXLXcXv.V.V.m.y.D.KXLXLXLXLXLXLXKXm.n.n.y.XXLXLXr.5./ U M.LXOXPXLXLXLXLXLXF.U t.4.4.T $XLXLXLXLXLXLXLXnX*.4.t.y.p.v.p.u.t.h.v.a.4.t.v.v.p.y.a.a.u.y.a.p.p.p.a.a.a.a.a.r.r.r.t.a.t.r.r.t.4.4.4.,.XX",
"u.$ 2 2 1 1 2 2 2 2 2 s A A A < -XwXwXiXsXCXZXZXCXwX).(.(._.P.,X:XuX8XyXyX8X8X8X6X6XyXyX4XW.U._.`.'.|.fXfX|.zX~.c 4.9.6.t.t.y.p.p.h.h.t.4.a.t.Y K 5 &XLXnXK 4.1.,.1.<.,.R <.LXLXD.:.:.v.GXLX&XR v.9.t.D.nX$XD.V.D.nXLXLXA.v.n.i.1.FXLXvX.X.XXXcXLXKX/ 1.5.=.F.LXKX4.a.b.t.V.LXLXGXD.m.V.nXLXHX4.a.p.r.M.LXLXXXp.p.M.vXLXFX/ t.a.a.t.r.r.r.r.t.t.t.r.4.4.r.4.4.r.r.4.3.r.3.3.r.4.4.4.4.4.4.4.4.4.4.4.4.4.4.4.4.4.,.D.",
"2., 2 5 5 5 5 5 5 5 2 s S A s / aXiXwXiXpXsXZXZXpX).).(.(.(.`.1XuXyXyXyXyXyXyXyX8X8X8X8X8XyX8X4XqXqX,X,X|.|.fXzXJ U R U V V V h A ^ ^ F S A A K L , %XLXxX: f f k k f f i OXLXxXs t.m.u.D.LXKXi.n.m.m.v.4.6.y.v.t.9.PXLXXX3.4.U p.LXFXy H H 9 a.LXHXK / =.V M.LXKXT R R K v.LXLX4.k 1.L 9.LXLX9.9.t.:.%XLXcXK y.y.K +XLXFXi.m.m.n.v.p.p.x.a.a.t.r.t.a.r.3.3.3.3.3.3.3.5.5.3.4.r.4.4.4.4.4.4.4.4.4.4.4.4.4.4.4.4.1.V.",
"1.2 r r 5 r r r r 5 5 g A h < #XaXiXwXwXpXsXCXsX-X^.).(.(.(.1X4XuXyXyX8X8X8X8X8X6X6X6X6X5X5X5X9XiXNXnXMXgX,X'.zX~.e V A A A A S Y Y Y L L S S n x : $XLXxX: n { 1.9.v.h.,.cXLXcX0.m.n.y.A.LXPXm.n.m.m.n.n.m.V.p.3.U GXLXF.9 J u F.LXnX7 T T Z G.LXHXU / =.H M.LXKXR R / U h.LXKXR R R R R LXLX6.K R a &XLX%Xa R :.g $XLXGXR 9.8.4.9.y.v.p.x.p.p.x.v.p.p.x.x.a.p.v.x.p.p.a.r.3.4.r.8.8.4.4.4.4.4.4.4.4.4.4.4.4.4.4.N.",
"1.4 t r t t 4 4 4 4 4 g V B $ 1XpXiXwXwXiXpXdXqX^.).).(.J.0X:XuX8X8X8X8X8X6X6X6X6X6X6X6X5X5X9XwXaXvXbXbXbXbXgXlXr.w x A A A x x S A x s x L L K R L &XLXnX0.V.Z.V.Z.V.m.9.xXLXxX0.m.m.v.D.LXLXM.r.,./ =.5.3.R g 9 % GXLXF.u U y XXLXnX7 T T g A.LXHXK / =.V M.LXKXR T / U p.LXKXR T R T / LXLXt.K R a cXLX%Xk ,.,.k $XLXGXH 1.1.1.1.,.,.=.=.*.,.,.,.,.,.1.4.4.4.2.1.1.1.1.1.3.4.4.4.4.4.4.4.4.4.4.4.4.4.4.4.4.4.1.A.",
"2., 4 4 4 4 4 4 4 , 4 y B h 6 a.SXiXwXwX9XiXqX}.^.^.).^._.qX6X8X8X8X8X6X6X6X6X6X6X6X5X5X5X5X9XiXvXbXhXhXjXjXbXbXe x x x x I <.<.<.a.v.v.v.m.V.Z.D.b.xXLXnX,.4.v.V.m.m.N.4.cXLX&XU u.,.Z 3.LXLX/ Z J J V > V t.M.F.F.HXLXF.7 K 7 XXLXnX7 U U g A.LXHXK R R V M.LXKXR T R K p.LXKXR U R U R LXLXt.H R 7 vXLX%Xg =.=.a $XLXGXV ,.,.5.,.,.,.,.,.,.,.,.,.,.,.,.,.,.1.,.,.,.,.1.1.1.4.4.3.4.4.4.4.4.4.4.4.4.4.4.4.4.4.1.V.",
"u.* , 2 2 4 4 , 2 , 2 y g g g * iXiXwX9X9X0X{.}.^./.).^.:X3XyX8X8X8X6X6X6X6X6X6X5X5X5X5X5X9XwXtXbXbXhXhXjXjXDXA.< k s K <.4.t.v.y.4.4.a.p.h.h.y.t.R <XLXmXk R 4.8.,.T J 9 kXLX%X> V J j 3.LXLX=.V H H y <XPXLXLXLXLXLXLXF.4 K 4 OXLXnX4 K K a A.LXHXK R R V M.LXKXT T R K p.LXKXR T R U R LXLXt.K R 7 xXLX%Xa R R g $XLXGXH ,.,.,.,.,.,.,.,.,.,.,.,.,.,.,.,.,.1.,.,.1.1.1.1.1.1.4.4.4.4.4.4.4.4.4.4.4.4.1.4.4.4.=.F.",
"n.% , 2 2 2 1 1 2 , , 5 a s g $ G.SXwX9X0X{.{.`.^././.-X;XyX6X6X6X6X6X6X6X6X5X5X5X5X5X5X9X9XtXbXbXhXhXhXhXjXDXK a a s a 7 5 6 5 a k h a a a a a a @ $XLXcX@ y y d j k v > &XLX%X> V V g 1.LXLXR j V > &XLXLXXXu.4.K GXLXF.4 v , +XLXnX3 v H y M.LXHXk K U j v.LXKXK K T k u.LXKXK K T K R LXLX4.k T 3 vXLX%X7 T T 7 +XLXGXj R R R / R R R R R R R R R R R R R R R R / =.*.R =.,.,.,.=.,.,.,.,.,.=.,.,.,.,.,.,.=.K .X",
".XX , , 1 , , 1 1 1 1 5 a a y y 1 sX9X7X'.[.{.'.}./.^.>X6X5X5X5X6X5X6X5X5X5X5X5X4X4X4X5X9XwXvXbXhXhXhXhXjXlX1X@ 7 7 y y 5 5 5 5 7 g g s a a g g g @ $XLXcX@ a a a a a a @ %XLX%X@ a a 4 R LXLXK 5 a 4 FXLXM.. , 4 # GXLXA.* d % XXLXnX$ d j , x.LXFXa k k 5 p.LXKXj k k a 9.LXKXk k k k n LXLX1.a k > <XLX$X, H H , +XLXBX7 K K K K K K K K U K K T K K K U K K P K K K T T R R R R R R R R R R R R R R R R R R a @X",
"!.. , , = = = , , = , 2 5 5 5 5 X T.dX0X{.[.{.'.`./.-X3X5X3X3X3X3X5X5X5X5X5X5X5X4X4X5X9X9XtXbXhXhXhXjXhXgXDXG.@ 5 5 5 5 g D ! ! X.@.@.@.( @.%.%.@.N *XLXvXN ( #.@.@.( ( ] *XLX*X8 W D B 5.LXPXU Z Z V PXLX5.8 k g 9 GXLXV.> g > .XLXnX$ j j 3 p.LXFXy k k 5 p.LXKXj j k y 4.LXKXk a k k H LXLX1.a k > %XLX+X, k v > oXLXBX5 K K K K K K K K K K H v K K K K K H K K K K K K K T T T R R R T R R R R R R R R R R 7 OX",
".XX = * * * = = = = = 2 5 5 5 5 5 p VX'.[.[.{.'.`.].;X6X3X3X3X3X3X3X3X3X3X3X3X4X4X4X5X9XiXbXhXhXhXhXhXhXhXDX- 0 i i t s X.s.s.s.d.l.l.s.e.d.M.M.k.w.tXLXmXN @.e.w.#.#.f.E =XLX<X] ` ( C f.LXKXD D E Z HXLXf.8 Z V > FXLXG.9 g 3 M.LXnX% k j $ x.LXHXy k k 6 p.LXHXa a k y 4.LXKXj d k d k LXLX,.y k , OXLX<XX 4 3 X nXLXBX7 K K K K K K K K U k a K y R K T y U y V U T j g H g R T T T T T R R R R R R R R R R a OX",
"  o * * * * * = = * = 2 5 2 2 5 5 . ~.{.[.[.[.'.-X4X9X4X4X4X3X3X;X3X3X3X3X3X3X3X4X5X9XwXvXbXhXhXhXjXhXgXIX4.; M M M p Y l.G.D.F.V.F.D.V.N.Z.T.Z.F.b.xXLXGXG..XOXXXXXT.k.a.G.LXKXf.( W N $XLXnX] ` ) ] BXLX=X9 8 > G.LXLXG.9 Z 8 5.LXPXU % > $ nXLXFX7 k k 4 y.LXKXa a j 5 4.LXPXa a j a k LXLX,.a k y ,.LXLX+Xn.M.<XLXLXBX7 K U K K K K K K k 1.KXLX+X6 K 4 &XLXFXU H j a.KXLXOXa T U T T T U U U K K T U T T R a   ",
"  >.o * & & * = & * = , , , , , 1 : u  X}.[.[.}.2XwX7X7X7X4X4X4X4X3X;X;X;X;X3X3X4X5X9XtXbXhXhXhXhXhXhXDXoX+ M M M M M Y e.k.b.b.b.N.V.N.N.Z.Z.Z.Z.b.nXLXLXLXLXLXLXLXPXb.F.h.BXLXLXGXnXHXLXLXG.w.f.f.! #XLXLXGXmXGXLXxXLXF.9 Z Z > nXLXLXnXvXKXPXnXPX7 k k 3 p.LXPXa a k 5 8.LXPXa a j g k LXLX1.7 k V > OXLXLXLXLXPXcXLXBX3 V V V H K K K K 7 D.LXLXGX> V , KXLXLXx.a 3 OXLXLXnX3 K K K K K K K K K K K K K K k A.  ",
"  .X. * * * * * * * = , 2 2 2 2 2 2 + }.[.[.}.].wXeXwXwX9X7X7X9X5X4X;X;X;X;X3X3X;X5X9XbXhXhXhXhXhXjXbXbX# q q q p p p z F $.&.&.e.d.l.l.l.k.M.N.N.h.$XnXxXxXxXvXvXnXtXb.N.N.v.&XFXPXPXKXnXF.a.k.a.f.f.) =XHXPXPXFXXX9 vXG.C W _ Z Z mXKXPXPXnXU 5.vXg Z k 7 4.nX<Xg g g 7 R nX<Xg a g a k vXvXR 7 j k V 9 4..X.XN.w M.LXBX3 V K A D U U K K h 5.FXLX+X3 A 3 <XLXFXK V g t.PXLXOX6 K K K K K A K H H H H K K K 6 @X  ",
"  &X. * * * * * * * = , , , , , , < + -. X}._.7XeXeXrXeXrXwXwXwX9X7X7X>X;X4X3X;X;X>XtXhXhXjXjXjXhXgXIXL : 0 0 0 w w s z G F F F F | ..X.O.O.&.e.s.d.w.....4.i.i.y.0.y.N.m.N.V.y.h.V.V.N.g.B.D.V.V.V.N.M.t.p.M.f.! ! f.] E ` ) ) ) E 9 Z E Z > N ] > V V V V 8 @ % Z j g j 7 X @ g g k j g @ % g V V V V D w 3 3 8 8 T.LXGX8 U U U U ^ U D V V g 7 k 6 V A U g U 7 g V k 7 7 g 5 K K K K K K H V k j d d k k k $ cX  ",
"    2 # * * * = * * - < , = 1 < - , , O [.).4XeXeXrXrXrXrXrXwXwXwX9X7X7X7X7X4X5X>XwXhXgXjXjXjXjXgXIXF.. 5 6 5 0 w w w h B G G G G G z z G F | ..O.X.....X.$.e.d.k.M.b.M.N.Z.Z.V.N.m.m.N.B.V.V.V.V.V.V.N.N.N.M.M.d.d.d.d.d.d.f.w.w.w.%.` ` ` ` ` ( ) D Z Z Z Z Z Z Z g g g g g g g g a a a a g g Z V C D N N W ^ ^ > XXLXBX3 D D W ( ( o.( ) D D C Z V D ^ ( ^ ^ ^ U U U V k k V V V V V H H H V H K K K H k k T     ",
"    D.. = * = = * ; - 1 1 - - 1 1 1 1 + Y.0XqXlXeXrXrXrXrXrXrXwXwXwXwX9X7X7X7X9X9XMXgXgXjXjXjXjXDXgX> C N w w N N E E ! ! ~ ~ ~ G G G B G G F F Q | | | | X.$.$.e.e.e.e.d.M.M.k.k.M.D.D.F.F.T.T.D.F.D.D.F.V.V.M.d.d.p.v.M.M.d.d.d.a.f.w.#.` ) ) ) W W W ) W D C Z B g g w w g Z B D C B B C B D W ^ ^ D G.G.( ~ ~ w.FXLXxX~ f.f.f.f.d.d.d.d.s.f.w.w.@.@.e.e.w.#.#.( ( / ) U U U D D A A H V A K V V V V V V 3 @X    ",
"    cX. * * & & & = - - , , , - - - - # - aXVXeXeXrXrXrXrXqXrXwXwXwXwXwX9X9X9XwXtXgXgXjXjXjXhXjXIX@.E @.%.! ~ #.s.w.w.s.s.e.%.%.@.~ N g B B B B W Q Q ~ W Q Q Q Q Q Q Q ( %.s.s.s.d.k.d.a.t.t.t.t.d.A.F.F.F.V.M.d.p.p.p.v.d.d.k.M.G.k.d.d.d.f.s.s.f.w.%.%.%.#.@.( ( ( W C Z Z D ( %.@.@.#.#.#.w.s.s.s.( PXLXLXKXKXLXLXLXF.d.M.k.k.M.M.M.k.d.a.s.f.f.%.%.w.w.%.#.#.@.@.( ) ) ^ ) ^ U ^ U U U U U D V V V V V % vX    ",
"      n o # # # # * = = = = = = = = = = o ; d.-XaXVXrXqXqXqXqXqXqXqXqXqXqXwXwX9X1XeXgXgXgXgXgXIXG.8 ! ! W C C ( o./ o.5.w.w.w.%.%.! B N B B w B C ~ ! ! ! ! ! ! ! ! ^ Q D ^ X.X.( X.#.$.$.o.o.^ ^ o.5./ ^ ^ / o.5.5.3.4.4.4.5./ ) / / ) / / / o.5.5.o./ / / / ( ^ ^ ( W D C C W ( @.X.( X.o.o.O.o.o.X.( $.OXvXGXFXGXxXk.C #.#.o.( X.o.o.( ( ( ^ ^ W ^ W D D D D D D D A A V V V V V V h k k k s s g g g a 5 p.      ",
"      cX. # # # # * = = = = = = = = * * * # X . u H.qXVXaXqXqXqXqXqXwXwXqXqXqX9X7X7XwX1XeXgXVX1XX 6 7 8 8 8 8 8 w N N N N C E C C N w w N w w B ~ ! ! C C C B Z ! @.%.f.%.%.#.W C ! s.d.d.s.f.%.%.s.s.f.%.%.f.f.s.s.d.M.G.k.d.s.s.d.d.d.d.d.d.k.k.k.k.k.k.k.s.s.e.e.%.@.( ! ! ! @.@.` ` @.@.@.@.@.@.@.#.( E N ~ ! E 8 W O.X.X.o.o.( ( X.( ( X.( ^ D ^ ^ D D ^ ^ ^ Y Y D D D Y D D A A D D D D A A A V h V % vX      ",
"        M O # # # # # # & = = = * * # * * # * # # . o ) R.rXaXwX7X7X7XqXqXqX9X>X:X:X:X7X:X1XDX< # = = = * * , , = , 3 7 8 8 7 6 6 6 < , , , , 6 5 8 8 7 7 6 7 8 w B C C C C Z N B C E ' ` ' ! ~ ! ' ` ! ~ C E ~ ! ! @.%.%.@.` @.@.#.@.@.#.%.&.e.s.d.l.k.k.d.l.l.e.%.X.( D D D C D W W ~ W ! ( Q Q X.( Q Q ! ( X.( ( #.$.$.O.X.#.$.X.O.%.$.$.$.$.O.O.....X.O.X.$.&.&.$.O.X.O.O.$.O.$.$.O.o.Y A h h A A A a x         ",
"        kX. # # # # # # # # = = $ # & * # # * * * * = o . , d.-XaXaX7X:XqXwX>X:X:X:X:X:X:XaXl.. = = = = , , = , , , 3 3 3 3 3 < < < , , , , , , , , , , , , 3 3 3 7 8 8 8 8 7 7 7 8 N C C Z B B B C C Z N w N B N N C C E E C C ~ ! ~ ~ Q X.X.X.X.$.&.e.e.&.e.&.O.....Q F Q Q Q Q Q Q Q Q ..X...^ ......Q ^ ..| ..X.O.O.O.O.X.X.O.O.$.&.&.e.&.+.O.........X...Y S h h S F Y S A h h A Y ....Y h g h S F % nX        ",
"          m X # # # # # # # & * & # # # # # # # $ # # $ * # . . y H.wXVXaX>X:X:X:X1X:X:XqX:X. * * # * $ & * * * = = = * * * = = , , = = = = = = = = = = = , = = , , , , , 4 4 3 3 7 7 7 7 6 3 7 7 7 7 8 7 3 6 7 7 8 8 7 7 5 3 3 6 7 w w B G D ~ Q | |  . .X.X. .| | Q Q | F F F F F F | ....| | | | | .. .O.O.O.O.O.............| F F S S F Y ..F S h h G F ......} F F F ..+.&.e.e.e.&.+.O.O.O...^ Y w a.          ",
"          GX. # # # # # # # # & # # # # # # # # # # # # # # # # o . o / #XaXaX7X:X:X:X:XVX- o * * # # # & # # # & * * * * * * * = = * $ $ * * * * * * * = = = = * , , , * * , , = , , , , = = = , , , , , , , = , , , , , , = , , , , 5 5 w w w B G G G F F F F F |  ...| | | | | | F F G G h h h z h 0 6 6 6 0 0 0 2 = * * = = = 2 s h 0 0 0 s s s h h h z s s 0 s s s s g h x x h h A A K K V V k s % KX          ",
"            XX. # # # # # # # # # # # # # # # # # # # # # # # # # # # X . - k.>XaXaX-XVXd.. # # # # # # # # # # # # # # # # & & # $ * * # # # # # # & & & & * * * & & * * * * = = , , = * * = = = = , , , , = , , = = , , , = * = = * = , , , , , 5 5 0 w w w w w w s w w s w 0 6 6 6 0 0 w s s s s z z c S [ [  .[  . .+.+.+. . . .[ [ [ [ [ [ S S S S S S S S c x z h h s h x V A A A K H V V V j @ @X            ",
"              f X # # # # # # # # # # # # # # # # # # # # # # # # # # # # o . . k R.VX-X. # # # # # # # # # # # # # # # # # # # # # # # & & # # # # # & & $ * & * * = * & * * * * * * & & & & * # & & # & * * * * = , = * * = , , 3 , , = , , 6 6 6 , = , , < 6 6 6 6 0 w z c S S S G c c c c S S S S [ [ S [ [ S S c c S S c c c c c c z z c c z z c z l l l l s s s s s s h A D U / w.=.=.w.;.;._ f.              ",
"              LXo o # # # # # # O O # # O O O # # # O O # # # # O # # # # O # # X . - o O # O O O # # # # # # # # # # # # # # # # # # # # # # # # # # # # # # # # & # # # & & & # # * * * $ * * $ $ , , , = * * , , , 3 , , * * * = , = = * * * = = - , , < , , < < < < 0 0 0 q q q w w w w l l l l l l l l l l l l l l l l l s s w q q q q q q q q 0 0 q 0 q q 0 0 0 a s g B V J J ) w.r.w.;.f.r._ LX              ",
"                nX. # O # O # # # O O # # O O O O O O O # O # # O O # # O O O O # # o o O O # O O O # # O O O # # # # O O # # # # # # # # # # # # # # # # # # & & # # # # $ * * $ # # * = * * * # # & * * * & & # # # # # # # # # # # # & & & & * = * * = = * = = = = = = = = = ; = - q q q q q l l l l q q q q q q q q q q q < < < < < < < < 2 2 2 < < < < 1 < , , 2 5 5 y j V J _ ) ;.f.f.f.f._ HX                ",
"                  cX. # O O # # O O O O O O O O O O O O O O O O O O O O O O O O O O O O # O O O # # O O O O O O O O O # # O O # # # # # # # # # # # # # # # # # # & # # # # # # # # # # # # # # # # # & # # & # # # # # # # # # # # # $ & & & & & * * * = = = = = = = = = = = * = = * * : ; ; : q S.S.q q < - < < < 1 1 < < < < 1 1 < 1 < - - - , , , - - - - - 1 , , 2 2 5 y y j J J _ ) ;.;.> MX                  ",
"                    %X. # O o O O O O O O O O o o O O O O O O O O O O O o O O O O O O O O O O O O O O O # O O O O O O # # # # O O O # # # # O O O O O # # # # # # # # # # # # # # # # # # # # # # # # # # # # # # # # # # # # # # # # # # # # # # & # # # # & # # # # & # # & * & & & : * = ; ; - ; ; - - ; ; - ; ; ; - - - - ; ; - = = * = = = = = = = = = = * * = = * = 2 2 5 5 y g j Z V @ <X                    ",
"                      &X. o O O O o o O O o o o O O O O O O O O O O O O O O o O O O O O O O O O O O O O O O O O O O o o O O O O O # # O o O O O O O O # # # O O O # # # # # # # # # # # # # # # # # # # O # # # # # # # # # # # # # # # # # # # # # # # # # # # # # # & # # # # # # & # # * : : * * * * = = = * & = = ; ; = = = = = * = * * & * * * * & = = = = = = = = = - 1 2 2 5 5 r r . <X                      ",
"                        &X. o O O O o O O O O O O O O O O O O o o o o o O O O o O O O o o o O O o O o O O O O o O O O O O O o O O O O O O O O O O # # O O # # O O O # O O O O # # O O O O O O O O O O O O O O O O O O # O # O O # # # # # # O # # # # # # # # # # # # # # # # # # # # # # # # # # # # # # & & & * = = = = = * = & & & & & * & & & & & & & & * = * * * * * = - 1 2 2 2 * o &X                        ",
"                          GX& . # o o o o o o O o o O O o o O O o o o O O O O o o O O o o O o o o o o O O o o o o O o O O O O O O O O O o o O O O O o o O O O O O O O O O O O O o O O O O O O O O O O O O O O O O O O O O O O O # O O O O O # # # # # # # # # # # O # # # # # # # # # # # # # # # # # & # # & & & & = = * & & & & & & & & # & & # # # & # # # & & * & & * = = = - 2 o = GX                          ",
"                            LX>.. o O o o O o o O O o O o o o o O o o O O o o o o o o o o O o o o o o O O o o o O O o o o o O o o o O O o o o O O o O O O O O O O o O O O o O O O O O O O O O O O O O O o O O O # O O o o O O O o O O O O O O O # # # O O O O O o # O # # # O # # O # O O # # # # # # # # # # & & * * = = & & & # & & # & # # # # # # # # # & # # & & & = = = - = . 9.LX                            ",
"                                %Xo . O o o o o o o o o o o o o o o o o o o o o o o o O o o o o o O o o o o o o o O o o o O o o o o o O O O o o o O O O o o O O o o O O o o o o o o O O O O O O O O O o O O o o O O O O o O O O O O O O O o # O O # # O O # O O O o o O O O # O O o O O O O # O o O O # # # # & & * & & & & & & & # # # # # # # # # # # # # # # # & & & * * = X O %X                                ",
"                                  FXm.. . o o o o o o o o o o o o o o o o o o o o o o o o o o o o o o o o o o o o o o o o o o o o o o o o o o o o o o o o O o O o o o O o o o o o O O o o O o o O o o o o o O o o o o o O o o o O O o O O O O O O O O O O O O O O O o o O O O O O O O O O O O O O O O O O O # & & & & & & & & # # # # # # # # # # # # # # # # # # # & & = o . B.FX                                  ",
"                                      nX>.. . o o o o o o o o o o o o o o + o o o o o o o o o o o o o o o o o o o o o o o o o o o o o o o o + o o o o o o O o o o o o o o o o o o o o o o o o o o o O O O o o o O o o o o O O O O O O O o O O # O O o o O O O o O o O O O O O o O O O o o o O O o o O O O O # # # # # # # # & # # # # # O # # O # # # O O # # # # # & X . i.GX                                      ",
"                                          nXv.O . X X o o o o o o o o o o o o o o o o o X o o + o o o o o o o o o o o o o X + o o o o o o o o o o o o o o o o o o o o o o o o o o O o o o o o o o o o o o o o o o o o o O o o o o O O O o O O O O O o O O O O O O O O o o o o o o O o o o O O O o o O O O O O # O O # # # # # # # O O # # O O O O O # # # # & # o . O C.nX                                          ",
"                                              xXoX7.O . . . X o o o o X o o + o o + o o o X o X o o o o o o o o o o o o o o X o o o o o o o o o o o o o o o o o o o o o o o o o o o o o o o o o o o o o o o o o o o o o o o o o o o o o O O o O o o o O O O o O o o o o o O o o o o o O o o O O o O O O O O # # O O # O # # # # O O O O O O # O o O # o X . . O 9.oXcX                                              ",
"                                                    <X&XB.m i . . . . . . . . . . . . . . . . . . . . . . . . . . . . . . . . . . . . . . . . . . . . . . . . . . . . . . . . . . . . . . . . . . . . . . . . . . . . . . . . . . . . . . . . . . . . . . . . . . . . . . . . . . . . . . . . . . . . . . . . . . . . . . . . . . . . . . . . . . . X p :.B.kXcX                                                    ",
"                                                              cX&XoX.XB.B.B.B.B.B.B.B.B.B.B.B.B.B.B.B.B.B.B.B.B.B.B.B.B.B.B.B.B.B.B.B.B.B.B.B.B.B.B.B.B.B.B.B.B.B.B.B.B.B.B.B.B.B.B.B.B.B.B.B.B.B.B.B.B.B.B.B.B.B.B.B.B.B.B.B.B.B.B.B.B.B.B.B.B.B.B.B.B.B.B.B.B.B.B.B.B.B.B.B.B.B.B.B.B.B.B.B.B.B.B.B.B.B.B.B.V.V.B.B.B.B.V.V.B.B.B.B.B.B.B.B..XoX&XcX                                                              "
};
