/* XPM */
static char *_1c844e8b383491bc8c339f912b4e9c0xvlgupWGZzI0LKpg[] = {
/* columns rows colors chars-per-pixel */
"440 160 256 2 ",
"   c None",
".  c #010203",
"X  c #05060A",
"o  c #07090B",
"O  c #090B0D",
"+  c #090609",
"@  c #0B0E12",
"#  c #090C15",
"$  c #0D1116",
"%  c #0E1219",
"&  c #0B161C",
"*  c #12141C",
"=  c #14181E",
"-  c #141319",
";  c #130C1A",
":  c #141522",
">  c #1A1623",
",  c #161922",
"<  c #1A1B25",
"1  c #151629",
"2  c #161C2A",
"3  c #1C1D2A",
"4  c #1A162B",
"5  c #1D1B33",
"6  c #1C1A38",
"7  c #0E1124",
"8  c #221D2B",
"9  c #261B28",
"0  c #231D32",
"q  c #231D3C",
"w  c #2A1E34",
"e  c #311F2F",
"r  c #1D212C",
"t  c #18212A",
"y  c #1E2231",
"u  c #1C2538",
"i  c #122932",
"p  c #22222D",
"a  c #2B242B",
"s  c #232433",
"d  c #2A2434",
"f  c #252935",
"g  c #25253B",
"h  c #2C253A",
"j  c #262A39",
"k  c #2B2C3B",
"l  c #2A2B36",
"z  c #34253B",
"x  c #322C3D",
"c  c #362438",
"v  c #2D313E",
"b  c #2B3237",
"n  c #33323E",
"m  c #38353D",
"M  c #31272E",
"N  c #23161C",
"B  c #251E43",
"V  c #2A2444",
"C  c #2C2C43",
"Z  c #2B244B",
"A  c #282746",
"S  c #332C43",
"D  c #3B2B44",
"F  c #322C4B",
"G  c #3C2C4C",
"H  c #352545",
"J  c #2E3142",
"K  c #2C344A",
"L  c #333444",
"P  c #393543",
"I  c #363946",
"U  c #3A3A45",
"Y  c #33334A",
"T  c #3B324C",
"R  c #36394A",
"E  c #3B3C4B",
"W  c #342B53",
"Q  c #3C2D53",
"!  c #3A2D5A",
"~  c #352A57",
"^  c #353253",
"/  c #3B3354",
"(  c #3C335B",
")  c #3A3A57",
"_  c #2D2E53",
"`  c #3D3762",
"'  c #1C2344",
"]  c #432D4A",
"[  c #413D4A",
"{  c #44324D",
"}  c #422E53",
"|  c #442F57",
" . c #433355",
".. c #43355B",
"X. c #443A5C",
"o. c #4B3A5C",
"O. c #483758",
"+. c #513A5F",
"@. c #443B63",
"#. c #4B3C63",
"$. c #463A66",
"%. c #523D63",
"&. c #3E414C",
"*. c #3D4248",
"=. c #3D4154",
"-. c #2A4E53",
";. c #3B4965",
":. c #32697D",
">. c #42424E",
",. c #46474D",
"<. c #434453",
"1. c #494653",
"2. c #464954",
"3. c #4A4B55",
"4. c #4B4C5B",
"5. c #46485A",
"6. c #524E5B",
"7. c #514C57",
"8. c #4E515A",
"9. c #4D5057",
"0. c #53535D",
"q. c #59545E",
"w. c #55585E",
"e. c #4C436B",
"r. c #494865",
"t. c #54496B",
"y. c #4C5165",
"u. c #545463",
"i. c #5A5662",
"p. c #565962",
"a. c #5B5B65",
"s. c #5D5C6A",
"d. c #57556B",
"f. c #554B72",
"g. c #5B5674",
"h. c #4D4971",
"j. c #615D66",
"k. c #615E69",
"l. c #61566A",
"z. c #635A76",
"x. c #5E6066",
"c. c #5E6169",
"v. c #53646F",
"b. c #556378",
"n. c #63636B",
"m. c #696A6E",
"M. c #66666C",
"N. c #656473",
"B. c #6B6B73",
"V. c #6A6877",
"C. c #716D79",
"Z. c #74737C",
"A. c #78777C",
"S. c #6C717B",
"D. c #44293B",
"F. c #7F807F",
"G. c #7A7983",
"H. c #706D89",
"J. c #656B96",
"K. c #3977DD",
"L. c #297ADD",
"P. c #1E7CDD",
"I. c #4F76DE",
"U. c #6875DD",
"Y. c #6870E0",
"T. c #525CB3",
"R. c #837D90",
"E. c #8F56DC",
"W. c #9B6EDF",
"Q. c #778998",
"!. c #3389DB",
"~. c #1786D7",
"^. c #5988DD",
"/. c #4E90DC",
"(. c #678ADC",
"). c #7195DC",
"_. c #73A9DE",
"`. c #59A7E6",
"'. c #67A9E5",
"]. c #75ADEA",
"[. c #678DE0",
"{. c #7CC6DE",
"}. c #3E8BA2",
"|. c #83838A",
" X c #8B8A96",
".X c #959596",
"XX c #97989C",
"oX c #908F99",
"OX c #9B9CA2",
"+X c #9898A4",
"@X c #918BAB",
"#X c #A5A5AA",
"$X c #ABABB4",
"%X c #B4B5B9",
"&X c #B1AFB6",
"*X c #A09CAD",
"=X c #9191DC",
"-X c #AC86DF",
";X c #A69ADD",
":X c #B395DC",
">X c #91B2DB",
",X c #BBBBC3",
"<X c #ADAEDB",
"1X c #938DE3",
"2X c #AD86E1",
"3X c #AB8BE1",
"4X c #B38DE2",
"5X c #B78BE2",
"6X c #AC98E4",
"7X c #BC91E4",
"8X c #B599E4",
"9X c #91A8E3",
"0X c #ACA5E7",
"qX c #B7A5E7",
"wX c #ADB5EA",
"eX c #B4B7E9",
"rX c #B5ADF3",
"tX c #C6B9D5",
"yX c #C494E5",
"uX c #C88EE5",
"iX c #C6A6E6",
"pX c #D7A9E6",
"aX c #CFB5EC",
"sX c #E6B9E8",
"dX c #E3AFEA",
"fX c #C080DB",
"gX c #87C7DE",
"hX c #B8CCDD",
"jX c #BBD2DC",
"kX c #B6D2DC",
"lX c #ACC8D6",
"zX c #B7CEE2",
"xX c #8CD0E7",
"cX c #C6C6CA",
"vX c #CACCD6",
"bX c #C6D2DA",
"nX c #D6D6D9",
"mX c #D6CAD8",
"MX c #C8CBE1",
"NX c #D7C5E4",
"BX c #DCDBE2",
"VX c #C7D3E7",
"CX c #E9C5E9",
"ZX c #E9CAEA",
"AX c #E6C3E7",
"SX c #F2D5F4",
"DX c #CFE6F0",
"FX c #E3E3E5",
"GX c #EBEBED",
"HX c #E6E6E9",
"JX c #FAE6FB",
"KX c #F3F3F4",
"LX c #FEFEFE",
"PX c #F7F6F9",
"IX c #EEEDF1",
"UX c #80807F",
/* pixels */
"                                                                                                                                          PXGXnXcXcX%X#X#XOXXXXXXXXXXXXXXXXXXXXXXXXXXXXXXXXXXXXXXXXXXXXXXXXXXXXXXXXXXXXXXXXXXXXXXXXXXXXXXXXXXXXXXXXXXXXXXXXXXXXXXXXXXXXXXXXXXXXXXXXXXXXXXXXXXXXXXXXXXXXXXXXXXXXXXXXXXXXXXXXXXXXXXXXXXXXXXXXXXXXXXXXXOX#X$X%X%X&X&X$X&X&X&X&X&X&X&X%X&X$X#X#XXXXXXXXXOXOXXXXXOXOXOXOXOXOXOXOXOXOXOXOXOXOXOXOXOXOXOXOXOXOXOXOXOXOXOXOXOXOXOXOXOXOXOXOXOXOXOXOXOXOXOXXXXXXXXXOXOXOXOXOXOXXXXXXXOX#X$X&X%X&X&X$X&X&X&X&X%X&X&X&X&X&X&X%X%X&X%X%X%X&X&X$X&X&X%X%X%X%X$X#X#XOXOXOX#XOXOXOXOXOX#X#X$X&X%X&X&X&X&X&X&X&X&X%X%X%X$X#X#XOXOXOX#X#XOXOXOX#X$X%X%X%X%X%X&X&X&X&X&X&X%X%X%X&X&X&X&X&X&X&X&X%X%X&X&X&X&X&X%X%X%X&X&X&X%X%XcXvXnXGXLX                                                                                                                                          ",
"                                                                                                                              GXKXcX&XXX|.C.n.3.>.U l r < * % % % % % % - % % % % % % % % % % % - - - - - % % % - - - - - % % % % % % - - - % - % % % % % % - - - % % % - % % % - % % - - - - - - % - - - - % % % * * * * % % % - - * * * * * % # @ , l U 2.9.3.>.>.>.&.>.,.,.2.2.3.3.&.b p = % * , , , , , , , , , , , , , , , , , , , , , , , , , , , , , , , , , , , , , , , , , , , , , , , , , , , , , , , , , , % % - r b *.2.3.2.>.>.,.2.2.2.2.2.2.3.3.3.3.3.3.3.9.8.8.3.>.I b l n >.0.8.2.I s 3 3 r s s r r < t s n &.9.0.8.3.2.2.2.2.2.3.8.8.8.>.I l t t r s p t 3 s v &.8.p.0.8.3.3.3.3.3.3.3.3.3.3.3.3.2.2.2.2.2.3.9.4.3.4.3.9.3.8.0.0.2.&.E U E 2.p.n.S.Q..X$XlXnXLXGX                                                                                                                              ",
"                                                                                                                      FXPXcXOXA.a.,.b = o . . . X X X X X X X X X o o o o o o X X X o o o o o X X X o o o o o o o o X o o X X X o o o X o X o o o o o X X o o o o X X X X X o o o o o o X o o O O o o X X X o o o o o o o o o o o O O O O O o X . X # r b &.2.>.*.U U U U U E *.,.2.,.U f , # X O # % % % % % % % % % % % % % % % % % % % % % % % % % % % % % % % % % % % % % % % % % % % % % # % % % % % % % % # # # O X O , f I >.2.&.U U *.&.>.&.>.&.&.>.&.<.<.2.2.2.2.3.9.3.U l , # % 3 l b k s t , , < 3 3 2 : & : t l U 2.4.3.<.>.>.&.>.>.>.2.3.2.E v r , : < 3 < : : 3 l I <.4.4.3.2.2.2.2.>.U v v b I &.2.3.<.&.&.&.>.>.<.<.2.2.2.2.3.8.3.&.L f 3 , 3 r t 2 : y &.p.Z.oX#XlXBXLXFX                                                                                                                      ",
"                                                                                                                cXBX%XA.3.m * . . X X o O # # # # # $ % % % % % % % % % % % % % % % % % % % % % % % % % % % % % % % % % % % % % % % % % % % % % % % % % % % % % - - - % % % % % % % % % % % % % % % % % % % % * - % % % % % % % % % - * * % % # o # = f U 3.8.3.2.,.>.>.>.>.>.>.3.8.3.&.b r * % & , , , , , , , , , , , , , , < < < , , , , , , < < < < , , , , , , , , , , , , , , , , , , , , , , , , , , , , , , , = % % , s I <.8.4.2.,.,.2.2.3.3.3.3.3.3.3.3.3.3.9.8.0.p.8.&.v s 3 < t r t r r s s s s s s f s r r f L >.8.w.0.8.3.3.3.3.3.3.0.0.8.>.I l r t y s s s s s s f v U &.3.8.0.u.p.8.2.E I I &.2.8.8.8.3.3.3.3.3.8.8.8.3.3.9.0.w.0.3.E v f s f k j s y f b I >.2.2.u.B.Q.#XvXKXvX                                                                                                                ",
"                                                                                                          %XnX$Xn.m < X . X @ # % % % % % % % % % % % % % % % % % % % % % % % % % % % % % % % % % % % % % % % % % % % % % - % % % % % % % % * - % % % % % % % - * % % % % % % - - % % % % % % % % % % % % % % * % % % % % - - % % % % * * * - @ O # < l *.3.8.3.>.>.>.,.,.,.,.,.9.8.3.E k r * % * , , , < , < < < , , , , , < < < < < , , , < < < < < < < < , , , , , < < < < < , , , , , , , < , , , , , , , , , , , , * * * < s n &.3.3.2.,.,.,.3.3.3.3.3.3.3.3.3.3.3.8.p.p.8.&.b r < 3 r s p p r p y s p r s s r t r l I 2.0.p.0.8.8.4.4.4.4.8.0.p.8.>.L s 3 3 y f f f f s r r r r s k I &.2.8.p.p.p.8.2.>.&.&.<.4.8.8.8.8.8.8.0.8.8.8.8.0.p.0.3.*.v f f k v k j f k I >.4.0.8.3.<.&.<.a.Z.OXvXFXcX                                                                                                          ",
"                                                                                                    cXBX%Xn.n - . . X # % % % % % % % - % - % % % % % % % % % % % % * * * - - % % % % % % % % - - * - % % % % % % % * * - - % % % % % % % * * % % % % % % * * * - - % % % * * * % % % % % * % * * - - % % % % % % % % % * * * * % % * * * * * % O # , f U 2.8.3.,.>.,.,.,.,.,.2.9.0.3.*.k 3 * % , < < < , , < < < < < < < < < < < < < < < < < < < < < < < < < < < < < < < < < < < < < < < < < < < < < < < < < < < , , , , , , : , t f L E &.>.,.3.9.8.8.3.3.3.3.3.3.3.3.0.p.w.3.U v r 3 r y s s s s s s s s r y r t 2 3 f U 3.p.a.p.8.8.8.8.8.8.8.0.0.0.2.E v s t y y s f f f f f f s y y r s f n &.2.8.0.0.3.3.2.3.8.8.8.0.0.0.8.8.8.8.8.0.p.p.0.3.*.J j g k v v j j v U ,.8.p.w.0.8.8.8.3.2.3.0.m.oXvXBXvX                                                                                                    ",
"                                                                                                GXBX X*.* . . # % % % % % % % % % % % % % % * - % % % % % % % % % - - - % % % % % % % % % % - * * * * - % % % % % % * * - % % % % % - * * * * % % % % * * * - - - % - - * * * * * % % * * - % * * % % % * * * * * * % % % % * * * * * * * * * % @ @ = f U 3.0.9.2.,.2.2.2.2.,.3.8.0.3.U l < & & , < < < < < , < < < < < < < < < < < < < < < < < < < < < < < < < < < < < < < < < < < < < < < < < < < < < < < < < < < < < < < < , , , , t r k I <.3.0.w.0.9.3.3.3.3.3.3.8.0.p.0.2.U l r t r s s s s s s s s f s s s r t t s b U 2.0.p.p.w.p.0.0.8.8.8.0.0.w.0.9.2.E L k f f s s s f l k k l f s s s s f k I &.3.0.p.p.w.w.0.0.8.0.8.8.0.0.0.0.p.a.0.3.*.v f j v v v k k J E 2.0.p.p.0.0.8.0.0.p.p.0.>.I U p.OX,XcX                                                                                                ",
"                                                                                            HX%Xa.p # . X % - % % % % - - * * * * % % % % % - - - * % * * * % - - % % % % % - * * % % % % % - * * % * * * - % - & & % - - % % % % % - * * * * * * * % * - - % - % % * * * % % * * * * * * * * * % % % % % * * * * * * % % * * * * * * * * = * % # # , l *.9.0.9.3.,.2.3.3.3.3.9.0.0.2.I f , % & , < < < < < < < < < < < < < < < < < < < < < < < < < < < < < < < < < < < < < < < < < < < < < < < < < < < < < < < < < < < < < < < < < , * & < l U 3.w.p.0.0.8.8.8.8.3.3.8.0.p.0.2.I l r r s s f f f f f s s s f f f f s s s r r f v U ,.8.p.p.a.p.0.0.0.0.w.p.w.w.w.0.4.<.*.I v j f f s f f k k k j f f s y s k L E <.3.0.w.p.p.w.8.0.8.0.0.w.p.a.0.3.*.v j j v J v k v L &.3.p.a.p.0.0.8.0.u.p.a.a.8.>.k 3 r <.oXvXFX                                                                                            ",
"                                                                                        GX%Xx.= . . O - * - - % % - - - - * * * * * * * * * - - - - % % * * - - * % * * * * * * * % % % * * * * * * * * * * * * * * * * * * * * * * * * * * * * * * * * * * % * % % * * * * % * * * * * * * * * * * * * * * * * * * * * * * * * * * * * * * * % # # , l *.3.0.0.3.3.3.3.3.3.3.9.0.0.2.I f , % * < < < < < < < < < < < < < < < < < < 3 3 < < < < < < < t 3 < < < < < < 3 < < 3 3 3 3 3 < < < < < 3 3 3 < < < < < < < 3 < < < < < 3 t < : % , s I 3.p.a.u.0.0.0.0.0.8.8.8.w.p.8.>.L f r r s f f f f f f f f f f f f f f f f s y r 3 3 s k L &.3.0.p.a.a.p.u.0.0.0.0.w.p.p.p.0.3.2.&.L v j f s s f j k k k j f f f g f v L &.2.0.p.p.p.p.w.0.w.a.a.p.3.*.J j j J J v k k L &.8.p.a.p.w.0.0.0.w.a.a.p.8.<.U v f t y I Z.,XHX                                                                                        ",
"                                                                                    KX%Xn.= . X % * * * * * - % % * * * * * * - * * * * * * * * * * * % * * * * * * * * * * * * * * * * * * * * * * * * * * * * * * * * * * * * * * * * * * * * * * * * * * * * * * * * * * * * * * * * * * * * * * * * * * * * * * * * * * * * * * * * = : * % # # , f U 3.w.0.3.3.3.9.9.3.3.9.w.0.,.m f , & , < < < < < < < < t t 3 3 < < < < < t t 3 3 < < < < 3 3 3 3 3 t t t 3 < < < < 3 3 3 3 3 < < < < < < < 3 3 < < < 3 3 3 < < < < < < 3 r 3 : & < l U 9.p.a.w.8.8.8.0.0.0.0.0.a.p.8.&.n s t r s f f f f f f f f f f f f f s s f f f f s r r 3 3 r f b U 2.0.p.a.a.a.w.0.0.0.0.w.w.p.p.p.0.3.<.E L k j f f j k k k k k k j f f j v L E 2.8.p.a.a.x.c.a.0.3.*.J k v L L v j k L >.8.p.x.a.p.p.w.0.w.p.a.p.8.>.I v v J j y s P G.vXPX                                                                                    ",
"                                                                                LX%Xn.= . X # * * * * * * * * * * * * * * * * * * * * * * * * * * * * * * * * * * * * * * * * * * * = = * * * * * * * * * * * * * * * * * * * * * * * * * * * * * * * * * * * * * * * * * * * * * * * * * * * * * * * * * * * * * * * * * * * = = = = = : : = * % $ = p m ,.8.0.9.9.9.9.9.3.9.0.w.0.,.n s , * , < < < < 3 3 3 3 3 t t 3 r t 3 3 3 3 3 t 3 3 3 t 3 t 3 t t 3 3 t r r 3 3 3 3 3 t 3 t t t t t t t t < < < < 3 3 3 r 3 < < < < < t r r 3 : : 2 l &.0.a.a.w.8.8.8.0.0.0.0.p.a.a.8.&.v s r y f f f f f f f f f f f f f f f f f f f f f f f s s r r 3 t s l L &.3.0.a.x.x.a.u.0.0.0.u.p.p.a.a.p.0.9.2.&.I L v k j j k v v v v v k j f j J I &.3.0.p.a.p.3.&.L k k L L J k v I <.8.a.x.a.p.p.p.p.p.a.a.p.8.>.I v v J v k k v U a.OXnXLX                                                                                ",
"                                                                            nXBXA.r . X # * * * * * * * * * * * * * * * * * * * * * * * * * * * * * * * * * * * * * * * * * * * * * * * * * * * * * * * * * * * * = * * * * * * * * * * * * * * * * * * * * * * * * * = = = * * * * * * * = * * * * * * = = * * * * * * * * * * * * * = , , , = * % * < s n &.2.3.9.0.0.9.9.9.0.w.0.,.I s , * , < 3 3 3 3 3 3 t t t t 3 r t t t 3 3 t t t t t 3 3 3 3 t r r r r t r t r 3 3 t t t t t t r r r r r t t t t t 3 3 3 t t 3 < < 3 t r r t , : 3 k &.8.a.x.p.0.0.0.0.0.0.0.p.a.p.3.*.v s y s f f f f f f l l f f f f f f f f f f f f f f f f f f s s y r 3 3 r s v E 3.0.a.a.x.a.p.p.p.p.p.p.p.p.a.a.p.u.8.3.*.I v k k k v b v v v k j f y f v &.0.a.p.8.&.L v J L L J v L E 2.0.a.a.p.p.p.p.p.a.a.x.a.8.>.I v k v v k L *.2.3.8.m.#XIXnX                                                                            ",
"                                                                          PX.Xn X X % * * * * * * * * * * * * * * * * * * * * * * * * * * * * * * * * * * * * * * * * * * * * * = * * * * * * * * * * * * * * * * * * * * * = = = * * * * * * * * * * * * * * * * * = = = = * * * * * * * * : * = = * * * * = * * * * * = * = * * * = , , , , , , = , , < r f b I &.2.9.0.0.0.w.w.w.2.I s < * , < t 3 3 < < 3 t r r r r r r r r r r t t t t t r r t t t r r r r r r r r r r r r r r t 3 3 3 r r r t t t r r r 3 3 t r t t t 3 t t r 3 , & 3 k &.8.x.c.p.0.0.w.w.w.w.w.p.a.w.2.U k s y s f f f f f f f f f f f f f f f f f f f f f f f f f f f s s f s s s r 3 r s f n >.3.w.x.c.c.a.a.p.p.p.p.p.p.a.a.a.p.w.8.2.&.I J k j j k L U &.>.<.3.8.p.a.p.3.&.L v J I I J J L E 2.0.a.a.p.p.p.p.p.a.x.x.p.8.&.I k k J v v L &.9.p.a.0.3.B.,XLX                                                                          ",
"                                                                      nXcXw.@ . @ * * * * * * = = = * * * * * * = = * * * * * * * * * * * * * * * * * * * * * * = * * * * * * * = * * * * * * = = * * * * * * * * * * * * * * * * * * * * * * * * * * * * = = = = = = * * * = = , , , = * * = = = = * * * * = * * = = = = = = = = = , , , , , , , , , , < < < t r f n U <.3.0.w.x.a.3.U l < : , < t t t t t 3 3 r r r r r r r r r r r r r r r r r r r r r r r r r r r r r r r r r r t r r r r r t t r t r r r r r r 3 r r t t t r r 3 , : 3 k &.0.a.c.a.w.w.p.w.w.w.w.a.a.0.2.I j y y f j l j k k f f j l l l l j f f f f f f f f f f f f f f f f f f f f f s s r 3 3 r s v U 3.0.a.c.x.a.p.p.p.p.p.p.a.a.x.c.x.a.0.4.&.R R E <.8.a.c.c.x.x.c.a.0.2.E L J J I P J J L &.3.0.a.x.a.p.p.p.p.p.a.a.p.3.&.L k v v k k L &.8.p.c.a.u.2.p.oXBXnX                                                                      ",
"                                                                    PXXXp . # * * * * * * = = = = = * * * * = = = = * * * * * * = = = = * * * * * = = = = = = = * * * * * * * * * * * * * * , , * * * * * = = * * * * * * * * * * * * * = = * = = = = = = = = = = = * * * * = = , , = = = = = * * : , , , , = = = , , , , = = = = = , , , , , , , , < < 3 t t 3 < < t p k n &.3.a.a.0.&.b < : , 3 r t t t t t r r r r r r r r r r r r r r r r r r r r r r r r r r r r r r r r r r r r r r r r r r r r r r r r r r r r r r r r r r r t , , t v &.0.x.c.a.w.w.w.w.w.w.p.a.a.0.<.L f y y f j k k k j j k k k k k k j j j j j j k k j j j f f f f f f f f f f f f f f f f s 3 : 2 f U 9.a.n.a.a.p.p.a.p.p.p.p.p.a.a.a.a.a.p.w.p.p.p.a.a.a.p.p.a.c.a.0.2.E L J L I I L J I &.3.p.x.c.a.p.p.p.p.p.a.a.p.3.&.L v v k k k L &.8.a.n.c.a.p.0.2.n.lXLX                                                                    ",
"                                                                GXvXx.@ X - = * * * * * * * = = = = = = = = = = : : = = = = : : , = = = = = * * * = * * * * = * * * * = = = = * * = = = , = = = = * * * = = = = = = = = = * * = = * * * = = = = , , = = = , = = * * * = = , , = = * * = = = = = , , , , , , , , = , , , , = = = , , , , , , , , , , < < t r r r r t < < 3 r s n &.3.3.&.b r , , 3 r t t r r r r r r r r r r r r t r r r r r r r r r r r r r r r r r r r r r r t t r r r r r r r r r r r r r r r r r r r r r r r r r r < , r v >.w.c.n.a.w.w.w.w.p.p.a.x.a.8.>.J f y s j j k l l j j k k k k k l j j j j j j j k k l j j f l j j f f f f f f f f f f f f s 3 3 s L ,.0.a.a.i.p.p.p.p.p.p.a.a.a.a.p.p.p.a.a.a.a.a.a.a.a.a.a.c.n.a.0.2.E L J L I I L J I >.4.p.x.x.p.p.p.p.p.p.x.x.p.3.&.P v v k j k I >.0.x.n.c.a.a.a.u.3.8. XnXGX                                                                ",
"                                                              LX%Xm X # = : : = * * * % % % * * * = , , , : = * = * = : , , , , : : = = = = = = = * * * * * * = = = = = = = = = * * = , , , , = = = = = * * * = , = = = = = = = = = , , , , , = , , , = = = , , = = , , , , , , = = = = = = , , , , , , , , , , , , , = , , , , , , , , , , , , , , , < t t r r r r r r r 3 2 t l L I I v s 3 3 t r r r r r r r r r r r r r r r r r r r r r r r r r r r r r r r r r r r r r r t r r r r r r r r r p r r r r r r r r r r r r r r r y r 2 , r v ,.p.n.n.a.w.p.p.p.p.p.x.n.a.3.E v f y f j j k k l k k k j j j j j k k l j j j k k k k f f f f l l l l j f f f f f f f f f y 3 t l U 3.w.a.p.w.w.p.p.a.a.a.a.a.a.a.a.a.p.p.a.a.a.a.a.i.p.p.a.c.M.n.p.2.E L L L I I J J R <.8.p.c.a.p.p.p.p.p.a.c.c.p.3.&.P v v k j k I 2.p.n.M.n.a.a.a.a.p.2.U n.vXLX                                                              ",
"                                                            PX|., . - , : : : = = * * * % % % * * * * * * = , , , , : : = = = = , , , : : = = = , , , , , = = = = = * = = = = , = = = = , , , , , , * * = , , , , , = = , , = = = = , , , , , : * * : , , , , , , , , , = = = = = , , = , , , , , , , , , , , , , , , , , , , , , , , < < < < < < , < < t r r r r p p p p r t 2 p l b b k f r 3 r r r r r r r r r r r r r r r y y p p r r r r r p p r r r r r r r r r r r r r r y r r r r r p p p p r r r r p p p r r r r r r r r s r 2 , r n <.w.n.n.a.w.p.p.p.p.a.x.c.p.3.U k s s j j k k k k k k k k j j k k k k k j j j k j k k l f f l k k k k k j j l l f f f f s r 3 r k E 3.p.a.p.w.0.w.p.a.a.a.a.a.a.a.a.a.a.a.a.a.x.n.c.0.3.<.<.9.a.n.a.4.&.L v L I I J J R 2.8.a.n.c.i.p.p.p.p.a.n.c.p.4.&.I v v J k k L &.2.8.p.p.a.x.n.n.x.p.8.>.0.#XLX                                                            ",
"                                                          HXn.# O * = : , , , , = = * * * * * * * * * * * * * = : , , , , , , = , , , , = = = , , , , , , , , , , , = * = , , , , , , , , , , , , , , * = , , , , , , , , , , , = = , , , , = , , , , , , , , , , , , , , , , , , , , , , , , , , , , , , , , , , , = = , , , , , , < < < < < < < < < 3 r r y y y r r r r r t 3 r l v v b f r 3 r r r r r r r r r r r r p s s s r p p p p p s s s s r r r r r y s s r r r r r r p y r r r r r r r r r r r r r r r r r r r r r r s s r 2 2 y n 2.p.n.n.a.p.w.p.p.a.a.n.c.p.2.I k y s j k k k k k k k k k k k j k k k k k k k j k k k k j k k k l l l j j k j j f f f f f s t r k E 4.a.n.a.w.w.p.p.a.a.a.p.p.a.a.a.a.a.a.a.x.n.M.c.0.2.E J L &.3.3.3.2.&.E U I J k v E 2.0.a.n.c.a.i.p.p.a.x.n.c.p.3.E J k v L L L L L J J I E <.4.0.p.a.n.M.a.3.<.|.KX                                                          ",
"                                                        vX0.X # = , , , = , , , = = * * * * * * * * * * * * * * * * = , , , , , , , , , , , , , , , , , , : , , , , , , , , , , , , , , , , , , , , , , , , , , , , , , , , , , , , , , , , = , , , , , , , , , , , , , , , , , , , , , , , , , , , , , , , , , , , , , , , , , , , < < < < < < < < < 3 r r p s y y y r r r t 3 r k v v v f r 3 r s p p r p p p r r r y p s s s y p p p s s s s s s r r y s s s s s p s s s r r s s p r p p r r p p p p r r r r y y y r r r r s s s r , , s n 2.p.M.n.a.p.p.a.p.p.a.n.c.w.,.L f s s j k k k k k k k k k k k k k k k k k k k k k k k k k k k k k j j k j k j l l l l f f f y r s v &.8.p.a.a.p.p.i.a.a.a.a.p.a.a.a.a.a.a.a.x.n.n.c.0.2.E J v L L L E &.&.<.2.<.E L L I >.0.x.n.n.x.a.a.a.a.x.c.c.a.0.<.I v k v L L I L L J J J J J J R &.2.8.0.0.3.3.oXKX                                                        ",
"                                                    LX&XU X @ : = , , , , , , , , = = = * * * * * = = = = = = * * * * * * = , , , < , , < , , , , , , : : , , , , , , , , , , , , , , , , , , , , , , , , , , , , , , , , , , , , , , , , , , , , , , , , , , , , , , , , , , , , , , , , , , , , , , , , , , , , , , , , , , , , , < < < < < < < < < r r p s s p r r p p p r r s f k b k f r r r y y r p p p p p r r y y y s s s r r r p p s s r y y s s s s y y y s s s s s s s s s s s s s s s s p p r y s s s s y r r r p s s s r 2 2 s L 2.p.n.n.a.a.a.a.p.a.x.n.x.0.&.J f s f k k k k k k k k k k k k k k k k k k k k k k k k k k k k k k k k l j k j j k l l f f j f s r s k E 3.p.n.n.a.a.a.a.a.a.a.a.a.a.a.a.a.a.c.n.n.a.8.>.I J L I I I I L L I E &.<.2.2.3.0.a.c.n.c.a.a.a.a.a.a.x.c.n.c.p.0.4.2.<.&.E I L L L L L L J J J L L J I &.<.<.&.C.cXLX                                                    ",
"                                                  LX&Xl . - , : = = = = , , , , , = = * * * * = = = = * = * = = = = * * * * * * = , , , < < < < < , , , , , = = , , , , , , , , , , , , , , , , , , , , , , , , , , , , , , , , , , , , , , , , , , , , , , , , , , , , , , , , , , , , , , , , , , , , , , , , , , , , , , , , , < < < < < < < < < 3 r r p s s p r s s s s s r s f l l f s s r y s s s s s s s s s y y r y s s s s s p p s s s y y s s s s s s s s s s s s s s s s s s s s s s s s s s s s s s s s s y s s s s s s r 2 2 s L 2.p.n.n.a.p.p.a.a.a.n.n.a.8.&.v f s j k k k k k k k k k k v k k k k k k k k k k k k k k k k k k k k k k k k k k k k l l j k k f y r j I 3.p.n.n.a.a.a.x.a.a.a.a.a.a.a.a.a.a.n.n.n.p.3.&.I J I E E E R I L L L L U &.>.2.8.p.x.n.M.n.x.a.a.a.a.x.x.c.c.x.c.c.n.x.p.0.8.2.<.<.E R I R R R P L L I I P L v f 4.,XLX                                                  ",
"                                                LX#Xp X = , , , , : = : , , , , , = * * = = = = = = = * * * = = = , , , , * * * * * * * , , , , < , < < , , , , , , , , , , , , , , , , , , , , , , , , , , , , , , , , < , , , , , , < < < , , , , , , , , , , , < < < , , , , , < , , < < < < < , , , , , , , , , , , , , , , , < < < < 3 < < < < 3 r r r s s s s s s s s s s s s s s s s s s y y s s s s s s s s s p s s s s s s s s s s s s s s s s s s s s s s s s s s s s s s s s y y s s s s s s s s s s p p s s s s s s f f p 3 2 s L 2.p.n.n.a.p.p.a.a.a.n.n.a.3.E k s s j k k k k k k k k v v v v k k k k k k k k k k k k k k k k k k k k k k k k k l j l k k k k f s s k E 4.a.n.n.x.a.a.a.x.x.x.a.x.a.a.a.a.a.n.M.n.w.2.E L L I U R E R R I I I I I L J v I E &.3.p.a.c.M.M.n.c.c.x.x.a.a.x.a.s.s.x.n.n.n.c.a.p.0.8.3.<.&.R I R R R R R I L j &.%XLX                                                ",
"                                              LX#Xr O = , , , , , , , , , , , , , , , = * * = = = , , , , = = = : , , , , = = = , , = = = = * * : , , < < < < , , , , , , , , , , , , , , , , , , , , , , , , , , , , , , , , , , , , < < < < , , , , , , , , < < < < < < < < < , < < < < < , , , < < , , , , < < < < , , , , , , < < < < 3 < < < < t r r s s s s s s s s s s s s s s s s s s s s y s s s s s s s s s p p s s s s s s s s s s s s s s s s s s s s s s s s s s s s s s s s s s s s s s s s s s s s s s s s s s s f f s 3 3 f I 3.a.M.n.a.p.p.p.a.a.n.n.p.3.U j s s k k k v v v v v v v v v v k k k k k k k k k k k k k k k k k k k k k k k k k k k k k k k k j s s k U 3.a.n.n.n.x.a.a.a.a.a.x.x.x.x.x.x.x.n.M.x.0.<.E L L I U U E E E E U E E R R I I L L v L I E <.8.a.a.n.M.M.n.c.x.a.a.x.x.a.a.s.c.c.c.n.n.n.c.p.p.0.8.4.2.<.E E E E R k &.%XLX                                              ",
"                                            LX#X< X = , , , , , , , , , , , , , , , , = = = = = : , , , , , , : = = = = = = = = , , = = = = = = = = = , , , < < < < < , , , , , , , , , , , , , , < , , , , , , < < < , , , , < < < < < < , , , , < < , , , , < < < < < < , < < , , , , , , , , , < < < < < < < < < < , < , , , < < 3 3 3 < < < < < t r p s s g s s s s s s s f s s s s s s s s s s s s s s s s s s s s s s s s s s s s s s s s s s s s s s s s s s s s s s s s s s s s s s s s s s s s s s s s s s s s s s s s f f s 3 3 f I 3.a.n.n.a.p.p.p.p.x.n.n.w.2.I j s j k k k k k v v v v v v v k k k k k k k k k k k v v k k k k k k k k k k k k k k k k k k k k l f f l v U <.0.a.x.n.n.n.x.a.a.a.a.a.x.a.x.n.M.n.a.4.&.I L L E E E E E E E E E E R R I I I I U I L v v J L E 2.0.a.n.M.M.n.c.c.a.a.a.x.x.c.x.c.c.c.c.c.n.n.n.n.x.p.p.u.0.4.2.E v 2.,XLX                                            ",
"                                          LXOX< X : < , , , , , , , < < , , , , , , , = , , , : : : , = , , , , = = = = = , , , , , , = = , , , , , = * = = , , , < < < < < < < < , , , , , , , , < , , , , , < < < , , < < < < < < , < < < < < < < , , , , < < < < < < < , < < < < < < , , , , , < < < < < < < < < < < < < < < < < 3 3 3 < < < < < 3 r p s f f f s s f f s f f s s s s s s s s s s s s s s s s s s s s s s s s s s s s f f f f s s s s s s s s f s f f s s s s s s s f f s s s s s f s s s s s s s s s s s s s f f s r r f v >.0.a.x.a.a.a.a.a.n.n.x.0.>.L j f j k v v v v k k v k v v v v v v v v k k k k k k v v k k k k k k k k k k k k k k k k k k k k k k k k l j k L <.0.n.M.M.n.c.x.x.a.x.x.x.x.n.M.n.p.3.&.I L I E E E E E E E E E R U I I I U E I I I I I L v k v v I <.8.p.a.n.n.n.c.c.c.x.c.c.c.c.x.c.a.x.x.x.c.n.n.M.M.n.c.a.u.8.3.c.cXLX                                          ",
"                                        GX&X, X : < < < , , , , , , , , , , , , , , , , , , , , , , = * * , , , , , , , = = = , , , , , , , , , , , , , , , , , , , , , , < < < < < < < < , , , , , , , , < < < < < < < < < < < < < < < < < < < < < , , < < < < < < < < < < < < < < < < < < < < < < < < < < < < < < < < < , , < < < < 3 3 < 3 3 3 3 r r p s g g f s s s s s f f g f f f f s s s s s s s f f s s s s f f f f s s s s s f f f f f f f s s s s f f s f s f f f s f f s s s s f f f s s s f f f f f f s s s s s s f g f f s y r f L <.0.x.n.n.a.a.x.n.n.x.8.&.J f f k k v v v v k k k k v v v k k k v v v v v k k k k k k k k k k k k k k k k v v v k k k k k k k k k v k s s k E 4.a.m.B.n.x.x.c.c.n.n.c.n.M.M.n.u.3.E L L R E E E E E E E E E U R I U U U U I I I I U R R R P J v v J L E 2.8.p.n.n.n.n.n.n.c.c.c.n.c.c.c.x.c.c.c.n.c.c.n.n.n.n.n.w.M.nXGX                                        ",
"                                        %Xp . * , , < < < < < < , , , , , , , , , , , , , , , , , , = = = , , , , , , , , , , = = , , , , , , , , , , , , , , , , , : : : , , , < < < 3 < < < < < < , < < < < < < < < < < < < < < < < < < < < < < < < < < < < < < < < < < < < < < < < < < < < < < < < < < < < < < < < < < < < < < < < 3 3 3 3 3 3 3 r r p s f f f s s s f f f f f f f f f f f f f f f f f f g g g f f f f f f g f f s s f f g g f f f f f s s s s f f f f f f f f f s s s s f s s s s f f f f f f s s s s f f f f f f f s y y v &.8.x.M.n.a.a.x.n.n.a.3.E v f j k v v v v v v k k k k v k k k v v v v v v v v v v v v v v v k k k k k k k k v v v v k k k k k k v v k j g k E 8.x.m.B.n.x.x.c.n.n.n.n.n.M.M.c.0.<.E L P R E E E E E E E E E U U R R R U I I I R U R R R I I I I I J v v k k I <.0.a.M.B.M.n.n.n.n.n.c.c.x.c.n.n.n.n.n.n.c.n.n.n.n.w.Z.cX                                        ",
"                                      FX>.. % , , , < < < < < < < < < , , < < < < < , , , , , , , , = , , , , , , , , , , , , , , , , , , , , , , , , , , , , , , , , , , , , , , , , < < < < 3 3 < < < < < < < < < < < < < < < < < < < < < < < < < < < < < < < < < < < < < < < < < < < < < < < < < < < < 3 < < < < < < < < < < < < 3 r r r r 3 3 < 3 r s f f f f f f f f f f f f f f f f f f f f f s s f f f f f f f f f s f f f f f f f f g g f f f f f f f f f f f f f f f f f f f f f f f g f f f f f f f s s s s f f f f f f f j f s y s v &.8.x.M.n.x.a.n.M.n.p.3.U k s j k v v v v v v v v k k k k k v v v v v v v v v J v v v v k k v v v v k k k k v v v v k k k k k k v v v j j v &.8.x.m.m.n.x.x.n.n.n.n.n.M.m.M.a.8.<.I L P R E E E E E E R R E E R U I I U U R R R R R U U I I I I I I I P v j l L <.w.n.B.M.n.n.c.x.x.x.x.c.n.n.n.n.n.n.n.n.n.n.n.M.M.0.G.GX                                      ",
"                                    HX0.. # * : , < < < < < < < < < , , , < < < < < , , , , , , , , , , , , , , , , , , , , , = , , , , , , , , , , , , , , , , , , , , , , , , , , , , , , , < < 3 3 3 3 < < < < < < < < < < < < < < < < < < < < < < < < < < < < < < < < < < < < < < < < < < < < < < < < < < < < < < < < < < < < 3 3 3 r r r r r 3 r r s f f f f s s f f f f f f f f f f f f f f f f f f f f f f f f f f f s g f f f f f f f f f f f f f f f f f f f f f f f f f f f f f f f f f f f f f f f f f f f f f f f f f j f f s y s v E 8.a.n.n.n.x.n.m.n.p.3.U k s j k v v v v v v v v v v k v v v v v v v v v v v v v v v v v v J J v v v v v J J v v v k k k k k v v J v j j J &.8.x.B.B.M.c.x.n.n.n.n.n.M.m.n.p.3.E L L I R E E E R R E E E R E U R I I U I R R R R I I I I I I I I I I P L k L U 2.w.n.M.n.a.a.x.x.x.x.c.n.n.n.n.c.c.n.n.n.n.n.n.m.m.x.3.|.PX                                    ",
"                                  LXM.. O * * : , < < < < < < , , , , < < < < < < < , , , , , , , , , , , , , , , , , , , : % $ - = = , , , , , , , , , , , , , , , , , < , , , , , , , , , , , , , < < < 3 3 3 3 < < < < < < < < < < < < < < < < 3 3 < < < < < < < < < < < < < < < < < < 3 3 3 < < < < < < < < < < < < < < < < < 3 3 3 r r r r r r r p s f f f f f f f f f f f f f f f f f f f f f f f f f f f f f f f f f f f f f f f f f f f f f f f f f f f f f f f f f f f f f f f f f f f f f f f f f f f f f f f f f f f j l f f f f f k L E 3.0.a.x.x.n.B.M.a.3.E k f j v v v v v v k v J J v J v v v v J J J J J v v v v v v J J J J J J J v v J J v v v v v k k k v v J L k j j J &.8.n.B.B.M.n.n.n.n.n.n.n.m.m.n.u.2.E L L R R R R R R E E E R R R R R R R R R R R R R R U I P P I I I I U P L k L E 3.p.n.m.n.x.x.x.n.n.n.n.n.n.n.n.n.c.c.c.n.n.n.M.m.M.n.8.&. XLX                                  ",
"                                LX.X$ X % & * = , < < < < < < < < < < < < < < < < < < , , , , , , , , , , , , , , , , , * % P 7.d O # % = , , , , , , , , , , < , , , , , , , , , , , , , , , , , , , , , < < < 3 3 3 r 3 < < < < < < < < < < < < 3 < < 3 < < < < < < < < < < < < < < < 3 3 3 3 < < < < < < < < < < < < < < < < < < 3 r r r r r r r r p s f j j j f j j f f f f f f f f f f f f f f f f f f f f f f f f f f f f f f f f j f f f f f f f f j j f f f f f j l f f f f f f f f f f f f f f f f f f f f f f f f f f k k k j j j k k k v L P E <.3.p.n.M.a.8.*.k f j k v v v v J v v v v v J J J J J J J J J J J J J J v v v v v v v v v J J J v v v v v v v v v v v L L v j j L <.0.n.B.B.n.n.n.c.n.n.n.n.m.m.x.0.2.E L P R E R R R E E E E R R R R R R R R R R R R R R U U U I I I I I I P P v n U 2.w.n.m.m.n.n.n.n.n.n.n.n.n.n.n.n.n.n.c.n.n.n.M.m.M.a.0.>.>.$XLX                                ",
"                                %X3 X & & & * = , < < < < < < < < < < < < < < < < < , , , , , , < < < < , , , , , , , * % 3.*XfX@XA.>.* # $ % = : : , : , , , , , < , , , , , , , < < < , , , , , , < , , , , , < < < < 3 r r 3 3 < < < < < < < < < < 3 3 3 < < < < < < < < < < < 3 3 3 3 3 < < < < 3 < < < < < 3 3 < < < < < 3 3 3 r r r p p p p r p p s f l l f f f j f f j j f f f f f f f f f f f f f f f f f f f f j f f f f f f f l k j f f f f f j j f f j j j j f f f f f f f f f f f f f f f f f f f l f f f f f f j l k k j j j k k v v v k k k k L E 3.0.8.2.E J j k v v v J J J v v v v L L n J J J L L L L v n v v n v v J v v v v v v v v n v v v v v J J v v v v L L v l j L <.0.n.B.m.n.n.n.n.n.n.n.n.m.M.a.4.<.R L I R E E E E R R R R E R R R R E R R R R R R R R R R U U U I I I I I P L L P U >.4.p.n.n.M.n.n.n.n.n.n.n.n.n.n.n.n.n.n.n.n.m.M.n.a.0.3.U 0.vX                                ",
"                              FXE X % * * * * : , < < < < < < < < < < < < < < < < < < , , , , , , < < < < , , , , < , O b ,XsXW.iXJXmXXXM.l % # # - , < , , , , < < < < < , , < < < < < < < < < < < < , , , , , , , , , < < 3 3 3 3 3 3 < < < < < < < < < 3 3 < < < < < < < < < < 3 3 3 3 3 < < < < 3 3 3 3 3 3 3 3 < < < < < 3 3 3 r r p p p r r r r p s f k k f f f f f j j j j j f f f j j j f f f f f f j f j j j j j f f f f f f f f f j j j j f f f f f f f f f f f f f f f f f f f f j j f f f f j l l l j j j f f f j k k k j k k k k v J L J J v k k v L P I I L L v v v J v J J J v J J L L L n v v v n L L L J L v J v v J L L n v v v v v L L L L v v v v v v v v v L L v l k L <.w.n.B.M.n.n.n.n.n.n.n.M.m.n.p.3.E P L I R R E R E R R R R R R R R R E E E E E E E R R R R R R R E R U U U I I I I P L P E <.0.a.n.M.M.n.n.n.n.n.n.n.n.M.M.n.n.m.m.M.n.p.8.3.>.U S.IX                              ",
"                            LXA.. # * * * * * , < < 8 3 3 3 3 3 < < < < < < < < < < < , , , , , < < < < < < , , , , # :  XPXSXW.W.sXJXJXZX%X X7.p * # @ : < < , < < < < < < < < < , , , , < < < < < < < < < < < , , , , , , , < < < 3 3 r r r 3 < < < < < 3 3 3 3 3 3 3 3 3 < < 3 3 3 3 3 3 3 < < < < < 3 3 3 3 3 3 3 3 < < 3 3 < < 3 p p p p p r r r p s f j k j j j j j j l k l l l j j j j j j j j j j j j f f j j f j f f f j j j f f f f f j j j f f f l l l f f f f l l j f f f j j l l j j j f f f l l j f j f j f f j j k k k k k k k v J L L L L L J J v v J L L L L L L J J J J J L L J J L L L L J J J J J L J L L L n v J L L L J v n J L L L L n n L L L v v v v v L L J k k I 2.w.n.B.M.n.n.n.n.n.n.n.m.m.n.0.2.E L L R R E E E R E E E E E E R R E E E E E E E E E E R R R R R R R R R R U U U U R P L L P <.0.x.B.B.m.M.n.n.n.n.n.n.n.n.n.M.m.m.M.a.w.3.<.<.>.E XXLX                            ",
"                          nX#X< O * * * * * * : < < 8 8 3 3 3 8 8 3 < < 3 < < < < , , < < , , < < < < < < < < , , * # j.ZXJXZXuXW.-XZXCXSXJXJXNX$XZ.U < $ # - , < < < < < < < < < , < < , , < < < < < < < < < < < , , < < < , , , , , < 3 3 3 r p p p 3 3 3 3 3 3 3 3 3 3 3 3 < 3 3 r 3 3 3 3 3 3 3 3 3 3 3 r r r 3 3 3 3 3 3 3 < 3 r p p p p p p r p s s f j l f j l l l l l l l l j f l j j l l j j j j j f f f f f j j l j j f j j j j j j j f f j j l l j j f f j j l l l j j j j j j j j j j j k k j j l l l j j j j j j l k k k k k k v J J L L L L L L v J J L L L L L L L L J J L L L L J J L L L L L J J J L L L L L L L L L L L J v v L L L L J J v n L L L L v v v v L L J k k I 2.p.n.B.m.n.n.n.n.x.c.n.m.M.x.0.<.R L L R R E E E R E E E E E E E E E E E E E E E R E E R E E U U R R R E R I I U U R R P L U <.0.n.B.B.m.M.n.n.n.n.n.n.n.n.M.M.m.m.n.p.0.3.<.<.3.>.4.%XvX                          ",
"                          FXm . * = * * * * = : , < 8 8 < < < < 8 8 8 3 3 < < < < < < < < < < , , , < < < < < < , O n tXJXCXSXdXW.W.pXCXsXsXCXJXJXSXtXXXi.l = # # : < < < < < < < < < < < < , , , , < < < < < < < < < < < < < < < < , , , , < < 3 p p p p r r 3 3 3 < 3 3 3 3 < 3 3 3 3 3 r r r r r 3 3 3 3 3 3 3 3 < < 3 < < < < 3 p p p p p p p p p s g j j l j j l l k k k l l k j j j j f f j l l l j j j j j l l l l l l j l l j j j j j l l j l l j j f f f j j j l l l l k k k l l l j j j j l l l j j l k k k k k l l k k k k k k k v J L L L L L L J J L L J J L L L L L L L L L L L L L L L L L L L L v J L L L L L L L L L L L n L L L L L L L J J n L L L L L L J L P L J k k I 2.p.M.B.B.n.n.n.x.x.x.n.B.M.a.4.&.I L I R E E E E E E E E E E E E E E E E E E E R R E E E U U U R R R R E R U U U R E R I L E <.0.n.B.B.m.M.n.n.n.n.M.M.M.M.M.m.B.M.n.u.4.<.<.2.3.3.U M.IX                          ",
"                        PXG.X # * * * * * * * , , < 8 8 < < < < < < < < < 3 3 8 8 < < < < < < < < < < < < < < < $ , oXJXSXAXZXCXuXE.7XZXsXsXsXsXAXSXJXSXAX&XG.>.p # X % , < < < < < < < < < < < < < < < < < < < < < < < < < < < < < < < < , , , , < < < 3 p p p p p r 3 3 3 3 3 3 3 3 3 < r 3 3 r r r r r 3 3 3 r 3 < 3 3 3 3 3 3 3 p p p p p p p p p s s g j l k k k k k l l l k k k l l j f f j k k k l l j j l l l l k k k k k k l j j j j l l l l l j j j j j f j j j j l k k j l l l l l l l l f l f j j j j k l j l l l k k k k k k k v J L L L L L L L L L L L L L L J L L L L L L L L L L L L L L L L L J J L L L L L L L L L L L L L L L L L L L L L L L L J J L L L L L L L J J P &.4.p.n.n.n.n.n.n.n.n.M.B.n.p.3.E L P R E E E E E E E E E E E E E E E E E E E E E E E E E E E E E E E E E R U U E E E E R L I >.0.a.m.B.m.n.n.n.M.M.M.M.M.n.M.B.B.M.a.0.3.<.<.2.3.3.<.E +XPX                        ",
"                        $X< X * * * : , * * * , , < 8 8 8 8 8 3 3 < < 3 8 8 8 8 3 < < < , < < < < < < < < < < * # N.SXJXCXCXCXSXpXE.W.sXCXsXsXAXAXAXAXCXJXJXSXmX*XM.*.r O # : < < < < < < < < < < < < < < < < < < < < < < < < < < < < < < < < < < < < < < < < 3 r p p p p p r 3 3 < < 3 3 < 3 3 < 3 8 p p 8 3 3 r 3 3 3 3 r r 3 3 3 p p p p p p p p p s s f f k l l l k k k k k k l l l l j l k k k k k k k k j k k l k k k k k l l l l j j k l k k l l k k l l j j j j k k k k k j j j k l l k k k l l j l j j j j j j l k k k k k k k k v J L L L L L L L L L L L L L L L L L L L L L L L L L L L L L L L L L L L L L L L L L L L L L L L L L L L L L L L L L L L J J L n L L L L P L L L I E >.2.4.0.w.a.x.n.M.B.m.n.0.<.R P P E E E E E E E E E E E E E E E E E E E E E E E E E E E E E E E E E E E E E E E E E E P P &.4.a.M.B.B.M.n.M.M.M.M.M.M.n.M.B.m.n.p.0.2.<.<.3.3.3.3.E 4.,X                        ",
"                      KX>.. % * * * * , * * * , < 3 8 p 8 8 8 8 3 3 8 8 8 8 8 8 3 < < < < < < < < < < < < < , O U tXJXZXCXCXCXSXsXW.E.yXCXsXsXsXsXAXAXAXAXCXSXJXSXSXtXoXp.m * O * , , < < < < < < < < < < < < < < < < < < < < < < < < < < < < < < < < < < < < , < < 3 r p p p p p p 3 3 3 < < < < < 3 r p p 8 3 3 3 3 3 3 r r 3 3 p p p p p p p p p p s g j k k f f f l l k k k k k k k l l l k k k k k k k k k k k k k k k l l l l k k k k k k k l l l k k l l l l l k k k k k k k k k f f l k k k k k j k l l l l j j k k k k k k k k k k J L L L L L L L L L L L L L L L L L L L L L L L L L L L L L L L L L L L L L L L L L L L L L L L L L L L L L L L L L L L L L L L L P L L P P P I I R R R R R E <.4.p.n.B.B.n.0.<.U P R E E E E E E E E E E E E E E E E E E E E E E E E E E E E E E E E E E E E E E E E &.E P I &.8.a.m.B.B.M.n.M.M.M.M.M.M.M.m.B.M.n.p.4.<.<.2.3.3.3.3.2.U Z.PX                      ",
"                    PX.Xo O * * * = * * * * * , < 3 8 p p 8 8 8 8 8 8 p 8 8 8 8 3 3 3 < < < < < < < < < < < @ 3 OXJXSXCXCXCXCXZXSXyXE.W.sXsXsXsXsXsXAXAXAXAXAXAXZXSXJXSXZX%XG.1.< O $ : , < < , < < < < < < < < < < < < < < < < < < < < < < < < < < < < < < < < < < < < < < 8 p p p s p p p 8 3 3 3 r r 3 r 3 3 3 3 r p p p r < p p p p p p p p p p p s g j l k l j j j j j j j k k k v k k k k k k k k l l l k k k k k k l l k k k k k k j k k k k k l l l k l k k k k k k k k k k k l l l l k k k k k k k l l l l j l l k k k k v k k k k J L L L L L L L L L L L L L L L L L L L L L L L L L L L L L L L L L P L L P L L L L L L P L L L L L L L L L L L L L L L L L L L L L L I P P I R R E E E R P L P >.0.n.C.C.n.0.<.R P R E E E E E E E E E E E E E E E E E E E E E E E E E E E E E E E E E E E E E E E E E R I R <.8.a.m.B.m.n.n.M.M.n.n.M.M.M.B.B.M.a.0.3.<.<.2.3.3.3.3.3.[ E &XPX                    ",
"                    BXb X - * * * * * * * * : , < 3 p p p 8 8 8 8 p p p p 8 8 8 8 8 3 < < , , < < < < < < * @ V.SXJXCXCXZXCXCXCXSXaXW.W.iXsXsXsXsXsXsXsXsXAXAXAXAXAXCXZXSXSXSXtXXXM.P - # * : , < < < < < < 3 < < < < < < < < < < < < < < < < < < < < < < < < < < < < < < < < < < 8 p p p s p p p r 3 3 3 r r p p p r p p p p p p p p p p p p p p p p s g f l k l l l l j j j f j j l k k k J v v k k k k k l l l k k k k k l l k k k k k k k k k k k k l l k k k k k k k k k k l l k k k k k k k k k k l l l l k k k k j j k k k k k k k k L L L L L L L L L L L L L L L L L P L L L L L P L L L L L L L L L L P P L L L L L L L L L L L P L L P L L L L L P P L L L L L L L I I I I I I R R E E E E R L R <.0.n.C.C.n.0.<.R P R E E E E E E E E E E E E E E E E E E E E E &.&.&.E E E E E E E E E E E E E E E E E E U R <.0.a.M.B.m.n.n.n.n.n.n.n.M.m.B.B.n.i.8.2.<.<.2.3.3.3.1.1.2.R s.HX                    ",
"                  GXQ.X # * * : : * * * * * * , < 8 p p p p 8 8 8 8 p p p 8 8 8 8 8 3 3 < < < < < < < < , # >.tXJXZXAXZXZXZXCXCXZXZX5XE.5XsXsXdXsXsXsXsXsXsXAXAXAXAXAXAXAXZXSXSXJXSX,X|.w.p $ % * : < 3 < < < < < < < < < < < < < < < < < < 3 3 < < < < < < < < < < < < < < 3 < < < , < 3 p d d d s p p p p p p 3 3 3 3 r p p p p p p p s p p p p p p s f j k k k l l l j l l j j j j j f l l k k k v v v v k k l l l k k k k l l k k k k k k k k k k k k k k k k k k k k k k k k k k k k k k k k k k k l l l k k k k l l k k k k k k k k v L L L P P P L P L L L L L L L L L L L P P L L P L P P P P L L L L L L L L L L L L L L L L P L L L P L L L L L L L P P P L L L L L L I I I I I R R E E E E R R R >.4.a.m.B.n.0.<.R P R E E E E E E E E E E E E E &.[ E E E E &.&.E E E E &.&.&.&.E E E E E E E E E E E E R U R <.0.a.m.B.B.M.n.n.n.n.n.n.M.m.B.m.n.u.4.<.<.2.3.3.3.3.1.3.1.>.U OXKX                  ",
"                  vXs X * * * = = = * * * * * , < 8 p p p p 8 p p p p 8 8 8 8 p p 8 3 < < < < < < < < < # p *XJXSXAXCXZXZXCXCXCXZXSXiXE.W.pXsXdXdXsXsXsXsXsXsXsXCXAXAXAXCXCXAXCXCXSXJXJXNX*XZ.U = % % * , < < < < < < < < < < < < < < < < 3 3 3 < < < < < < < < < < < < < < 3 3 3 3 < < 3 8 p d d d d a p p p p p 3 3 3 3 p p p p p p s s p p p p p s s f l k k k l l l j l l l l l l j j l l l l l l k k v v v k k k k k k k l l l k k k k k k k k k k k k k k l k k k k k k k k k k k l k k k k k k k k k k k k k l l l l k k k v v k v v J L L P P P L P L L P P P P L L L L L P L L L L L L P P L L L L L L L L L L L L L L L L P P P L L L L L L L L L L P P P P L L L L L I I R R R R E E E E E E E E E E <.3.0.8.4.<.E R E E E E E E E E E E E E [ [ >.[ E E E E E &.E E E E &.&.&.E E E E E E E E E E &.>.>.E R E <.0.a.m.B.m.n.n.n.n.n.n.M.M.m.B.M.a.0.3.<.<.1.3.3.3.3.3.1.3.1.U i.HX                  ",
"                FXB.X % * * * = = , : : : * * , < 8 d d d 8 8 8 p p p p p p 8 8 p 8 3 < < < < < < < < * $ C.JXJXAXCXZXZXCXCXCXZXZXZXAXW.E.5XsXdXdXdXdXsXsXsXsXsXsXsXAXAXAXCXCXAXAXsXCXCXSXJXSXtXoXa.l = - % : < < < 3 < < < < < < < < < < < < < < 3 3 3 3 < < < < 3 3 3 < < 3 3 3 < < < 8 p a d d d a a d d d d s p p p p r r p p p p s s s p p p s s s f l k k k l l l k k k k l l l l l l j l l l l l l l k k k v J v v k k k l l h k k k k k k k k k k k k k k k k k k k k k k k k k k k k k k k k k k k k k k l l l k k k k v v v v v J J L L I I I P P P P P P L L L L P L P L L L L L P P L L L P L L P P L L L L L P P P L L L L P P P P L L L L L L L P P P P L L P P P I R R R R R E E E E E E E E E E E E &.&.[ E E E E E E E E E E E E E E [ >.>.E E E E E E E E E E &.E >.&.E E E E E E E E E E E &.&.&.E R E <.0.n.m.B.m.M.n.n.n.n.n.n.M.B.B.n.p.4.<.>.<.1.1.1.1.1.1.1.2.3.>.E OXKX                ",
"                vXp X = = * * * * * : , : * * , < 8 p d d p 8 8 p p p p p p 8 8 p 8 8 3 3 < < < < 3 , O >.mXJXZXAXZXZXCXCXCXCXZXZXZXSX8XE.W.pXdXdXdXdXdXdXdXsXsXsXsXsXsXAXAXAXCXAXAXsXsXsXsXCXSXJXNX&X|.3.p - # * < 3 3 < < < < < < < < < < < < < 3 3 3 3 3 3 3 3 3 3 3 3 3 3 8 3 < < < 8 p d d d d d a a a a d d d s p p p p p p p p s s s s p p s s g f l k k k l l l l l l k k l l l l l k k k k k l l l l l l k k v v v L k k k k k k k k k k k h h k k k k k k k k k k k k k k k k k k k k k k k k k k k k k k k k k k k k v J v v v J L L P I I I P P I I P P P L P L I I I P L L L P I I I P P L L P P P L L P P P P P P L L L L P P P P I P L L L P L L L L L L P P P P I U R R R E E E E &.E E E E E E E E E E E E E E E E E [ &.E E E E E E E &.&.E E E E E E &.E E E E E &.&.E &.&.&.E E E E E E &.>.>.>.E R E <.0.a.M.B.m.M.M.M.M.M.n.n.m.B.m.n.w.3.<.>.<.1.1.1.3.3.3.3.3.3.3.U p.GX                ",
"              GXA.@ % * * * = = * = : , , * * , < 8 p d d p 8 p p p p p p p p p p p 8 3 3 < < < < < # s #XJXSXAXZXZXCXCXCXCXZXZXZXZXSXAXW.E.yXdXpXpXdXdXdXdXdXsXsXsXsXsXsXsXAXAXAXAXAXsXAXsXsXsXsXSXJXSXmX*Xa.b 3 - @ : < 3 3 3 < < < < < < 3 3 < < < < < < 3 3 < 3 3 3 3 3 3 3 3 < < < 8 p d d h d d d d d d d d s p p s d d s p p p p s s p p p s s g f l l k l l l l l l j k k k l l l l k k k k k k k l l l l l l l l k k k v L n v k k k k k k k k k k k k k k k k k k k k k k k k k k k k k k k k k k k k k k k k k k k k v J v v v J L P P P P P P P P P P P P P P P I P P I I P P P Y R I P P L L P I P P P P P P P P P P P P P I I I I P P P P P P P L L L L L P P P I I R R R R R E E >.<.&.E E E E E E &.&.E [ [ E E E &.>.>.>.>.>.[ E E &.&.&.&.&.E E E E >.>.>.>.&.E E &.>.[ [ [ [ [ &.&.E E E >.>.<.<.<.E E <.2.4.w.p.p.i.a.n.n.n.n.m.B.B.m.a.0.3.>.>.>.<.>.>.>.,.<.<.1.3.3.<.E XXKX              ",
"              HXm X * * * * * * = * : : : : : , 3 p d d d a 8 p p p p p p p p p p p 8 3 < < < < 3 * * G.JXJXAXCXZXZXCXAXCXZXZXZXCXZXZXSX4XE.W.pXpXpXpXdXdXdXdXdXdXdXsXsXsXsXsXAXAXAXAXsXAXAXAXAXAXsXsXZXSXJXBXtXoXq.n , # $ < 3 3 < < < 3 3 3 3 3 < < 3 3 < < 3 3 3 3 3 3 3 3 3 3 < < < 8 p d d h d d d d d d d d d d d s s s p p p s p s s s p p p p s g l k k k l k k k k k l l l l l l k k k k k l k k l l l l k l l l l l l k k v v L n v v k k k k k k k k k k x x k k k k k k k k k k k k k k k k k k k k k k k k k k k k v v k v n J L L P I I P P P P P P P P I I P Y Y P P I I P P P Y R R I I I P P I I I I I I P R R R I P L L I I P I P P P P P P P P P P P P P I U R R R R R R E E [ [ [ E &.[ [ >.>.>.>.[ >.[ [ [ [ <.<.<.<.<.<.>.>.>.>.<.<.<.<.>.>.>.[ >.>.<.<.>.>.>.>.>.>.>.[ >.>.<.>.>.>.>.>.>.<.<.<.<.<.<.<.<.<.2.3.3.4.8.0.w.w.a.n.n.x.w.3.>.>.<.2.4.5.1.3.3.4.3.3.2.<.<.R i.HX              ",
"            &XoX@ @ * * * = = , * * : : * * : < 3 p d d d a a p p p p p 8 p p p s p 8 3 < < < < , # 3.mXJXCXCXZXZXCXAXCXZXZXZXCXCXZXZXSXaXW.E.yXpXiXpXpXpXpXdXdXdXdXdXdXsXsXsXsXAXAXAXAXAXAXAXAXAXAXsXsXNXNXJXJXSXNX%XG.2.f : , 8 8 8 8 3 3 3 3 3 3 < 3 3 < < 3 3 3 3 3 3 3 3 3 3 < < < 8 p d h h h d d d d d d d d d d d s s p p s s s s s s s p p p s l l l k k k k k k k k l l l l l k k k k k l l l k k k k l l l k k k l l l h h h k k n L L L L n k k k k k k k k k k k k k k k k k k k k k k k k k k v k k k k k k k k n k x k x L L L P P R R R R R P P P I I I P U U U R U U R R U P P R R R R U P P P U U U U I I U I I I P P U U U U U U U I P P P P I I R U I P P I R R R U U E E E [ >.<.<.<.>.>.[ [ <.<.[ <.<.[ [ <.<.>.>.>.<.<.<.>.>.>.>.>.>.>.>.>.<.<.>.>.>.>.>.>.>.>.>.>.>.>.>.>.<.<.>.>.>.,.,.,.<.<.<.<.<.1.2.2.2.2.2.<.<.<.2.3.8.p.a.p.8.4.4.4.u.s.N.N.N.N.N.b.d.u.4.5.<.&.I +XLX            ",
"            vX>.X * = = = = = , , : : : * * * < 3 s d h d d a p s a a p p p p s s p p 8 3 < < < $ f #XJXSXAXZXZXZXCXCXZXZXZXZXCXCXCXZXZXZX2XY.W.iXiXyXyXpXpXpXpXpXpXpXdXdXsXsXsXsXAXAXAXAXAXAXAXAXAXAXNXNXNXNXNXZXJXJXSXmX#X3.: < 3 8 8 3 3 < < 3 3 3 3 3 3 3 3 8 8 8 8 3 3 3 3 3 3 < < 8 p d h h h d d d d d d d d d d d d d d s s s s s s s s s s s s l l k k k k k k k k l l k k k l k k l k k k k k k k l l l k k k k k h l k k l h l l k k k v v L L L n v k k k k k k k k x k x x k k k k k k k k k k k k k k k k k k k n x L n x n L L P Y R U U R R R R R R U U U U U R R R U U U U U U U U R R U U U R U U U U U U U R U U U U U U R R R R U U U U U P P P P P P I P I P U R R R R E >.<.<.<.<.<.<.<.<.O.<.<.<.<.<.<.<.<.<.<.<.<.<.<.<.<.<.<.1.<.<.<.<.<.>.1.1.1.1.1.1.1.1.1.1.1.1.1.1.1.1.1.1.1.<.1.1.1.2.2.2.2.2.1.<.2.<.>.>.>.>.3.0.s.N.B.B.V.B.N.N.B.S.S.Z.S.S.S.S.S.S.V.N.c.d.y.=.G.LX            ",
"            $X* # = * * = = = , : : , , , * : , 3 p d d d d d d d d d d p 8 s d d s p 8 3 < < * * G.JXSXAXZXZXZXCXCXCXZXZXCXCXCXCXCXCXZXSXiXE.E.yXpXyXyXiXiXpXpXpXpXpXpXpXpXdXsXsXsXsXAXAXAXAXAXAXsXAXNXNXNXNXNXNXNXZXSXJXPX,X*.$ < 3 3 3 8 3 3 3 3 3 3 3 3 3 3 8 8 8 8 8 3 3 3 3 < < 3 8 s h z z h d h h d d d d d d d d d d s s s s s s s s s s s s d l l k k k k k k k k k k k k k k k l l k k k k k k k k l l k k h k k k k k k k k k k k k l l k k x L L L L L L n k k k k k k k x k k x n n x x k k k k k k k k x x x x x x x n n n P P P R U P P P U U U U U U U U R U U U U U U U U U U U E U U U U U U U U U U U E E E E E E U E E E E E E U U U U U [ >.>.[ E U [ >.<.<.>.>.>.[ >.<.<.<.<.<.>.E [ <.<.<.<.<.<.<.<.<.<.<.<.<.1.1.1.1.1.1.1.1.1.1.1.1.1.1.1.1.1.1.1.3.2.2.2.2.1.2.3.3.3.3.2.3.2.2.2.2.2.2.1.1.3.7.w.a.a.a.w.0.0.w.a.n.C.Z.G.G.G.G.G.A.A.A.A.A.A.Z.Z.Z.Z.S.S.A.A.A.Z.S.V.S.vX            ",
"          PXn.. * * * * * = = = , , , , , : : , < p d d d s s s d d d d a a d d d s p 8 3 < , # 3.mXJXCXZXZXZXZXCXCXZXZXCXCXCXCXCXCXCXCXZXAXW.E.W.yX8XyXyXyXyXiXpXpXpXpXpXpXpXdXsXsXsXsXsXsXAXAXAXAXsXNXNXNXNXNXNXNXNXNXBXIXKXQ.* < 3 3 r r p p p 8 8 3 3 3 3 3 3 8 8 8 8 3 < < 3 3 < 3 p s h z z h h h h h h h d d d d d d s s s s s s s s s s s s s g l l k k k k k k k k k k k k k k k l k k k k k k k k k k k k h l h k k k k k k k k k k k k l l l l h k x J L P P P L L n x k k k k k k k x x x k k k x x x k x n x x n x x L L L P P P U U U U P P P P U U U U E [ [ [ [ E E E U U U U U E E E E E E E E E E U E E [ E E E E E E E E E E E E E U P P [ 7.a.n.j.i.6.3.6.q.i.q.q.7.7.7.7.7.6.6.6.3.3.1.1.1.3.3.1.1.<.<.<.<.<.<.<.<.<.1.1.1.1.1.1.1.1.1.1.1.1.1.1.1.1.1.1.3.3.3.3.1.3.3.3.3.3.3.3.3.3.3.3.3.3.1.,.2.w.n.Z.Q.Q.G.A.G.F.Q.A.A.A.A.F.F.F.F.F.UXF.F.F.F.A.A.A.A.A.A.A.A.A.A.A.A.B.$XLX          ",
"          vXb o * * * * * * = = = : , , : : : , < 8 d d d d s s s d d d s s d d d s p p 3 < $ s $XJXZXCXZXZXZXCXCXZXZXCXCXCXCXCXZXZXZXCXZXZX7XY.E.5X8X8X7XyXyXyXyXyXiXpXpXpXpXpXpXdXsXsXsXsXsXsXAXAXAXNXNXNXNXNXNXMXMXMXVXBXJX,XI $ 3 3 3 3 3 r p 8 3 8 3 3 3 8 3 8 8 8 8 3 3 3 3 3 < < p d h z z x h h h h h h h d d d d d d d s s s s s g g g g s s s l l k k k k k k k k k k k k k k k k k k k k k k k k k k k k k k k k k k k k k k k k k k k k k k k k h h l k x L L L P P P P L L k k k k x k k v v x x x x x k k x n n P P P P P P P P P U U U U U U U U U U U U U U E [ [ [ [ [ [ [ [ E E E [ [ [ [ [ [ E [ E E E E E E E [ [ [ [ E E E E E U P P E 3.a.m.B.M.j.q.6.q.i.j.i.q.q.i.i.q.q.0.6.6.q.i.a.j.i.q.6.7.7.3.3.3.6.7.3.3.1.1.1.1.1.1.1.1.1.1.1.1.1.1.1.1.1.1.1.1.1.1.1.1.3.3.3.3.3.3.3.3.3.3.3.3.3.3.3.1.1.7.w.M.C.Z.C.B.M.n.M.B.Z.A.Q.|.F.A.F.|.|.|.|.|.|.|.|.G.A.A.A.A.Z.Z.A.A.A.Z. XGX          ",
"           X# % * * * = = = , : * : * = : * : , 3 p d h h d d d s s s s s s s d d s p p 3 : % G.JXSXCXZXZXZXZXCXCXZXZXCXCXCXCXCXCXCXCXAXAXAXpXE.E.W.6X3X3X7X7X7XyXyXyXyXyXiXpXpXpXpXdXsXsXsXsXsXsXAXAXNXNXNXNXNXNXMXMXMXVXVXHXHXN.# < 3 3 3 3 r 3 3 3 3 p p 3 p r p 8 8 8 8 p p p 3 < 3 8 d z x x x x h h h h d d d d d d d d d d s s s d d d d s s s d l l k k k k k k k k k k k k k k k k v v k k k k k k k k k k k k k k k k k k k k k k k k k k k k k k k k k k h h k k k J P P P P P L L n n x k k k x x n n n n k x n P P P P L L P P P P U U U U U U U U U U U U U U U U [ [ [ [ >.>.>.[ [ [ [ [ [ [ [ [ [ [ [ [ [ [ [ [ [ [ [ E E U U U E >.1.7.0.q.q.j.j.j.q.0.0.0.0.0.q.6.0.q.i.i.i.q.0.6.0.q.i.a.i.i.q.6.6.6.0.i.i.j.j.i.i.q.6.6.7.7.3.7.6.6.7.3.3.1.3.3.3.3.3.3.3.3.1.1.1.1.1.1.3.3.2.2.1.1.1.1.3.3.2.3.3.2.3.3.7.0.0.0.3.<.>.3.0.p.x.c.n.m.B.Z.A.A.A.Z.Z.Z.C.C.S.N.m.V.B.C.C.S.B.n.x.p.&X          ",
"        FXw.X * * * * * * = = , , , , , : : : , < p d h h d d d d d d d d d d d d d 0 8 < # 3.mXJXZXZXZXZXZXZXCXCXZXZXCXCXZXZXCXCXCXCXAXsXaX0XW.Y.E.1X3X3X3X6X4X7X7XyXyXyXyXiXiXpXpXpXdXdXdXsXsXsXsXNXNXNXNXNXNXNXMXMXMXVXVXBXJX+Xf * 8 3 3 3 3 3 3 3 3 3 3 3 p r p 8 8 3 8 8 p 3 3 < < 8 d z x x x x x l l l l h h d d d d d d s d s s d d d d g s s g f k k k k k k k k k k k k k k k k k k k k k k k k k k k k k k k k k k k k k k k k k k k k k k k k k k k k k k k k k k l k k x L P P P P P L n n S x S x n x x x n n n P P P P P P P U U U U U U U U U U U U U U U U U U [ [ [ E [ >.>.>.>.>.>.>.>.[ [ [ [ [ [ [ [ [ E E U U U [ ,.7.6.6.7.7.q.j.M.M.j.q.q.q.q.q.i.i.i.q.q.q.q.q.q.q.q.q.q.i.i.j.a.a.i.0.0.6.6.0.i.i.i.q.q.0.0.i.i.i.i.i.i.i.i.i.i.i.0.0.q.q.q.q.q.0.6.6.3.3.3.3.3.1.1.<.1.1.3.1.1.1.1.2.3.3.3.3.3.3.3.2.3.3.3.3.3.3.3.<.>.>.2.8.s.N.V.N.s.u.y.8.8.y.y.8.8.8.u.s.s.d.u.4.&.I |.KX        ",
"        %Xl # * * : * * * * = : , , , , , : : : < 8 d h h h d d d d d d d d d d d d s 8 % s $XJXSXZXZXZXZXZXZXZXZXZXZXZXZXZXCXCXCXAXAXAXpX6X=X=XE.Y.W.1X1X1X3X3X6X4X7X7X7X8XyXyXyXiXpXpXpXpXpXaXaXsXNXNXNXNXNXNXNXMXMXMXMXVXVXSXNX0.# 3 3 3 3 3 3 3 3 r r 3 3 3 3 8 8 8 p 8 8 8 8 3 < < 8 s h z x z z h h h x l h h d d d d d d d d s s s d d g g s s g f k v v k k k k k k k v v k k k k k k k k k k k k k k k k k k k k k k k k k k k k k k k k k k k k k k k k k k k k k k k k k k k k L L P P P P P P P P L n n n n n n n P P P P P P P U U E [ E E [ [ [ E U U [ [ [ [ [ [ [ [ [ [ [ [ [ [ >.>.>.>.>.>.[ [ E E [ [ U U [ 1.3.7.0.q.q.j.M.M.j.i.q.q.q.a.j.n.M.j.q.7.3.3.0.a.j.j.i.i.q.q.q.q.6.6.6.0.0.p.a.a.a.a.a.j.j.i.i.0.6.6.0.i.i.i.i.i.i.i.a.a.i.i.a.i.i.i.i.i.i.i.i.i.i.i.i.i.6.7.7.6.6.0.0.6.3.3.7.6.6.6.4.4.3.2.2.3.4.4.4.4.3.3.2.2.2.2.4.4.y.u.u.y.4.4.2.2.2.2.2.2.2.2.2.4.4.4.4.4.5.&.s.cX        ",
"        .X% $ * , , * : : , : : , : : , , , : , < 8 d h h h d d d d h d d d d d d d d > : R.JXSXZXZXZXZXZXZXCXCXZXZXZXZXCXCXCXCXCXCXAXsXqX=X).).W.E.Y.U.(.).1X1X3X3X3X3X6X4X8X7XyXyXiXpXpXpXpXaXaXaXaXNXNXNXNXNXNXMXMXMXMXbXbXBXSX Xt : r 3 3 3 3 3 3 r r 8 8 8 3 3 8 8 8 3 8 3 3 3 3 3 p d x x x x x x z z z z z h h h d d d d d d d d g g g g g s g l l k v v k k k k k k k v v v k k k k k k k k k k k k k k k k k k k k k k k k k k k k k k k k k k k k k k k k k k k k k x x x x x k k k k x P P P P P P P P P P n n n P P P P P P P P P U U [ [ [ [ [ [ [ [ [ [ U P n x x P [ [ [ [ E [ [ E E E E E [ [ E E [ 1.7.q.a.j.j.j.n.M.M.M.M.M.j.a.q.6.7.6.q.a.n.M.j.0.2.>.[ 1.6.i.i.i.q.q.q.i.a.a.i.q.q.i.a.k.n.M.M.n.n.k.j.a.a.j.j.k.j.a.i.0.6.0.i.a.a.j.j.i.i.6.0.i.j.k.k.j.a.a.i.a.a.i.i.a.j.j.j.a.i.i.i.i.i.0.6.4.6.6.0.u.u.u.u.0.6.4.4.4.4.4.4.4.3.4.2.2.2.2.2.4.4.4.4.4.4.4.4.4.5.5.4.4.4.4.<.<.$X        ",
"      GXB.O % = * * * * , , , , : : : , , , , , 3 8 d h h h h h d d h h d d d d d d 8 ; 0.mXJXZXZXZXZXZXZXCXCXZXZXZXZXZXCXCXCXCXCXAXsXiX=X).[.).1XE.E.I.I.I.U.(.1X1X1X1X3X3X6X4X8X7XyXiXiXiXiXaXaXaXaXNXNXNXNXNXNXMXMXMXMXbXMXVXSXtX&.$ 3 r 8 r r 3 3 3 8 p p 8 r r r r 8 r p p 3 3 3 3 s h x D D x x x x x z x x x h l l l d d d d d d s g g s g g d l l k k k k k k k k k k k v v k k k k k k k v k k k k k k k k k k k k k k k k k k k k k k k k k k k k k k k k k k k x x x x x x x x x x x x x x x L P P P P P P P P P m P P P P P P x l x x P [ [ [ [ [ [ [ [ [ U >.3.7.1.U P U [ E U U U U U U U [ 1.1.3.3.7.0.j.M.B.m.j.i.0.6.7.0.a.j.j.q.q.q.q.i.a.q.0.6.0.q.q.i.i.i.a.j.j.j.j.i.0.0.q.a.n.M.n.n.j.j.k.k.n.n.n.k.k.j.j.j.j.j.a.i.i.0.0.0.i.i.a.j.j.a.i.i.i.j.M.M.M.k.a.i.i.i.j.k.k.j.a.i.i.i.i.j.k.k.k.a.u.0.0.i.j.k.n.k.k.a.i.i.i.i.i.u.u.u.u.0.0.6.6.4.4.4.4.4.4.4.4.4.4.4.4.4.4.4.4.4.2.&.oXKX      ",
"      cXU O * * * * * * = , : : , , , , , : : , 3 p d h z h h h h h d d d d d d h d : n &XJXSXZXZXZXZXZXZXCXCXZXZXZXZXZXCXCXCXCXAXAXpX6X).).).).).W.W.Y.L.K.I.I.U.(.).1X1X1X3X3X3X6X8X8XyXiXiXiXaXaXaXtXNXNXNXNXNXMXMXMXMXbXMXbXFXSXH., < p p p p p p p p p p 3 r p p p p p p p r 3 3 3 s d x S D D x x x x x x x x l l l l h d d g 3 1 , , > s d d d l l k k k k v k k k k k k v v v k k k k k k k k k k k k k k v v k k k k k k k k k k k k k k k k k k k k k k x k x x x x x x x x x x x x n x x P P P n n n n P P P P P P P P P P P [ j.B.B.N.6.[ [ [ [ [ [ [ [ m j.#XcXcXcXoX3.n m P U E [ >.1.3.7.q.q.i.j.j.j.i.a.j.j.q.q.q.7.3.1.1.7.q.j.M.m.m.m.M.n.a.q.0.q.q.j.n.n.n.n.n.n.n.n.j.a.p.i.a.j.k.n.n.n.n.n.j.j.j.j.j.n.n.n.n.j.a.i.q.q.i.i.a.j.j.k.k.k.k.j.j.k.n.n.n.k.j.j.j.j.j.k.k.k.a.i.0.0.i.j.k.k.j.j.a.a.i.i.i.a.k.M.M.n.a.i.i.i.a.k.k.k.s.a.i.i.i.i.i.u.u.0.6.6.4.4.4.6.6.6.4.4.4.4.4.4.<.S.vX      ",
"      $X* # = = , : = = = = = : , , , , , : : , 3 p d h x h h h h d d d d d d d h 8 3 R.JXSXZXZXZXZXZXZXCXCXZXZXZXZXZXZXCXCXCXAXAXdXqX=X(.(.(.(.[.W.E.Y.K.L.K.K.I.I.I.U.(.).1X1X1X3X3X6X8X8XiXiXiXiXtXtXtXMXMXMXMXMXMXMXMXMXMXbXVXSX,XL % p p p p p p p p r r r r p p p p p p 8 3 3 3 p s h x D D D x x x x x x x x h l h h l h d l P <.>.<.>.n s s s l l k k v v v v v v k k k k k k k k k k k v v k k k k k k k k k k k v v k k k k k k v v k k k x x k k k x x x n n n n n n x x x x n n n n n n n P P P P P P P P P P P P P P P P l p.cXPXGXFX XU U [ [ [ E U n 1.$XLXLXLXLXPX XU U >.1.3.0.q.j.j.n.j.j.j.a.a.q.q.q.q.q.q.q.q.q.i.i.q.q.q.a.j.j.j.j.a.a.a.i.q.i.j.j.j.j.j.a.a.a.j.j.n.n.n.n.n.n.n.n.M.M.n.k.j.a.j.j.j.k.n.n.n.n.n.k.j.j.j.j.a.a.a.j.k.n.M.n.n.j.k.k.j.a.a.a.a.a.a.j.k.k.k.j.i.i.i.a.a.p.u.0.0.w.i.a.a.a.n.M.n.k.i.i.i.a.k.M.B.N.M.n.k.k.k.k.k.k.s.a.a.a.i.u.0.6.u.u.0.u.0.0.4.4.2.4.cX      ",
"    PX XO % = = = , : , = , , , , , , , : : : , 3 8 d h x x h h d d d d h h h h d > i.mXJXZXZXZXZXZXZXZXCXZXZXZXZXZXZXZXZXCXAXAXsXiX=X).).(.(.(.[.(.E.W.I.K.K.K.K.K.K.I.I.I.(.(.1X1X1X3X3X8X8XqXqXqXeXeXeXMXMXMXMXMXMXMXMXMXMXMXbXHXNXs.: 3 p p p p p p p p p p p 8 8 p s s p 8 3 3 8 s d z S D D D S x x x x x x x x h h h d d 8 x  XvXcXvX,Xs.3 p g f l k v J J k k k k k v v k k k k k k k k v v k k v v v k k k k k v v v v k k k k k k k k n n v v k x x x x n n n n n n n n x n n n n n n n n n n n n m P P P P P P P P P P U P l n.GXLXLXLXOXP P [ E E U U l n.BXLXLXLXLXLX&Xq.7.0.6.6.q.j.M.m.m.n.a.i.q.q.q.a.a.j.j.a.i.0.q.a.a.j.a.q.0.6.3.3.3.7.6.0.i.i.i.a.a.j.j.a.a.a.a.a.j.j.n.n.n.j.a.a.a.a.a.a.j.k.n.n.n.n.j.j.j.n.M.n.j.a.a.k.j.a.a.a.p.a.j.k.j.a.a.a.j.k.k.k.k.k.a.a.k.k.k.n.k.a.i.i.i.i.a.a.a.a.i.i.a.a.k.s.a.i.i.i.a.n.M.M.M.M.M.n.n.k.k.n.n.M.M.M.k.a.a.a.i.i.i.u.u.u.i.i.i.u.u.4.2.&XPX    ",
"    cXn.# % * : : , , , : , , , , , , , , : : , 3 8 d z x x h d d d d h h h h d 4 P &XJXSXZXZXZXZXZXZXZXZXZXZXZXZXZXZXZXCXAXAXsXpX6X).(.).(.(.(.^.[.W.E.Y.I.K.K.K.K.K.K.K.K.I.I.U.(.).1X1X3X6X8X0X0XeXeXeXeXMXMXMXMXMXMXMXMXMXMXjXVXHX+Xf * p p p p p p p p p p p s 0 s s 8 p 8 s p 3 p s h x D D D S x x x x x x x h h h h h d 3 P %XLXLXLXPXA.3 p f l k k v v k k k k v v v v k k k v v v J v v v k k k v k k k k k k v v L J J J k k k k k k x S x x x n n n n n n n n n n n n n P n n n n n n n P P m m P P P P P U P P P P U U U x k.FXLXLXPXXXm m E U U P P l B.FXLXLXLXLXLX%Xj.3.q.q.a.j.n.n.n.a.q.0.0.0.a.j.n.n.n.n.n.j.a.a.j.j.n.j.a.i.i.q.0.q.q.i.p.a.n.n.n.j.a.q.q.a.j.k.n.k.j.n.n.k.a.i.0.q.i.i.a.j.n.M.n.n.n.k.j.a.j.j.a.i.q.i.p.a.n.M.n.n.j.a.a.a.a.a.k.n.j.j.a.a.j.j.k.k.k.j.j.j.a.a.a.j.n.M.n.k.a.a.a.a.k.k.a.i.i.a.n.M.B.B.m.n.a.i.i.a.a.a.k.k.k.k.s.i.u.u.i.s.k.s.a.i.i.i.s.s.i.u.4.5.oXnX    ",
"    %Xn X * = = : : : : : : , , , , , , , : : , 3 s h x x z h h h h h d d d h 0 0 R.JXSXZXZXZXZXZXZXZXZXZXZXZXZXZXZXZXZXCXAXAXdX8X=X(.(.(.(.(.(.^./.(.E.E.Y.K.K.K.K.K.K.K.K.K.K.I.I.I.(.(.).1X1X6X0X0XwXwXeXhXhXMXMXMXbXMXMXMXMXMXMXHXtX2.* 3 p p p p p 8 p 8 p s s s s p 0 0 s p p 8 8 s d x D D D D S S S x x x x x h h h h h 0 P %XLXLXLXPXA.3 s g l l k v v v v v v v k k k v v v v v k k k k v v k k v v k k k k k v J L L L S L v v n n n x x n n n n n n n n n n n n n n n n n n n n n n n P P P P P P P P P U U U P U U U U P l j.FXLXLXLXXXn n U U E >.1.>.A.FXLXLXLXLXLX%Xj.6.a.j.n.n.n.n.a.q.0.6.0.0.q.a.j.j.n.n.n.n.n.j.j.a.p.q.0.0.i.a.j.n.n.k.a.a.k.n.n.n.p.6.3.6.i.j.k.j.a.a.s.k.n.k.k.k.k.j.a.a.a.k.n.n.k.a.i.0.0.u.a.a.j.n.n.n.n.n.n.n.n.n.n.n.n.n.n.k.a.u.0.w.p.k.M.M.M.n.n.n.n.n.n.k.a.a.i.i.i.i.i.a.a.k.k.n.M.m.m.M.n.a.a.a.k.n.k.k.s.k.n.n.n.n.s.s.i.a.n.n.n.s.i.u.u.i.i.s.s.i.u.4.B.vX    ",
"    %X* O = = = * = , , , , , , , : , , , , , , 3 s h x x z h h h h h h h h d 4 i.NXJXZXZXZXZXZXZXZXZXZXZXZXZXZXZXZXZXCXAXAXsXiX=X(.(.(.(.(.(.^.^./.^.E.E.E.I.I.I.K.K.K.K.K.K.K.K.K.K.I.I.I.(.).=X=X;X<XwXwXwXhXhXjXbXbXMXMXMXMXMXzXVXVXQ.3 > s p p p p 8 8 8 s s s s s s s s s p p r r s h S D D D D S S S S x x x x h h h h h 0 P %XLXLXLXKXZ.8 s l l l k k J J J v k k k k v J J v v k k k k k J v v v v v k k k x n n x n x S S L n n L n n n n n n n n n n n n n n n n P P P n n n n n n n n P P P P P P P P U U U U U U U U U P l a.BXLXLXLXXXP P 1.7.q.j.k.q.k.%XLXLXLXLXPXoX0.a.j.j.j.j.j.j.j.j.j.j.a.i.q.w.q.i.a.j.j.a.a.a.a.i.w.0.0.0.0.q.i.a.a.j.j.a.j.k.n.n.j.p.w.0.i.p.a.a.a.k.n.n.M.n.k.j.a.a.a.a.a.k.n.n.j.p.i.i.p.j.n.n.n.n.n.n.n.n.n.n.n.n.k.k.n.n.n.j.i.u.u.i.j.n.M.M.M.n.n.n.n.n.n.a.i.i.i.k.k.j.i.p.i.s.M.m.m.m.M.a.u.0.w.i.n.B.B.M.n.k.n.k.a.a.s.n.n.M.M.M.k.i.i.i.i.u.i.s.s.s.s.4.0.vX    ",
"    XX% # = * * = = : , , , , , , , , , , , , , 3 s h x x z h h h d d h h h 3 P $XSXZXCXZXZXZXZXZXZXZXZXZXZXZXZXZXZXZXAXAXsXpX;X).(.(.(.(.(.(.(.(.^.^.).E.E.U.U.Y.I.I.K.I.K.I.K.K.K.K.K.K.K.K.I.^.[.).9X9X>XwXlXhXhXzXMXbXMXMXMXMXzXzXDX,XU : p s s p p p p p p s s s s p p p p p s p p s h S T T G D S S S x x x x x x x x h h 0 P %XLXLXLXKXZ.0 s l l k k v v v k k k k k k v v v v v v v v k k C L L v v v v k n n n n n n n n n n n n n n n n n x x n n n n n n n n n n n m P P P P m m m m m P P U U U U U U U U U U U U U U U n d a.BXLXLXLXOX3.6.i.j.k.n.a.i.3.B.&XcXcXcXOXk.3.0.w.a.j.n.n.n.n.j.j.a.a.a.a.a.a.p.p.p.a.a.s.k.k.n.n.k.a.i.i.u.u.u.u.i.a.k.n.n.n.a.i.i.i.i.i.i.a.a.a.a.p.u.w.u.i.k.n.n.n.n.n.n.k.j.j.n.n.M.M.M.n.n.n.k.k.n.n.n.n.n.n.k.a.a.a.s.n.n.j.j.k.n.n.n.n.n.k.j.n.n.n.n.k.k.n.n.n.n.k.a.i.a.n.M.M.M.n.n.s.k.n.n.s.s.n.M.M.M.n.n.n.k.a.a.i.p.i.s.n.n.k.s.s.s.i.i.i.i.s.k.k.i.u.,X    ",
"  %XZ.# % , , = = : = : : : , , , , , , , , : , 3 s d x x h h h h h h h h 0 s R.SXSXsXCXZXZXZXZXZXZXZXZXZXZXZXZXZXZXCXAXsXdXqX).(.(.(.(.(.(.(.(.^.^.[.<X;XW.U.U.Y.Y.I.I.I.K.K.I.K.K.K.K.K.L.L.L.L./.^.)._.9X>X>XlXlXhXjXjXjXzXzXzXzXhXVXVXS.< 3 s s s s s s p 8 p p s s p s s s s s p s g h S T { G S S S S S S S x x x x x x h 0 P %XLXLXLXKXZ.0 s d l l k v J J v v J k k v v k v v n v v k k k k L L n n v v v n n n n n n n n n n L n n L n n n n n n n n n n n n n n n m n m P P P P P m m m P P P P U U U U U U U U U P P P U [ U C.FXLXLXLX$Xa.a.j.a.a.i.w.w.w.0.a.B.m.a.6.6.w.w.p.a.j.k.a.p.w.0.0.0.p.a.j.k.j.a.a.a.a.p.0.0.0.p.n.n.j.a.a.a.i.i.0.3.4.0.u.i.i.u.0.6.0.u.a.a.i.i.0.6.3.4.0.a.m.C.C.C.M.k.a.i.i.i.a.k.M.M.M.n.j.i.i.a.a.a.j.j.a.a.s.k.k.k.k.n.n.n.n.a.a.a.a.n.n.n.n.n.n.n.n.a.a.a.a.k.M.M.n.a.a.n.M.M.k.i.i.i.s.n.M.n.k.a.i.i.a.n.M.M.M.M.M.n.s.i.p.u.i.s.n.n.n.s.s.s.s.s.s.s.s.u.0.#XcX  ",
"  $Xx.O * , , : = = , : : : , , , , , , , , : , 2 8 d h x h h h h h h h d 3 l.sXSXdXsXAXZXZXZXZXZXZXZXZXZXZXZXZXZXCXAXAXsXiX=X(.(.(.(.(.(.(.(.(.^.^.9X<X>X;X1XU.U.U.U.U.I.I.I.I.K.K.I.I.K.K.L.L.L.L.!./.^.)._.>X>XlXlXkXkXjXjXjXzXzXzXzXDX*Xl > s s s s s s 8 0 p p s s s s s s s s p s g h S T T D S S S S S S S x x x x h x h s P %XLXLXLXKXZ.0 s d h l k v J J v v v v v v v k k n n L n v k k n n L L n n n n n n n n n n n n n n n n n P P n n n n n n m P P P P P P P P P P P P P P m m m P P U U U U U m m m P P U E >.,.3.0.i.0.G.FXLXLXPX#Xa.a.k.k.n.n.n.n.M.n.n.n.n.M.m.B.m.n.n.a.a.p.0.6.6.0.u.i.a.a.a.a.a.a.a.a.i.u.6.6.0.u.a.k.k.s.k.n.n.a.i.0.0.0.i.i.i.i.u.0.6.u.i.k.k.i.u.6.6.u.s.M.B.m.M.n.a.i.i.i.i.i.a.n.n.n.k.a.i.i.p.a.a.j.k.a.i.i.s.n.M.m.M.n.n.k.a.a.u.0.6.w.a.n.M.m.M.M.n.a.i.i.i.k.M.M.n.n.n.M.M.M.s.a.a.a.s.n.n.n.n.s.s.s.s.n.M.M.M.k.s.s.s.c.c.s.s.s.s.s.s.s.s.s.s.i.i.i.i.u.4.oX%X  ",
"  #X,.X : , : : , , , : : , , , , , , , , : : , 3 s d h x h h h h h h h 0 d @XSXpXdXsXsXCXZXZXZXZXZXZXZXZXZXZXZXZXCXAXsXpX;X).(.(.(.(.(.(.(.(.^.^.=XeX9X1XuXuX4X1X1XU.U.I.U.Y.I.I.I.K.K.I.K.K.L.L.L.L.!././.'._.].>XgXlXlXkXkXhXzXzXzXhXzXlXd.> 8 s s s d s s g s s s d g g s s d s s s h S D T T D S S S S S S x x x x h h h h 0 P %XLXLXLXKXZ.0 s d l l k v J n n v v k v L L L L L L L L n n n n n n n n n n n n n n n n n n P n n n n P P P P P P P P P P P P P P P P P P P P m m m m m m m U U U P m m m m m P E >.1.6.0.0.0.w.w.3.Z.FXLXLXPX$Xn.n.B.B.C.C.C.B.B.N.M.B.C.C.C.B.M.n.n.n.k.s.i.i.i.s.s.k.s.a.i.i.u.i.i.i.i.i.i.i.i.i.i.i.a.a.s.k.a.p.i.i.a.k.M.n.s.i.u.u.6.u.i.a.k.a.i.i.a.a.s.s.a.i.i.i.i.i.i.i.i.s.n.k.a.u.0.0.u.a.n.M.n.n.n.k.k.a.s.n.M.M.n.a.u.u.u.i.i.u.0.6.u.i.a.k.k.s.a.k.n.n.s.s.s.a.i.i.a.n.n.n.s.s.c.c.n.n.n.n.n.n.M.n.M.M.n.n.s.i.i.i.i.s.s.s.n.n.k.s.i.u.u.u.u.u.u.p.s.s.4.G.&X  ",
"  $Xp X : = : : , , : : * * : , , , , , , , : , 3 s d h x h h h h h h h 0 t.:XaXpXdXsXsXCXZXZXZXZXZXZXZXZXZXZXZXZXAXsXpX6X).(.(.(.(.(.(.(.(.(.^.).<X>X=XfXuXyXuXuXyX3X1XU.I.I.I.Y.Y.I.I.K.K.K.L.L.L.L.!././.`.'._._.>XgXxXlXlXkXkXkXzXzXzXDXQ.s 2 s s s s g d g d d d d d g g g g d s g h S D / T T D S S S S S S S S x x h h h 0 P %XLXLXLXKXZ.3 s l l k k J J L n n n n L L n n n L L L L n k d s r 3 3 3 3 p s h n P n n n n n P P P P P m m m P P P P n b l d p a a d d l n m m m m m m m n n n n n m U >.7.q.a.a.i.6.6.3.3.0.p.n.n. XGXLXLXLX&XB.C.A.Z.C.C.B.B.N.M.M.M.n.n.k.M.N.B.B.B.N.N.N.M.k.s.u.u.u.u.u.4.4.4.1.3.2.<.[ <.2.4.u.i.i.i.i.i.u.u.u.i.i.i.s.i.u.0.u.u.6.3.3.1.3.3.3.4.6.0.u.i.s.s.k.n.n.s.i.i.i.s.k.s.u.4.3.3.4.i.n.n.n.n.n.n.k.a.i.i.i.a.a.a.a.p.u.u.a.n.n.k.a.i.u.u.i.s.n.n.n.a.i.i.u.u.u.0.0.0.u.a.n.n.n.s.i.i.i.a.s.n.n.n.n.n.n.n.c.s.s.s.s.i.i.i.s.k.s.s.u.u.y.u.u.u.u.u.u.u.4.N.cX  ",
"  #X= O : : = : , , : : : : : , , , , , , , , , 3 s d h x h h h h h h d 0 H.aXiXpXpXdXsXAXZXZXZXZXZXZXZXZXZXZXCXCXAXsXiX=X[.(.(.(.(.(.(.(.(.^.^.9X<X=X2XuXyX7X7XyXuXuXyX4X1X(.I.I.I.Y.Y.Y.I.K.L.L.L.!.!.!././.`.'._._.{.gXgXxXxXlXlXlXzXlXzX>X5.2 s g d s s d g d d d s s s d g g g d d h S T  . .T D D D S S S S S S S x x x h s P %XLXLXLXKXZ.8 s l k k v L L L L L L n n n n n L L P L k s d U 3.0.u.p.i.0.3.>.n s b m P m n n m m n m m m n n n n d s x E 1.0.0.0.0.0.3.>.n d h n n P P U U U E E ,.4.i.n.B.B.M.n.M.B.B.B.Z.Z.Z.C.n.|.FXLXLXLX$Xn.n.N.m.B.B.B.B.B.B.n.n.k.k.M.B.V.B.B.V.N.N.k.s.u.4.<.5.4.4.5.R <.u.s.N.S.H.C.V.s.5.<.u.u.u.u.u.6.u.u.s.s.i.u.4.3.4.<.1.s.B.A.G.G.G.Z.B.n.s.i.0.6.0.i.n.n.k.s.a.i.a.n.n.k.i.0.4.4.u.i.s.n.M.M.n.n.s.a.i.i.i.a.a.a.a.s.s.a.a.a.a.a.s.n.M.M.M.n.n.k.s.k.k.s.a.i.u.u.p.s.n.B.B.M.n.s.i.s.s.s.n.n.n.n.M.M.n.n.s.s.s.i.s.s.s.s.s.u.u.u.u.u.p.u.u.u.u.u.4.2.u.cX  ",
"PX.X= # : : : , , : , , , , , , , , , , , : : , 3 s h S S x h h h h h d h J.rXqXiXpXdXsXsXCXZXZXZXZXZXZXZXZXZXCXAXsXpX=X[.(.(.(.(.(.(.(.(.(.^.=X<X9X1XuXyX7XyXyXyXyXyXyXuXuXyX3X1X(.I.I.Y.Y.Y.I.L.P.P.!.!././.`.'._._._._.{.gXgXgXxXxXlXlXzXzXQ.8 0 g g g g d d g g d d g g s g g d s d h S D T T T D D P D S S S S S S S S x x d U %XLXLXLXKXZ.s d l k n L P P P m n n n n n n n P P P h x 0.|.#XcXnXFXGXFXnXcX%X.Xn.m d x n n n P P P P P P P P h P 3.M.|.#XcXnXnXnXnXvXcX&X Xa.[ [ 3.6.i.k.B.B.C.B.C.B.B.B.n.a.N.|.#X%XcXcXcXcX%X#X|.XXGXLXLXLX#X8.4.u.s.n.N.N.n.s.A.XX#X#X#X XN.d.d.d.u.u.u.y.5.y.G.+XG.y.) r.S.oX%XvXnXHXIXHXnX,XoXu.) 5.4.4.4.4.u.u.u.u.0.4.4.3.<.s. X%XvXFXGXIXGXBXvXcX%X$XXXG.B.i.u.i.i.i.u.i.i.k.n.M.n.s.i.i.i.i.s.n.M.M.M.n.n.n.n.s.i.u.u.0.u.s.s.a.u.0.0.u.a.M.M.M.n.s.s.s.k.n.M.n.n.s.a.i.s.s.n.M.n.M.n.n.n.n.s.s.s.s.s.s.s.s.s.s.s.s.p.p.p.i.s.s.u.u.u.u.u.s.s.d.u.u.u.y.y.5.u.&XPX",
"KX|.- $ , , , , : , , , , , , , , , , , , : * : 2 0 h S S x h h h h h d t.=XrXqXiXpXpXdXsXAXZXZXZXZXZXZXZXZXCXAXsXpX0X).^.(.(.(.(.(.(.(.(.^.).<X>X=XfXuXyXyXyXyXyXyXyX7X7XyXuXuXuX7X1X(.U.I.I.Y.U.I.K.!.!.!./.[.'._._._._.{.{.{.gXgXgXgXxXxXzX>X&.8 d h h h h h h h h h h h h d d d d d h S D T T T D D D D D S S S S S S S x x h [ %XLXLXLXKXA.d d x x n n P P P n n n n x n n x P n l P |.nXPXLXLXLXLXLXLXLXLXLXLXFX+X6.[ 3.3.6.6.6.6.0.0.6.3.u.C.XXcXGXPXLXLXLXLXLXLXLXLXLXPXnX#XC.B.Z.A.A.A.A.A.A.A.Z.Z.B.B. XcXGXPXLXLXLXLXLXLXPXIXIXPXLXLXLX$Xs.i.s.n.N.N.B.N.u.|.FXLXLXPX,Xs.) <.=.=.=.<.5.) y.vXLXBXV.5.OXHXLXLXLXLXLXLXLXLXLXPX,XN.) 5.y.u.u.u.u.4.4.4.6.4.3.A.cXKXLXLXLXLXLXLXLXLXLXLXLXPXGXvX#XB.0.u.u.0.u.u.i.a.s.s.n.n.n.c.s.s.a.s.s.s.n.n.n.s.i.0.4.0.u.i.n.n.s.s.i.i.i.i.s.s.s.s.s.s.s.s.s.s.s.s.n.n.c.s.s.s.s.s.s.s.s.s.s.s.s.s.u.u.u.u.u.u.u.d.s.s.s.d.u.u.u.u.u.u.u.u.u.u.u.u.u.u.y.u.4.4.OXKX",
"GXZ.% % , , , , : , , , , , , , , , , , , : : : 2 s h x S x h h h h h 8 J.rXqXqXqXiXpXdXsXsXCXZXZXZXZXZXZXZXAXsXdXqX).^.(.(.(.(.(.(.(.(.^.(.<X<X=X2XuXyXyXyXyXyXyXyX7X7X7X7X7XyXuXuXuXyX3X1XU.Y.I.Y.U.U.^./././.'._._._._.{.{.{.{.{.{.gXgXgXxXxXH.8 s d h h h l l h h h h h h h h h h h h S T T T T T D D D D S D D P P P P D D x O.%XLXLXLXKXG.P P U P P P L P R >.,.<.3.3.4.4.6.6.3.3.oXKXLXLXLXLXLXLXLXLXLXLXLXLXLXLXcXZ.0.w.0.4.3.4.0.s.M.M.|.nXLXLXLXLXLXLXLXLXLXLXLXLXLXLXLXPX$XB.m.B.B.m.m.M.n.s.s.s.n.#XGXLXLXLXLXLXLXLXLXLXLXLXLXLXLXLXLX%XB.B.B.N.N.N.N.n.4.|.IXLXLXLXcXs.<.5.5.<.=.=.<.R y.nXLXPX#X#XPXLXLXLXLXLXLXLXLXLXLXLXLXcXN.5.t.u.t.y.4.r.y.u.u.4.|.FXLXLXLXLXLXLXLXLXLXLXLXLXLXLXLXLXKX X3.4.y.y.u.u.u.i.s.s.s.s.s.s.i.i.u.u.u.i.s.s.s.i.u.4.4.4.u.i.c.n.k.s.s.i.i.p.p.i.p.p.p.p.p.i.i.s.i.i.s.s.s.s.s.s.s.s.s.d.u.u.u.p.d.d.u.u.u.y.y.y.y.u.u.u.d.u.u.u.y.y.y.u.u.y.4.4.4.4.4.4.4.4.4.2.oXGX",
"FXM.# % , , , , , , , , , , , < < < < < , , : , 3 s h S S S x h h h d h J.rXqXqXqXiXpXpXdXsXAXZXZXZXZXZXZXZXAXdXiX=X^.^.^.^.^.(.^.(.(.(.^.=XeX9X1XuXyXyXyXyXyXyXyXyXyX7X7X7X7X7X7X7X7XyXyXyX4X1XU.U.Y.Y.U.(.(.[.'._._._._.>XgXgX{.{.{.{.{.{.gXxXQ.R 0 h h h h h h C C S S S S Y T T T E [ O.X.5.5.5.5.5.5.6.6.u.6.4.X.E T Y T T T 4.,XLXLXLXPXoXu.u.i.i.6.2.<.<.4.6.u.i.u.u.u.i.i.0.3. XKXLXLXLXLXGXcX,X%X%XcXnXPXLXLXLXLX#X<.E 3.3.3.3.0.p.M.M.A.nXLXLXLXPXFXnXvXvXnXFXPXLXLXLXLXLXFX|.a.n.M.M.M.n.s.s.i.u.|.HXLXLXLXLXPXGXFXFXHXGXPXLXLXLXLXLXLX$Xc.s.s.s.s.s.s.n.u. XGXLXLXLXcXV.u.s.s.s.u.u.4.) u.vXLXPXGXPXLXLXKXnXcXcXcXvXKXLXLXLXLXLX+X5.4.y.y.y.y.y.u.y.5.s.vXLXLXLXLXIXnXcXcXcXvXnXHXPXLXLXLXLXPX X4.u.u.u.u.u.u.i.s.s.s.u.u.u.u.u.u.u.u.u.i.s.i.u.u.u.u.y.y.y.u.p.s.p.u.u.u.u.u.d.s.d.u.u.y.y.y.u.u.u.u.y.y.u.u.u.u.u.u.u.u.u.u.u.u.u.y.y.y.4.4.4.y.y.y.y.y.y.4.4.4.4.4.4.4.4.4.4.4.4.4.4.4.4.5.2.oXGX",
"nXa.# * , , , , , , , , , , , , < < < < < , , < 3 d h S S S x h z h 8 h.=X0XqXqXqXqXiXpXpXsXsXZXZXZXZXZXZXAXsXpX;X)./.^.^.^.^.^.^.(.(.I.).<X>X=XuXuX7XyXyXyXyXyXyXyX7X7X7X7X7X7X7X7X5X4X4X7X7X7X7X3X1XU.Y.Y.U.(.).)._._.].].gXgXgXgXgXgXgX{.{.xXxXJ.[ 1.3.4.4.4.4.4.u.u.i.s.s.s.k.n.N.N.N.N.N.N.N.N.s.d.u.u.d.d.s.i.4.O.T P P T S 2.%XLXLXLXPX X1.1.3.3.3.1.<.<.<.<.>.>.E R R P P l >.,XLXLXLXIX#XB.8.>.U E <.c.OXGXLXLXLXFXG.6.M.B.M.a.u.u.u.i.n.#XnXvX&X#X XG.Z.Z.A.|.XXvXLXLXLXLXLX$Xn.M.M.M.n.n.n.n.n.B.lXLXLXLXLXvXOX X|.|. XoX#X%XnXLXLXLXLX+X&.<.5.2.5.4.4.y.2.|.GXLXLXLX,Xs.5.p.n.B.B.B.n.u.N.vXLXLXLXLXLXvXXXG.B.N.B.G.oXvXLXLXLXLXcXV.4.u.u.u.u.u.u.y.5.oXPXLXLXLXvX XV.s.d.s.N.H.G.#XGXLXLXLXIX Xy.s.s.s.s.s.d.d.u.u.u.u.u.u.u.u.y.y.u.y.u.u.u.y.y.y.y.y.4.4.4.y.y.y.y.y.4.4.y.y.y.u.y.y.4.4.4.y.y.y.4.5.5.4.4.4.4.y.4.4.4.4.4.4.4.4.4.4.4.4.4.4.4.4.4.4.4.4.4.4.4.4.4.4.4.4.4.4.4.4.4.4.4.4.4.<.|.FX",
"nXw.# , < < , , < < < < < < < < < 2 3 3 3 < < < 3 d z S S S S z z h 8 J.rXqXqXqXqXqXiXpXpXdXsXCXZXZXZXZXCXsXpX0X)././.^.^.^.^.^.^.(.^.^.9X<X=X2XuXyXyXyXyXyXyXyXyXyXyX7X7X7X7X7X7X7X7X5X5X5X7X7X7X7XyX7X3XW.U.U.).).=X9X9X>XgXgXgXgXgXgXgXgXgXxXxX_.y.1.4.u.u.i.u.u.u.u.u.4.6.4.4.4.4.3.4.u.u.d.i.u.4.5.E T T T [ [ [ T T P P x d U %XLXLXLXKXG.d h x x n P P P P P P P P P P P x s M.FXLXLXLX#Xv 3 k U >.3.0.0.p.#XPXLXLXLX$Xa.M.B.B.M.s.s.s.i.n.Z.G.Z.a.i.a.a.n.n.a.u.4.B.cXLXLXLXLX,Xc.s.N.B.M.a.u.8.2.G.FXLXLXLXcXC.4.4.4.4.5.2.&.<.XXPXLXLXPXXXY Y &.<.<.=.&.) C S.FXLXLXLX%X4.Y 2.4.4.u.p.u.1.i.vXLXLXLXLXvXN.<.w.a.n.a.i.6.G.nXLXLXLXGX Xi.M.M.M.n.c.s.u.s.cXLXLXLXFXG.4.4.8.4.4.4.y.<.N.vXLXLXLXKX X5.u.u.u.d.s.s.d.u.y.y.y.y.y.y.y.u.u.y.y.y.y.y.y.y.y.y.y.y.y.4.4.5.5.5.5.5.5.<.<.5.5.5.5.5.5.5.5.5.5.5.5.5.5.4.4.4.4.4.4.4.4.4.4.4.4.4.4.4.4.4.4.4.4.4.4.4.4.4.4.4.4.4.4.4.4.4.4.4.4.4.4.4.4.4.E G.BX",
"vX3.# < < < < 3 3 3 2 2 3 3 3 3 3 3 3 3 3 3 < 3 8 d h S D S S S x d ) =XrXqXqXqXqXqXqXiXpXpXsXsXCXZXZXZXAXdXiX=X/././.^.^.^.^.^.^.^.^.=XeX9X3XuXyXyXyXyXyXyXyXyXyXyXyXyXyXyX7X7X7X7X7X7X7X7X7X7X7X7X7X7XyXyX5X3X1X9X9X9X9X9X>X>XgXgXgXgXgXgXgXgXxX{.J.g C Y Y Y Y S C C V V V V V g g h C F G / / / T T T T P S S S S P P P P S h [ %XLXLXLXKXG.d h x x n P P U U P P m n n m P k n  XPXLXLXGX|.<.4.u.s.B.Z.A.A.M.|.nXLXLXLXcXB.a.M.B.B.B.B.B.N.M.n.s.n.n.n.s.s.n.M.M.M.a.4. XKXLXLXLXcXV.u.c.s.u.4.5.=.Y  XPXLXLXKXG.L E &.&.E E R C C  XPXLXLXPXOXR R <.<.<.<.<.&.Y S.FXLXLXLX%X4.Y <.<.[ E E >.L 2.cXLXLXLXPXXXY P <.3.4.4.4.<.3.#XLXLXLXPX X>.u.u.i.i.i.i.u.A.nXLXLXLXcXB.n.B.m.M.n.M.M.0.B.vXLXLXLXKXXXa.M.M.n.n.n.c.c.c.s.d.u.u.u.u.p.u.u.y.y.y.y.y.y.y.y.y.u.y.u.y.y.y.4.4.4.y.4.5.5.5.5.5.5.5.5.5.5.5.5.5.5.5.4.4.4.4.y.y.4.4.4.4.4.4.y.y.4.4.4.4.4.4.4.4.4.4.4.4.4.4.4.4.4.4.4.4.4.4.4.4.4.4.3.4.E G.nX",
"vX<.# 3 3 3 3 3 3 3 3 3 3 3 3 3 3 3 3 3 3 3 < 3 p d h S S S S S S w J.rXiXqXiXqXqXqXqXiXpXpXdXsXAXZXZXAXsXpX9X[././././.^.^.^.[.[.^.).eXwX1XuXyXyXyXyXyXyXyXyXyXyXyXyX7X7X7X7X7X7X7X7X7X5X5X5X5X5X5X4X4X4X4X7XyXyXiXqXeXhXeX<XwX>X>X>XgXgX{.{.{.gXxX}.K h C C C C C C C C F F F F C C S F G / / / T G G T T P D D D D D P P P D h [ %XLXLXLXKXG.l x n n n n n n n n P P n n P E [ w.%XLXLXLXBX|.m.C.B.B.B.B.B.N.i.V.cXLXLXLXnXG.a.M.M.M.N.B.B.B.B.m.M.M.N.N.N.n.n.M.M.M.N.u.G.FXLXLXLXnXS.&.=.E R R R R K +XLXLXLXHXd.u R R R R R R K R oXPXLXLXPXOXR R <.<.<.<.<.) Y Z.FXLXLXLX%X4.Y <.<.<.<.<.<.Y 1.cXLXLXLXFXZ.P E [ E E [ [ U L  XLXLXLXLX|.k R [ <.2.2.<.[ G.FXLXLXLX$Xu.4.u.u.u.u.p.i.3.V.vXLXLXLXKXOXm.B.B.B.B.B.N.M.N.N.N.B.B.B.B.B.B.N.c.c.s.s.s.s.d.s.p.d.s.u.u.y.y.y.y.y.y.y.y.u.u.u.u.u.u.y.y.y.4.4.5.5.4.4.4.4.4.y.4.4.4.y.y.4.y.4.y.y.4.4.4.4.4.4.4.4.4.4.4.4.4.4.4.4.4.4.4.4.4.4.4.4.4.3.4.E S.nX",
"vX&.# t t t t t t 3 3 t 3 3 3 3 3 3 3 3 3 3 3 3 s d h S S S S S h Y J.qXiXiXiXqXqXqXqXiXiXpXpXsXsXCXCXsXdX0X)./././././.^.^.^.^.^.^.9X<X=X5XuXyXyXyXyXyXyX7X7X7X7X7X7X7X7X7X7X7X7X7X5X5X5X4X4X4X4X4X4X4X4X4X4X8X7XiXpXaXNXnXnXMXhXwX>X>X>XgX{.{.gXxX{.:.w C S S S S S S S S S S S F S S D T T T { T T D P P P P D D P P m m m n l [ %XLXLXLXKXZ.p d l x n m P P U >.3.0.u.i.u.i.6.M.vXLXLXLXnXG.a.M.M.M.M.M.M.s.0.N.cXLXLXLXBX|.p.n.M.M.N.B.B.B.M.n.c.s.s.c.n.N.n.c.s.u.u.4.S.nXLXLXLXnXd.u K K K K R K R $XLXLXLXnXd.A R R R R R R K R oXPXLXLXLX+XR R &.=.=.&.) ) Y S.FXLXLXLX%X4.Y <.<.[ [ [ ) S 2.cXLXLXLXnXn.P [ <.<.>.>.>.E k |.PXLXLXLXXXR R >.>.>.<.E T |.IXLXLXPXXXE P E [ >.<.<.<.R s.vXLXLXLXIX X1.0.u.0.0.0.0.6.0.u.i.n.M.N.N.N.N.m.B.B.m.N.M.n.M.M.M.M.n.s.s.s.s.s.d.p.p.u.p.s.s.s.s.s.s.s.s.s.s.d.d.u.y.y.4.5.4.4.4.y.4.4.4.4.4.8.8.8.4.4.4.4.4.4.4.4.4.4.4.4.4.4.4.4.4.4.4.4.4.4.4.4.4.4.4.E S.nX",
"vX&.# t t t t t t t t t t t t t t 3 3 3 t 3 3 3 s g h C C h h h 8 h.0XaXiXiXiXqXqXqXqXiXiXpXpXdXsXAXsXsXiX9X/./././././././.^.^.I.=X<X9X3XuXyXyXyXyXyX7X7X7X7X7X7X7X7X7X7X7X7X7X7X7X5X5X5X5X5X5X4X4X4X4X4X4X8X8XqXiXiXaXvXbXbXbXbXVXMXhXwX>X>X].gXxXxXb.9 x S S S S S S S S S S S S D D T T T T T T P P P P P P P P P P m m x x d P %XLXLXLXKXG.x n U [ 1.0.i.n.M.B.B.B.Z.Z.B.N.i.N.vXLXLXLXnXG.j.m.B.B.M.M.M.M.s.Z.cXLXLXLXGX|.u.M.N.B.B.B.N.k.s.s.n.n.N.B.B.B.n.u.<.R K j y.cXLXLXLXnXd.j K R R R R J 5.,XLXLXLXvXd.A R R R R R R K R oXPXLXLXLX+XR R &.&.&.&.&.) C S.FXLXLXLX%X4.Y ) ) E ) ) ) C 2.cXLXLXLXnXn.P E [ [ [ E E E h G.PXLXLXLXOXE R E [ >.<.E R oXPXLXLXPXOX<.E <.<.<.<.<.<.R s.vXLXLXLXGXG.P <.2.<.<.<.<.2.2.2.3.4.4.4.4.4.4.4.4.4.4.4.4.8.u.u.i.i.u.u.i.s.s.n.N.n.s.d.p.d.s.s.s.s.s.s.s.c.n.c.s.d.u.4.5.5.5.4.4.y.4.4.4.4.4.8.8.8.4.4.4.4.4.4.4.4.4.4.4.4.4.4.4.4.4.4.4.4.4.4.4.4.4.4.4.E S.nX",
"vX&.# t t t t t t t t t t t t t 2 t 3 3 t 2 2 2 y s h C C C g g 4 b.aXaXiXiXiXqXqXqXqXqXiXiXpXpXdXsXsXpX9X/./././././././.^.^./.(.<X<X1X5XuXyXyXyXyXyX7X7X7X7X7X7X7X7X7X5X5X5X4X4X4X4X4X4X4X4X4X4X4X4X4X4X8X8XqXqXiXtXvXvXbXbXbXbXbXbXbXbXhXwX>X>XxX>Xd.w x S S S S S S S S S S D D S D P P T T T T P P P P P x x x x x h x n m x 1.%XLXLXLXPXoXi.a.n.M.B.Z.Z.Z.Z.Z.Z.C.B.B.N.N.s.A.nXLXLXLXnXG.n.B.B.N.M.M.M.B.M.A.cXLXLXLXIX Xa.N.n.s.u.u.4.4.y.y.u.p.s.s.c.s.4.=.K K A u <.cXLXLXLXnXs.C K R R R R K y.,XLXLXLXvXd.A R R R R R R J Y oXPXLXLXPX+XR Y ) &.&.&.&.) C S.FXLXLXLX%X4.L E ) ) ) ) ) Y 2.cXLXLXLXnXn.Y R E E E ) ) E h G.PXLXLXLXOXE T E E E <.R R oXPXLXLXPXOX<.E <.<.<.<.<.2.T s.vXLXLXLXGXQ.R 2.3.3.3.1.1.3.3.2.2.2.<.<.<.<.<.<.<.<.<.<.<.2.2.2.2.2.2.2.2.5.4.4.8.8.8.8.4.4.8.8.8.4.4.4.4.4.4.4.4.4.4.5.5.5.4.4.4.4.4.4.4.4.4.4.4.4.4.4.4.4.4.4.4.4.4.4.4.4.4.4.4.4.4.4.4.4.4.4.4.4.4.4.4.R V.nX",
"cX&.# t t t t t t t t 2 t 2 2 2 2 2 2 2 2 2 2 2 t s A C C C C h 5 r.;XaXiXiXiXqXqXqXqXqXqXiXiXpXpXpXpX0X)././././././././.^././.9X<X=X2XuX7XyXyX7X7X7X7X7X7X7X7X7X7X5X5X4X4X4X4X4X4X4X4X4X4X4X4X4X4X4X4X8X8X8XqXiXtXMXvXbXbXbXbXjXjXjXbXbXVXbXMXzXlXQ.T h x x x S S S S S S S S S S S S S P P P S x x h x S P U [ [ [ U U [ 1.0.a.C.cXLXLXLXPXOXM.B.Z.C.Z.C.B.B.M.N.B.B.B.B.B.N.s.G.nXLXLXLXnXG.a.M.M.B.B.M.M.n.u.N.,XLXLXLXKX|.2.y.5.=.R K K Y R R R R R R R R Y K K K K u 5.cXLXLXLXnXd.A K Y Y Y Y C u.cXLXLXLXvXu.j R R R R R R J Y  XPXLXLXPX+XR Y ) ) &.&.) E C S.FXLXLXLX%X4.L E ) ) ) E ) C 2.cXLXLXLXnXn.Y R E E E E E E h G.PXLXLXLXOXR P E E E [ R Y oXPXLXLXPXOX&.R <.<.<.<.<.<.T s.vXLXLXLXGXG.R <.2.2.2.2.2.2.2.2.2.2.2.2.2.2.2.2.2.2.2.2.2.2.2.<.<.<.<.<.<.<.<.<.&.<.<.<.2.2.2.<.<.<.<.<.<.<.<.<.2.2.2.2.2.4.4.4.4.4.4.4.4.4.4.4.4.4.4.4.4.4.4.4.4.4.4.4.4.4.4.4.4.4.4.4.4.4.4.4.4.4.4.4.4.R B.nX",
"vX<.# t t t t t t t 2 2 2 2 2 2 2 2 2 2 2 2 2 2 3 y g C C C C C g 5 G.NXiXiXiXiXiXqXqXqXqXqXiXiXiXiX0X_./.!.!.!./././././././.).<X;X-XuXyX7X7X7X7X7X7X7X7X7X7X7X7X5X4X4X4X4X4X4X4X4X4X4X4X4X4X4X4X4X4X4X8X8XqXqXiXtXvXvXbXbXbXjXjXjXjXjXjXjXbXbXDXDXV.9 x x x x x x x x x x x x h h h h S S T O.1.1.1.<.<.1.3.u.s.M.M.N.N.B.B.C.B.G.vXLXLXLXPXXXp.i.a.s.k.n.n.M.N.B.B.B.B.C.C.B.M.G.nXLXLXLXnXZ.s.B.B.M.s.u.4.<.R r.%XLXLXLXPXS.u K K K K K K K K K K C A A u u u u u j C 5 <.cXLXLXLXnXs.j J Y K Y K j u.vXLXLXLXvXu.j Y Y Y Y R R J Y  XPXLXLXLX+XY Y ) ) ) ) ) E C S.FXLXLXLX%X4.L E E E E E E C <.cXLXLXLXnXc.Y R E E E E E E h G.PXLXLXLXOXR L R E E E R Y OXLXLXLXPX+X) R <.<.&.&.&.<.P s.vXLXLXLXGXG.U <.2.2.2.2.<.<.2.2.2.2.2.2.2.2.<.<.<.<.<.<.<.<.<.<.<.<.<.<.<.<.<.<.<.<.<.<.<.<.<.<.<.2.2.2.2.2.2.2.2.5.2.2.2.2.4.4.4.4.4.4.4.4.4.4.4.4.4.4.4.5.5.4.4.4.4.4.4.4.4.4.4.4.4.4.4.4.4.4.4.4.4.4.4.R V.nX",
"vX9.# 2 2 2 2 2 2 2 2 2 2 2 2 2 2 2 2 2 2 2 : 2 3 y g h h h g h g 1 y.<XaXiXiXiXiXqXqX8X8X8XqXqXqX0X_.`./.!.!.!.!././././.!.(.<X;X1X5XyX7X7X7X7X7X7X7X7X5X7X7X5X4X4X4X4X4X4X4X4X4X4X4X4X4X4X4X4X4X4X4X4X8X8XqXiXtXvXvXbXbXbXjXjXjXjXjXjXjXkXkXkXVX%X7.8 x x x x x x x h h x P U >.1.1.1.1.6.d.k.B.C.C.B.B.B.N.N.N.B.B.C.C.C.C.B.M.Z.cXLXLXLXPXXX6.2.[ <.4.s.B.B.B.M.n.M.N.B.B.B.i.Z.nXLXLXLXvXd.&.y.u.4.=.R K K ' =.&XLXLXLXPXS.5 K K Y R R Y Y Y K C g J 5.s.S.G.G.Q. XoX XOXFXLXLXLXvXd.g J Y Y Y J j u.vXLXLXLXvXu.g P Y Y Y Y R J L  XPXLXLXLXXXR Y E E E E E E C S.FXLXLXLX%X4.L E E E E E E C <.cXLXLXLXnXc.L R E E E E E R j G.PXLXLXLXOXR L R E E E R R OXLXLXLXPX+X) R &.&.&.&.&.<.P i.vXLXLXLXGXG.U <.<.<.<.<.<.<.<.<.<.<.<.<.<.<.<.<.<.<.<.<.<.<.<.<.<.<.<.<.<.<.<.<.<.<.<.<.<.2.2.2.<.<.<.<.<.<.<.2.2.5.2.2.2.2.5.4.4.4.4.5.4.4.4.4.4.4.5.4.4.4.4.5.4.5.4.4.4.4.4.4.4.4.5.5.5.4.4.4.2.3.4.4.4.E Z.nX",
"nX8.# 2 2 2 2 2 2 2 2 2 2 2 2 2 2 2 2 , , , : 2 3 y g g h g g g g g g @XCXiXiXqXiXqXqX8X8X8X0X0X9X_.'././.!.!.!.!.!././.!./.=X<X=X4XyX7X7X7X7X7X7X7X5X5X5X5X5X5X4X4X4X5X5X4X4X4X4X4X4X4X4X4X4X4X4X4X4X8X8XqXqXiXtXvXbXbXbXbXjXjXjXjXjXkXkXkXkXjXVXH.8 h x x h h h S U >.3.0.i.k.B.Z.A.C.N.k.s.a.a.k.N.V.S.Z.Z.Z.C.B.B.B.B.B.B.B.N.A.cXLXLXLXPXOXi.8.4.4.i.B.C.B.N.s.u.4.4.4.5.&.Y c.nXLXLXLXvX5.u K K K K K K K j =.&XLXLXLXPXS.u K K K K K L L J j R S.#XlXnXHXKXPXLXLXLXLXLXLXLXLXLXvXp.g J J Y Y Y j y.cXLXLXLXvXu.g L L L P P P C J  XPXLXLXLXXXY L E E E E E E C S.FXLXLXLX%X4.Y E E E E E E C <.cXLXLXLXnXc.J R E E E E R R j G.PXLXLXLXOXR L E E E E P L OXLXLXLXPX+X) Y &.) ) ) &.&.L i.vXLXLXLXGXG.Y <.<.<.<.<.<.<.<.<.<.<.<.<.<.<.<.<.<.<.<.<.<.<.<.<.<.<.<.<.<.<.<.<.<.<.<.<.<.<.2.2.<.<.<.<.<.<.2.2.2.2.2.2.2.2.5.5.4.4.5.2.2.5.4.4.4.4.5.5.5.4.4.4.5.5.4.4.4.4.4.4.4.5.2.4.4.4.5.2.2.4.4.4.2.E G.BX",
"nXp.# , 2 2 2 2 2 2 , , : : : , 2 2 , , , , : , 3 3 g g g g g g g g 1 N.aXiXiXqXiXqX8X8X8X6X0X9X_.'.'.`./.!.!.~.!.!./.!.!.).0X=X2X7X7X5X7X7X7X7X7X5X5X5X5X4X4X4X4X4X4X4X4X4X4X4X4X4X4X4X4X4X4X4X4X4X8X8X8XqXiXtXMXbXbXbXbXbXjXjXjXjXjXkXkXkXkXjXlXd.8 h k h l d h L U 1.3.4.3.3.4.0.w.0.6.1.<.[ X.5.6.u.u.i.i.s.k.k.s.s.u.u.u.0.4.s.cXLXLXLXPX X<.&.&.&.2.4.4.2.<.=.=.R R K C j u d.nXLXLXLXvX5.u K J K K K K K j =.&XLXLXLXPXS.5 J J J J J K J g 4.$XIXLXLXLXLXLXLXLXLXLXLXLXLXLXLXLXvXp.g C J J Y J g p.vXLXLXLXvXy.g L L L P P P k J  XPXLXLXLXXXL L R E E E E E C S.HXLXLXLX%X4.J E E E E E E C <.cXLXLXLXnXc.J R E E E E R R j G.PXLXLXLX+XR Y E E E E P Y OXLXLXLXPX+XE Y E ) E &.&.&.L s.vXLXLXLXGXG.Y <.<.<.<.<.<.<.<.<.<.<.<.<.<.<.<.<.<.<.<.<.<.<.<.<.<.<.<.<.<.<.<.<.<.<.<.<.<.<.<.<.<.<.2.2.2.2.2.2.2.2.2.2.2.2.2.5.5.4.5.4.4.5.5.5.5.4.4.2.2.4.4.4.4.4.5.5.4.4.4.4.5.2.2.2.4.4.4.4.3.3.4.5.2.E |.FX",
"FXB.& & , , , , , , 2 , , : : : , , , , : , , : < 3 g g g g g g g g 5 k *XsXiXqXqXqX8X8X6X0X9X9X'.'._.'././.!.~.~.!.!.!.^.;X;X1X5X7X5X5X5X5X7X7X7X5X5X5X4X4X4X4X4X4X4X4X4X4X4X4X4X4X4X4X4X4X4X4X4X4X8X8XqXqXiXMXvXbXbXbXbXjXjXjXjXjXjXjXjXkXjXVXQ.l d l h l l l l l l l d g s g d g h h k S P T R E R P P Y Y P T R Y P Y L J k f E %XLXLXLXKXG.y y f j j j k J J J J J J K J v j p.nXLXLXLXvX5.g J J J J J J J j E &XLXLXLXPXS.5 J J J J J J g 2.%XLXLXLXLXLXLXKXBXvXcXcXlXcXIXLXLXLXvXp.s C C J J J s s.nXLXLXLXvXu.s L L L L L L k Y  XPXLXLXLXXXL L R E R E E R k S.HXLXLXLX%X4.J R R E R R R C <.cXLXLXLXnXs.J R R R R R R R j G.PXLXLXLXOXR L E E E E P L OXLXLXLXPX+XE L E E E E E &.L p.vXLXLXLXGXG.P &.<.<.<.<.<.<.<.<.<.<.<.<.&.&.&.&.<.<.<.<.<.<.&.&.&.&.&.&.<.<.&.&.&.&.&.&.<.<.<.<.&.<.<.<.<.<.<.<.<.<.<.<.<.<.2.2.2.2.2.2.2.2.2.2.2.2.2.2.2.2.2.2.2.2.2.2.2.2.2.5.2.2.2.2.2.2.2.2.2.2.2.2.<.E |.GX",
"GXZ.& & , , , , , , , , , , , , , , , , , , , : 2 3 s g g g g g g g 0 1 C.aXiXiXqXqX8X8X0X9X9X].'.'._._.[./.!.~.~.!.!./.=X;X1X2X7X5X4X4X5X5X5X5X5X5X5X4X4X4X4X4X4X4X4X4X4X4X5X4X4X4X4X4X4X4X4X4X4X8X8XqXqXiXtXvXbXbXbXbXjXjXjXjXjXjXjXjXjXjXzXVXH., s g g g g g g g g g g g g g g g g g h h h h h h h h l l l j g g g g l l l g 3 P &XLXLXLXKXZ.3 s j j k k J J J J J J J J J k s 4.vXLXLXLXvX2.s C J J J J J J g E &XLXLXLXPXS.3 C C C J J j j  XLXLXLXLXLXcX XB.s.u.4.4.E s.vXLXLXLXvXu.g k k v J k g s.nXLXLXLXvX8.g J J J J J L h J  XPXLXLXLXXXL J R R R R R R j B.HXLXLXLX%X2.k R R R R R R j E cXLXLXLXnXs.k P R R R R R R s G.PXLXLXLXOXY J R R R R L C OXLXLXLXPXXXR J R R R R R E C u.vXLXLXLXGXG.J E E E E E E ) ) ) E E E E E E E E E E E E E E E E E E E E ) ) &.E E E E E E E E E E E E E ) ) ) ) ) E E &.&.&.&.<.<.<.<.<.&.&.&.<.<.<.<.<.<.<.<.<.<.<.<.<.<.<.<.<.<.<.<.<.<.<.<.<.<.<.<.<.E E oXIX",
"IXG.& & : , , , , , , , , , , , : , , , , , , , , 3 s g g d g g g g g 3 L $XCXiXqXqXqX6X0X9X].'.'._._._.'./.!.~.~.~.~.).;X=X-X5X5X5X5X5X4X4X4X4X4X4X4X4X4X4X4X4X4X4X4X4X4X4X4X4X4X4X4X3X3X3X4X4X8X8X8XqXqXtXvXbXbXbXbXbXjXjXjXjXjXjXjXjXjXjXzX,Xy.2 s g g s s s s s s s s s s g s s y s g g g h h h h h g g g g g g g g g d d g 2 L &XLXLXLXKXZ.3 r g g f j j j f f l l k k l f 3 &.cXLXLXLXvX<.3 l k k k k k k y I $XLXLXLXPXB.: l l l l j y E cXLXLXLXPX#X<.3 1 3 y y y 7 P ,XLXLXLXvXu.y l k k k l 3 p.nXLXLXLXvX3.3 k k k k k k g l |.PXLXLXPXoXk k L L Y Y Y J s N.FXLXLXLX%X<.j L L L L L L s R cXLXLXLXnXp.j J L L L L L L 5 G.PXLXLXLXXXL k L L L L k h XXLXLXLXPXoXL k L L L L P P j 8.cXLXLXLXGXG.k R R R R R R R R R R R R R R R R R R R R R R R R R R R R R R R R R R R R R R R R R R R R R R E E E R R R R E E E E E &.E E E E E E E E E E E E E E E E E E E E E E E &.&.&.E E E E E E E E P R XXKX",
"PXoX, # , , , , , , , , , , , , , , , , , : : , 2 3 g g g g s s g g g 3 : G.sXiXqXqXqX0X9X9X].'.'.'._._.).[./.!.~.~./.=X=X1X5X5X5X5X5X5X5X5X5X5X4X4X4X4X4X4X4X4X4X4X4X4X4X4X4X4X4X4X3X3X3X3X4X4X8X8XqXqXtXvXbXbXbXbXjXjXjXjXjXjXjXjXjXjXkXkXDXQ.8 2 y s 5 5 5 y y y y r r r r r r 3 3 3 5 g g g g g d d g g g g s s s s g g g s 2 n &XLXLXLXKXS.2 3 s s s s s g g g g s f g s s 2 E cXLXLXLXvXE , s g g g g g s 3 L $XLXLXLXPXn.% s g g g s 3 s.BXLXLXLXcXE # r g g f f g : E cXLXLXLXvX8.2 g f f f g 2 4.cXLXLXLXvX2.2 j j j l l l y g |.PXLXLXLX Xj f C v k C k k y n.FXLXLXLX&XE s v v v v v J y R cXLXLXLXnXu.s k J J J J v k 3 Z.PXLXLXLXXXJ l v v J J j g  XLXLXLXPXoXJ j J L J J L L s 4.cXLXLXLXGXZ.j L R R I P P P P I I I P P P P P P P I R R Y Y Y R R I I I P P Y Y I I I P Y I I I I P P Y R R I R R R R R R R R E E E R E E E E E E E E E E E E E E E E E E E E E E E E E R E E E E R R R L R #XPX",
"  #X, # , , , : : , , : : : : , , , , , , , , , , 3 3 5 5 3 3 3 3 3 3 3 : U :XsX8XqX0X9X9X].'.'.'.'._._._.)./.!.~.~.=X=X1X2X5X5X2X4X5X5X4X5X5X4X5X5X4X4X4X4X4X4X4X4X4X4X4X4X4X4X4X4X4X3X4X4X4X4X8XqXqXqXtXvXbXbXbXjXjXjXjXjXjXjXjXjXjXkXkXkXDXQ.: > 3 3 3 3 3 3 3 3 5 0 s g d g g g g g h V V C F F V V V V V V V V F F F F F C g / %XLXLXLXKXG.q g V C C C C C C C C C C C C C 0 <.cXLXLXLXvX<.5 g j j j j j j 5 L $XLXLXLXGXs.: g j j j y 3 Z.GXLXLXLX#Xg 2 f g g f s s : E cXLXLXLXvX4.2 s g g g s 2 2.cXLXLXLXvX2.2 j j j j j l y s |.PXLXLXLX Xg s k k k k k k 3 n.FXLXLXLX&XE s k k k k k k 3 P cXLXLXLXnXu.g k k k k k k k 2 Z.PXLXLXLXXXk j k k k k j s |.PXLXLXPX Xv f J v v J J L s 4.cXLXLXLXGXZ.g L L L P P L L L L L L L P L P L L L L L P P P P P P P P L L P P P P P L L L L L L L L P P P P P I R R R R R R R R R R R R R R R R R R E E E E R R R R E E E E E E R R E E R R R R R R R R C R %X  ",
"  $Xs # : : , , , , , : : : : : , , , , : * * : , , 3 3 3 3 3 3 3 3 3 3 : , R.sXiXqX0X9X].'.'.'.'.'._._._.)./.!.~.^.=X1X2X5X4X2X2X2X2X2X2X4X2X4X5X5X5X4X4X4X4X4X4X4X4X4X4X3X4X4X4X4X4X4X4X4X4X8X8XqXqXtXvXbXbXbXjXjXjXjXjXjXjXjXjXjXjXkXkXVXlX4.: 2 3 3 3 3 3 3 3 3 s g g V Z F W W ~ Q Q ! ( ( ( ( ( ! Q Q ! ( ..$.$.$.@.@.( ( ~ #.,XLXLXLXKXG.Z F Q / ( ( ( ( ( ( ( ( ( ( ( ( Z r.vXLXLXLXvXr.V F F F F F F C g ) $XLXLXLXFXs.5 C C C C g 5 |.PXLXLXPXoXj 5 h l l j g g 2 E cXLXLXLXvX8.3 s g g g g 3 <.cXLXLXLXcX2.1 j j j j j l y g |.PXLXLXLX Xg s k k k k k k 3 n.FXLXLXLX&XE s k k k k k k 3 L cXLXLXLXnXu.y l k k k k k k 2 Z.PXLXLXLXXXk g k k k k j s G.IXLXLXPX Xk g v v v J J L g 4.cXLXLXLXGXZ.s J L L L L L L L L L L L L L L L L L L L L L L L L L L L L L L L L L L L Y L L L P P P L L L P P P P P P R R R R R R R R R R R R R R R R R R R R R R R R R E E E E E R E E R R R R R R R R h 2.%X  ",
"  #X&.X & * * : : * * * * * * * * * * * * * * * : < 3 3 3 3 3 3 3 3 3 3 2 : 1.tXaX6X9X9X'.'.'.'.'.'.'._._.).[.!./.=X=X-X5X4X2X2X2X2X2X2X2X2X2X2X2X4X4X4X4X4X4X4X4X4X4X4X4X4X4X4X3X4X4X4X4X4X8X8X8XqXqXtXbXbXbXbXjXjXkXkXjXkXjXjXjXjXkXkXkXDX+X3 : 8 3 3 3 3 3 3 3 p g h Z W ! ..$.$.$.$.$.$.#.#.#.#.#.$.$.$.$.#.e.e.f.e.e.e.#.#.@.f.,XLXLXLXKXR.! ( ( @.$.e.e.#.$.$.$.$.$.$.@.@.W $.cXLXLXLXvXt.W ( ( ^ ^ ^ ^ ^ Z X.&XLXLXLXBXg.6 F F F F A 6 G.PXLXLXPX XC g C C C C C A 5 ) cXLXLXLXvXy.3 s g g g g 5 E ,XLXLXLXvX2.1 j j j j j j y g |.PXLXLXLX Xg g k k k k k k 3 n.FXLXLXLX&XE y k k k k k k 3 L cXLXLXLXnXu.y j k k k k k k 2 Z.PXLXLXLXXXk f k k k k j s B.HXLXLXPX Xk s k k v v J L 5 4.nXLXLXLXGXZ.s J L L L L L L L L L L L L L L L L P L L P P L L L L L L L L L L L L L P P L L L L L P L L L L L L L L L L P I R R R R R R R R R R R R R R R E E E E E E E E E E E E E E E E E R R R R R R k V.$X  ",
"  $Xa.X % & & & * * * % * * * * * * * * * * * * : < 2 3 3 3 3 3 3 3 3 3 5 : 3 @XaX6X9X].'.'.'.'.'.'.'._._.).)./.=X=X1X5X4X2X2X2X2X2X2X2X2X2X2X2X2X2X2X2X2X2X2X2X2X2X2X2X2X3X4X4X3X4X4X4X4X4X8X8XqXqXtXvXbXbXbXjXjXjXjXkXjXkXjXjXjXjXkXkXDXkXv.* < p p p p p p 3 p d h F Q ..$.#.#.#.e.e.t.e.f.f.f.f.t.e.%.#.e.f.f.g.z.l.g.f.f.f.t.z.tXLXLXLXKX X@.$.$.e.e.f.f.f.e.e.e.e.e.e.e.$.! $.,XLXLXLXvXf.~ ` ( ( ( / ^ / Z r.,XLXLXLXnXg.V W W F _ A A G.IXLXLXPX+XF V F C C C C A 4 ) cXLXLXLXvXy.5 g g g j g 5 L &XLXLXLXnX4.1 j j j j j j 5 s |.PXLXLXLX Xg g k k k k h h 3 c.FXLXLXLX&XR y k k k k k k 3 L cXLXLXLXnXu.y j k k k k k k 2 Z.PXLXLXLXXXk s k k k k j y p.nXLXLXLXOXk y J C C J J k 5 N.GXLXLXLXGXZ.s J Y L L L L L L L L L L L L L L L P P L P P L k k k J L L P P P L L P L L C k k k J L L L L L L L L J k k k C Y Y R R R R R R R R R R R R R R R E E E E E E E E E E E E E E E E R E E E R J G.&X  ",
"  %XA.O # * * * * * % % % % - * * * - - % - * = : < 2 2 2 2 2 2 2 2 3 3 3 2 * 6.<XrX_.'.'.'.'.'.'.'.'._.).).).).=X1X3X4X3X3X2X2X2X2X2X2X2X2X2X2X2X2X2X2X2X2X2X2X2X2X2X2X2X2X3X3X3X3X4X4X4X8X8XqXqXiXvXbXbXbXbXjXjXjXkXjXjXjXjXjXjXjXkXVXDXQ.8 < p p p p p p p p p h F ( $.t.f.g.g.g.g.g.l.z.z.z.z.z.z.g.f.f.g.z.V.V.V.V.V.z.z.z.g.V.cXLXLXLXPXoXr.$.e.e.f.f.f.f.f.t.h.h.t.f.f.h.$.e.$XLXLXLXBXH.( $.@.@.` ( ( ( W f.vXLXLXLX,Xr.Z W ^ W W _ V H.HXLXLXLX#XW V F _ A A A A 4 5.nXLXLXLXvXy.5 g g j j j y g OXLXLXLXBX4.7 j j j j j j 2 s OXLXLXLXPX Xg g k k h h h h 3 c.FXLXLXLX&XR 3 h l k k k k 3 L cXLXLXLXnX0.y j k k k k k l 1 Z.PXLXLXLXXXl s k k k k k y &.cXLXLXLX,XP 2 g j j j j 3 C #XLXLXLXLXGXZ.g L L Y L L L Y Y Y Y Y L L L Y Y Y Y Y Y L J j L 2.5.R h C P L L L L Y Y h P 4.2.R C J L L Y Y L L L h Y 2.4.E C J Y Y Y R R R R R Y Y Y R R R R R R R R R R R R R R R R R R R R R R R R Y J  X,X  ",
"    XX# o - % - - - - - % % % % - * % * % % * = : < 2 2 2 2 2 2 2 2 2 2 3 3 ; s @XxX].'.'.'.'.'.`.'.'._.).).=X=X1X6X4X3X3X3X2X2X2X2X2X2X2X2X2X2X2X2X2X2X2X2X2X2X2X2X2X2X2X2X2X2X3X3X4X4X4X8X8XqXqXtXbXbXbXbXjXjXjXjXjXjXjXjXjXjXjXkXjXDX>XE - a a a a a a a a p d S / $.t.g.z.z.V.V.V.N.N.V.V.C.C.V.V.N.z.z.z.V.Z.A.A.Z.Z.C.C.C.N.G.cXLXLXLXPXoXe.e.t.d.k.z.z.g.g.d.d.d.g.g.g.f.t.r. XIXLXLXIX X` ` e.@.` ` ` ` Z H.FXLXLXLX*X( ~ ( / ^ ^ _ Z g.nXLXLXLX,X( B Z Z Z Z A 6 6 |.PXLXLXLXvXy.6 A C C C C g 5  XLXLXLXGXs.7 5 g g g g 5 7 <.vXLXLXLXPX Xs s k k l h h j 3 c.FXLXLXLX&XR 3 j j j l j l 2 L cXLXLXLXnX4.3 g l l l j l j : Z.PXLXLXLXoXl s k k k k k y l #XLXLXLXIX XJ 3 g s g g L |.GXLXLXLXLXGXZ.g Y L L Y Y Y Y Y L L L L L L L L L L L L C J S.$X,X,X%XG.) J L L L L J R S.$XcX,X%XG.E C P Y Y Y Y Y N.$X,XcX%X|.<.Y R R R R R R R R R R R R R R R R R R R R R R R R R R Y R R I R R R R k J $X    ",
"    %X@ X % % % % % % % - % % % % * * * % % * * , , < 2 < < < < < 3 3 2 2 3 4 * y.>X].'.'.`.`.`.`.`.'.).).).=X1X6X8X6X6X3X3X3X3X3X3X2X2X2X2X2X2X2X2X2X2X2X2X2X2X2X2X2X2X2X2X2X2X3X4X4X4X4X8XqXqXtXvXbXbXbXjXjXjXjXjXjXjXjXjXjXjXkXkXDXjXc.N a M M M M M M a a a d D O.t.z.z.C.Z.A.A.Z.Z.Z.Z.Z.A.A.A.Z.C.C.C.C.A.A.A.A.A.A.A.A.A.C.R.vXLXLXLXPX%X X X XoX+XOXOXXXoXoXoXoXG.V.N.z.g.t.H.BXLXLXLXvXH.r.r.r.r.@.` ` h.$XLXLXLXPXR.~ ` ` ` ` ` ( _ e.cXLXLXLXIXG.Z Z Z Z A ' ' g.nXLXLXLXLXnXf.' A C C A A A 6 H.KXLXLXLX%X) 1 5 5 5 5 1 Y +XPXLXLXLXPX Xg g h h h h h j 2 c.FXLXLXLX&XR 3 j l j j l l 2 J cXLXLXLXnX4.3 g l j l l l j : Z.PXLXLXLXoXj s k k k k h g y B.GXLXLXLXKX%XoX|.|.|.oX%XIXLXLXLXLXLXGXZ.g Y P P L Y Y L L P P P Y Y L L P L L L L j y.vXLXLXLXLXGXS.j J L Y Y g u.nXLXLXLXLXGXV.j L Y P L k 4.cXLXLXLXLXGXG.J L R Y Y Y R R R P P P P P P P P L L P P P P Y Y R I I I R R R R R R k P cX    ",
"    %Xb X % % % % % % % % % % - % - - % % % * * : , < < , : > , < < < < 2 2 2 ; u /.].'.`.`.`.`.`.`.'.'.).=X1X3X8X6X6X6X6X6X3X3X3X3X3X3X3X2X2X2X2X2X2X2X-X-X-X-X-X-X-X2X2X2X2X2X3X4X4X4X8X8XqXtXvXbXbXbXbXjXjXjXjXjXjXjXjXjXjXjXkXVXDXQ.9 N a a M M M M M M a a h G O.f.z.V.C.Z.A.A.A.A.A.A.A.A.A.A.A.A.Z.A.A.A.A.A.A.UXUXA.A.A.A.|.vXLXLXLXLXKXGXGXGXGXGXGXGXGXGXGXGXGX%XZ.V.V.V.z.V.,XLXLXLXLXnX$X+XR.G.G. X+XcXPXLXLXLXvXz.` e.r.r.` @.` ( ( $XLXLXLXLXBX*XG.H.H.H.H.+XBXLXLXLXLXLXnXf.' A A A A A A 6 5.cXLXLXLXPX,XG.N.d.s.V.G.%XKXLXLXLXLXPXoXg g k k h h h j 2 c.FXLXLXLX&XR 3 l l l j j l 2 L cXLXLXLXnX8.5 j k k k k h l : Z.PXLXLXLXoXj s k k k C k h y L &XLXLXLXLXLXLXPXPXPXLXLXLXLXLXLXLXLXGXS.g J Y Y Y Y Y Y L L Y Y Y Y Y Y Y Y Y Y k j S.GXLXLXLXLXLXoXg l C C C 1 N.KXLXLXLXLXLXoXh C L L L g V.HXLXLXLXLXLXOXR J R R R Y Y R R R P P L P L L L L Y L P P L L P P I R Y R P I R R R k u.cX    ",
"    cXa.X # % % % % % % % % % % % - - % % % * * : : : : : : : : > : : : , , , * - :.'.'.`.`.`.`.`.`.`.`.).=X3X8XqX6X6X6X6X6X6X6X6X6X6X3X3X3X3X3X2X2X2X-X-X-X-X-X-X-X-X2X2X2X2X2X3X4X4X:X:X8XqXtXvXbXjXjXjXjXjXjXjXkXkXjXkXkXjXkXjXDX$Xm N a a a a a M M M M a a h D { O.t.t.i.l.j.j.j.j.j.k.k.N.V.V.V.V.V.V.V.C.C.C.C.Z.Z.A.A.A.C.R.vXLXLXLXLXLXLXLXLXLXLXLXLXLXLXLXLXLXcXA.C.Z.Z.C.V. XFXLXLXLXLXLXKXHXFXFXGXPXLXLXLXLXIXoXt.f.f.h.h.h.h.h.e.$.H.HXLXLXLXLXLXKXFXBXBXIXLXLXLXnX,XPXLXnXf.' A Z A A A A A '  XLXLXLXLXLXPXFXnXBXHXPXLXLXPXcXnXLXLXoXg g C h j j j j 4 s.FXLXLXLX&XR 3 l l h h h l 2 L cXLXLXLXnX4.3 g j j j l l g : Z.PXLXLXLXoXj g h h h C C C h 5 u.vXLXLXLXLXLXLXLXLXLXLXPXcXvXPXLXLXGXS.5 h C C C C J C J Y Y Y Y Y Y Y Y Y Y Y h h G.GXLXLXLXLXLXoXg h C C C 1 N.PXLXLXLXLXLXXXC h J J C g S.GXLXLXLXLXLX#XR k R I P P P Y R R R Y Y P P P Y Y Y Y P P P P L L L Y P P L L L L J l G.vX    ",
"    PX|.X O % % % % % % % % % % % % % % % % * * : : : : , , , < > : : > , > , , + j `.'.`.`.`.`.`.`.`.[.=X1X6XqXqXqX6X6X6X6X6X6X6X6X6X6X6X6X4X3X3X3X2X-X-X-X-X-X-X-X-X2X2X2X2X2X3X-X4X:X8XqXtXvXbXbXjXjXjXjXjXjXkXkXkXjXjXjXkXkXDXhXu.- a a a a a M M M M M M M h D G  .#.%.t.f.f.d.f.d.d.z.z.z.V.V.N.N.N.V.C.C.A.A.A.A.A.A.A.A.Z.R.nXLXLXLXLXLXLXLXLXLXLXLXLXLXLXLXLXLXcXG.Z.G.G.R.A.A.#XGXLXLXLXLXLXLXLXLXLXLXLXLXLXGX#XV.s.N.g.g.g.g.g.g.f.h.f.+XPXLXLXLXLXLXLXLXLXLXLXLXBXH.g.HXLXHXg.' Z _ _ _ _ Z A 6 ) $XLXLXLXLXLXLXLXLXLXLXLXPX#X5.OXLXLX+Xg g C C C C C j 5 N.KXLXLXLX,XR 5 j l l j g g 1 J vXLXLXLXFX0.2 g g g g g g g 7 G.LXLXLXLX+Xg 5 g g j j h h C g 5 4.OXBXPXPXPXPXPXKXGXvX|.t.OXLXLXLXGXS.5 h C C C C S S S S S S Y Y S C C C C S C g S.IXLXLXLXLXLX Xg h S C C 3 N.KXLXLXLXLXLX Xg h J J C g N.HXLXLXLXLXLXXXC j L L L L J J L L L L L L J J J J J J J J J J J J L L L J J J J J j s +XPX    ",
"      $X% X % % % % % % % % % % % % % % % % % * : : , , , , < < < < < < > , , , $ , :.`.`.`.`.`.`.`./.).1X6XrXeXeXqXqXqXqX0X6X6X6X6X6X6X8X8X4X6X3X3X3X3X-X-X-X-X-X-X2X2X2X2X2X3X-X-X4X:X8XiXtXbXjXjXjXkXjXjXjXjXkXjXjXkXjXkXkXDXDXG.> 9 a 9 9 9 a a a a a a a d h z D G ..#.%.t.f.t.t.t.t.t.d.l.l.l.z.l.z.z.z.N.V.V.C.C.C.C.C.C.B.A.%XGXFXFXFXFXFXFXFXFXFXFXFXHXHXHXGXGX&XZ.C.A.A.A.A.C.C. XtXFXPXLXLXLXLXLXLXLXPXHXcXoXV.N.N.g.g.g.f.f.t.h.r.r.@.f.+XBXKXLXLXLXLXLXLXKXFX$Xg.Z ` $XIX,Xf.Z _ _ _ _ _ _ _ A 6 5.$XIXLXLXLXLXLXLXLXKXvX X^ 6 H.BXHXG.g g C C A h h g 5 u.cXHXHXFXOXY 5 j j j g g g 4 k $XIXBXGX,X2.3 s g j g g g g 1 N.BXGXHXFX|.j g h j j j h h h C g 5 C u.H.|.oX XG.H.g.4.g C #XLXLXLXGXS.g C Y Y Y Y Y Y Y Y Y Y Y Y Y Y Y Y S Y C g 4.hXLXLXLXLXBXV.g C Y Y Y g y.vXLXLXLXLXBXN.g C J Y J g <.%XLXLXLXLXFXS.h k Y Y Y Y Y Y J Y Y Y Y Y L L L L L L L L L L L L P P P L L L Y Y l J %X      ",
"      cXU X % % % % % % % % % % % % % % % % - * : : : : : : , > , , , , < , , , , + -.`.`.`.`.`.`./.).=X1X0XeXwXwXeXeXqXqXqXqXqXqX8X8X8X8X6X8X8X6X6X3X3X-X-X-X-X-X-X2X2X2X2X-X-X-X4X:X8XqXtXvXjXjXjXkXkXkXkXkXkXkXkXjXkXkXkXbXDX$Xx ; 8 8 8 8 8 8 8 w w w a a a d d z H D G ] }  . .O...O.o.o.#.%.%.%.#.r.r.r.t.t.t.d.d.l.j.k.k.j.k.C.Z.Z.Z.C.Z.G.A.A.A.G.G.G.G.G.G.G.G.C.N.M.M.M.M.M.m.n.j.M.R.OX%XcXcXcXcXcX%X#X XS.n.N.B.V.N.s.s.g.g.d.t.r.r.r.r.t.H.+X,XcXtX,X,X$X XH.e._ ^ ` r.g.h.` ( ( ( ^ ^ _ _ _ _ _ V ( H.oX$X,X%X&XOX+XH.r.A 6 A ^ r.y.) C C C C A A j j g J <.5.5.5.E h g j j j j g g g g E 4.2.5.&.k g j g j j j j g g Y 5.4.4.4.R A j C h h h h h C C F F g 6 q C C C V g 6 q q E $XLXLXLXGXH.g F Y Y Y Y Y Y Y Y Y Y Y Y Y Y Y Y Y Y Y C C d.OX%X%X$XZ.Y C C Y Y Y C Y V.#X,X,X$XS.Y h Y J J J C C s.#X,X%X$XG.E C Y Y P Y P L L L L L Y Y Y L J J C v k k k k k k k k k C L Y L L L j u.cX      ",
"      GXM.X # % % % % % % % % % % % % % % % & * : : , : : : : : : : : : , , , , , @ t }.`.`.`.`./.[.=X;X0XeXwXwXwXwXwXeXeXqXqXqXqXqXqXqXqX8X8X6X6X6X6X6X6X-X-X-X-X3X2X2X2X2X-X-X-X4X:X8XiXtXbXjXhXhXkXkXkXkXkXkXkXkXkXjXkXjXDXvX3.; 8 8 8 8 8 8 8 8 0 0 0 0 d d d h z H H D G G G G G G  . . . . .O.O.O.O.o.o.%.r.t.t.t.t.d.g.l.l.l.t.t.t.t.t.t.d.j.n.n.M.n.k.j.j.j.j.j.M.N.N.N.M.N.B.B.B.B.M.k.N.C.Z.G.G.G.G.A.Z.B.B.Z.A.A.A.Z.Z.Z.C.S.S.V.V.V.V.V.k.s.N.V.C.V.z.g.f.e.` ` e.e.;.~ Z _ ( ` ` ( ^ ^ _ _ _ _ _ _ ' ' Z _ ^ ^ ^ _ Z ' 6 A C C A 6 6 g C C C C C C C A C g 4 1 1 1 6 g C g g g g g g g g 1 7 7 7 1 g g g g g g g g g j y 1 7 1 1 5 g C C C C C C C C C C C C C V g g g C C F Y V E #XLXLXLXIXH.V F Y Y Y Y Y Y Y Y Y Y Y Y Y Y Y Y Y Y Y Y C h Y R R Y h h Y Y Y Y Y Y F C T ) E Y j h C k C k h h j g C R R L l l J J Y Y L L L L L L Y J J C k k k l l j f g s s s s g f l k k k k l y G.KX      ",
"        |.O # % % % % % % % % % % % % % % % & * : : , , : : : : : : : : : , , , , * + -.`.`.`.`./.).1X6XwXeXwXwXwXwXwXwXwXwXwXwXqXqXqXqXqXqXqX8X6X8X6X6X6X6X6X-X-X3X3X3X3X3X-X-X4X:X:XqXtXbXjXhXhXkXkXkXkXkXkXkXkXkXkXjXhXDXVXV.; > 8 8 8 8 8 0 0 0 0 0 w w w h h z H H H G G G G G G G G G G G ] } } |  . .O.o.o.%.%.t.t.t.t.f.f.f.f.f.f.f.f.g.z.V.C.Z.G.G.G.A.A.A.A.A.A.A.A.A.A.A.A.R.UXG.A.A.Z.C.B.B.B.C.C.C.Z.A.G.G.G.G.G.A.G.G.G.G.G.G.A.Z.Z.H.H.Z.V.V.k.s.d.f.h.f.f.f.f.h.h.h.e.e.r.r.` ` ` ` ` ( ( ( ( ( ( ^ Z Z A A A A A Z _ _ _ _ _ _ _ C A A A A A A A C C C A A A A A A g g g g g g g g g g g g g g g g g g g g h h h h h h j j C C C C C F F F F F F F F F F F F F F Y F Y Y Y C ) #XLXLXLXIXH.g F Y Y Y ^ ^ ^ ^ ^ / ^ ^ ^ Y Y F C C C C C C C g 5 5 5 g C C C F F Y Y Y F V g g g C C C C C h h l j s 3 4 3 5 s k k k C J J Y Y Y Y Y Y Y L L L L J J J C k k k k k C k k k C v v J l h #X        ",
"        %Xf X % % % % % % % % % % % % % % % * * : > < > : : : : , , : : : > > , , , + b /.`.`./.).=X6XrXeXwXwXwXwXwXwXwXwXwXwXwXwXrXrXqXqXqXqXqX8X8X8X6X6X6X6X6X6X3X3X3X3X3X-X4X:X:X8XiXhXhXhXhXhXkXkXkXkXkXkXkXkXkXhXhXVXDXoX4 ; 2 2 4 4 > 9 8 8 8 8 8 0 0 0 0 w w h h z V V V H H H H H H H H H H z z H D G ] }  . .O.O.O.O.O.O.O.O.O.O.O.O.O.o.r.t.d.d.l.k.N.N.N.N.N.N.N.N.B.B.C.C.C.C.C.C.C.C.B.B.B.B.B.B.C.C.C.C.C.Z.Z.Z.Z.Z.C.C.Z.C.C.S.S.V.V.V.S.S.V.V.V.V.N.g.g.g.g.g.g.g.g.g.g.g.g.f.f.h.h.e.e.e.e.e.e.e.$.` ` ` ` ` ` ` ` ` ` ( ( / ^ ^ ^ F _ C A A C C C C C C C A A A A A A C h A g g g g g g g g g g g g g g g g g h C C C C C C C F F F F F F W W ^ / / / / / / / / / ^ ^ Y Y V X.&XLXLXLXGXV.5 C F F F Y ^ ^ / / ( ( ( ( ( / ^ Y F C C C C C C C C C C C C C F Y ^ ^ ^ ^ ^ ^ ^ ^ ^ Y Y Y Y Y Y S C C C C C C C C J J J J C C J J J J L L Y Y J J J J J L L L L Y Y Y J J C C k v C g 2.cX        ",
"        GXp.. @ - % % % $ % % % - - - - - - - * = > > = = = * = = , = = = = = , , = - O :.`.`.^.=X1X0XeXzXwXwXwXwXwXwXwXwXrXrXrXrXrXrXrXqXqXqXqXqX8X8X8X6X6X6X6X6X6X6X6X6X6X:X:X:X8XqXeXhXhXhXhXkXkXkXkXkXkXkXkXkXkXhXjXDX,X) ; 4 5 5 5 4 3 4 8 0 0 0 0 q q q q q V V H H H H H H H H H H H H V z z z z z H D G G G G ] }  . . . . . . . . .O.O.O.o.r.r.t.t.t.d.d.d.d.d.d.d.s.z.M.N.C.B.B.C.B.B.B.B.B.B.B.B.C.C.C.C.C.C.C.C.C.Z.Z.Z.Z.Z.Z.C.C.C.C.C.C.C.C.S.S.S.V.V.N.z.g.g.g.g.g.g.g.g.g.g.g.f.h.e.e.e.e.e.e.e.r.$.$.` ` ` ` ` ` ` ` ` ` ( ( / ^ W W _ F A C C A A A A A A A g g g g g g g g g g g g g g g g g g g V g g g y 5 5 5 5 0 0 g g g g g g h V V C C F F F Z F F W W ^ ^ ^ ^ ^ G 6 5.cXLXLXLXFXN.q F G W ^ ^ ^ / ( ( X.@.$.$.$.$.$.$.@.@.( ( / ( / / ^ ^ Y Y ^ / ( X.@.@.X.( ( ( X.X.( / / / ^ ^ ^ Y Y Y Y Y S S C C C J J C C C C C J J J C C C C C C C J C C C C C C C C k k k k k h 5 S.GX        ",
"          |.X # - - - - - - % % - - - - - * - = = > > = = = = = = = , = = , , , , = = + -.`.`.=X;X6XrXeXwXwXeXwXwXwXwXwXwXrXrXrXrXrXrXrXrXqXqXqXqXqXqX8X8X8X8X6X6X6X6X6X8X8X:X:X8XqXtXhXhXhXhXhXkXkXkXkXkXkXkXjXjXjXhXDXVXH.6 q V B B B q q q q B B V Z Z Z W ~ ~ Q ! ! ! ! ! ! Q Q Q Q Q Q Q G G G G G G Q Q Q } } } } ......#.#.#.#.#.#.#.#.#.#.%.t.f.f.f.f.g.g.z.z.z.z.g.z.z.N.V.C.Z.Z.Z.C.C.C.C.C.Z.Z.A.G.G.A.A.A.A.G.A.A.A.A.A.A.A.A.A.Z.A.A.A.G.A.Z.Z.Z.Z.Z.S.V.z.z.z.z.N.V.V.N.N.V.N.z.g.f.h.h.h.f.h.h.h.e.e.e.r.r.@.@.@.` ` ` ` ` ( ( ( ( / ^ ^ ^ W W W _ _ F A Z V A A g g g g g u 5 5 5 5 0 0 g g g g A V V V V V h g g g g V V V V V V V F F F F F G G W W W W W W W W W ^ / ( ~ W R.IXLXLXLXvXg.( @.@.@.@.@.@.@.$.r.r.e.e.e.e.e.e.e.e.e.e.$.@.@.@.@.( ( ( ( ( ( $.e.e.e.e.$.@.$.$.@.X.( ( ( ) / / ^ ^ Y Y Y Y Y S F C C C S S S S C J J J C C C C C C C C C C C C C C C C C C C C k g g OX          ",
"          cXl . @ % - - % % - - - - % % - - = > , , > > , , , , , , , < < < , , , = = % = }.].;X;X0XeXwXwXeXeXwXwXwXwXwXwXwXrXrXrXrXrXrXrXrXqXqXqXqXqXqX8X8X8X8X6X6X6X6X8X8X8X8XqXiXMXhXhXhXzXzXjXjXkXkXkXkXjXzXjXhXVXDX@XZ q Z Z Z Z Z B q q q B B Z Z Z Z W ~ ~ ! ! ! ! ~ ~ ~ ~ G G G G H H H V V h h V V H H H H H H H H G G Q Q } } Q Q Q Q  . .....o.o.#.#.#.#.#.e.e.e.t.t.f.g.g.g.g.g.g.f.g.g.z.V.C.Z.G.G.Z.Z.Z.Z.G.G.G.G.G.A.Z.Z.Z.Z.Z.G.G.G.G.Z.C.S.S.C.S.V.N.g.g.g.g.z.N.V.V.V.V.V.N.z.z.g.g.g.g.g.g.g.f.h.h.e.e.r.` ` ( ) ( ^ ^ ^ ^ ^ ^ ^ / / ( ( ( ( ( / ^ ~ W W F F F V V V V A A g g g g g g g A V F _ W W W W W W ~ ~ / / ~ ^ / ( ( ( ..@.@.@.$.$.$.@.z.$X$XR.H.f.r.$.r.e.e.g.@XBXLXLXLXLX,Xf.r.t.t.t.t.t.f.f.f.f.f.g.g.g.f.f.f.d.f.f.h.e.r.e.e.e.$.@.@.@.` @.e.e.e.r.e.e.$.@.@.@.@.X.( ( ( ( ( ( / ^ ^ Y Y Y Y Y Y Y Y Y Y Y Y Y Y Y F S F Y Y Y Y Y Y C C C C C C C C C C C C C g 5.nX          ",
"          PXn.. @ % % - - % % - % % % - - - * = = > : : > : : > > > > > : : : = = = = * . -.wXrX0XwXwXwXeXwXwXwXwXwXrXrXwXrXrXrXrXrXrXrXrXqXqXqXqXrXrXrXqXqX8X8X8X8X8X8X8X8X8XqXiXtXhXhXhXhXjXhXhXkXkXjXzXjXjXzXjXjXDX,Xe.B Z ~ ~ ~ ~ W Z V B B Z Z ~ ~ ~ ~ ~ ! ! ` ` @.$.` ! ! ! ! ! Q Q W G H B q q q w h h h h w w w h h V H H G H H H H H H G G G Q ! ..........$.$.$.#.#.e.e.t.f.f.f.f.e.e.f.f.g.z.N.V.V.V.N.N.k.k.N.N.N.N.N.k.k.N.V.B.C.Z.A.Z.Z.S.V.V.B.V.N.k.s.u.r.r.4.4.r.r.y.y.y.u.u.y.f.d.g.g.z.z.z.z.g.g.g.f.f.h.r.r.e.r.r.@.) ) ( ( ( ( ( ( ( ( ( ( ( ( ( ( ( ^ W W W W F F F _ F F V V V V V V V Z W ~ ( ( ( ~ ~ ~ Q / ! Q Q ~ ~ / ( X.@.#.#.e.e.e.$.#.*XLXLXGXBXvXtX,X$X$X,XvXKXLXLXLXLXLX#Xg.z.N.z.z.N.z.z.N.N.N.V.V.V.V.V.N.z.z.g.f.f.t.t.h.h.e.r.e.@.@.$.@.e.e.e.e.@.@.@.@.` ` ( ( ( ( ( ( ( ( ^ ^ ^ ^ ^ Y Y Y Y Y F F F F F F Y F F C C C C C S C C C C C C C C C C h k k C h 3 G.PX          ",
"            #X- o % % % % % % @ @ % % % % - * * * = = = = : : : = = = = = = = * * * * * # t Q.rXaXaXrXwXwXwXwXwXwXrXrXrXrXrXrXrXrXrXqXqXqXqXrXqXrXrXrXrXqXqXqX8X8X8X8X8X8XqXqXiXiXeXhXhXhXhXhXhXhXkXkXkXzXjXzXzXjXDXVXJ.B ~ ! ! $.$.$.$.( ~ ~ ~ ( $.e.e.e.#.#.#.e.e.f.f.f.f.e.%.#.$.$.$.$.$.! ~ Z B V V V Z Z Z H V V H G ~ ! ! ....! ! Q Q Q Q Q Q ( ( ( ( ..................X.$.#.e.e.f.f.f.f.f.f.f.f.g.g.d.d.t.t.r.5.5.5.5.5.5.5.r.y.d.s.N.B.S.C.C.C.C.H.H.H.C.V.N.z.g.g.g.s.s.s.N.N.N.N.s.g.g.g.g.g.z.z.z.z.z.z.z.z.z.z.z.g.g.g.g.g.g.g.g.g.f.f.h.e.e.e.e.e.#.#.#.$.$.@.( ( ( ( / / ~ W W _ Z V V V V Z Z W ( @.$.$.$.@.@.@.@.$.$.$.$.#.r.r.e.e.t.t.f.f.f.f.e.f.,XLXLXLXLXLXLXLXLXLXLXLXLXLXLXLXLXcXH.d.z.z.z.z.g.g.g.g.g.g.z.z.z.z.z.g.g.f.f.t.t.e.r.r.e.e.e.$.@.@.@.@.@.@.@.@.$.$.@.@.@.` ( ( ( ( ( ( ( ( / ^ ^ ^ ^ ^ ^ ^ Y Y Y Y Y Y Y Y Y Y Y Y F F C S S S C C C C C C C C C C k C k g h %X            ",
"            KX>.. # # # @ @ % % @ % # @ % - - * * * * * * = = : = = * * * * * * - - - - % o s H.;XqXrXaXaXrX0XwXwXwXwXrXrX0X0X0X0X0X0X0X0X0X0XqXrXrXqXrXqXqX0X0XqX8X8X8X8XqXqXqXeXeXeXhXhXhXhXhXzXzXhXzXjXzXjXjXDXDX@X! ~ ( ( ( ..X.X...( ~ ! ` #.f.f.g.g.f.g.g.z.z.z.z.z.z.g.g.f.f.h.e.#.$.! ~ Z V V V V Z Z Z V V Z H Z ~ ~ Q ! ! ! ! ! ! ! ! ! ! ! Q Q Q Q Q Q F F F H V h h V F / ..$.#.#.#.#.e.e.e.e.t.t.t.t.r.r.r.5.X.X.X.X.X.5.r.r.t.u.d.s.s.d.d.d.d.d.d.s.d.d.d.d.d.d.s.s.s.k.k.k.s.s.d.y.r.r.r.r.r.r.r.r.r.r.r.r.r.r.r.r.e.r.r.r.r.r.r.r.r.@.@.X.X.X.X.( X.( ( ( ( ( ( / ^ ^ / ~ ~ W _ Z V V V Z Z _ ~ ( @.@.$.$.$.@.@.@.$.$.$.#.r.e.e.e.e.e.e.e.e.e.e.r.e.G.,XHXPXLXLXLXLXLXLXLXLXLXLXLXLXvXH.#.t.f.f.f.f.f.f.f.f.f.f.f.f.f.f.f.f.f.f.f.h.e.e.e.e.#.#.$.$.$.$.$.$.$.e.$.$.$.$.#.#.e.$.$.$.@.@.@.@.X.X.X.X.X.( ( ( ( ( ( ( / / / / / / ^ ^ ^ / / ^ Y Y Y Y Y Y F S S S S S C C C C C 5 u.nX            ",
"            LXA.. O # # # @ @ # @ # # @ @ % - * * * * * * * * * * * * * * * * * * - - - - % o % k r.J.=X0XrXaXrX0X0XwXwX0X0X0X0X0X0X0X0X0X0X0X0X0X0X0X0X0X0X0X0XqXqXqXqX8X8X8XqX<X<XeXeXhXhXhXhXhXhXhXzXzXzXzXjXDX<X$.B W ~ W W W W F Z Z V Z Z W / ( ( ( ( ( X.X.@.r.r.r.r.e.e.#.#.$.$.$.` ~ Z V B q q q q q q 0 0 q q q V V V Z Z Z W W W ~ ~ ! ! ~ ~ ~ ! ! ! ! ! ! ( ( / Q Q Q Q Q / ( ( ..( / / ( ( ( ..X.X.X.X.X.X.X.X.X./ / / / / E ) E E T Y S S C C C F Y Y Y Y Y Y Y L Y R R R R R R Y Y Y J J C C J Y Y Y Y K J K K K Y Y Y Y T R R R Y Y Y Y Y Y F F Y ^ ^ ^ ^ G F F F F W W W W _ Z A A Z Z Z Z _ W ^ / / ( ( / / / / ( ( ( ( / / / / ( ( ( ( ( ( ( ( ( / #.z.oX%XvXFXGXGXIXKXGXHXBXcXoXf.( @.@.@.@.#.#.#.@.$.@.@.@.@.#.@.@.@.@.@.@.@.@.@.X.X.( ( ( / / / / / / / / / / / ^ ^ ^ ^ ^ ^ ^ Y Y Y G Y Y Y Y F F F F S F F F F C C C C C C C C C C h h h h h h h h h g g g g g g g g s g OX&X            ",
"              nXp . # # # # # # @ @ @ % % % % - * * * * * * * * * * * * * * * - - - - % % - - # X # 2 K h.Q.;XrXaXaXqX0X0X0X0X0X0X0X0X0X0X0X0X0X0X0X0X0X0X0X6X0X0X0X0X0X0X8X8X8X0X0X0XeXeXeXeXeXlXhXhXhXhXhXhXDXhXf.1 6 q B B V Z V B B q q q q q q q q q q 6 q q q B V V Z W W ~ ~ ~ ~ ~ W W Z V V V B B V V B q q q B Z Z W ~ ! ! ! ~ ~ W ~ ~ ~ ~ ~ W ~ ~ ( @.$.$.$.#.e.h.h.e.#.#.#.#.$.@.( ~ W W Q ( $.r.e.t.t.e.r.r.r.#.@...( ( ( @.@.r.@.@.( ( ^ ^ ^ ( ( @.@.r.r.r.r.r.r.r.t.u.d.d.d.d.d.t.y.r.r.r.r.r.r.r.r.r.r.r.r.r.r.r.r.r.r.t.t.t.t.t.t.t.t.t.t.t.t.t.t.t.t.t.t.#.#.#.#.$.$.$.@.@.( ( ~ ~ W W W ~ ~ ! ( ( ` ` ` ( ( ( ( ( ( ` ( ` ( ....( ( ( ( ( ( ( ( ( ! W W ( r.f.H.H.R.R.R.R.H.d.r.W Z Q / / / / / / / / / / / / / / / G G G G G G G G G F F C C C C C C C V h h h h h h h h C V C C h h h h h g g g h g g g g d d d g g g s s d d s s s s s d g g g s s s g g s g s s s s s : >.GX              ",
"              GXC.. o @ @ @ # # @ @ @ @ % % % - * * - * * ; $ ; * * * * * - % % % % % % % % - - * * # # & 2 _ J.=X6XaXaXrX0X0X0X0X0X0X0X0X0X0X0X0X0XqXqXqXqX0X0X0X0X0X0X0X8X8X8X6X6X6X0X0XeX<X<XeXeXlXhXlXlXzXDXH.7 7 3 5 5 5 6 q q q q q q q q B B Z Z Z Z Z ~ ~ ~ ~ ~ ~ ~ ~ ~ ~ ~ ~ ~ W Z V B B q q q B B B B q q q V Z ~ ! ! ! ! ! ~ W Z Z W W Z Z V Z Z ~ ( ` $.$.$.#.e.#.#.$.#.e.e.$.@.! W W ~ ! $.e.f.g.z.g.g.f.f.h.e.#.#.$.#.e.h.f.f.f.f.h.h.e.#.#.#.e.e.h.h.h.h.h.f.f.g.g.z.V.V.V.V.z.z.g.g.f.f.f.f.g.g.g.g.g.g.g.g.g.g.f.f.f.f.g.z.z.z.z.z.z.z.z.z.z.z.z.z.g.f.f.t.t.e.e.%.#.#.$.$.@.( ( ~ ~ ~ ~ ~ ! ! ( ` $.$.` ` ` ( ` ` @.@.$.$.$.$.$.$.$.$.$.$.$.$.$.$.@.@.@.` ! ~ ~ ( ` ......( ~ ~ ( X.$.$.$.$.$.$.$.X.X.$.X.$.$.X.X.X.X.X.X.X.X.X.X.X.X.X.X.( / / / / ( ( / / / / / / X.X.X.X.X..... ./ / / / / / / / / / / / / / T / T T T T T T T T T T T D F F F F F S S S S S C C C C h 0 |.GX              ",
"                nXp . @ @ @ @ @ @ # # @ @ % % - - * * - - $ $ ; - - - - * % $ $ % @ % % % % % % % % % % # X X # 2 ;.J.=XrXaXaXrX0X0X0X0X0X6X6X6X0X0X6X6X6X6X0XqXqX0X0X0X0X:X:X:X6X6X6X6X8X8X8X0X<X<X<XeX<XzXDX*Xh # , , , 1 1 1 1 1 1 1 1 1 3 4 5 5 6 q q B B Z Z Z W W W Z Z Z V V B B q q 0 5 3 4 4 3 3 3 4 4 4 3 3 5 q q B V V V V q q q q q q 5 5 5 5 q V Z Z W ~ ! ( ( ! ~ ~ ! ! ~ ~ W Z Z Z Z W ~ ` $.#.e.e.e.e.e.$.$.$.` ` ` $.$.$.#.e.e.e.$.$.$.` ` ` ` ` ` $.$.$.$.$.e.e.f.f.f.f.f.f.h.e.e.e.e.e.e.e.e.e.e.e.e.e.f.f.f.f.f.f.f.f.g.g.z.z.g.g.z.z.z.l.z.g.f.t.t.t.e.e.#.#.#.$.$.$...( ! Q ~ ~ W W W ~ ~ ! ! ( ( ( ( ! ! ! ( ( ( ` ` $.......( ( @.@.@.@.@.@.@.@.@.@.$.$.@.@.@.......@.$.$.$.$.#.#.#.#.#.$.#.#.#.#.#.#.$.$.#.#.#.#.#.r.#.r.r.#.#.#.#.$.X.........X.X.X.X.X.X.X.$.#.#.$.$.$.$.o.X.X.X.X.X.X.X.X.X.X.X.X.X.X...O... ...X.X.....X.X.X.X.X. ./ / / / T T Y Y F S S S S 0 T BX                ",
"                GXZ.. o @ O O O @ @ @ @ @ @ % @ @ $ $ @ $ - - - - - - - - % % $ @ @ @ % % % @ # # % % % % $ @ O X # & K J.J.=XrXaXrXqX0X6X6X6X6X6X6X6X6X6X0X0X0XqX0X0X0X8X:X:X:X;X;X;X;X3X6X:X:X6X0X<X<X<XVXeX5.X % : : : : : : * % % % % * : : : : * % ; * : 1 1 4 5 5 5 5 5 5 5 5 4 4 4 4 4 4 > > > > , , , , > > > > 4 3 5 5 0 q q 5 5 5 5 5 5 5 3 5 5 5 q q V V Z Z W W W Z W W Z Z Z Z V V V V Z Z ~ ~ ! ` $.$.$.$.` ` ! ~ ~ ~ ! ` ` ` ` ` ` ( ! ~ W W W W ~ ~ ~ ~ ! ( ` $.$.e.e.e.e.e.$.$.$.$.$.$.$.$.$.$.$.$.$.$.$.$.$.#.#.e.e.t.f.f.g.g.z.z.l.z.z.z.z.z.z.l.z.z.z.g.f.t.%.#.$.$...( / Q W F F F F F _ _ F W W W W W W W ~ Q Q ! ! ! ( ( ! ! ! ( ( ( ( ( Q Q Q Q ! ! ( ....$.....( ( ....$.$.$.#.#.$.X.......X.$.$.$.X.......$.$.#.#.#.#.#.#.#.$.o.X.X......... . . ...............X.X.X.O.X.X....... . . . ...X.X.X.X.X.X.O.O. . . .X.X.X.X.X... . . . . ./ / / T T T S S C h g 3 % G.FX                ",
"                  nXp . @ # O O @ # @ @ @ @ @ @ @ @ @ @ % - - - - - - % $ % % % % % % % - % % % $ % % % % $ % % * @ # O # 7 _ J.=XrXaXiXqX0X6X6X6X6X6X6X6X0X0X0X0X0X0X0X:X:X;X;X;X;X;X;X;X;X;X;X;X;X;X;XeXMXH.# O * * * * : : : : : : : : : : : : : : : : : 1 1 1 4 4 5 5 5 5 5 5 5 5 5 5 5 4 4 4 4 4 > > > 4 4 4 4 4 4 4 4 4 5 5 5 5 5 5 5 5 5 5 5 5 5 6 q q q B B V Z Z Z Z Z Z Z Z Z V V B q q q B V Z Z W ~ ! ! ~ ~ W _ W W Z W W W ~ ~ ~ ~ ~ ~ W Z Z Z V Z Z Z Z W W W ~ ~ ! ` ` @.@.` ! ~ ~ ~ ! ! ( ( ` ( ( ( ! ! ! ( ( ..$.$.$.$.#.#.e.e.t.f.d.z.z.z.z.d.f.d.d.z.z.z.f.t.#.$.$...../ Q F F F F F F F F F F F F G W W G W W W Q Q / ! ( / / Q ( ( ....( Q Q Q Q Q Q Q Q ..........( ( ....$.#.#.#.$.X.........................X.$.$.#.#.#.#.#.$.o.o.$.$.o.o..... . . .......o.o.o.o.o.#.#.#.#.#.#.o.o.........X.O.o.o.o.o.o.o.o.#.#.#.#.o.o.X. .T S h d 0 0 0 0 s d h h S S C h h 1 x vX                  ",
"                  GXA.. X # # # # # @ @ @ @ @ @ % @ % - - - - - - - % $ @ @ % % % % % % % % @ % $ % % $ $ $ % % % % $ @ # # X # ' ;.J.=XrXaXrXqX6X6X6X6X6X0X0X0X0X0X0X8X:X;X;X;X;X;X;X;X;X;X;X;X;X;X;X6XaX@X8 X * * * * * * * * * : : : : : : : : : , , 1 1 1 1 1 1 4 4 4 4 4 4 4 4 4 4 4 4 4 > > > 1 , , , , 1 1 , , , , , 1 1 , 1 1 1 1 1 1 1 1 1 1 4 3 3 5 5 5 6 6 q q q 6 6 6 6 6 6 6 5 5 6 6 5 5 6 q B Z Z Z W Z Z Z Z Z Z Z Z Z Z Z W Z Z Z Z Z V V V V V V Z Z Z Z Z Z W W ~ ~ ~ W W W Z Z Z F W ~ ~ ! ! ! Q Q ! ! ! ( ....$.$.$.$.$.$.$.#.t.e.t.f.f.t.t.t.t.t.t.t.t.%.#.o......./ Q Q G G Q Q Q Q Q Q Q G Q Q Q Q Q Q Q Q Q / .. ..... ./ / / / ......../ Q Q Q /  . . ... . .............o.o.o.O.............................o.o.o.o.#.#.o.o.o.o.o.o.o.o.O.O.O...O.o.o.o.o.o.O.O.O.O.O.....O.O...O.O.O.O. ./ T D S h h d d d d h S S D T T T T T S x h d 0 8 s d h C F S S S h q oXGX                  ",
"                    nXa . # # O @ # @ @ @ @ @ % % @ @ @ @ @ % - % - % % % % @ @ @ % % % % # @ # % % % % % % @ @ % % % % % % @ # X X 7 K g.J.0XiXiXrX0X6X6X0X0X0X0X0XqX:X:X;X;X;X;X;X;X;X;X;X;X;X;X;X;XrX:X{ . % % % % % % % % * ; ; * * * * * % % % * : : : : : : 1 , , 1 : : : : : : : : 1 : : : : : : : * * * * : : : : : : : : : : : : : : : : : : : : , , 1 1 1 5 5 5 3 4 4 3 5 6 6 5 5 3 3 3 5 5 6 q B V V V V B B B B B B V V B V B V V V V B B q 6 6 q B V V B B B B B V V Z Z Z Z Z Z Z Z Z Z Z Z Z Z W ~ Z Z W W W Q Q | | ............o.o.o.$.#.#.%.#.#.#.#.%.%.#.o.....} } } Q Q G G G G Q Q Q Q Q Q G Q Q Q Q Q Q Q Q } }  . . . .} } } } } }  . .}  .} } Q Q }  . . . . . . . .O...O.O.o.O.O.O.O...O. . .....O.O.O.o.o.o.o.o.#.%.%.#.%.o.o.O...O. . . . . . . . . . . . . .T S S h s 8 3 3 8 d h C F S S S F S S h h h h h h x S D T  .X.o.#.r.#.o.O.O. ./ / T T D S S S 0 1.HX                    ",
"                    PX XX . # # # # # @ @ @ @ % @ @ @ @ @ @ % - $ $ - % % % @ @ @ @ @ % % @ @ @ @ % @ % % % % $ % % % % % % % % % # # . X 2 ) J.@XqXiXaXrXqX6X0X0XqX8X:X:X;X;X;X;X;X;X;X;X;X;X;X;X;X0XaXH.# @ % % % $ @ @ % % % $ $ $ $ % $ $ $ $ % % * % % - * * * * * * * * * * * * : : : : : : : * * * * * * * * * * * * * * * * * * * * : : : : : : : : : , , 1 1 1 , : : , 1 1 3 4 2 1 1 1 1 5 5 6 q q q q q q 6 5 5 6 6 6 6 6 6 6 6 6 6 q B q 6 6 5 6 5 5 6 6 q 6 6 q q q B B B A V V V B q q q q q V V V Z V V V Z Z F Q Q Q Q Q Q } ........| ......O.O.O.O.O.O.o.O.....} } } } Q Q Q Q Q Q Q Q G Q Q } } Q Q Q } Q } } } |  . . .} } } } } } } } } } } } } } } Q Q } } } } } } }  . .O.O.o.o.o.o.+.+.o.o.o.o.o.o.o.O.O. .T G G G  .O.O.O.O.O. .G G H h h s 8 8 3 8 8 0 d h S S F D D D S x z z h h h S S D T  .O.O.O.o.o.o.%.+.o.o.o.o.o.o.O.O.O.O.X.O.O. ./ T T T D F S S h w *XPX                    ",
"                      KX>.. o O # # # # # @ @ @ @ @ @ % % @ @ @ @ @ @ @ @ @ @ # @ @ @ @ @ @ @ @ @ @ @ @ % % @ @ % # # @ @ @ @ @ % % % % # X . O y 5.J.;XiXaXaXiX0X:X:X:X6X6X6X;X;X;X;X;X;X;X;X;X;X6XrX@X8 . @ $ % % % % % % % % $ $ $ $ % - - % - - - * * * * * % % % % * * * * * * * : : : : * * * * * * * * * * * * * * * * * * * * * * * * * : : * * % * * : : : : : : : : : : , 1 1 1 1 1 1 1 4 3 3 3 1 1 1 3 3 4 4 1 1 4 4 5 5 5 5 5 5 5 6 5 5 5 3 1 1 4 3 3 3 3 5 5 5 5 5 5 5 5 5 3 2 , : : , , 1 1 1 4 3 5 0 q q q q V V V Z Z H F G Q Q Q } } } } } | } | | } } } } } } } } Q Q G Q } } } } G G G G G G G G G G G G G ] } } } } ] G G G G G G G G G G } } }  . . .| O.O.O.O.O.O.O.O.O. . .} } }  . . . . . . . .{ G D S S z h w d d d h h x S S D G G G D S H z z z H H D G {  .O.o.+.+.+.%.+.+.o.o.O. . . .O.O.O.O.O.O.O.O.o.o.O.O.O.O.O.O.O.O.O.X.X. . ./ / T T T D F S S 5 d.PX                      ",
"                        #X% . O # # # # # # @ @ % % % @ @ @ @ @ @ @ @ @ @ @ @ @ @ @ @ @ $ $ @ # # # # # @ @ @ @ @ @ @ @ @ @ @ @ # # # $ # # # o . X & v f.@XqXaXaXiX8X:X;X;X;X;X;X;X;X;X;X;X;X;X;XrX:X[ . # $ $ $ % % % % % % @ @ $ $ $ % - - % % % % % - % % % % % % % % % - * - * * * * * * * * * * * - - % - - - - - % - % % % % % % - * * * * * * * * : : : : : , , 1 1 , : : : : 1 1 1 1 1 , 1 1 1 1 1 : : : : : : : : : : , , 1 , : : : : : : : : : : : , : : : , , , 1 , : : , , : : % % % - * : : : : : : , 2 2 3 3 5 0 q q h h V H Z H G G G Q Q Q Q Q } } } Q G G G G G G G G G ] ] ] } } G G G G G G G G G G G } ] } } } } } } } } } } } |  .| | } } G G G D D D D D G G G G D D z d 0 3 : : * * - * * = = * % * : 3 d h z z h d d d d h h H D D D G G G G G G ] ] ] ] { { { ] ] G G G G G G G G D D G G G { {  . .O.O.O.O.X.X.X.O.o.o.o.o.#.r.r.o.X.X.X.X.( / / / / T h T %X                        ",
"                        KXm.. X O O # # @ @ # @ @ @ @ @ @ @ @ @ @ @ @ @ % @ @ @ @ @ @ @ @ @ # # # # @ @ @ $ # # # @ @ @ % @ @ @ @ @ # # $ # $ % @ @ X . X < R H.;XiXaXaX8X;X;X;X;X;X;X;X;X6X;X;X0XrXH.O o @ % % % % % % @ @ @ @ @ @ @ @ @ $ @ @ % @ @ @ % % % % $ $ $ $ $ $ % % % % % % - - - - - $ $ $ $ $ % % % % $ $ $ $ $ % % % % % % % % % % % % % * * : * 7 : : : , , : 7 % % * * * : : * * * : : : : : : : 7 7 * * * * * * * : : : : : : : : : 1 1 1 , : : : : , 1 1 1 , 1 , 1 2 4 4 4 1 , 1 1 2 3 3 4 4 4 3 2 3 3 5 0 q q q q q w h V V H H H H H H G G G G G G G G G G G G G G } } ] ] ] ] } } } } } } } } } } } } ] ] G G G D H H H H H z z z H z z h s 8 2 < : : : : : : > > > > > : : * - $ $ % - - - - - - * * = > 3 8 0 d w 0 0 0 0 0 0 8 8 8 3 3 3 3 3 3 3 3 3 3 3 3 8 8 8 8 3 3 8 8 0 0 0 0 s s s s d d h h h h h h h h h h C S S S S S Y Y Y S S C C C C C h g 5 1  XPX                        ",
"                          nXl . o @ @ @ @ @ # @ @ @ @ @ @ @ @ @ @ @ @ @ @ @ @ @ @ @ @ @ @ @ # # # # # @ @ @ @ # @ @ # @ $ $ $ $ # # $ # # # # # # @ @ @ O . . # s y.@X:XaXaXiX6X;X;X;X;X;X6X;X6XrX@Xp . @ @ @ @ @ @ % @ @ @ @ @ @ # # # # @ @ @ @ @ @ @ @ @ @ @ @ @ @ @ @ $ % % % % $ $ $ $ - $ - $ @ @ $ $ $ $ $ @ @ $ $ @ # # @ % % % % % % % % % % % % % % % % % % - - * * % % % % % % % - * * % % % * * : : : : % % & & * % * : : : : : : : 1 1 1 1 1 , : : : : : : : : : : : , , 1 2 2 , , , , : , , 1 1 1 4 4 4 4 4 4 5 5 5 5 3 3 8 0 w q w q w q h h V V V z H H H H H H G } { } } } { ] } G D D H H z z h d w w w 0 0 0 0 0 0 0 5 3 3 3 2 2 2 2 3 3 8 3 3 3 3 3 8 8 8 0 0 w w h z z z z H H H D ] ] ] ] ] ] G G ] G D D D z z z z z z z z z z z h h d d d h d d h h d d d d d d d s 0 0 0 0 0 s 0 0 0 0 8 8 8 0 0 s d d d s s s s s s d s g g g s s s s g s s r 3 2 2 : X I HX                          ",
"                          nXXX@ . O @ # # @ @ @ @ # # @ @ @ @ @ @ @ @ @ @ @ # # # # @ @ @ @ # # # # # # @ @ @ @ # @ # # # # $ # # # # @ @ @ # # # # @ @ @ @ # X . X & K H.@XqXaXaXqX;X;X;X;X;XrX0X=.. o # # # # @ @ @ @ @ @ @ @ @ # @ # # @ @ @ @ @ @ % @ % @ @ @ @ @ @ @ @ $ $ % - $ $ $ @ $ $ $ $ $ $ % % @ @ @ @ @ % % # # # @ $ % % % @ @ % % % % % % % % % % % % % % - % % % % % % % % & : : : : : : : : * * * % * % % % * * * * * * * : : : : : : * * * : : : : : : * * * : : : * : : : : * * % * * * * * * * * * * * : : : : : * : : , > 3 8 0 w w w h h w w h h w w w w w w d h h d w w w 0 0 3 3 2 > , : : : : , > > 3 8 0 w w h z z z z z z z z D D D D D ] ] ] ] { { { { O.O.{ { { { { { { { O.O.O.O.O.O.{ { { { { { { { { { { { { { { { { ] ] ] ] ] ] ] ] ] ] D D D D D D D ] D D D D D D z z z z z z z z z z S S S D D T T T T / / E E E E ) ) ^ ^ Y Y ^ Y F C A 5 C #XvX                          ",
"                            PXm.. X @ # @ @ @ @ @ @ # @ @ @ @ @ @ @ @ # # # # # # # # # @ @ @ @ @ # # # # # @ @ @ @ @ # # # @ # # # # # @ @ $ @ @ # # # # # # @ # o . X o t y.H.;XrXaXrXwX>XwXrXJ.# X # # # # # # @ @ @ @ @ @ @ @ @ @ @ @ @ # @ @ @ @ # $ $ @ @ @ @ @ @ @ @ @ @ @ % % % @ @ @ @ @ $ $ $ % % @ @ @ @ @ @ @ @ # # @ @ @ % % % $ % % % % % % % % % % % % % % % % % % - - * % * % % % % * : * * * % % % % % % % % % % % % % % * * % % % * * * % * * % - - - % % % * * * * * % % % * * * * % % % % % % % % % * * * * 1 , > > , , : : : , 1 , : > > 3 4 4 3 3 3 3 4 4 , : : : : : > > 4 8 0 w h h h h z z z z z z z c z z D D D D ] ] ] ] ] ] ] ] ] ] ] ] ] ] ] ] ] ] ] ] { { { ] ] ] ] ] ] ] ] ] ] ] ] ] ] ] D D D ] ] ] D D D D D D D ] ] ] ] ] D D D D D D D z z z z z z x x z z z z z z z z z z z z z z z S S S D D D D G T / X.X.X.) ( ( ) ) ) ) ) ) ) ) ) ) K '  XLX                            ",
"                              nXm . o # @ # # @ @ @ @ @ @ @ @ @ @ @ @ @ # # # # # # # # O # # O @ @ O O # # O O # @ @ @ # # # # # # O # O O @ # @ # # # O O # # # # @ O X . X # j g.@X0XVXNXVX).i . O # # # # # # @ @ @ @ @ @ @ # # # # # # # # # # # # $ $ @ # @ @ @ @ @ @ @ @ @ @ @ @ @ $ $ @ @ @ @ @ % % % % % @ @ @ @ @ @ @ @ @ @ % % % % $ $ $ $ % % % % % % % % % % % % % % % % % % % % % % % % % % % % % % % % % % % % % $ % % % % % % $ % % % % % % % % % % % % % % % % * * - % @ @ % % * * : , , , , , : * % % % % : : : 1 3 3 3 3 4 4 4 , 1 : * * : : : : 1 > 4 3 8 0 0 0 0 0 0 w w h h z c z z z D D D D D D z z z z z c z z z z z z z z z z z z z z D D D D D D D D D ] ] ] D D D D z z z D D D D D D D z z z z z z z z z z z z c c z z z z z z z z z z z z c c c c c c c z z c d d d d c d c d d d d d d d h h S S S S S S Y ^ ) 5.=.) ) ) ) =.;.;.=.=.=.=.) ) ' g.GX                              ",
"                                %X= . # # # @ @ @ @ @ # @ @ @ @ @ @ @ @ # # O O # # # # O O O # @ @ O O # # # O @ @ @ O O O O # # # # # O O O O # # # O O O O O # # # O # O o X . X & =.H.;XQ.K X + # # O O O O # # # # # @ @ # # # # # # # # # # # # # @ # # # @ @ @ # @ # @ @ @ @ @ @ @ @ @ @ @ # @ @ @ @ % % % @ % @ @ @ @ # # # % % % % % @ @ @ @ @ @ % % % % % % % % % % % % % % % % % % % % % % % % % @ @ % % % % % % % % % $ @ @ $ % % % % % $ % % % % % % % : : : : 1 , : : : : * * % % : : : : 1 1 4 4 4 4 4 1 : * * % % * * : , 1 4 4 4 4 4 > > > > > 4 4 4 4 3 3 3 8 8 0 0 0 0 0 w w w w w w w w w w c c d w w d w c c z z c c c c c c c c c c c c c c c c c c c z z z z c c z z c c c c z z z c c z z z z z z c c z z c c c c c c c d c d d d d d d c c d d d d d d d w w w w w w 8 8 w w w 0 s s s s d d h h h C C C Y Y R ) =.r.r.r.r.r.r.r.r.r.r.r.r.;.;.;._ ;.vX                                ",
"                                LX Xo . O O # @ @ @ @ @ # @ @ @ @ # O O O O O O O O O # # O O O O O O O @ @ # # # # O O O O # # O O @ @ # # # # O O O O # # # # O O # @ # # O O o X . . @ i & . o # # O # # # # # # O O O O # # # # O # # # O O # @ @ # O O O O @ @ # # # # # @ @ @ @ @ @ @ @ @ @ @ @ @ @ @ @ # @ @ @ @ # # # # @ @ @ $ % $ # @ @ @ @ $ @ @ @ % % % % @ % % % % % % % % % % % % % @ @ % % % % @ % % % $ @ % % % % % - * * : : : * * % % % * % % % 7 : : : 1 1 1 1 1 1 1 1 : : : : * % % % * * * : : : : * * - - - - % % * * * * * * * * = = : : : : > > > > > > > 3 3 3 3 3 8 8 8 8 8 8 8 8 8 0 0 0 w w w w w w w w w w w c c c c c c z c c c c c c c c c c c c c c z z c c c c c c c c c c c c c c d d d d d d d w 0 0 0 w w e w w w w w 9 9 w w w w w w w 8 8 8 8 8 8 8 8 8 9 8 8 8 8 8 0 0 s d g g h C C C C F C K _ ^ ) =.=.;.;.r.;.;.;.;.r.y.y.y.r.) =.$XLX                                ",
"                                  PXn.. . O O O # O O @ @ # # # # O O O # # # O O O O # # # O O O O O O O # # # O O O O # # # # O O O O # # # O O O O O # # # # # O O O O # # O O O O o X . X O # O O O O O O O O O O O O # # # @ @ O O O # # O O O O O O O # O O # O O O O # @ @ @ @ @ @ @ @ @ @ @ @ @ @ # # # O @ @ # # # O O # # # $ $ $ # # # # # # # # % % @ # # # # @ @ @ @ @ % % % % @ @ # # @ % % % % % % % % % % % % % % % $ % % : : : : 1 , : : * % % % % % % % $ % % % * * % % % % % % % % % % % % % % @ @ % % % % % % % % % % % % % - - % % % - - * * * * * * * * = * : : : : : > > > > > < < 9 < 9 9 8 9 9 8 8 w e w w 9 w w w e w e c c c c c c e e c c c c c c c d d d d d d e e e w 0 d d d w w e w w w w 8 8 8 8 8 8 8 8 9 9 8 8 8 8 8 8 8 8 8 8 8 8 8 8 9 9 9 9 8 8 8 8 8 8 8 8 3 3 3 8 8 8 s s g g g g A C C K K C C K ^ =.;.r.y.y.y.r.;.;.r.y.y.y.;.) oXLX                                  ",
"                                    FX3.. X @ O O O O O # # O # O O # # # # O O O O # @ # # # O O O O O O O O O O O O O O O O O O O O O # # O # O O O O # # # # # # # O O O O # # # # # O O O O O O O O O O O O O O O O O O # # # # O O O O # # # O # # # # # # # # # # O @ @ @ @ @ @ @ @ @ @ @ @ @ # @ # # @ @ O O O # O O O O # # # # $ @ @ # $ # $ @ @ @ @ @ # # # # # # @ @ @ $ % % % % % @ # # # # $ % % % * * * : 7 7 % % % % @ % # # $ $ $ $ % - - % - % % % % % # # # # # @ # # # # # @ @ @ @ @ % % @ @ @ @ @ @ % % % % % % % % % % % % % % % % % % % % % % - - - - - - - - - - - - - - - - - - - - - - - * * = = > 9 9 9 9 9 9 9 9 9 9 e c c c c e e e e e e e e 9 9 9 9 8 9 9 9 9 9 9 9 9 9 9 8 9 9 8 9 9 9 < 9 < < < < 9 9 < 9 < < < < 9 9 9 < < 3 3 3 3 9 9 < < < < < < < < < < < , > > , < 3 3 3 3 3 5 y g g j A C K K K K K ) =.;.r.y.y.y.y.y.y.y.y.y.;.=.Q.KX                                    ",
"                                      nXm . X @ O O O O O O O O O O # # # # O O O O O O O # # # O O O # O O # O O O O O O O O O O O O # O O O O # # O O O O O O O O O O O O O O # # # O O O O O O O O # # # # O O O O O O O O # # # # O O O O # O O O # O # # # # # # # O O @ @ @ # # # @ # @ @ # # @ # # # @ @ @ @ # # # @ @ @ # # # # # @ @ @ @ % % % % % % @ # # @ @ @ @ % @ @ # # % % % * % % # # # # # @ # % % % % $ $ $ @ % % $ $ @ $ @ # # # # @ @ % % % % % @ # # # # @ @ % $ @ @ @ @ @ @ @ @ @ $ @ @ @ @ @ @ % % % % % % % % % % % % % % % % % % % - - - % - - - - - * * * * - - - - - - * - - - - - - * * * * - = = > 9 9 9 9 > 9 9 9 9 e e e c c c c e e e 9 9 9 9 9 9 9 9 9 9 9 9 9 < < < < 9 9 9 9 < > = = = = > > > > > > > > > < < < , < , , > > > > > > > > > > > : : : : : = = = = : , , < , < 3 3 y y g j C K K K _ ^ ) ) =.;.;.;.y.y.y.h.r.r.h.;._ J.IX                                      ",
"                                        $Xr . o @ O O O O O O O O # # # # O O O O O O O O # O O O O O # # # # # O O O O O O O O O O O O O O O O O O O O O O O O O O O O O O O O O O O O O O O O O # # # O O O O O O O O O # # # # @ O O O O O # O O # O O O O O O O # O O O O O # # # # # # # # # # O O O @ @ @ # # @ # % % % $ @ @ @ # O O # # # # @ % % % % % % % % $ @ @ @ # $ $ @ @ @ @ $ % # @ @ @ $ # # # @ @ $ @ @ # # @ @ # $ $ @ @ % % @ @ % % @ % % % % @ @ @ @ @ @ % % % @ @ @ @ % % @ @ @ % % % % % % % % % % % % % % % % % % % % % % % - - - - * * * * - - - - * * * * - - - - * * * * * - - - - - * * = = = = * - * * * * = = - - - > 9 c D.] ] D.c e e 9 9 9 > > > 9 9 > < < < < < < < < < < 9 < > > > > > > > > > > > > < > > > > > > > , , > > : : > : = = : > > : : : : : : , , , : , < < < < 3 3 3 y y g g j C A K K K _ ) ) ;.;.;.r.r.;.;.;.;._ h.hX                                        ",
"                                        GX%X% . o @ O O O O O O O O O O O O O O O O O O O O O O O O O # O O O O O O O O O O O O O O O O O O O O O o O O O O O O O O O O O O O O O O O O O O O O # # # O O O O O O O O O # O O O O O O O O O # # O O O O O O O O O O O # O O O O O # # # # # # # # # O O O O O # # # # # # # # # @ # @ @ # # # # # # @ # # # # # @ @ @ @ # # @ @ @ @ @ @ # @ @ $ # # @ @ @ @ # # @ # @ @ # # # # % # @ @ @ @ @ # # @ % @ @ @ @ @ @ # @ @ @ @ @ @ @ # # @ @ @ @ # # # # @ % % % @ @ @ @ @ @ % % % % % % % % % % % % % % % % % % % - - - - - % % $ % % % % % % % % - - - - % % @ @ % % - - - % % $ $ $ - - - % % @ @ - 9 e D.D.D.c 9 9 9 9 > - > - > > > > > > > , , , > > > > > < > > > > > > > < > > > > > > : = * * * = = : > > : : : : = = * * = : = = = = = , , : : : : , < < , 2 2 3 3 r y y u j C A K K K K _ _ ) ) ) ) ) _ ' ) hXIX                                        ",
"                                          LXXX% . X O O O O O O O O O O O O O O O O O O O O O O O O O O O O O O O # O O O O O O O O O # O O # O O O O O O o o o O O O O O O O O O O O O O O O O O O O O O O O # # # O O O O O O O O O O O O O O O O O O O # # @ @ # # # # # O O O O O O O O # # # # # # @ @ @ @ # # O # O O O # O O # # # # @ # # # # # # # # # # # @ # @ @ @ # @ @ # # O # # # # # @ @ # # # # # $ $ @ # # % # # # # # @ @ # @ @ # # # # # # @ @ # # @ @ % $ $ # @ # @ @ # # # # @ @ @ % # # # @ @ @ @ # $ # @ % % % % % % # % % % @ @ @ @ % % % % % % % % @ # @ @ # % % % % % @ % @ @ % % % % % % % @ @ @ @ $ $ % - - - - - - - - > 9 9 9 9 9 9 9 > - - = = = = > = = = = = = = = = = = = = = = = = = = = = = = = = = = * * * - - - - - - - * * * * * * * - - * * * * - - * * = = = * * * * , , , , < 3 3 3 t y u g j j A A A A K K K K K K ' K $XLX                                          ",
"                                            LXXX% . X O o O O O O O O O O O O O O O O o O O O O O O O O o o O O O O O O O O O O O O O O O O O O O O O O O O o o o O O O O O O O O O O O O O O O O O O O O O O # # O O O O O O O # O O O O O O O O O O O # # O O O O # # # # # # O O O O O O O O # # # O O O # # # O O O O # # # O O O O O # # O O O # # # # # # # # @ @ @ @ # # # # # # # O # # # # $ $ # # # # # # # # # # # # @ @ # @ # # # @ @ @ @ # # # # # @ @ @ # @ @ % @ @ # # # # # # # # # @ @ # # # # # @ # # # # @ @ @ @ @ @ % % $ % % % @ @ @ # # $ # @ @ @ @ # # # @ # @ $ $ @ @ $ @ @ @ @ % % % - % % - % - $ $ - - - - - - - - - - * - - - - - = - - = - - - - - * * * - * = - - - - = = = = = = = - - - - - * = * * * * - % % - - - - - % - - - - - - - - - - - - - - - % % % % - * * * * * % * * : , , < < 3 3 t t y y u u j j j A ' A A ' 2 K $XLX                                            ",
"                                              LXXX% . o O O O O O O O O O O O O O O O O O O O O O O o o o o O O O O O O O O O O O O O O O O O O O O O O O O O O O O O O O O O O O O O O O O # # O O O O O O O O O O O O O O O O O O O # # O O O O O O O O O O O o O O O O O O O O O O O O O O # # @ O O O o O O O O O O O O O # # O O O # # O O # O # O # # O # # # # # # # # # # # # # # # # # # # # # @ @ # # # # # # # # # # # @ @ @ # # # @ # # @ O # # # # # # # # # @ # # # # # # # # # # # # # O # # # # # @ @ @ @ @ @ @ @ @ @ @ @ @ @ @ $ @ # # $ $ % % # # # # # # @ $ @ @ @ @ % % % % % % @ @ % % - - @ @ % - - % % @ % % % - - - - - % - - - - - - - - - - - - - - - - - - - - - - - - * - - = = = * * * * * * - - - - % - - % % % % - % % % % - - - - % % % - - - - * * - % % % - - - - * * * * * * * : , , , , < 3 3 3 3 3 y y u u s u u u u 7 A $XLX                                              ",
"                                                LXXX% . X O o O O O O O O O O o O O O O O O O o o o o O O O O O O O O O O O O O O O O O O O O O O O O O O O O O O O O O O O O O O O O O O O O O O O O O O O O O O O O O O O O O O O O O O O O O O O O O O O O O o O O O O O O O O O O O # # # O O O O O O O O O O O O O O O O O O O O # # # # # # # O O O O # O # # # # # # # # # # # # # # # # # # # O # # # # # # O O O # # # # # # # # # # # O O O O # # # # # # # # # # # # O # O # # # # O # # # O O O # # # # O O O O @ @ @ # @ @ @ @ @ @ $ # # # # # $ $ @ @ @ # # % $ $ @ @ @ @ @ % % % @ @ @ @ @ % % % @ @ @ @ @ % % % % % % % % % % % % % % % % % % % - % $ $ % % - - % % % % % - * * * * - - * * * * * * * * * - - - % % - - - - % % - - % % % % % % % % % % % - - - - - % % - * * * * * * * * * * * = = = , , , , , < < < 3 t 3 t t r y y 3 & f #XLX                                                ",
"                                                  LX#X= . . O O O O O O O O O O O O o O O O O O O O O O O O O O O O O O O O O O O O O O O O O O O O O O O O O O O O O O o o o O O O O O O O O O o o O O O O O O O O O O O O O O O O O o O O O O o O O O O O O O O O O O O O O O O O o o O O O O O O O O O O O O O O O O O O O O O O O O O O # # # # O O O O O O O O O O # O O O O O O O # # # # # # O O O O O # O O O O O O # @ # # # # O O O O O O O O # # # # O O O O O O # # O O O O # # O # # # O # # @ # # # # # # # @ O O # # # # @ @ $ # # # # # # O # # $ # # # $ $ $ # # # # @ @ @ @ @ @ @ @ # # # $ $ @ # @ # @ @ % @ $ @ @ @ @ @ @ @ % % % % % % % % $ @ @ @ % - - % % % % % - - - - - * * * * * * * - - - - % - % % % % % % % % % % % % % % % % % % % % % % % % % % % % % * * * % - * * * - - - * * * * * = , , , , < < < < 3 3 3 3 3 3 , # v %XLX                                                  ",
"                                                    LX$Xb . . O O o o O O O O O O O O O O O O O O O O O O O O O O O O O O O O O O O O O o o o o o o O o o o o o O O O O O O O O O O O O O O O O o o o o o O O O o o o O O O o o O O O O O O O O O O O O O O O O O O O O O O O O O O O O O O O O O O O O O O O O O O O O O O O O # # O O O O O O # # # # O O O O O O O O # O O O O O O O O O # # # # # O O O O O O O O O O O # O O O O # O O O O O O O O O O O O O O O O O O O O O O O O O # # # # O O O O O # # # # # # # # # # # # # # O $ @ # # O # # # # $ # # # # # # @ # @ # # # # @ @ # O # @ @ @ @ # # # @ @ @ @ @ @ @ @ @ @ $ $ $ $ @ @ @ @ @ @ @ @ % % @ @ @ @ % % % % % % % % - - - - % % - - - - - - - - - - % % % % % % % % % % % % % % @ @ % % % % % % % % % % % % % % % - % % % % % % % % % - % % * * * = = , , , , , < < , , , < < & O U &XLX                                                    ",
"                                                        nX3.. . O O O O O O O O o o O O O o o O O O O O O O O O O O O O o o o o O O O O o o o o o o O O o o o O O O O O O o o O O O O O O o o o O O o o O O O O O o o O O O O O O O O O O O O O O O O O O O O O O O O O O O O O O O O O O O O O O O O O O O O O O O O O O O O O O O O O O O O O O O O O O O O O O O O O O # # # O O O O O O # # O O O O O O O O O O O O O O O O O O O O O O O O O O O O O O O O O O O O O O O O O O # O O O O O O O O O O O O O # # # # # O O O O O # # # # # @ # # # # # # # # @ @ # # # # @ # # # # @ $ $ # # # # # @ @ @ @ # @ @ @ @ # # @ @ @ $ $ # $ @ @ @ @ @ @ @ @ $ $ $ @ @ @ @ @ @ @ % @ % % % % % % % - - * - - - % % % % % % % % % % % % % % % % % % % % % % % % $ $ % % $ % % % % % $ % % % % % % - % % % % % % % % * * * * = = = , , , , , , , , , # X 0.vX                                                        ",
"                                                          FX0.. . o O O O O o o o o o o o o o o o o o O O O O O O O O O o o o o o O O O O O o o o o o o O O O O O O O O O O o o o o O O O O o o o o O O O O O o o O O O O O O O O O O O O O O O O O O o O O O O O O O O O O O O O O O o O O O O O O O O O o o o O O O O O O O O O O o o o o O O O O O O O O O O O O O O O O O O O O # # O O O O O O O O O O O O O O O O O O O O O O O O # O O O O O O O O O O # O O O O O O O # O O O O O O O O O O O O O O O O O O O # # O O O O O # # # # # # # # # # # # # # @ @ # # # # @ O @ # O O # # # # # # # # # # # # # # # @ # # # # # # # O @ @ O O O @ @ @ # # @ $ @ $ % % % % % % % % % % % % - % * * - - - % % % % % % % % % % % % $ % % % % % % @ % % % % $ @ # # # # $ @ % @ @ @ $ % % % % % % % % % % % % % % * * * * * = = = = = , , , , * O # n.FX                                                          ",
"                                                            PXG.O . X O O O O o o o o o o o o O o o o o o o o o o o O O O O o o o o O O O O O O o o o o O O O O O O o o o o o o o o o O O O O o o o O O O o o o o o o o o o o o O O o o o o o o o O O O O O o o O O o O O o o O O O O O o o o o O O O O o o o o O O O O O O O O o o o o o o O O O O O O O O O O O O O O O O O O O O O O O O O O O O O O O O O O O O O O O O O O O O O O O O O O O O O O O O O O O O O O O O O O O # # O O O O O O O O O O # # O O O O O O O O O O O O O # # O O O O O # # # # # O O O O O O O O O O O O # # # # # O # O O O O O # @ @ @ @ # # # # # # $ @ O O O O # @ # # # # # @ @ @ @ @ % % % % % % % % % % % - - % % % % % % % % % % % % % % % % @ # # # $ # # # @ @ $ @ $ $ # # # $ $ $ @ @ @ @ # # $ $ $ $ $ % % % % % % % * * * * * * * * * = = = = % . , |.PX                                                            ",
"                                                              LX$Xa . . o O O O o o o o o o o O o o o o o o O O O O O O O O O O O o o o o o O O o o o o o o O O O O o o o o o o o o o O O O o o o o O O O o o o o o o o o o o o O O O O o o o o o o o O O O o o o o o o o o o o O O O O O o o o O O O O o o O O O O O O O O O O o o o O O O O O O o O O O O O O O O O O O O O O O O O O O O O O O O O O # O O O O O O O O o O O o O O O O O O O O O o O O O O O O O O O O O O O O O # O O O O # # O O O O O o O O O O O O O O O O O O O O O O O O # # O # # O O O O O O O O O O O O O O # # # # # O @ @ O O O O # # # O O # # # # # # # # # # # # # # O # # # # @ @ @ @ @ @ % % $ % % % % % % % % * - - % % % % % % % % @ % % % % $ @ @ # # $ # # # # # @ @ $ $ $ $ $ $ # # # # # # # # $ $ $ $ $ $ % % % % % % * * * * * = * * * * * * O X m &XLX                                                              ",
"                                                                GXcXw.X . . o o o o o o o o o o o o o o o o O O O o o o o o o o o o o o o o o o o o o o o o O O O o o o o o O O O o o o o o o o o o o o o o O O o o o o o o o o o o O O O o o o o o o O O O O O o o o o o o o o O O O o o o O O O O O O O o o o o o o o o o O O O O O O O O O O o O O O O O O O o o o O O O O O O o o O O O O O O O O O O O O O O O O O O O O O O O O O O O O O O o o o O O O O O O O O # O O O O o o o o o O O O O O O O O o O O O O O O O O O O O O O O # # # # # # # O O O O O O O # O O O o # # O O # # # # # # O O O O # # # O O # # # # O O O O # # # # # # O O # # # # # # # # @ @ @ @ # # $ % % % % % % % % * * * % % % % $ $ % % % $ $ $ $ $ @ @ $ $ $ # # # # # @ @ @ @ @ @ O O # # # # # % $ @ @ @ $ $ $ $ % % % % % % * * * * * * = = * % . # x.vXGX                                                                ",
"                                                                    LX.X= . . o o o o o o o o o o o o o o o o o o o o o o o o o o o o o o o O o o o o o o o o o o o o o o O O O o o o o o o o o o o o o o o O O o o O O O o o o o o o o O O O O o o o O O O O O o o o o o O O o O O O o o o o o O O O O O O O O O o o o O O O O O O O O O O O O O O O O O O O O o o O O O O o o o O O O O O O o o o o O O o o O O O O O O O O O O O O O O O O O O o O O O O o o o o O O O O O O O o o o o O O O O O O O O O O O O O O O O O o O O O O # O # O # # # # # O O O O O O O # O O O O O O o O O # O O O O O # # O O O O O O O O O # # O O O O # # O O O O O O O # # # # # # $ $ # # # # $ $ % % % % % % % % % % % % % % % $ $ $ $ $ @ $ @ # # # # $ @ $ @ # # # # O @ @ @ # # O # # $ @ $ @ @ @ # # $ $ $ % $ $ $ $ % % % % % - * * * * # . p XXPX                                                                    ",
"                                                                      nXcXw.o . X X o o o o o o o o o o o o o o o o o o o o o o o o o o o o o o o o o o o o o o o o o o o o o o o o o o o o O o o o o o o o o o o o o O O o o o o o o o o o o o o o o o o o o o o o o O O O o o o o o o o o o o o o o O O O O O o o o o o o o O O O o O O o o o o o o O O O O o O o o o O O O O O O o o o o o o o o o O O O O O O O O o o o o O O O O O O o o o o O O O O O O o o O O O o o o O O O O O O O O O O O O O O O O O O O O O O o o o O O O # O O O O O # # # # O # # # O # # O O O O O O O O O O O O O O O O O O O O O O O o o O O O O O O O O O # # O O O O O O O O @ @ # # O O $ $ $ $ $ % % % % % % % % % $ $ % % % % $ $ # # # @ $ $ @ @ # @ # # @ @ $ # $ $ # # @ # # # # # $ $ @ @ # @ # # # # # $ $ % % % % % % % % % % % % # . @ w.lXnX                                                                      ",
"                                                                          LX.Xp . . . X o X o o o o o o O o o o o o o o o o o o o o o o o o o o o X o o o o o o o o o o o o o o o o o o o o o o o o o o O O o o o o o o o o O o o o o o o o o o o o o o o o o o o o o o o o o o o o o o o o o o o o O o o O O o o o o o o o o o O O o o o o o o o o o o O O O o o o o O O O O o o o o o o o o O O O O O O o o O O O O O O o o O O O O O O o o o o o o o o o O O O O O O o o o O O O O O O O O o o o o o O O O O O O O O # O O O O O O # O O O O O O O O O O O O O O # # # O O O O O O O o o O O O O O O O O O O O O O O O O O O O O O O O O O O O o O O O O O O O O O O O O $ $ $ $ $ $ % % % % % % % % $ $ $ $ @ @ @ @ $ @ @ @ @ @ @ $ @ @ @ @ # # # @ @ # # # @ @ # # # O # # # # # # $ $ $ $ $ $ $ $ $ $ % % % % % % % # X X b .XPX                                                                          ",
"                                                                            FXnXm.- . . X o o o o o o o o o o o o o o o o o o o o o o X o o o o o o o o o o O O o o o o o o o o o o o o o o o o o o o o o o o o o o o o o o o o o o o o o o o o o o o o o o o o o o o o o o o o o o o o o O O O o o o o o o o o o o o o o o o o o O o o o o o o O O O o o O O o o o o o o o o o o o o o O O o o o o o O O o o o o o o o o o O o O O O O O O O O O O o O O O o o o o o o O O o o o o o O O O o o o o o o O O O O O O O O O O O O O O O O O O O # O O O O O O O O O O O O O O O O O O O o o o o O O O O O o o O O O O O O O O O O O O O O O O O O O O O O O O O O O O O O O O # @ # # $ $ $ $ $ $ $ $ $ $ % % $ @ $ $ @ @ @ @ @ @ # # # @ $ @ @ # O O # # # # # # @ @ @ O # # # # # # # # $ # # @ # $ $ $ $ $ % % - - % # X . < Z.nXnX                                                                            ",
"                                                                                LX%Xx.$ . . . o o o o o o o o o o o o o o o o o o o o o o o o X o o o o o o o o o o o o o o o o o O o o o o o o o o O O o o o o o o o o o o o o X X o o o o o o o o o o o o o o o o o o o o o o O o o o o o o o o o o o o o o o + + o o o o o o o o o o o o o o O O O o o o o o o o o o o o o o o o o O O O O o o o o O O O o o o o o o o o o o o o o o o O O O O O O O O O O o o o o o o o o o o o o o O O O O o o o O O O O O O O O O O O O O O O O O O # # # O O O O o o O O O O O O O O O O O O O O O o O O O O O o o o O o O O O O O O O O O o o o o O O O O O O O O O # O O O O O O O # # # # @ @ $ $ # # $ $ $ @ @ @ @ @ $ $ $ @ # # # # # # # # # # # # O O O # # # # # @ # # O O O # # # # @ @ @ @ @ @ @ @ @ $ % % % % % # . . * x.%XLX                                                                                ",
"                                                                                    KX$X3.X . . . o o o o o o o o o o o o o o o o o o o o o o X X o o o o o o o o o o o o o o o o o o o o o o o o o o o o o o o o o o o o o o X X X o o o o o o o X o o o o o o o o o o o o o o o o o o o o o o o o o o o o o o o X o o o o o o o o o O o o o o o o o o o o o o o O o o o o o o o o o o o o o o o o o o o o o o o o o o o o o o o o o o o O O O O O O O o o o o o o o O O o O O O o o O o o o O O O O O o o O O o O O O O O o o O O O O # # O O O O O O o o O O O O O O O O O O o O o o O O O O O O O O O O o o O O O O O O o o o o o o O O O O O o o o o O O O O O O O O O O # # # # # @ $ $ $ $ $ @ @ # # # # # # $ $ $ # # # # # # O # O O # # # # O O O O # # # O O O O O O O O # $ $ # $ $ @ @ $ % % % $ O . . * x.%XGX                                                                                    ",
"                                                                                        nX#X0.$ . . . + o + o o o o o o o o o o o o o o + o + o + X X X o o o o o o o o o o o o o o o o o o o o X X o o o o o o o o o o o o o o o o o o o o o o o o o o o o o o o o o o o o o o o o o o o o o o o o o o o o o O O O o + X X o o o o O O o o o o o o o o o o o o o o o o o o o o o o o o o o o o o o o o o o o o o o o o o o o o o O O O o o o O O o O O o o o o O O o O O O o o o o o o o o o O O O O O O o O O o O O O o O O O O O O O O O O O O O O O O O O O O O O O O O O O O o o O O O O O O O O O O o o o o O O O O O O o o o o o O O O O O O o o o o O O O O O O O O O O # O # # # $ $ @ @ @ @ @ # # # # # # $ $ # O O O O O O O # O O O O O O O O O O O # # O O O @ O O O O # # # # @ @ @ @ $ $ $ X . . % a.%XGX                                                                                        ",
"                                                                                            nXcXZ.p . . . X o o o X X X o o o o o o o + o X X X X X X o o o o o o o o + o o o o + + + o o o + X X X o o o o + + + + X X X o o o o o o o o o o o o + X X X X + o o o o o o + + + o o o o o o o o o o o o o o o o o o o X X X o o o o o o o o o o o o o o O O O o o o o o o o o o o o o o o o o o O O O O o o o o o o o o o o o o o o o o o o o o o o o o o O O O o o o o o o o o o o o O O o o o o o o o o o o O O O O o o o o O O O O O O O O O O O O O O O O O O O O O O O O O O o O O o o o o o o o o o o o o o o O o o o o o o o O O O O O O O o o o o o O O O O O O O O O O O # O @ O O # # O # # $ $ # # O O O # # # # # # # # # # # # O O O O O # # # O O O O # # # # # # # # # $ # @ @ $ @ @ O . . o t a.%XHX                                                                                            ",
"                                                                                                cX&X|.m O . . . X X X X o o o X X X + + o o X X X o o o o X X o o o o o o o o o + + o o + + + X X X o o o o + X X X X X X o o X X X o o o o o o X X X X o o + o o o o o o o X X X o o o o o o o o o o o o o o o o o o o o o o o o o o o o o o o o o o o o o o o o o o o o o o o o o o o o o o o o o o o o o o o o o o o o o o o o o o o o o o o o o o o o o o o o o o o o o o o o o o o o o o o o o o o o o o O O o O O o o o O O O O O O O O O O o o o O O O O O O O O O O O O O O o o o O o o o o O O O o o o o o o o o o o o o o O O O O O O O o o O O O O O O O O O O O O # # # O O O O O # O # @ $ $ # # O O O O O # # O O # O O O # # O O O O O O O # O O O O O O O O O # # # # $ # # # O X . . % U  XnXGX                                                                                                ",
"                                                                                                    nXnX%Xn.a + . . . X X X X X X X X o o o o o o o o X X X X X X o o o + + + + + + o o + + o X X X X X o o o X X X X o o o o X X X o o X + o o o o o o o o o o o X + o o o X X X o o o o o + + o + o o o o o o o o o o o o o o o o o o o o X X o o o o o o o o o o o o o o o o o X o o o o o o o o o o O o o o o o o O o o o o o o o o o o o o o o o o o o o o o o o o o o o o o o o o o o o o o o o o o o o o o X o O O O O O O O O O O O O O O o o o O O O O O O O O O O o O O o o o o O O o O O O O O o o o o o o O O O O o o o o o o o o O O O o o o o O O O O O O O O O # # # # O O O O # @ @ O # # # # # # O O O O O O O O O O O O O O O O O O O O O O O O # O O O O O # # O # # o X . . # b n.%XBXcX                                                                                                    ",
"                                                                                                          %XcX#Xn.b $ . . . . X X X X X o o o o o X X X X X X X o o X o + + + + + X X + + o o o X X X X X o o o X X X X o o o o o o X + + o o o o o o o o o o o X X X + + o + X X X + + + + + + + o o o o o + + X o o o o o o o o o o o o o X X X o o o o o o o o o o o o o o o o o o o o X X o o o o o o o o o o o o o o o o o o o o X o o o o o o o o o o o o o o o X X X X o o o o o o o o o o X o o o o o o o o o o o O O O O o o O O O O O O O O O O O O O O O o o O O o o o o o o o o o o O O o O o o o o o o o o o o o O O o o o o o o o o o o O O O O O O O O O O # # # # # # # @ O # # O # # # @ @ O O O O O O O O O O O O O O O O O O O O # # O o o O O O O O O O o o o X . . . = b a.#XvX%X                                                                                                          ",
"                                                                                                                cXFX&XZ.,.M O . . . . . . . . X X X X X X X + + + + X o X o o o X X X X X X o o o o X X X + X X X X X X X X o o o o o X X X X X X X X X X X o o o X X X X + o o + o o o o o o o o o o o X X X X X X X X o o o o o o o o o o X X X X X o o X X o o o o o o X X o o o o o o X X X X X X o X X o o o o o o o o o o o X X X o o o o o o o X X o o o o o o o X X o o o o o o o o o o o X X o o o O o o o o o o o o o o o o o O O O O O O O O O O O O O O o o o o o o o O O o o o o o O O O o o o o o o o o X o o o o o o o o O O o o o o o O O O o o O O O O O # # # O O O O O @ @ # O O O O O O O O O O O O O O O O O O O O O o o o O O O o o o X o o o o X X . . . . $ b ,.A.&XBXcX                                                                                                                ",
"                                                                                                                      FXPXcXXXC.0.m p % . . . . . . . . . . . . . . . . . . . . . . . . . . . . . . . . . . . . . . . . . . . . . . . . . . . . . . . . . . . . . . . . . . . . . . . . . . . . . . . . . . . . . . . . . . . . . . . . . . . . . . . . . . . . . . . . . . . . . . . . . . . . . . . . . . . . . . . . . . . . . . . . . . . . . . . . . . . . . . . . . . . . . . . . . . . . . . . . . . . . . . . . . . . . . . . . . . . . . . . . . . . . . . . . . . . . . . . . . . . . . . . . . . . . . . . . . . . . . . . . . . . . . . . . . . . . . . . . X X X X . . . X X X X X X X X X X X X X X X X X X X X X . . . . X . . . X X . . . . . . . . . X - a >.w.Z.OXcXPXFX                                                                                                                      ",
"                                                                                                                              GXKXcX#XXX|.m.w.,.*.b a = - O o o o o o o o o o o o o O O O O O O o o o o o o O O O O o o o O O o o o o o o o O O O o o o o O O o O O O O O O O O o O O O O O O O O o O O O O O O O O O O O O O O O O O O O O O O O O O o O O O O O O O O O O O O O O O O O O O O O O O O O O O O O O O O O O O O O O O O O O O O O O O O O O O O O O O O O O O O O O O O O O O O O O O O O O O O O O O O O O O O O O O O O O O O O O O O O O O O O O O O O O O O O O O O O O O O O O O O O O O O O O O O O O O O O O O O O O O O O O O O O O O O O O O O @ @ @ O @ @ $ $ @ @ @ @ O @ $ $ @ @ @ @ @ @ O @ @ @ @ O O @ @ @ @ @ @ @ O @ $ = = a m m 1.a.B.|.XX&XcXKXGX                                                                                                                              ",
"                                                                                                                                          PXGXnXcX%X&X#X#X.X.X.X.X.X.X.X.X.X.X.X.X.X.X.X.X.X.X.X.X.X.X.X.X.X.X.X.X.X.X.X.X.X.X.X.X.X.X.X.X.X.X.X.X.X.X.X.X.X.X.X.X.X.X.X.X.X.X.X.X.X.X.X.X.X.X.X.X.X.X.X.X.X.X.X.X.X.X.X.X.X.X.X.X.X.X.X.X.X.X.X.X.X.X.X.X.X.X.X.X.X.X.X.X.X.X.X.X.X.X.X.X.X.X.X.X.X.X.X.X.X.X.X.X.X.X.X.X.X.X.X.X.X.X.X.X.X.X.X.X.X.X.X.X.X.X.X.X.X.X.X.X.X.X.X.X.X.X.X.X.X.X.X.X.X.X.X.X.X.X.X.X.X.X.X.X.X.X.X.X.X.X.X.X.X.X.X.X.X.X.XXX.X.X.X.X.X.X.X.X.X.X.X.X.X.X.X.X.X.X.X.X.X.X.X.X.X.X.X.X.X.X.X.X.X.X.X.X.X.X.X.X.X.X.X.XXX.X.X.X.X.X.X.XXX.X.X.X.X.X.X.XXXXXXX.X.XXXXXXXXXXXXXXX.XXXXXXXXX.X.X.XXXXXXXXXXXXXXX.X.X.X.X.X.XXX#X#X&XcXcXvXGXPX                                                                                                                                          "
};
