/* XPM */
static char *camera_600[] = {
/* columns rows colors chars-per-pixel */
"41 13 81 1 ",
"  c black",
". c #010000",
"X c #000100",
"o c #010100",
"O c #010101",
"+ c #020001",
"@ c #000002",
"# c #010F0F",
"$ c #01100D",
"% c #02110E",
"& c #051F1C",
"* c #051F1E",
"= c #05201B",
"- c #03201C",
"; c #03201E",
": c #04211D",
"> c #062F29",
", c #052F2B",
"< c #062F2B",
"1 c #06302C",
"2 c #07302C",
"3 c #063F38",
"4 c #073E39",
"5 c #083F39",
"6 c #083F3A",
"7 c #074039",
"8 c #084138",
"9 c #09403A",
"0 c #08413A",
"q c #094F45",
"w c #084F47",
"e c #094F47",
"r c #085045",
"t c #0B5E54",
"y c #0B5E56",
"u c #0C5F55",
"i c #0C5F57",
"p c #0A6055",
"a c #0D6E63",
"s c #0C7066",
"d c #0E7E70",
"f c #0F7F71",
"g c #0E7E72",
"h c #0F7F73",
"j c #107E71",
"k c #0F8D7F",
"l c #108F7E",
"z c #0F8F80",
"x c #108E80",
"c c #118E80",
"v c #139D8D",
"b c #119E8D",
"n c #139D8E",
"m c #129F8E",
"M c #129F8F",
"N c #149E8E",
"B c #149E8F",
"V c #14AD9B",
"C c #12AD9D",
"Z c #13AE9C",
"A c #15AE9C",
"S c #16BDA9",
"D c #15BEA9",
"F c #16BDAB",
"G c #15BEAB",
"H c #17BEAA",
"J c #16BFAA",
"K c #17BEAC",
"L c #18CEB7",
"P c #17CEB8",
"I c #18CEB8",
"U c #18CFB9",
"Y c #18DCC6",
"T c #19DDC7",
"R c #1BDCC7",
"E c #1BEDD4",
"W c #1DEDD5",
"Q c #1CEED5",
"! c #1DFDE2",
"~ c #1DFDE3",
"^ c #1EFCE3",
/* pixels */
"                                         ",
"                                         ",
" :xNe 0lNt  e0Nk0Nx*  tNx: :,ta sNl*     ",
" Te3: 3e3E1 NA,NU,xz *TetT 7Tg:$p3aJ     ",
" !       J5 Nt gj tN tN  ! 5J     :T     ",
" !    eNJE5 Nt gg tN tUgJx 0J   gAPT     ",
" !    !, J5 Nt gg tN tJ3:  7J  rJ$:T     ",
" E#   !  J5 Nt gg tN eN    7J  tN 1T     ",
" gTNj JJJL5 Nt gg tN $TAAj 7J  ,TAAA     ",
"  $:   :$              :$       $:       ",
"                                         ",
"                                         ",
"                                         "
};
