/* XPM */
static char *camera_2160[] = {
/* columns rows colors chars-per-pixel */
"160 50 155 2 ",
"   c black",
".  c #010000",
"X  c #000100",
"o  c #010100",
"O  c #010101",
"+  c #020100",
"@  c #020001",
"#  c #000201",
"$  c #000002",
"%  c #010002",
"&  c #010103",
"*  c #030F0D",
"=  c #010F0F",
"-  c #01100D",
";  c #02110E",
":  c #04100E",
">  c #021010",
",  c #041010",
"<  c #051F1C",
"1  c #03201B",
"2  c #05201B",
"3  c #03201C",
"4  c #02211C",
"5  c #03201E",
"6  c #04211C",
"7  c #04211D",
"8  c #06201D",
"9  c #04211F",
"0  c #052F2B",
"q  c #062F2B",
"w  c #053029",
"e  c #07302C",
"r  c #073E38",
"t  c #063F38",
"y  c #073E39",
"u  c #063F39",
"i  c #083F39",
"p  c #083F3A",
"a  c #0A3E3A",
"s  c #084037",
"d  c #074039",
"f  c #07403A",
"g  c #084138",
"h  c #094138",
"j  c #09403A",
"k  c #08413A",
"l  c #094F45",
"z  c #084F47",
"x  c #094F47",
"c  c #0B4E47",
"v  c #084F49",
"b  c #095146",
"n  c #0A5046",
"m  c #085148",
"M  c #0A5048",
"N  c #095F54",
"B  c #0B5E54",
"V  c #095F56",
"C  c #0B5E56",
"Z  c #0C5F55",
"A  c #0C5F57",
"S  c #0A6057",
"D  c #0B6158",
"F  c #0C6D62",
"G  c #0D6F62",
"H  c #0D6E63",
"J  c #0E6E63",
"K  c #0C6D64",
"L  c #0E6D65",
"P  c #0D6E65",
"I  c #0E6F64",
"U  c #0E7063",
"Y  c #0C7064",
"T  c #0F7F6F",
"R  c #0E7E70",
"E  c #0F7F71",
"W  c #0E7E72",
"Q  c #0F7F73",
"!  c #107E71",
"~  c #107E73",
"^  c #117F74",
"/  c #0D8071",
"(  c #0D8073",
")  c #0E8172",
"_  c #0F8D7F",
"`  c #108072",
"'  c #108074",
"]  c #108D7F",
"[  c #118E7E",
"{  c #108F7E",
"}  c #11907F",
"|  c #0F8D81",
" . c #108E80",
".. c #118E80",
"X. c #118F81",
"o. c #128F81",
"O. c #118F83",
"+. c #109081",
"@. c #139D8D",
"#. c #119E8D",
"$. c #139D8E",
"%. c #119E8E",
"&. c #129F8E",
"*. c #129F8F",
"=. c #159D8F",
"-. c #149E8E",
";. c #149E8F",
":. c #14AD9B",
">. c #15AE9A",
",. c #13AE9C",
"<. c #14AC9D",
"1. c #15AE9C",
"2. c #16BDA9",
"3. c #15BEA9",
"4. c #16BDAB",
"5. c #15BEAB",
"6. c #17BEAA",
"7. c #16BFAA",
"8. c #17BEAC",
"9. c #16BFAC",
"0. c #16CDB7",
"q. c #17CFB7",
"w. c #18CEB7",
"e. c #17CEB8",
"r. c #18CEB8",
"t. c #18CFB9",
"y. c #17DDC6",
"u. c #1ADBC6",
"i. c #19DDC5",
"p. c #18DCC6",
"a. c #19DDC7",
"s. c #1BDCC7",
"d. c #18DEC7",
"f. c #19DDC9",
"g. c #19DFC8",
"h. c #1ADEC8",
"j. c #1BEDD4",
"k. c #1BECD6",
"l. c #1DEDD5",
"z. c #1CEED5",
"x. c #1CEDD7",
"c. c #1DFBE2",
"v. c #1BFEE2",
"b. c #1BFEE3",
"n. c #1CFCE1",
"m. c #1CFCE2",
"M. c #1DFDE2",
"N. c #1DFDE3",
"B. c #1EFDE2",
"V. c #1EFCE3",
"C. c #1EFEE3",
"Z. c #1DFDE5",
"A. c #1FFDE4",
"S. c #1CFFE4",
"D. c #1EFEE4",
/* pixels */
"                                                                                                                                                                                                                                                                                                                                ",
"                                                                                                                                                                                                                                                                                                                                ",
"                                                                                                                                                                                                                                                                                                                                ",
"                                                                                                                                                                                                                                                                                                                                ",
"                                                                                                                                                                                                                                                                                                                                ",
"                                                                                                                                                                                                                                                                                                                                ",
"                                                                                                                                                                                                                                                                                                                                ",
"                                                                                                                                                                                                                                                                                                                                ",
"                                                                                                                                                                                                                                                                                                                                ",
"                                                                                                                                                                                                                                                                                                                                ",
"                                                                                                                                                                                                                                                                                                                                ",
"                                                                                                                                                                                                                                                                                                                                ",
"                                                                                                                                                                                                                                                                                                                                ",
"                                                                                                                                                                                                                                                                                                                                ",
"              d ..e.a.N.x.e.6.! w                 = d ..,.a.a.a.a.6...s                     0 E Y     3 T e.a.x.N.r.*.<       j ..w.a.N.x.e.*.3                           b *.a.a.N.x.a.6...3                   z E z         j *.r.a.K             w K *.r.h.a.a.e.,.Z 3                                                       ",
"          - 6.N.N.N.N.N.N.N.N.N.N.b           0 ..x.N.N.N.N.N.N.N.N.N.N.6.=                 Z N.x.= K N.N.N.N.N.N.N.N.N.E   { N.N.N.N.N.N.N.N.x.0                     3 a.N.N.N.N.N.N.N.N.N.N.{                 *.N.6.    j a.N.N.N.N.b       - E a.N.N.N.N.N.N.N.N.N.N.a.0                                                     ",
"          0.N.N.N.N.N.N.N.N.N.N.N.-           E N.N.N.N.N.N.N.N.N.N.N.N.N.6.                Z N.N.*.N.N.N.N.N.N.N.N.N.N.N.6.N.N.N.N.N.N.N.N.N.N.a.,                 3 a.N.N.N.N.N.N.N.N.N.N.N.N.{               *.N.N.= ..N.N.N.N.N.N.i       3 N.N.N.N.N.N.N.N.N.N.N.N.N.x.-                                                   ",
"        Z N.N.N.a.K w 3 3 0 t K K             < N.a.*.K z i i d K h.N.N.N.N.3               Z N.N.N.N.a.K 3 3 0 b h.N.N.N.N.N.6.z 3 3 0 Z a.N.N.N.K                 *.N.N.N.w.K 0 3 0 z *.N.N.N.N.-             *.N.N.a.N.N.N.x.*.! K -         6.x.,._ Z t d i Z ,.N.N.N.N.K                                                   ",
"        6.N.N.a.-                               -                 = a.N.N.N.Z               Z N.N.N.N.3           - x.N.N.N.a.            d N.N.N.,.              - N.N.N.a.-             6.N.N.N.Z             *.N.N.N.N.x.K                   3                   ..N.N.N.,.                                                  ",
"      , N.N.N...                                                    K N.N.N...              Z N.N.N.,.              ,.N.N.N.K               x.N.N.a.              z N.N.N.Z               Z N.N.N.E             *.N.N.N.6.-                                         - N.N.N.a.                                                  ",
"      d N.N.N.'                                                     d N.N.N.*.              Z N.N.N.E               *.N.N.N.i               a.N.N.x.              ! N.N.N.i               d N.N.N.*.            *.N.N.N.i                                             a.N.N.N.                                                  ",
"      z N.N.N.Z                                                     d N.N.N.*.              Z N.N.N.E               *.N.N.N.i               a.N.N.N.              +.N.N.N.3               i N.N.N.*.            *.N.N.N.i                                             y.N.N.N.                                                  ",
"      Z N.N.N.D                                                     d N.N.N.*.              Z N.N.N.E               *.N.N.N.t               a.N.N.N.              *.N.N.N.3               d N.N.N.*.            *.N.N.N.i                                             h.N.N.N.                                                  ",
"      Z N.N.N.Z                                                     d N.N.N.*.              Z N.N.N.E               *.N.N.N.i               a.N.N.N.              *.N.N.N.3               Z N.N.N.K             *.N.N.N.i                                             a.N.N.N.                                                  ",
"      ! N.N.N.Z                                                   3 z N.N.N.*.              Z N.N.N.E               *.N.N.N.i               a.N.N.N.              6.N.N.N.3             = a.N.N.N.i             *.N.N.N.i                                         - 3 a.N.N.N.                                                  ",
"      ( N.N.N.Z                                   - K *.0.a.x.N.N.N.N.N.N.N.*.              Z N.N.N.E               *.N.N.N.i               a.N.N.N.              6.N.N.N.<       3 j T x.N.N.N.a.              *.N.N.N.i                         = i { ,.a.a.N.N.N.N.N.N.N.N.                                                  ",
"      E N.N.N.Z                                 } N.N.N.N.N.N.N.N.N.N.N.N.N.*.              Z N.N.N.E               *.N.N.N.i               a.N.N.N.              6.N.N.N.a.x.N.N.N.N.N.N.N.N.x.3               *.N.N.N.i                       z x.N.N.N.N.N.N.N.N.N.N.N.N.N.                                                  ",
"      ( N.N.N.Z                               } N.N.N.N.N.a.6.*.*.*.6.N.N.N.*.              Z N.N.N.E               *.N.N.N.i               a.N.N.N.              6.N.N.N.N.N.N.N.N.N.N.N.x.,.3                 *.N.N.N.i                     i N.N.N.N.N.x.r.,.*.*.*.x.N.N.N.                                                  ",
"      E N.N.N.S                             < N.N.N.N.| 3           d N.N.N.*.              Z N.N.N.E               *.N.N.N.i               a.N.N.N.              6.N.N.N.r.6.,.*.*._ K t ,                     *.N.N.N.i                     r.N.N.N.r.i             a.N.N.N.                                                  ",
"      K N.N.N.Z                             K N.N.N.*.              j N.N.N.*.              Z N.N.N.E               *.N.N.N.i               a.N.N.N.              ,.N.N.N.<                                     *.N.N.N.i                   , N.N.N.a.=               a.N.N.N.                                                  ",
"      Z N.N.N.Z                             *.N.N.N.i               d N.N.N.*.              Z N.N.N.E               *.N.N.N.i               a.N.N.N.              *.N.N.N.3                                     *.N.N.N.i                   d N.N.N.*.                a.N.N.N.                                                  ",
"      Z N.N.N.Z                             *.N.N.N.i               d N.N.N.*.              Z N.N.N.E               *.N.N.N.i               a.N.N.N.              *.N.N.N.3                                     *.N.N.N.i                   z N.N.N.E                 a.N.N.N.                                                  ",
"      z N.N.N.K                             *.N.N.N.i               d N.N.N.*.              Z N.N.N.'               *.N.N.N.i               a.N.N.N.              ..N.N.N.3                                     *.N.N.N.i                   z N.N.N.E                 y.N.N.N.                                                  ",
"      3 N.N.N...                            ..N.N.N.i               d N.N.N.*.              Z N.N.N.'               *.N.N.N.t               a.N.N.N.              K N.N.N.M                                     *.N.N.N.i                   d N.N.N.*.                x.N.N.N.                                                  ",
"        x.N.N.6.                            K N.N.N.Z               *.N.N.N.*.              Z N.N.N.E               *.N.N.N.i               a.N.N.N.              0 N.N.N.E                                     *.N.N.N.i                   3 N.N.N.6.              d N.N.N.N.                                                  ",
"        6.N.N.N.E               -           d N.N.N.e.-           j N.N.N.N.*.              Z N.N.N.E               *.N.N.N.i               a.N.N.N.                x.N.N.x.3               j E K               *.N.N.N.d                     x.N.N.N.0           - a.N.N.N.N.                                                  ",
"        d N.N.N.N.a.*.E E E *.y.N.3           x.N.N.N.a.,.! E { 6.N.N.x.N.N.*.              S N.N.N.E               *.N.N.N.i               a.N.N.N.                ( N.N.N.N.6...E { *.e.x.N.N.6.              *.N.N.N.t                     ..N.N.N.N.6.E E E *.x.N.N.x.N.N.                                                  ",
"          ! N.N.N.N.N.N.N.N.N.N.N.Z           K N.N.N.N.N.N.N.N.N.N.a.w a.N.*.              Z N.N.N.E               *.N.N.N.i               a.N.N.N.                - r.N.N.N.N.N.N.N.N.N.N.N.N.6.              *.N.N.N.i                     3 a.N.N.N.N.N.N.N.N.N.N.! ..N.N.                                                  ",
"            Z a.N.N.N.N.N.N.N.N.6.t             E N.N.N.N.N.N.N.N.*.3   ..N.*.              Z N.N.N.E               *.N.N.N.i               a.N.N.N.                  - ..N.N.N.N.N.N.N.N.N.6.t                 *.N.N.N.i                       3 a.N.N.N.N.N.N.N.6.i   i N.N.                                                  ",
"                d Y E _ E K v -                   3 M ' { E E Z -                                                                                                         , z E E ..E K z -                                                         t E ! _ E Z w                                                               ",
"                                                                                                                                                                                                                                                                                                                                ",
"                                                                                                                                                                                                                                                                                                                                ",
"                                                                                                                                                                                                                                                                                                                                ",
"                                                                                                                                                                                                                                                                                                                                ",
"                                                                                                                                                                                                                                                                                                                                ",
"                                                                                                                                                                                                                                                                                                                                ",
"                                                                                                                                                                                                                                                                                                                                ",
"                                                                                                                                                                                                                                                                                                                                ",
"                                                                                                                                                                                                                                                                                                                                ",
"                                                                                                                                                                                                                                                                                                                                "
};
