/* XPM */
static char *camera_800[] = {
/* columns rows colors chars-per-pixel */
"55 17 104 2 ",
"   c black",
".  c #010000",
"X  c #000100",
"o  c #010100",
"O  c #010101",
"+  c #020001",
"@  c #000201",
"#  c #000002",
"$  c #010002",
"%  c #030F0F",
"&  c #01100D",
"*  c #02110E",
"=  c #04100E",
"-  c #021010",
";  c #041010",
":  c #051F1C",
">  c #03201B",
",  c #05201B",
"<  c #03201C",
"1  c #03201E",
"2  c #04211D",
"3  c #04211F",
"4  c #052F2B",
"5  c #062F2B",
"6  c #062E2D",
"7  c #053029",
"8  c #07302A",
"9  c #06312A",
"0  c #06302C",
"q  c #07302C",
"w  c #073E38",
"e  c #063F38",
"r  c #063F39",
"t  c #083F39",
"y  c #083F3A",
"u  c #074039",
"i  c #07403A",
"p  c #08413A",
"a  c #094F47",
"s  c #0A5048",
"d  c #095F54",
"f  c #0B5E54",
"g  c #0C5F55",
"h  c #0C5F57",
"j  c #0E6E63",
"k  c #0D6E65",
"l  c #0F7F6F",
"z  c #0C7F70",
"x  c #0E7E70",
"c  c #0F7F71",
"v  c #0E7E72",
"b  c #0F7F73",
"n  c #0F8D7F",
"m  c #108072",
"M  c #108074",
"N  c #108F7E",
"B  c #11907F",
"V  c #10917F",
"C  c #108E80",
"Z  c #139D8D",
"A  c #119E8D",
"S  c #139D8E",
"D  c #119E8E",
"F  c #129F8E",
"G  c #129F8F",
"H  c #149E8E",
"J  c #149E8F",
"K  c #14AD99",
"L  c #14AD9B",
"P  c #13AE9C",
"I  c #15AE9C",
"U  c #16BDA9",
"Y  c #15BEA9",
"T  c #16BDAB",
"R  c #17BEAA",
"E  c #16BFAA",
"W  c #17BEAC",
"Q  c #17CDB7",
"!  c #18CEB7",
"~  c #17CEB8",
"^  c #18CEB8",
"/  c #18CDBA",
"(  c #19DDC5",
")  c #1BDDC5",
"_  c #18DCC6",
"`  c #19DDC7",
"'  c #18DEC7",
"]  c #17DCC8",
"[  c #19DDC9",
"{  c #19DFC8",
"}  c #1ADEC8",
"|  c #19EDD4",
" . c #1BEDD4",
".. c #1BECD6",
"X. c #1CECD4",
"o. c #1CEED5",
"O. c #1CEDD7",
"+. c #1DEDD7",
"@. c #1BFEE3",
"#. c #1CFCE2",
"$. c #1DFDE2",
"%. c #1DFDE3",
"&. c #1EFCE3",
"*. c #1EFEE4",
/* pixels */
"                                                                                                              ",
"                                                                                                              ",
"                                                                                                              ",
"                                                                                                              ",
"    P ..$.` 9   e R ..$.` s     1 P J ..$.P l ..$.` :       z ..$...z     u B a ~ R   g R $.$.~ 5             ",
"  g ` y 1 5     5 a 1 5 ! `     1 $.J 1 5 $.} : 9 ! J     a $.u 1 k $.9   p $.! a 1   5 u 1 9 } P             ",
"  P P                   g $.    : $.y     ` z     J R     z R     1 $.y   u $.9               J `             ",
"  R J                 ; k $.    1 $.y     ` z     J R     J R     9 $.e   u $.1             1 P `             ",
"  R J           9 R $.` ..$.    1 $.y     ] z     J R     J ..J ~ ..P     u $.1       g ` ..` ..`             ",
"  R J           ^ P *   g $.    1 $.y     ` M     J R     J ~ u e 1       u $.1       ..N     J `             ",
"  J J           ` z     g $.    : $.y     ` z     J R     B ~             p $.1     1 $.g     J `             ",
"  z ..1   *     Q J     J $.    1 $.y     ` M     J R     g ..1     9     u $.1       ..z   * ^ }             ",
"  * ` $.` $.9   k $.....C ..    1 $.y     ` z     J R     % ` $.} $.R ;   u $.:       z $.....n `             ",
"      5 9 *       * 9 *                                       5 9 *                     1 9 *                 ",
"                                                                                                              ",
"                                                                                                              ",
"                                                                                                              "
};
