/* XPM */
static char *camera_400[] = {
/* columns rows colors chars-per-pixel */
"30 9 58 1 ",
"  c black",
". c #010000",
"X c #010101",
"o c #020001",
"O c #000201",
"+ c #000002",
"@ c #030F0D",
"# c #010F0F",
"$ c #01100D",
"% c #02110E",
"& c #04100E",
"* c #021010",
"= c #051F1C",
"- c #03201B",
"; c #03201C",
": c #03201E",
"> c #062F2B",
", c #06302C",
"< c #073E38",
"1 c #063F38",
"2 c #054139",
"3 c #074039",
"4 c #094F47",
"5 c #085045",
"6 c #095146",
"7 c #0B5E54",
"8 c #0C5F55",
"9 c #0C5F57",
"0 c #0A6055",
"q c #0A6057",
"w c #0D6E63",
"e c #0E6E63",
"r c #0F7F71",
"t c #0F7F73",
"y c #0F8E7D",
"u c #0F8D7F",
"i c #108D7F",
"p c #108F7E",
"a c #11907F",
"s c #108E80",
"d c #139D8D",
"f c #119E8D",
"g c #139D8E",
"h c #129F8F",
"j c #149E8E",
"k c #149E8F",
"l c #12AD9B",
"z c #15AE9A",
"x c #13AE9C",
"c c #15AE9C",
"v c #16BDA9",
"b c #16BDAB",
"n c #17BEAA",
"m c #17BEAC",
"M c #17CFB7",
"N c #17CEB8",
"B c #18CEB8",
"V c #19DDC7",
/* pixels */
"                              ",
"                              ",
" jj,4sc;$isarj ;jc4 wj#ujw    ",
"2w    88;c M j=45#c N    v    ",
"08  >iv0=j v j;8jsw v  rrV    ",
"48  v$88;j v j;85   v 2r v    ",
"*cr;rsc8;j v j;<cr< v $Buv    ",
"  ;  ;          *#     $*     ",
"                              "
};
