/* XPM */
static char *cylinder_800[] = {
/* columns rows colors chars-per-pixel */
"55 17 95 2 ",
"   c black",
".  c #010000",
"X  c #000100",
"o  c #010101",
"O  c #020001",
"+  c #000002",
"@  c #010002",
"#  c #000103",
"$  c #01100D",
"%  c #02110E",
"&  c #021010",
"*  c #041010",
"=  c #051F1C",
"-  c #03201C",
";  c #03201E",
":  c #04211D",
">  c #04211F",
",  c #052F2B",
"<  c #062F2B",
"1  c #07302A",
"2  c #06312A",
"3  c #07302C",
"4  c #063F38",
"5  c #063F39",
"6  c #083F39",
"7  c #083F3A",
"8  c #0A3E3A",
"9  c #074039",
"0  c #084F47",
"q  c #094F47",
"w  c #0A5046",
"e  c #095F54",
"r  c #0B5E54",
"t  c #0B5E56",
"y  c #0C5F55",
"u  c #0C5F57",
"i  c #0A6055",
"p  c #0A6057",
"a  c #0B6F63",
"s  c #0D6F62",
"d  c #0D6E63",
"f  c #0E6F64",
"g  c #0E7063",
"h  c #0C7064",
"j  c #0E7E70",
"k  c #0F7F71",
"l  c #0E7E72",
"z  c #0F7F73",
"x  c #107E73",
"c  c #0D8071",
"v  c #108074",
"b  c #108E80",
"n  c #118F81",
"m  c #108E82",
"M  c #139D8D",
"N  c #119E8D",
"B  c #119E8E",
"V  c #129F8F",
"C  c #149E8E",
"Z  c #149E8F",
"A  c #14AD9B",
"S  c #13AE9C",
"D  c #13AE9E",
"F  c #15AE9C",
"G  c #16BDA9",
"H  c #15BEA9",
"J  c #15BEAB",
"K  c #17BEAA",
"L  c #16BFAA",
"P  c #17BEAC",
"I  c #17CDB6",
"U  c #17CFB7",
"Y  c #17CEB8",
"T  c #18CEB8",
"R  c #17DDC6",
"E  c #18DCC4",
"W  c #19DDC5",
"Q  c #18DCC6",
"!  c #19DDC7",
"~  c #18DEC7",
"^  c #19DDC9",
"/  c #1ADEC8",
"(  c #1BEDD4",
")  c #1BECD6",
"_  c #1DEDD5",
"`  c #1CEED5",
"'  c #1CEDD7",
"]  c #1BFEE2",
"[  c #1CFCE1",
"{  c #1DFDE2",
"}  c #1DFDE3",
"|  c #1EFDE2",
" . c #1EFCE3",
".. c #1CFFE4",
"X. c #1EFEE4",
/* pixels */
"                                3 -     < d %                               3 -                               ",
"                                ! z     C [ 7                               L z                               ",
"                                ! z     - h                                 L c                               ",
"                                ! z                                         L z                               ",
"    S ( [ ! 3 q ! &     z S     ! z     q !       Y d ( [ ^ 9       h ! ! I ( z       S ( [ ! z     q z d ! C ",
"  y ! 7 - <   - [ 7     L C     ! v     y [       [ Y - 3 L L     - [ z - 4 ( v     y ! 4 - n [ %   y ( L q - ",
"  S S           ! d     ( y     ! z     y [       [ d     z !     q [       R z     C L     - [ 3   y [ -     ",
"  L C           C S   < [ 3     ! z     y [       [ y     z !     y [       ! z     S L     w [ -   y [ -     ",
"  L C           d (   y !       ! z     i [       [ p     z !     y [       ! z     L ( S Y [ n     y [ -     ",
"  L C           < [ - C S       ! z     y [       [ y     z !     y [       ! z     S Y 7 4 &       y [ -     ",
"  C C             ( y I d       ! z     i [       [ y     z !     y [       ! z     C L             y [ -     ",
"  z ( =   %       L C [ 7       ! z     y [       [ y     z !     7 [ -   - [ z     d ( -   & 3     y [ =     ",
"  % ! [ ! [ 3     d [ (         ! z     y [       [ y     z !       T [ ! ( C x     % ! [ ^ [ L     y [ -     ",
"      < < %         n L                                               < - %             < < %                 ",
"                  % ! y                                                                                       ",
"              9 ! ( T %                                                                                       ",
"              - 9 <                                                                                           "
};
