/* XPM */
static char *cylinder_400[] = {
/* columns rows colors chars-per-pixel */
"30 9 53 1 ",
"  c black",
". c #010000",
"X c #000100",
"o c #010101",
"O c #000002",
"+ c #010F0F",
"@ c #01100D",
"# c #02110E",
"$ c #021010",
"% c #021F1B",
"& c #051F1C",
"* c #05201B",
"= c #03201C",
"- c #04211D",
"; c #052F2B",
": c #062F2B",
"> c #062E2D",
", c #06302C",
"< c #083F39",
"1 c #083F3A",
"2 c #074039",
"3 c #07403A",
"4 c #094F47",
"5 c #095F54",
"6 c #0B5E56",
"7 c #0C5F55",
"8 c #0C5F57",
"9 c #0A6055",
"0 c #0D6F62",
"q c #0D6E63",
"w c #0D6E65",
"e c #0E6F64",
"r c #0F7F71",
"t c #0F7F73",
"y c #108074",
"u c #0F907E",
"i c #108E80",
"p c #118F81",
"a c #139D8D",
"s c #119E8D",
"d c #139D8E",
"f c #119E8E",
"g c #129F8F",
"h c #149E8E",
"j c #149E8F",
"k c #13AF9A",
"l c #15AE9A",
"z c #15AE9C",
"x c #16BDA9",
"c c #15BEA9",
"v c #17BEAC",
"b c #18CEB8",
"n c #1BEDD4",
/* pixels */
"        2-&q        4         ",
"        t<@4        h         ",
" hh>q 4>t<@8 qul+ qhx -hl>@8t ",
"2q  l@h-t<&h x 88>t x i,2t-l  ",
"89  q<h t<-h x 882t x hil4-h  ",
"48  2th y<&h x 88>t x h-  &h  ",
"@lt-@n8 t<-h x 88$xtb 8hi>-h  ",
"  -  h-           $@   @@     ",
"    iq                        "
};
