/* XPM */
static char *cylinder_600[] = {
/* columns rows colors chars-per-pixel */
"200 30 85 1 ",
"  c black",
". c cyan",
"X c cyan",
"o c cyan",
"O c cyan",
"+ c cyan",
"@ c cyan",
"# c cyan",
"$ c cyan",
"% c cyan",
"& c cyan",
"* c cyan",
"= c cyan",
"- c cyan",
"; c cyan",
": c cyan",
"> c cyan",
", c cyan",
"< c cyan",
"1 c cyan",
"2 c cyan",
"3 c cyan",
"4 c cyan",
"5 c cyan",
"6 c cyan",
"7 c cyan",
"8 c cyan",
"9 c cyan",
"0 c cyan",
"q c cyan",
"w c cyan",
"e c cyan",
"r c cyan",
"t c cyan",
"y c cyan",
"u c cyan",
"i c cyan",
"p c cyan",
"a c cyan",
"s c cyan",
"d c cyan",
"f c cyan",
"g c cyan",
"h c cyan",
"j c cyan",
"k c cyan",
"l c cyan",
"z c cyan",
"x c cyan",
"c c cyan",
"v c cyan",
"b c cyan",
"n c cyan",
"m c cyan",
"M c cyan",
"N c cyan",
"B c cyan",
"V c cyan",
"C c cyan",
"Z c cyan",
"A c cyan",
"S c cyan",
"D c cyan",
"F c cyan",
"G c cyan",
"H c cyan",
"J c cyan",
"K c cyan",
"L c cyan",
"P c cyan",
"I c cyan",
"U c cyan",
"Y c cyan",
"T c cyan",
"R c cyan",
"E c cyan",
"W c cyan",
"Q c cyan",
"! c cyan",
"~ c cyan",
"^ c cyan",
"/ c cyan",
"( c cyan",
") c cyan",
"_ c None",
/* pixels */
"                                                                                                                                                                                                        ",
"                                                                                                                                                                                                        ",
"                                                                                                                                                                                                        ",
"                                                                                                                                                                                                        ",
"                                                                                                                                                                                                        ",
"                                                                                                                                                                                                        ",
"                                                                                                                                                                                                        ",
"                                                                                                                                                                                                        ",
"                    @~2                                                                                                                                                                                 ",
"                  R& >           H;                                                                                                                                                                     ",
"                  R&             H;                                                                                                                                                                     ",
"        iHD0ih ;H R& R& bVHb  iHD); iHHl  bxb                                                                                                                                                           ",
"        I@  5V wv R& R& R5 D2 I@ I; R@@~  Rw                                                                                                                                                            ",
"       &I    R fi R& R& R& V7&R  I;&I >~  R&                                                                                                                                                            ",
"       &I    A>b5 R& R& R& V0&R  I;;)HAy  R&                                                                                                                                                            ",
"       &I    ltD  R& R& R& V0&R  I;&I     R&                                                                                                                                                            ",
"        R&   yxV  R& R& R& V0 R@@); R@ &  R&                                                                                                                                                            ",
"        dRDw 2~g  R& R& R& V0 hIZb; dIDl  R&                                                                                                                                                            ",
"              x0                                                                                                                                                                                        ",
"            tHx                                                                                                                                                                                         ",
"                                                                                                                                                                                                        ",
"                                                                                                                                                                                                        ",
"                                                                                                                                                                                                        ",
"                                                                                                                                                                                                        ",
"                                                                                                                                                                                                        ",
"                                                                                                                                                                                                        ",
"                                                                                                                                                                                                        ",
"                                                                                                                                                                                                        ",
"                                                                                                                                                                                                        ",
"                                                                                                                                                                                                        "
};
