/* XPM */
static char *cylinder_2160[] = {
/* columns rows colors chars-per-pixel */
"160 50 158 2 ",
"   c black",
".  c #010000",
"X  c #000100",
"o  c #010100",
"O  c #010101",
"+  c #020001",
"@  c #000201",
"#  c #000002",
"$  c #010002",
"%  c #010103",
"&  c #030F0D",
"*  c #010F0F",
"=  c #01100D",
"-  c #02110E",
";  c #04100E",
":  c #021010",
">  c #041010",
",  c #021F1B",
"<  c #041E1B",
"1  c #051F1C",
"2  c #051F1E",
"3  c #03201B",
"4  c #05201B",
"5  c #03201C",
"6  c #02211C",
"7  c #03201E",
"8  c #04211C",
"9  c #04211D",
"0  c #06211C",
"q  c #04211F",
"w  c #052F2B",
"e  c #062F2B",
"r  c #062E2D",
"t  c #053029",
"y  c #07302A",
"u  c #06312A",
"i  c #06302C",
"p  c #07302C",
"a  c #08312D",
"s  c #073E38",
"d  c #063F38",
"f  c #073E39",
"g  c #063F39",
"h  c #083F39",
"j  c #083F3A",
"k  c #074039",
"l  c #07403A",
"z  c #09403A",
"x  c #08413A",
"c  c #094F45",
"v  c #084F47",
"b  c #094F47",
"n  c #0B4E47",
"m  c #084F49",
"M  c #0A4F4A",
"N  c #085045",
"B  c #095146",
"V  c #095048",
"C  c #0A5048",
"Z  c #095F54",
"A  c #0B5E54",
"S  c #095F56",
"D  c #0B5E56",
"F  c #0D5E55",
"G  c #0C5F55",
"H  c #0C5F57",
"J  c #0C6053",
"K  c #0A6055",
"L  c #0A6057",
"P  c #0B6158",
"I  c #0B6F63",
"U  c #0D6E63",
"Y  c #0E6E63",
"T  c #0C6D64",
"R  c #0D6E65",
"E  c #0E6F64",
"W  c #0E7063",
"Q  c #0C7064",
"!  c #0E7E70",
"~  c #0F7F71",
"^  c #0E7E72",
"/  c #0F7F73",
"(  c #107E71",
")  c #107E73",
"_  c #0D8071",
"`  c #0D8073",
"'  c #0E8172",
"]  c #0F8D7F",
"[  c #108072",
"{  c #108074",
"}  c #108F7E",
"|  c #11907F",
" . c #0F8F80",
".. c #108E80",
"X. c #118E80",
"o. c #118F81",
"O. c #128F81",
"+. c #118F83",
"@. c #139D8D",
"#. c #119E8D",
"$. c #139D8E",
"%. c #119E8E",
"&. c #129F8E",
"*. c #129F8F",
"=. c #149E8E",
"-. c #149E8F",
";. c #12AD9B",
":. c #14AD9B",
">. c #12AD9D",
",. c #13AE9C",
"<. c #13AE9E",
"1. c #15AE9C",
"2. c #16BDA9",
"3. c #15BEA9",
"4. c #16BDAB",
"5. c #15BEAB",
"6. c #17BEAA",
"7. c #16BFAA",
"8. c #17BEAC",
"9. c #16BFAC",
"0. c #17CDB7",
"q. c #16CEB6",
"w. c #17CFB7",
"e. c #18CEB7",
"r. c #17CEB8",
"t. c #1ACDB8",
"y. c #18CEB8",
"u. c #17DDC6",
"i. c #19DDC5",
"p. c #18DCC6",
"a. c #19DDC7",
"s. c #1BDCC7",
"d. c #18DEC7",
"f. c #19DDC9",
"g. c #19DFC8",
"h. c #1ADEC8",
"j. c #19EDD4",
"k. c #1BEDD4",
"l. c #1BECD6",
"z. c #1AEED7",
"x. c #1CECD4",
"c. c #1DEDD5",
"v. c #1CEED5",
"b. c #1CEDD7",
"n. c #1DEDD7",
"m. c #1CEDD8",
"M. c #1BFEE2",
"N. c #1BFEE3",
"B. c #1CFCE1",
"V. c #1CFCE2",
"C. c #1DFDE2",
"Z. c #1DFDE3",
"A. c #1EFDE2",
"S. c #1EFCE3",
"D. c #1EFEE3",
"F. c #1DFDE5",
"G. c #1EFCE5",
"H. c #1EFEE4",
/* pixels */
"                                                                                                                                                                                                                                                                                                                                ",
"                                                                                                                                                                                                                                                                                                                                ",
"                                                                                                                                                                                                                                                                                                                                ",
"                                                                                                                                                                                                                                                                                                                                ",
"                                                                                                                  z G G 5                                                                                                                                                                                                       ",
"                                                                                        c a.f.a.U               } Z.Z.Z.Z.h                                                                                       B a.a.a.i                                                                                                     ",
"                                                                                        G Z.Z.Z.(               6.Z.Z.Z.Z.`                                                                                       G Z.Z.Z.h                                                                                                     ",
"                                                                                        G Z.Z.Z.~               a.Z.Z.Z.Z.~                                                                                       G Z.Z.Z.h                                                                                                     ",
"                                                                                        G Z.Z.Z.~               1.Z.Z.Z.Z.G                                                                                       G Z.Z.Z.d                                                                                                     ",
"                                                                                        G Z.Z.Z.~               5 6.6.6.X.=                                                                                       L Z.Z.Z.h                                                                                                     ",
"                                                                                        G Z.Z.Z.~                                                                                                                 G Z.Z.Z.h                                                                                                     ",
"                                                                                        G Z.Z.Z.~                                                                                                                 G Z.Z.Z.h                                                                                                     ",
"                                                                                        G Z.Z.Z.~                                                                                                                 G Z.Z.Z.h                                                                                                     ",
"                                                                                        G Z.Z.Z.~                                                                                                                 G Z.Z.Z.d                                                                                                     ",
"              k X.r.a.Z.b.r.6.( i         [ ~ ~ W                   5 ~ ~ ~ d           G Z.Z.Z.~               = ~ ~ ~ G                 G ~ e     h ] r.a.b.Z.f.6.L                           = z ~ *.*.*.*.~ B ~ Z.Z.Z.h                     = W 1.f.b.Z.b.0.6.G 5                   U ~ 1       = U 1.a.b.&                 ",
"          = 6.Z.Z.Z.Z.Z.Z.Z.Z.Z.Z.B       f.Z.Z.b.                  ~ Z.Z.Z.h           G Z.Z.Z.~               5 Z.Z.Z.6.                6.Z.X.= 6.Z.Z.Z.Z.Z.Z.Z.Z.Z.*.                      U b.Z.Z.Z.Z.Z.Z.Z.Z.Z.Z.Z.Z.h                   U b.Z.Z.Z.Z.Z.Z.Z.Z.Z.a.U                 a.Z.U     ( b.Z.Z.Z.Z.                  ",
"          0.Z.Z.Z.Z.Z.Z.Z.Z.Z.Z.Z.=       *.Z.Z.Z.5                 6.Z.Z.Z.&           G Z.Z.Z.~               5 Z.Z.Z.6.                6.Z.f.r.Z.Z.Z.Z.Z.Z.Z.Z.Z.Z.Z.~                   ~ Z.Z.Z.Z.Z.Z.Z.Z.Z.Z.Z.Z.Z.Z.h                 U Z.Z.Z.Z.Z.Z.Z.Z.Z.Z.Z.Z.Z.h               a.Z.6.5 r.Z.Z.Z.Z.Z.y.                  ",
"        G Z.Z.Z.a.U i 5 5 e d U U         G Z.Z.Z.G                 b.Z.Z.y.            G Z.Z.Z.~               5 Z.Z.Z.6.                6.Z.Z.Z.Z.6.c 1 5 1 k *.Z.Z.Z.b.                5 b.Z.Z.Z.1.U G G G ~ 1.f.Z.Z.Z.h               = a.Z.Z.Z.*.c 1 5 d G a.Z.Z.Z.6.              a.Z.b.a.Z.Z.Z.e.*.[ c                   ",
"        6.Z.Z.a.=                         5 Z.Z.Z.*.              e Z.Z.Z.*.            G Z.Z.Z.~               5 Z.Z.Z.6.                6.Z.Z.Z.r.              6.Z.Z.Z.i               G Z.Z.Z.U               *.Z.Z.Z.h               G Z.Z.Z.X.            5 b.Z.Z.Z.:             a.Z.Z.Z.Z.6.d                           ",
"      : Z.Z.Z.X.                            b.Z.Z.y.              G Z.Z.Z.c             G Z.Z.Z.~               5 Z.Z.Z.6.                6.Z.Z.Z.V               U Z.Z.Z.G               1.Z.Z.b.                *.Z.Z.Z.h               1.Z.Z.Z.5               1.Z.Z.Z.i             a.Z.Z.Z.~                               ",
"      k Z.Z.Z.[                             1.Z.Z.Z.:             *.Z.Z.Z.5             G Z.Z.Z.~               5 Z.Z.Z.6.                6.Z.Z.Z.5               G Z.Z.Z.~               0.Z.Z.6.                *.Z.Z.Z.h               y.Z.Z.a.                *.Z.Z.Z.h             a.Z.Z.Z.                                ",
"      c Z.Z.Z.G                             W Z.Z.Z.h             y.Z.Z.a.              G Z.Z.Z.~               5 Z.Z.Z.6.                6.Z.Z.Z.5               G Z.Z.Z.~               Z.Z.Z.6.                *.Z.Z.Z.h               b.Z.Z.a.                [ Z.Z.Z.k             a.Z.Z.Z.                                ",
"      G Z.Z.Z.P                             k Z.Z.Z.U           = Z.Z.Z.1.              G Z.Z.Z.~               5 Z.Z.Z.6.                6.Z.Z.Z.5               G Z.Z.Z.~             5 Z.Z.Z.6.                *.Z.Z.Z.h               Z.Z.Z.a.                X.Z.Z.Z.d             a.Z.Z.Z.                                ",
"      G Z.Z.Z.G                             = b.Z.Z.1.          k Z.Z.Z.U               G Z.Z.Z.~               5 Z.Z.Z.6.                6.Z.Z.Z.5               G Z.Z.Z.`             5 Z.Z.Z.6.                *.Z.Z.Z.h               Z.Z.Z.u.                1.Z.Z.Z.i             a.Z.Z.Z.                                ",
"      ( Z.Z.Z.G                               6.Z.Z.b.          ~ Z.Z.Z.i               G Z.Z.Z.~               5 Z.Z.Z.6.                6.Z.Z.Z.5               G Z.Z.Z.~             1 Z.Z.Z.6.                *.Z.Z.Z.h               Z.Z.Z.a.              k Z.Z.Z.a.              a.Z.Z.Z.                                ",
"      ` Z.Z.Z.G                               X.Z.Z.Z.5         6.Z.Z.b.                G Z.Z.Z.~               5 Z.Z.Z.6.                6.Z.Z.Z.5               G Z.Z.Z.~             5 Z.Z.Z.6.                *.Z.Z.Z.h               Z.Z.Z.f.        5 B 1.Z.Z.Z.Z.~               a.Z.Z.Z.                                ",
"      ~ Z.Z.Z.G                               c Z.Z.Z.G         b.Z.Z.6.                G Z.Z.Z.~               5 Z.Z.Z.6.                6.Z.Z.Z.5               G Z.Z.Z.~             k Z.Z.Z.6.                *.Z.Z.Z.h               Z.Z.Z.Z.u.Z.Z.Z.Z.Z.Z.Z.Z.Z.r.                a.Z.Z.Z.                                ",
"      ` Z.Z.Z.G                               : Z.Z.Z. .      e Z.Z.Z.~                 G Z.Z.Z.~               5 Z.Z.Z.6.                6.Z.Z.Z.5               G Z.Z.Z.~             h Z.Z.Z.6.                *.Z.Z.Z.h               Z.Z.Z.Z.Z.Z.Z.Z.Z.Z.Z.Z.b.~                   a.Z.Z.Z.                                ",
"      ~ Z.Z.Z.L                                 a.Z.Z.y.      G Z.Z.Z.h                 G Z.Z.Z.~               5 Z.Z.Z.6.                6.Z.Z.Z.5               G Z.Z.Z.~             k Z.Z.Z.6.                *.Z.Z.Z.h               Z.Z.Z.Z.6.6.1.*.*.[ L e                       a.Z.Z.Z.                                ",
"      U Z.Z.Z.G                                 | Z.Z.Z.=     *.Z.Z.Z.                  G Z.Z.Z.~               5 Z.Z.Z.6.                6.Z.Z.Z.5               G Z.Z.Z.~             e Z.Z.Z.6.                *.Z.Z.Z.h               Z.Z.Z.a.                                      a.Z.Z.Z.                                ",
"      G Z.Z.Z.G                                 G Z.Z.Z.h     0.Z.Z.6.                  G Z.Z.Z.~               5 Z.Z.Z.6.                6.Z.Z.Z.5               G Z.Z.Z.~             1 Z.Z.Z.6.                *.Z.Z.Z.h               Z.Z.Z.a.                                      a.Z.Z.Z.                                ",
"      G Z.Z.Z.G                                 5 Z.Z.Z.U   = Z.Z.Z.X.                  G Z.Z.Z.~               5 Z.Z.Z.6.                6.Z.Z.Z.5               G Z.Z.Z.~             1 Z.Z.Z.6.                *.Z.Z.Z.h               m.Z.Z.a.                                      a.Z.Z.Z.                                ",
"      c Z.Z.Z.U                                   b.Z.Z.1.  k Z.Z.Z.c                   G Z.Z.Z.(               5 Z.Z.Z.6.                6.Z.Z.Z.5               G Z.Z.Z.~             : Z.Z.Z.6.                *.Z.Z.Z.k               a.Z.Z.a.                                      a.Z.Z.Z.                                ",
"      5 Z.Z.Z.X.                                  *.Z.Z.b.  ~ Z.Z.Z.:                   G Z.Z.Z.`               1 Z.Z.Z.6.                6.Z.Z.Z.1               G Z.Z.Z.~               b.Z.Z.e.                6.Z.Z.Z.h               6.Z.Z.b.                                      a.Z.Z.Z.                                ",
"        b.Z.Z.6.                                  U Z.Z.Z.5 6.Z.Z.y.                    G Z.Z.Z.~               5 Z.Z.Z.6.                6.Z.Z.Z.5               L Z.Z.Z.~               y.Z.Z.b.              5 Z.Z.Z.Z.h               X.Z.Z.Z.i                                     u.Z.Z.Z.                                ",
"        6.Z.Z.Z.~               =                 e Z.Z.Z.L b.Z.Z.*.                    G Z.Z.Z.~               5 Z.Z.Z.6.                6.Z.Z.Z.5               L Z.Z.Z.~               X.Z.Z.Z.(           & 1.Z.Z.Z.Z.h               h Z.Z.Z.1.5             = z 1.1               a.Z.Z.Z.                                ",
"        k Z.Z.Z.Z.a.*.~ ~ ~ *.u.Z.5                 b.Z.Z.y.Z.Z.Z.G                     G Z.Z.Z.~               5 Z.Z.Z.6.                6.Z.Z.Z.5               G Z.Z.Z.~               d Z.Z.Z.Z.6.} ~ ~ *.b.Z.Z.b.Z.Z.d                 a.Z.Z.Z.b.1.] ~ *.1.r.Z.Z.Z.U               a.Z.Z.Z.                                ",
"          ( Z.Z.Z.Z.Z.Z.Z.Z.Z.Z.Z.G                 6.Z.Z.Z.Z.Z.Z.a                     L Z.Z.Z.[               5 Z.Z.Z.6.                6.Z.Z.Z.5               G Z.Z.Z.[                 1.Z.Z.Z.Z.Z.Z.Z.Z.Z.Z.r.G Z.Z.h                 e b.Z.Z.Z.Z.Z.Z.Z.Z.Z.Z.Z.Z.~               a.Z.Z.Z.                                ",
"            G a.Z.Z.Z.Z.Z.Z.Z.Z.6.d                 ` Z.Z.Z.Z.Z.a.                      G Z.Z.Z.~               5 Z.Z.Z.6.                6.Z.Z.Z.5               G Z.Z.Z.~                 = *.Z.Z.Z.Z.Z.Z.Z.b.~ = : Z.Z.h                   5 6.Z.Z.Z.Z.Z.Z.Z.Z.b.X.d                 a.Z.Z.Z.                                ",
"                k W ~ ] ~ U m =                           a.Z.Z.1.                                                                                                                              5 U ( X.[ U d =                                   5 V ~ ~ } ~ G i                                                               ",
"                                                        5 Z.Z.Z.U                                                                                                                                                                                                                                                               ",
"                                                        m Z.Z.Z.h                                                                                                                                                                                                                                                               ",
"                                                        *.Z.Z.a.                                                                                                                                                                                                                                                                ",
"                                                      e Z.Z.Z.*.                                                                                                                                                                                                                                                                ",
"                                          = i     5 ~ b.Z.Z.Z.5                                                                                                                                                                                                                                                                 ",
"                                          X.Z.Z.Z.Z.Z.Z.Z.Z.~                                                                                                                                                                                                                                                                   ",
"                                          0.Z.Z.Z.Z.Z.Z.Z.(                                                                                                                                                                                                                                                                     ",
"                                          1.b.Z.Z.Z.b.*.h                                                                                                                                                                                                                                                                       ",
"                                              1 5 :                                                                                                                                                                                                                                                                             ",
"                                                                                                                                                                                                                                                                                                                                "
};
