/* XPM */
static char *light_600[] = {
/* columns rows colors chars-per-pixel */
"200 30 51 1 ",
"  c black",
". c cyan",
"X c cyan",
"o c cyan",
"O c cyan",
"+ c cyan",
"@ c cyan",
"# c cyan",
"$ c cyan",
"% c cyan",
"& c cyan",
"* c cyan",
"= c cyan",
"- c cyan",
"; c cyan",
": c cyan",
"> c cyan",
", c cyan",
"< c cyan",
"1 c cyan",
"2 c cyan",
"3 c cyan",
"4 c cyan",
"5 c cyan",
"6 c cyan",
"7 c cyan",
"8 c cyan",
"9 c cyan",
"0 c cyan",
"q c cyan",
"w c cyan",
"e c cyan",
"r c cyan",
"t c cyan",
"y c cyan",
"u c cyan",
"i c cyan",
"p c cyan",
"a c cyan",
"s c cyan",
"d c cyan",
"f c cyan",
"g c cyan",
"h c cyan",
"j c cyan",
"k c cyan",
"l c cyan",
"z c cyan",
"x c cyan",
"c c cyan",
"v c None",
/* pixels */
"                                                                                                                                                                                                        ",
"                                                                                                                                                                                                        ",
"                                                                                                                                                                                                        ",
"                                                                                                                                                                                                        ",
"                                                                                                                                                                                                        ",
"                                                                                                                                                                                                        ",
"                                                                                                                                                                                                        ",
"                                                                                                                                                                                                        ",
"          +c;                                                                                                                                                                                           ",
"        z# =        z                                                                                                                                                                                   ",
"        z#          z     15                                                                                                                                                                            ",
"        z# z# 4fpt# zwpe 1fz5                                                                                                                                                                           ",
"        z# z# f+ f= z> i; 05                                                                                                                                                                            ",
"        z# z##z  f= z# r, 05                                                                                                                                                                            ",
"        z# z##z  f= z# r1 05                                                                                                                                                                            ",
"        z# z##z  f= z# r1 05                                                                                                                                                                            ",
"        z# z# z++v= z# r1 95                                                                                                                                                                            ",
"        z# z# 9fyz= z# r1 2p3                                                                                                                                                                           ",
"                 f#                                                                                                                                                                                     ",
"              5yfw                                                                                                                                                                                      ",
"                                                                                                                                                                                                        ",
"                                                                                                                                                                                                        ",
"                                                                                                                                                                                                        ",
"                                                                                                                                                                                                        ",
"                                                                                                                                                                                                        ",
"                                                                                                                                                                                                        ",
"                                                                                                                                                                                                        ",
"                                                                                                                                                                                                        ",
"                                                                                                                                                                                                        ",
"                                                                                                                                                                                                        "
};
