/* XPM */
static char *light_400[] = {
/* columns rows colors chars-per-pixel */
"30 9 45 1 ",
"  c black",
". c #010000",
"X c #000100",
"o c #010101",
"O c #000002",
"+ c #01100D",
"@ c #02110E",
"# c #03201B",
"$ c #03201C",
"% c #052F2B",
"& c #053029",
"* c #073E38",
"= c #083F39",
"- c #083F3A",
"; c #074039",
": c #08413A",
"> c #094F47",
", c #095048",
"< c #095F56",
"1 c #0C5F55",
"2 c #0A6055",
"3 c #0D6E65",
"4 c #0F7F71",
"5 c #0F7F73",
"6 c #118E7E",
"7 c #108E80",
"8 c #118F81",
"9 c #139D8D",
"0 c #119E8D",
"q c #139D8E",
"w c #119E8E",
"e c #129F8E",
"r c #129F8F",
"t c #149E8E",
"y c #149E8F",
"u c #13AE9C",
"i c #15AE9C",
"p c #16BDA9",
"a c #15BEA9",
"s c #16BDAB",
"d c #15BEAB",
"f c #17BEAA",
"g c #17BEAC",
"h c #16CDB7",
"j c #17CEB8",
/* pixels */
"$= 6      <                   ",
";4 >      f    >              ",
";4 4 $99< j4u@=j,             ",
";4 f 8&;9 h 3= f              ",
";4 f 9$:9 f <* f              ",
";4 f 9$:9 f <= f              ",
";4 f =u99 f 2* f;             ",
"       %8      @@             ",
"     $99$                     "
};
