/* XPM */
static char *light_2160[] = {
/* columns rows colors chars-per-pixel */
"160 50 114 2 ",
"   c black",
".  c #010000",
"X  c #000100",
"o  c #010100",
"O  c #010101",
"+  c #020001",
"@  c #000201",
"#  c #000002",
"$  c #010002",
"%  c #010103",
"&  c #010F0F",
"*  c #01100B",
"=  c #01100D",
"-  c #02110E",
";  c #04100E",
":  c #021010",
">  c #051F1C",
",  c #051F1E",
"<  c #03201B",
"1  c #03201C",
"2  c #03201E",
"3  c #04211D",
"4  c #04211F",
"5  c #062F29",
"6  c #052F2B",
"7  c #062F2B",
"8  c #06312A",
"9  c #063F38",
"0  c #063F39",
"q  c #083F39",
"w  c #083F3A",
"e  c #074037",
"r  c #074039",
"t  c #07403A",
"y  c #09403A",
"u  c #08413A",
"i  c #094F45",
"p  c #094F47",
"a  c #085045",
"s  c #095F54",
"d  c #0B5E54",
"f  c #0B5E56",
"g  c #0C5F55",
"h  c #0C5F57",
"j  c #0C6053",
"k  c #0A6055",
"l  c #0A6057",
"z  c #0D6056",
"x  c #0B6F63",
"c  c #0D6E63",
"v  c #0C6D64",
"b  c #0E6F64",
"n  c #0E6F66",
"m  c #0E7E70",
"M  c #0F7F71",
"N  c #0E7E72",
"B  c #0F7F73",
"V  c #107E73",
"C  c #0D8071",
"Z  c #0D8073",
"A  c #108072",
"S  c #108D7D",
"D  c #108F7E",
"F  c #11907F",
"G  c #108E80",
"H  c #118F81",
"J  c #139D8D",
"K  c #119E8D",
"L  c #139D8E",
"P  c #119E8E",
"I  c #149E8E",
"U  c #149E8F",
"Y  c #12AD9B",
"T  c #14AD9B",
"R  c #13AE9C",
"E  c #14AC9D",
"W  c #15AE9C",
"Q  c #16BDA9",
"!  c #15BEA9",
"~  c #16BDAB",
"^  c #15BEAB",
"/  c #17BEAA",
"(  c #16BFAA",
")  c #17BEAC",
"_  c #16BFAC",
"`  c #16CDB7",
"'  c #17CDB7",
"]  c #18CEB7",
"[  c #17CEB8",
"{  c #18CEB8",
"}  c #17DDC6",
"|  c #19DDC5",
" . c #18DCC6",
".. c #19DDC7",
"X. c #18DEC7",
"o. c #19DDC9",
"O. c #1ADEC8",
"+. c #1BEDD4",
"@. c #1BECD6",
"#. c #1DEDD5",
"$. c #1CEED5",
"%. c #1DEDD7",
"&. c #1DFBE2",
"*. c #1BFEE3",
"=. c #1CFCE2",
"-. c #1DFDE2",
";. c #1DFDE3",
":. c #1EFDE2",
">. c #1EFCE3",
",. c #1EFEE3",
"<. c #1DFDE5",
"1. c #1FFDE4",
"2. c #1EFCE5",
"3. c #1EFEE4",
/* pixels */
"                                                                                                                                                                                                                                                                                                                                ",
"                                                                                                                                                                                                                                                                                                                                ",
"                                                                                                                                                                                                                                                                                                                                ",
"                                                                                                                                                                                                                                                                                                                                ",
"                                * h h a 1                                                                                                                                                                                                                                                                                       ",
"        E  . .O.1                .3.3.3. .                                                                E  . .Q                                                                                                                                                                                                               ",
"        Q 3.3.3.1             r 3.3.3.3.3.>                                                               Q 3.3. .                                                                                                                                                                                                              ",
"        Q 3.3.3.1             r 3.3.3.3.3.1                                                               Q 3.3. .                                                                                                                                                                                                              ",
"        Q 3.3.3.1             * 3.3.3.3.3.                                                                Q 3.3. .                                                                                                                                                                                                              ",
"        Q 3.3.3.1               N Q Q Q v                                                                 Q 3.3.O.                                                                                                                                                                                                              ",
"        Q 3.3.3.1                                                                                         Q 3.3. .                                              1 U v                                                                                                                                                           ",
"        Q 3.3.3.1                                                                                         Q 3.3. .                                              N 3.Q                                                                                                                                                           ",
"        Q 3.3.3.1                                                                                         Q 3.3. .                                            1  .3.Q                                                                                                                                                           ",
"        Q 3.3.3.1                                                                                         Q 3.3.O.                                            C 3.3.Q                                                                                                                                                           ",
"        Q 3.3.3.1               0 N N N 6                     * v E  .$.3. .] Q S v 8                     Q 3.3. .    6 v S U U G h 1                     1 h  .3.3. .N N N N *                                                                                                                                                 ",
"        Q 3.3.3.>               N 3.3.3.h                   h $.3.3.3.3.3.3.3.3.3.3.3.$.N                 Q 3.3. .1 Q 3.3.3.3.3.3.3.3.v               r $.3.3.3.3.3.3.3.3.3.3.1                                                                                                                                                 ",
"        Q 3.3.3.1               N 3.3.3.h                 p 3.3.3.3.3.3.3.3.3.3.3.3.3.3.Q                 Q 3.3.$. .3.3.3.3.3.3.3.3.3.3.q             l 3.3.3.3.3.3.3.3.3.3.3.1                                                                                                                                                 ",
"        Q 3.3.3.1               N 3.3.3.h                  .3.3.3.N r 1 1 1 r v E 3.3.3.Q                 Q 3.3.3.3.$.G v h v U  .3.3.3.Q             > h h h 3.3.3.' h h h h *                                                                                                                                                 ",
"        Q 3.3.3.1               N 3.3.3.h               e 3.3.3.G               h 3.3.3.Q                 Q 3.3.3. .1           1  .3.3.3.1                   3.3.3.Q                                                                                                                                                           ",
"        Q 3.3.3.1               N 3.3.3.h               v 3.3.3.q               l 3.3.3.Q                 Q 3.3.3.h               F 3.3.3.h                   3.3.3.Q                                                                                                                                                           ",
"        Q 3.3.3.1               N 3.3.3.h               U 3.3.3.1               h 3.3.3.Q                 Q 3.3.3.8               h 3.3.3.v                   3.3.3.Q                                                                                                                                                           ",
"        Q 3.3.3.1               N 3.3.3.h               Q 3.3.3.1               h 3.3.3.Q                 Q 3.3.3.                l 3.3.3.C                   3.3.3.Q                                                                                                                                                           ",
"        Q 3.3.3.1               N 3.3.3.h               Q 3.3.3.1               h 3.3.3.Q                 Q 3.3.3.                h 3.3.3.N                   3.3.3.Q                                                                                                                                                           ",
"        Q 3.3.3.1               N 3.3.3.h               ' 3.3.3.1               h 3.3.3.Q                 Q 3.3.3.                h 3.3.3.N                   3.3.3.Q                                                                                                                                                           ",
"        Q 3.3.3.1               N 3.3.3.h                .3.3.3.1               h 3.3.3.Q                 Q 3.3.3.                h 3.3.3.N                   3.3.3.Q                                                                                                                                                           ",
"        Q 3.3.3.1               N 3.3.3.h                .3.3.3.1               h 3.3.3.Q                 Q 3.3.3.                h 3.3.3.N                   3.3.3.Q                                                                                                                                                           ",
"        Q 3.3.3.1               N 3.3.3.h                .3.3.3.1               h 3.3.3.Q                 Q 3.3.3.                h 3.3.3.N                   3.3.3.Q                                                                                                                                                           ",
"        Q 3.3.3.1               N 3.3.3.h                .3.3.3.1               h 3.3.3.Q                 Q 3.3.3.                h 3.3.3.N                   3.3.3.Q                                                                                                                                                           ",
"        Q 3.3.3.1               N 3.3.3.h               } 3.3.3.1               h 3.3.3.Q                 Q 3.3.3.                h 3.3.3.N                   3.3.3.Q                                                                                                                                                           ",
"        Q 3.3.3.1               N 3.3.3.h                .3.3.3.1               h 3.3.3.Q                 Q 3.3.3.                h 3.3.3.N                   3.3.3.Q                                                                                                                                                           ",
"        Q 3.3.3.1               N 3.3.3.h               Q 3.3.3.1               h 3.3.3.Q                 Q 3.3.3.                h 3.3.3.N                   3.3.3.Q                                                                                                                                                           ",
"        Q 3.3.3.1               N 3.3.3.h               U 3.3.3.1               h 3.3.3.Q                 Q 3.3.3.                h 3.3.3.N                   3.3.3.Q                                                                                                                                                           ",
"        Q 3.3.3.1               C 3.3.3.h               F 3.3.3.1               v 3.3.3.Q                 Q 3.3.3.                h 3.3.3.N                   3.3.3.Q                                                                                                                                                           ",
"        Q 3.3.3.>               V 3.3.3.h               v 3.3.3.q               E 3.3.3.Q                 Q 3.3.3.                h 3.3.3.N                   3.3.3.{                                                                                                                                                           ",
"        Q 3.3.3.1               N 3.3.3.h               > 3.3.3.Q             h 3.3.3.3.Q                 Q 3.3.3.                l 3.3.3.N                   3.3.3. .                                                                                                                                                          ",
"        Q 3.3.3.1               N 3.3.3.h                 Q 3.3.3. .G N N G Q 3.3.3.3.3.Q                 Q 3.3.3.                l 3.3.3.N                   $.3.3.3.*                                                                                                                                                         ",
"        Q 3.3.3.1               N 3.3.3.l                 q 3.3.3.3.3.3.3.3.3.3.$.3.3.3.Q                 Q 3.3.3.                h 3.3.3.N                    .3.3.3.E q 1 q                                                                                                                                                   ",
"        Q 3.3.3.1               N 3.3.3.h                   p  .3.3.3.3.3.3.3.Q r 3.3.3.Q                 Q 3.3.3.                h 3.3.3.A                   C 3.3.3.3.3.3.3.*                                                                                                                                                 ",
"        Q 3.3.3.1               N 3.3.3.l                       p N N N v l &   1 3.3.3.Q                 Q 3.3.3.                h 3.3.3.N                   : { 3.3.3.3.3.3.6                                                                                                                                                 ",
"                                                                                1 3.3.3.Q                                                                         0 N N N v 6                                                                                                                                                   ",
"                                                                                > 3.3.3.Q                                                                                                                                                                                                                                       ",
"                                                                                1 3.3.3.Q                                                                                                                                                                                                                                       ",
"                                                                                r 3.3.3.E                                                                                                                                                                                                                                       ",
"                                                                                U 3.3.3.N                                                                                                                                                                                                                                       ",
"                                                            [ E v u 1       u U 3.3.3.3.q                                                                                                                                                                                                                                       ",
"                                                          q 3.3.3.3.3.3.3.3.3.3.3.3.3. .                                                                                                                                                                                                                                        ",
"                                                          q { 3.3.3.3.3.3.3.3.3.3.3.O.1                                                                                                                                                                                                                                         ",
"                                                              1 v Q $.3.3.3.3.3.{ N *                                                                                                                                                                                                                                           ",
"                                                                        1 1 1                                                                                                                                                                                                                                                   ",
"                                                                                                                                                                                                                                                                                                                                "
};
