/* XPM */
static char *light_800[] = {
/* columns rows colors chars-per-pixel */
"200 30 73 1 ",
"  c None",
". c cyan",
"X c cyan",
"o c cyan",
"O c cyan",
"+ c cyan",
"@ c cyan",
"# c cyan",
"$ c cyan",
"% c cyan",
"& c cyan",
"* c cyan",
"= c cyan",
"- c cyan",
"; c cyan",
": c cyan",
"> c cyan",
", c cyan",
"< c cyan",
"1 c cyan",
"2 c cyan",
"3 c cyan",
"4 c cyan",
"5 c cyan",
"6 c cyan",
"7 c cyan",
"8 c cyan",
"9 c cyan",
"0 c cyan",
"q c cyan",
"w c cyan",
"e c cyan",
"r c cyan",
"t c cyan",
"y c cyan",
"u c cyan",
"i c cyan",
"p c cyan",
"a c cyan",
"s c cyan",
"d c cyan",
"f c cyan",
"g c cyan",
"h c cyan",
"j c cyan",
"k c cyan",
"l c cyan",
"z c cyan",
"x c cyan",
"c c cyan",
"v c cyan",
"b c cyan",
"n c cyan",
"m c cyan",
"M c cyan",
"N c cyan",
"B c cyan",
"V c cyan",
"C c cyan",
"Z c cyan",
"A c cyan",
"S c cyan",
"D c cyan",
"F c cyan",
"G c cyan",
"H c cyan",
"J c cyan",
"K c cyan",
"L c cyan",
"P c cyan",
"I c cyan",
"U c None",
"Y c cyan",
/* pixels */
"                                                                                                                                                                                                        ",
"                                                                                                                                                                                                        ",
"                                                                                                                                                                                                        ",
"                                                                                                                                                                                                        ",
"                                                                                                                                                                                                        ",
"            tz                                                                                                                                                                                          ",
"        rz  dS          ra                                                                                                                                                                              ",
"        rz              ra       :&                                                                                                                                                                     ",
"        rz              ra       m>                                                                                                                                                                     ",
"        rz  rz  XaJJm7  rzkJS1 #SIIk                                                                                                                                                                    ",
"        rz  rz  7m&&aZ  rJ>@um  &I4o                                                                                                                                                                    ",
"        rz  rz  dq  qZ  rz  4J  oI>                                                                                                                                                                     ",
"        rz  rz  zq  qZ  rz  4I  oI>                                                                                                                                                                     ",
"        rz  rz  vq  qZ  rz  4I  oI>                                                                                                                                                                     ",
"        rz  rz  zq  qZ  rk  4I  oI>                                                                                                                                                                     ",
"        rz  rz  kr  qZ  rk  4I  XI>                                                                                                                                                                     ",
"        rz  rz  qv&;ZZ  rz  4I   I5                                                                                                                                                                     ",
"        rz  rz  @vIZzZ  rz  4I   uJu                                                                                                                                                                    ",
"                    6m                                                                                                                                                                                  ",
"                X>&#kd                                                                                                                                                                                  ",
"                &dSIm:                                                                                                                                                                                  ",
"                                                                                                                                                                                                        ",
"                                                                                                                                                                                                        ",
"                                                                                                                                                                                                        ",
"                                                                                                                                                                                                        ",
"                                                                                                                                                                                                        ",
"                                                                                                                                                                                                        ",
"                                                                                                                                                                                                        ",
"                                                                                                                                                                                                        ",
"                                                                                                                                                                                                        "
};
