/* XPM */
static char *plane_400[] = {
/* columns rows colors chars-per-pixel */
"30 9 58 1 ",
"  c black",
". c #010000",
"X c #000100",
"o c #010101",
"O c #000002",
"+ c #010F0F",
"@ c #030F0F",
"# c #01100D",
"$ c #02110E",
"% c #04100E",
"& c #041010",
"* c #051F1C",
"= c #051F1E",
"- c #03201B",
"; c #03201C",
": c #03201E",
"> c #04211D",
", c #052F2B",
"< c #06312A",
"1 c #063F38",
"2 c #073E39",
"3 c #074039",
"4 c #08413A",
"5 c #084F47",
"6 c #094F47",
"7 c #095F54",
"8 c #0B5E54",
"9 c #0C5F55",
"0 c #0C6053",
"q c #0A6055",
"w c #0A6057",
"e c #0D6F62",
"r c #0E6E63",
"t c #0F7D70",
"y c #0F7F71",
"u c #0F7F73",
"i c #118E7E",
"p c #0F8F80",
"a c #108E80",
"s c #118E80",
"d c #118F81",
"f c #139D8D",
"g c #119E8D",
"h c #139D8E",
"j c #119E8E",
"k c #149E8E",
"l c #149E8F",
"z c #14AD9B",
"x c #13AE9C",
"c c #15AE9C",
"v c #16BDA9",
"b c #15BEA9",
"n c #16BDAB",
"m c #17BEAA",
"M c #16BFAA",
"N c #17BEAC",
"B c #16BFAC",
"V c #17CEB8",
/* pixels */
"ooooo6$ooooooooooooooooooooooo",
"oooooj:ooooooooooooooooooooooo",
"<ypyoj:$sz6oesz+oejyoooooooooo",
"1jozoj=oo$zomo7q,yomoooooooooo",
"3yomoj::ysmomo773misoooooooooo",
"4yojoj:q7omomo7q,yoooooooooooo",
"4Vjsoj:1zszomoqq&myyoooooooooo",
"3yoooooo$+oooooooo=ooooooooooo",
":6oooooooooooooooooooooooooooo"
};
