/* XPM */
static char *plane_800[] = {
/* columns rows colors chars-per-pixel */
"55 17 91 1 ",
"  c black",
". c #010000",
"X c #000100",
"o c #010101",
"O c #020001",
"+ c #000201",
"@ c #000002",
"# c #010002",
"$ c #030F0D",
"% c #010F0F",
"& c #01100D",
"* c #02110E",
"= c #021010",
"- c #051F1C",
"; c #03201B",
": c #05201B",
"> c #03201C",
", c #03201E",
"< c #04211D",
"1 c #06201D",
"2 c #04211F",
"3 c #052F2B",
"4 c #062F2B",
"5 c #06302C",
"6 c #073E38",
"7 c #063F38",
"8 c #073E39",
"9 c #083F39",
"0 c #083F3A",
"q c #074039",
"w c #07403A",
"e c #09403A",
"r c #094F47",
"t c #0B5E54",
"y c #0C5F55",
"u c #0C5F57",
"i c #0A6055",
"p c #0D6F62",
"a c #0D6E63",
"s c #0D6E65",
"d c #0E6F64",
"f c #0C7064",
"g c #0F7F71",
"h c #0E7E72",
"j c #0F7F73",
"k c #107E71",
"l c #107E73",
"z c #0D8073",
"x c #108072",
"c c #108074",
"v c #11907F",
"b c #0F8F80",
"n c #108E80",
"m c #118F81",
"M c #118D82",
"N c #139D8D",
"B c #139D8E",
"V c #129F8E",
"C c #129F8F",
"Z c #149E8E",
"A c #149E8F",
"S c #13AE9C",
"D c #16BDA9",
"F c #15BEA9",
"G c #15BEAB",
"H c #17BEAA",
"J c #16BFAA",
"K c #17BEAC",
"L c #16BFAC",
"P c #18CEB8",
"I c #19DDC5",
"U c #18DCC6",
"Y c #19DDC7",
"T c #18DEC7",
"R c #18DCC8",
"E c #18DDC9",
"W c #19DDC9",
"Q c #1BEDD4",
"! c #1BECD6",
"~ c #1CECD4",
"^ c #1DEDD5",
"/ c #1CEED5",
"( c #1DEDD7",
") c #1CFCE2",
"_ c #1DFDE2",
"` c #1DFDE3",
"' c #1EFDE2",
"] c #1EFCE3",
"[ c #1EFEE3",
"{ c #1DFDE5",
"} c #1EFEE4",
/* pixels */
"          55                                           ",
"          KA                                           ",
"          KA                                           ",
"          KA                                           ",
" fpK``v   KA  =S/`/j   Sj/`/p   i/``S*                 ",
" l`r<i`6  KA  %u<<n`<  YY3<n/  *`j<3/p                 ",
" j/   `u  KA      <`6  Rb  u`  q`<  PA                 ",
" jY   `j  KA     *q`9  Yc  u`  q`- *Yj                 ",
" jY   `j  KA  <K/YY`9  Rj  u`  q`SK/Y<                 ",
" lY   `p  KA  nY< <`9  Yz  i`  q`u6<                   ",
" jY   `i  KA  AK  <`9  Yl  u`  q`<                     ",
" jR3<e`-  KA  n/% p`q  Rc  u`  =`q  <*                 ",
" j`/`/p   KA  <Y/YKK9  Yc  u`   j`/`/9                 ",
" jR            *6<               %q-                   ",
" jY                                                    ",
" jY                                                    ",
" *<                                                    "
};
