/* XPM */
static char *plane_600[] = {
/* columns rows colors chars-per-pixel */
"200 30 58 1 ",
"  c black",
". c cyan",
"X c cyan",
"o c cyan",
"O c cyan",
"+ c cyan",
"@ c cyan",
"# c cyan",
"$ c cyan",
"% c cyan",
"& c cyan",
"* c cyan",
"= c cyan",
"- c cyan",
"; c cyan",
": c cyan",
"> c cyan",
", c cyan",
"< c cyan",
"1 c cyan",
"2 c cyan",
"3 c cyan",
"4 c cyan",
"5 c cyan",
"6 c cyan",
"7 c cyan",
"8 c cyan",
"9 c cyan",
"0 c cyan",
"q c cyan",
"w c cyan",
"e c cyan",
"r c cyan",
"t c cyan",
"y c cyan",
"u c cyan",
"i c cyan",
"p c cyan",
"a c cyan",
"s c cyan",
"d c cyan",
"f c cyan",
"g c cyan",
"h c cyan",
"j c cyan",
"k c cyan",
"l c cyan",
"z c cyan",
"x c cyan",
"c c cyan",
"v c cyan",
"b c cyan",
"n c cyan",
"m c cyan",
"M c cyan",
"N c cyan",
"B c None",
"V c cyan",
/* pixels */
"                                                                                                                                                                                                        ",
"                                                                                                                                                                                                        ",
"                                                                                                                                                                                                        ",
"                                                                                                                                                                                                        ",
"                                                                                                                                                                                                        ",
"                                                                                                                                                                                                        ",
"                                                                                                                                                                                                        ",
"                                                                                                                                                                                                        ",
"                                                                                                                                                                                                        ",
"              v@                                                                                                                                                                                        ",
"              v@                                                                                                                                                                                        ",
"        wrfr  v@ 9av6  wrfw  3ff9                                                                                                                                                                       ",
"        v> a; v@ + %v  v> a; v+ m                                                                                                                                                                       ",
"        v@ r< v@    N  v@ r1@l -m                                                                                                                                                                       ",
"        v@ r1 v@ 5afN  v@ r1@Nau2                                                                                                                                                                       ",
"        v@ r< v@%v% N  v@ r1@l                                                                                                                                                                          ",
"        v@ a% v@@l %N  v@ r1 v+ @                                                                                                                                                                       ",
"        vaf9  v@ qlrr  v@ r1 4la9                                                                                                                                                                       ",
"        v                                                                                                                                                                                               ",
"        v                                                                                                                                                                                               ",
"                                                                                                                                                                                                        ",
"                                                                                                                                                                                                        ",
"                                                                                                                                                                                                        ",
"                                                                                                                                                                                                        ",
"                                                                                                                                                                                                        ",
"                                                                                                                                                                                                        ",
"                                                                                                                                                                                                        ",
"                                                                                                                                                                                                        ",
"                                                                                                                                                                                                        ",
"                                                                                                                                                                                                        "
};
