/* XPM */
static char *plane_2160[] = {
/* columns rows colors chars-per-pixel */
"160 50 130 2 ",
"   c black",
".  c #010000",
"X  c #000100",
"o  c #010100",
"O  c #010101",
"+  c #020001",
"@  c #000201",
"#  c #000002",
"$  c #010002",
"%  c #010103",
"&  c #030F0D",
"*  c #010F0F",
"=  c #01100D",
"-  c #02110E",
";  c #04100E",
":  c #021010",
">  c #051F1C",
",  c #051F1E",
"<  c #03201C",
"1  c #02211C",
"2  c #03201E",
"3  c #04211D",
"4  c #06201D",
"5  c #04211F",
"6  c #06201F",
"7  c #062F29",
"8  c #062F2B",
"9  c #052F2D",
"0  c #07302A",
"q  c #06312A",
"w  c #06302C",
"e  c #07302C",
"r  c #063F38",
"t  c #073E39",
"y  c #063F39",
"u  c #083F39",
"i  c #0A3F39",
"p  c #083F3A",
"a  c #074039",
"s  c #07403A",
"d  c #09403A",
"f  c #094F45",
"g  c #084F47",
"h  c #094F47",
"j  c #0A5046",
"k  c #095048",
"l  c #0B5E54",
"z  c #0B5E56",
"x  c #0C5F55",
"c  c #0C5F57",
"v  c #0C6053",
"b  c #0A6055",
"n  c #0A6057",
"m  c #0D6058",
"M  c #0D6F62",
"N  c #0D6E63",
"B  c #0E6F64",
"V  c #0E6F66",
"C  c #0E7E6E",
"Z  c #0E7E70",
"A  c #0F7F71",
"S  c #0E7E72",
"D  c #0F7F73",
"F  c #0D8071",
"G  c #0F8E7D",
"H  c #0F8D7F",
"J  c #108072",
"K  c #118E7E",
"L  c #108F7E",
"P  c #11907F",
"I  c #108E80",
"U  c #118F81",
"Y  c #108E82",
"T  c #109081",
"R  c #139D8D",
"E  c #119E8D",
"W  c #139D8E",
"Q  c #119E8E",
"!  c #129F8E",
"~  c #129F8F",
"^  c #149C8E",
"/  c #149E8E",
"(  c #149E8F",
")  c #13AF9A",
"_  c #14AD9B",
"`  c #13AE9C",
"'  c #14AC9D",
"]  c #15AE9C",
"[  c #16BDA9",
"{  c #15BEA9",
"}  c #16BDAB",
"|  c #15BEAB",
" . c #17BEAA",
".. c #16BFAA",
"X. c #17BEAC",
"o. c #17CDB7",
"O. c #17CFB7",
"+. c #17CEB8",
"@. c #18CEB8",
"#. c #17DDC6",
"$. c #19DDC5",
"%. c #1BDDC5",
"&. c #18DCC6",
"*. c #19DDC7",
"=. c #1BDCC7",
"-. c #18DEC7",
";. c #1CDEC6",
":. c #17DCC8",
">. c #19DDC9",
",. c #1BEDD4",
"<. c #19EDD6",
"1. c #1BECD6",
"2. c #1DEDD5",
"3. c #1CEED5",
"4. c #1CEDD7",
"5. c #1DEDD7",
"6. c #1DFBE2",
"7. c #1BFEE2",
"8. c #1BFEE3",
"9. c #1DFCE1",
"0. c #1CFCE2",
"q. c #1DFDE2",
"w. c #1DFDE3",
"e. c #1EFDE2",
"r. c #1EFCE3",
"t. c #1EFEE3",
"y. c #1DFDE5",
"u. c #1FFDE4",
"i. c #1CFFE4",
"p. c #1EFEE4",
/* pixels */
"                                                                                                                                                                                                                                                                                                                                ",
"                                                                                                                                                                                                                                                                                                                                ",
"                                                                                                                                                                                                                                                                                                                                ",
"                                                                                                                                                                                                                                                                                                                                ",
"                                                                                                                                                                                                                                                                                                                                ",
"                                                        I *.*.*.0                                                                                                                                                                                                                                                               ",
"                                                        ( w.w.w.u                                                                                                                                                                                                                                                               ",
"                                                        ( w.w.w.u                                                                                                                                                                                                                                                               ",
"                                                        ( w.w.w.u                                                                                                                                                                                                                                                               ",
"                                                        ( w.w.w.u                                                                                                                                                                                                                                                               ",
"                                                        ( w.w.w.u                                                                                                                                                                                                                                                               ",
"                                                        ( w.w.w.u                                                                                                                                                                                                                                                               ",
"                                                        ( w.w.w.u                                                                                                                                                                                                                                                               ",
"                                                        ( w.w.w.u                                                                                                                                                                                                                                                               ",
"        x A 9     d L +.*.4.w.*.` x                     ( w.w.w.u                     < B ( +.>.*.*.@.` x <                     A A ;     d ( o.*.w.w.+.( u                           d I +.*.w.w.*.+.( x                                                                                                                       ",
"        | w.I ; | w.w.w.w.w.w.w.w.w.I                   ( w.w.w.u               ; A *.w.w.w.w.w.w.w.w.w.w.*.9                   w.w.B < +.w.w.w.w.w.w.w.w.w.A                     ; ( w.w.w.w.w.w.w.w.w.w.*.<                                                                                                                   ",
"        | w.*.+.w.w.w.w.w.w.w.w.w.w.w.B                 ( w.w.w.u               ; w.w.w.w.w.w.w.w.w.w.w.w.w.4.>                 w.w.| *.w.w.w.w.w.w.w.w.w.w.w.u                   ` w.w.w.w.w.w.w.w.w.w.w.w.*.:                                                                                                                 ",
"        | w.w.w.w.| f > < < a ( w.w.w.+.                ( w.w.w.u                 | 4.` I x r u r f ( w.w.w.w.A                 w.w.w.w.w.( f < < 9 f *.w.w.w.|                 x w.w.w.4.A f > > u ( w.w.w.w.B                                                                                                                 ",
"        | w.w.w.*.              | w.w.w.<               ( w.w.w.u                 ;                   I w.w.w.|                 w.w.w.w.(             ; 4.w.w.w.*               ` w.w.w.a             f w.w.w.`                                                                                                                 ",
"        | w.w.w.k               B w.w.w.j               ( w.w.w.u                                     ; w.w.w.4.                w.w.w.w.<               ( w.w.w.0               4.w.w.|               ; w.w.w.*.                                                                                                                ",
"        | w.w.w.<               x w.w.w.x               ( w.w.w.u                                       *.w.w.w.                w.w.w.4.                A w.w.w.k             0 w.w.w.T                 *.w.w.4.                                                                                                                ",
"        | w.w.w.<               x w.w.w.A               ( w.w.w.u                                       *.w.w.w.                w.w.w.#.                A w.w.w.x             a w.w.w.A                 *.w.w.w.                                                                                                                ",
"        | w.w.w.<               b w.w.w.I               ( w.w.w.u                                       *.w.w.w.                w.w.w.:.                A w.w.w.x             a w.w.w.A                 *.w.w.4.                                                                                                                ",
"        | w.w.w.>               b w.w.w.(               ( w.w.w.u                                       :.w.w.w.                w.w.w.*.                A w.w.w.b             b w.w.w.A               ; w.w.w.@.                                                                                                                ",
"        | w.w.w.<               x w.w.w.(               ( w.w.w.u                                   ; < *.w.w.w.                w.w.w.*.                A w.w.w.x             b w.w.w.A               C w.w.w.(                                                                                                                 ",
"        | w.w.w.<               x w.w.w.(               ( w.w.w.u                     u I ` *.*.w.w.w.w.w.w.w.w.                w.w.w.*.                A w.w.w.b             x w.w.w.J       ; > B | w.w.w.w.<                                                                                                                 ",
"        | w.w.w.<               x w.w.w.(               ( w.w.w.u                 d *.w.w.w.w.w.w.w.w.w.w.w.w.w.                w.w.w.*.                A w.w.w.x             x w.w.w.4.*.w.w.w.w.w.w.w.w.w.A                                                                                                                   ",
"        | w.w.w.<               x w.w.w.(               ( w.w.w.u               < w.w.w.w.w.4.o.` ( ( ( 4.w.w.w.                w.w.w.*.                A w.w.w.x             b w.w.w.w.w.w.w.w.w.w.w.w.| r                                                                                                                     ",
"        | w.w.w.<               x w.w.w.(               ( w.w.w.u               | w.w.w.*.u             *.w.w.w.                w.w.w.*.                A w.w.w.x             b w.w.w.*.| | ( ( ( A x <                                                                                                                         ",
"        | w.w.w.<               x w.w.w.A               ( w.w.w.u             * w.w.w.*.<               #.w.w.w.                w.w.w.*.                A w.w.w.b             b w.w.w.A                                                                                                                                         ",
"        | w.w.w.<               x w.w.w.A               ( w.w.w.a             a w.w.w.`                 *.w.w.w.                w.w.w.*.                A w.w.w.x             b w.w.w.A                                                                                                                                         ",
"        | w.w.w.<               b w.w.w.B               ( w.w.w.a             a w.w.w.(                 *.w.w.w.                w.w.w.*.                A w.w.w.b             a w.w.w.A                                                                                                                                         ",
"        | w.w.w.<               x w.w.w.j               ( w.w.w.u             a w.w.w.(                 *.w.w.w.                w.w.w.*.                A w.w.w.b             9 w.w.w.A                                                                                                                                         ",
"        | w.w.w.<               B w.w.w.0               ( w.w.w.u             9 w.w.w.(                 4.w.w.w.                w.w.w.*.                A w.w.w.m             : w.w.w.T                                                                                                                                         ",
"        | w.w.w.<               ` w.w.*.                ( w.w.w.u             ; w.w.w.@.              9 w.w.w.w.                w.w.w.#.                A w.w.w.x               *.w.w.|                                                                                                                                         ",
"        | w.w.w.A d <     : < P w.w.w.(                 ( w.w.w.a               *.w.w.w.u           ; +.w.w.w.w.                w.w.w.*.                A w.w.w.b               I w.w.w.A               * B I                                                                                                                   ",
"        | w.w.w.w.w.w.w.w.w.w.w.w.w.4.<                 ( w.w.w.u               A w.w.w.w.| H A A ( 4.w.w.4.w.w.                w.w.w.*.                A w.w.w.x               r w.w.w.w.*.` A I ( ` *.w.w.w.<                                                                                                                 ",
"        | w.w.w.w.w.w.w.w.w.w.w.w.*.9                   ( w.w.w.u               * *.w.w.w.w.w.w.w.w.w.w.A B w.w.                w.w.w.*.                A w.w.w.x                 A w.w.w.w.w.w.w.w.w.w.w.w.4.a                                                                                                                 ",
"        | w.w.4.H | *.w.w.w.*.` B ;                     ( w.w.w.u                 < *.w.w.w.w.w.w.w.| r   a w.w.                w.w.w.*.                A w.w.w.x                   b *.w.w.w.w.w.w.w.w.o.A ;                                                                                                                   ",
"        | w.w.*.                                                                      a B A H A x 9                                                                                     r B A L F A x >                                                                                                                         ",
"        | w.w.*.                                                                                                                                                                                                                                                                                                                ",
"        | w.w.*.                                                                                                                                                                                                                                                                                                                ",
"        | w.w.*.                                                                                                                                                                                                                                                                                                                ",
"        | w.w.*.                                                                                                                                                                                                                                                                                                                ",
"        | w.w.*.                                                                                                                                                                                                                                                                                                                ",
"        | w.w.*.                                                                                                                                                                                                                                                                                                                ",
"        | w.w.*.                                                                                                                                                                                                                                                                                                                ",
"        x A A B                                                                                                                                                                                                                                                                                                                 ",
"                                                                                                                                                                                                                                                                                                                                ",
"                                                                                                                                                                                                                                                                                                                                "
};
