/* XPM */
static char *sphere_800[] = {
/* columns rows colors chars-per-pixel */
"200 30 101 2 ",
"   c None",
".  c cyan",
"X  c cyan",
"o  c cyan",
"O  c cyan",
"+  c cyan",
"@  c cyan",
"#  c cyan",
"$  c cyan",
"%  c cyan",
"&  c cyan",
"*  c cyan",
"=  c cyan",
"-  c cyan",
";  c cyan",
":  c cyan",
">  c cyan",
",  c cyan",
"<  c cyan",
"1  c cyan",
"2  c cyan",
"3  c cyan",
"4  c cyan",
"5  c cyan",
"6  c cyan",
"7  c cyan",
"8  c cyan",
"9  c cyan",
"0  c cyan",
"q  c cyan",
"w  c cyan",
"e  c cyan",
"r  c cyan",
"t  c cyan",
"y  c cyan",
"u  c cyan",
"i  c cyan",
"p  c cyan",
"a  c cyan",
"s  c cyan",
"d  c cyan",
"f  c cyan",
"g  c cyan",
"h  c cyan",
"j  c cyan",
"k  c cyan",
"l  c cyan",
"z  c cyan",
"x  c cyan",
"c  c cyan",
"v  c cyan",
"b  c cyan",
"n  c cyan",
"m  c cyan",
"M  c cyan",
"N  c cyan",
"B  c cyan",
"V  c cyan",
"C  c cyan",
"Z  c cyan",
"A  c cyan",
"S  c cyan",
"D  c cyan",
"F  c cyan",
"G  c cyan",
"H  c cyan",
"J  c cyan",
"K  c cyan",
"L  c cyan",
"P  c cyan",
"I  c cyan",
"U  c cyan",
"Y  c cyan",
"T  c cyan",
"R  c cyan",
"E  c cyan",
"W  c cyan",
"Q  c cyan",
"!  c cyan",
"~  c cyan",
"^  c cyan",
"/  c cyan",
"(  c cyan",
")  c cyan",
"_  c cyan",
"`  c cyan",
"'  c cyan",
"]  c cyan",
"[  c cyan",
"{  c cyan",
"}  c cyan",
"|  c cyan",
" . c cyan",
".. c cyan",
"X. c cyan",
"o. c cyan",
"O. c cyan",
"+. c cyan",
"@. c cyan",
"#. c None",
"$. c cyan",
/* pixels */
"                                                                                                                                                                                                                                                                                                                                                                                                                ",
"                                                                                                                                                                                                                                                                                                                                                                                                                ",
"                                                                                                                                                                                                                                                                                                                                                                                                                ",
"                                                                                                                                                                                                                                                                                                                                                                                                                ",
"                                                                                                                                                                                                                                                                                                                                                                                                                ",
"                                                                                                                                                                                                                                                                                                                                                                                                                ",
"                                              c C                                                                                                                                                                                                                                                                                                                                                               ",
"                                              c C                                                                                                                                                                                                                                                                                                                                                               ",
"                                              c C                                                                                                                                                                                                                                                                                                                                                               ",
"                : K  .^ c     c g I o.^ r     c K D  .^ r     @ C  . .K :     c d b _ : % C  . .K :                                                                                                                                                                                                                                                                                                             ",
"                D M : 6 q     c  .q * M I     c  .q * M E     g E 1 : I b     c o.j 1   g E 1 : I b                                                                                                                                                                                                                                                                                                             ",
"                _ i           c K     i  .    c K     i  .    S k     k D     c K       S k     k D                                                                                                                                                                                                                                                                                                             ",
"                ! C 6 @       c K     i o.    c K     i o.    K k   * I M     c K       K k   * I M                                                                                                                                                                                                                                                                                                             ",
"                d  .o.o.k     c K     i o.    c K     i o.    I o.o.o.I 1     c K       I o.o.o.I 1                                                                                                                                                                                                                                                                                                             ",
"                    : j o.%   c K     i o.    c K     i o.    K b * @         c K       K b * @                                                                                                                                                                                                                                                                                                                 ",
"                      : o.:   c K     i _     k K     i o.    S k             c D       S k                                                                                                                                                                                                                                                                                                                     ",
"                q 1 * j  .    c I 1 * M D     c K     i o.    j E 1 : r 9     c K       j E 1 : r 9                                                                                                                                                                                                                                                                                                             ",
"                M ^ o.! i     c  .^ o.I 1     c K     i o.    % S  ._ D 9     c K       % S  ._ D 9                                                                                                                                                                                                                                                                                                             ",
"                              c C                                                                                                                                                                                                                                                                                                                                                                               ",
"                              c C                                                                                                                                                                                                                                                                                                                                                                               ",
"                              c C                                                                                                                                                                                                                                                                                                                                                                               ",
"                                                                                                                                                                                                                                                                                                                                                                                                                ",
"                                                                                                                                                                                                                                                                                                                                                                                                                ",
"                                                                                                                                                                                                                                                                                                                                                                                                                ",
"                                                                                                                                                                                                                                                                                                                                                                                                                ",
"                                                                                                                                                                                                                                                                                                                                                                                                                ",
"                                                                                                                                                                                                                                                                                                                                                                                                                ",
"                                                                                                                                                                                                                                                                                                                                                                                                                ",
"                                                                                                                                                                                                                                                                                                                                                                                                                ",
"                                                                                                                                                                                                                                                                                                                                                                                                                "
};
