/* XPM */
static char *sphere_600[] = {
/* columns rows colors chars-per-pixel */
"200 30 65 1 ",
"  c black",
". c cyan",
"X c cyan",
"o c cyan",
"O c cyan",
"+ c cyan",
"@ c cyan",
"# c cyan",
"$ c cyan",
"% c cyan",
"& c cyan",
"* c cyan",
"= c cyan",
"- c cyan",
"; c cyan",
": c cyan",
"> c cyan",
", c cyan",
"< c cyan",
"1 c cyan",
"2 c cyan",
"3 c cyan",
"4 c cyan",
"5 c cyan",
"6 c cyan",
"7 c cyan",
"8 c cyan",
"9 c cyan",
"0 c cyan",
"q c cyan",
"w c cyan",
"e c cyan",
"r c cyan",
"t c cyan",
"y c cyan",
"u c cyan",
"i c cyan",
"p c cyan",
"a c cyan",
"s c cyan",
"d c cyan",
"f c cyan",
"g c cyan",
"h c cyan",
"j c cyan",
"k c cyan",
"l c cyan",
"z c cyan",
"x c cyan",
"c c cyan",
"v c cyan",
"b c cyan",
"n c cyan",
"m c cyan",
"M c cyan",
"N c cyan",
"B c cyan",
"V c cyan",
"C c cyan",
"Z c cyan",
"A c cyan",
"S c cyan",
"D c cyan",
"F c cyan",
"G c None",
/* pixels */
"                                                                                                                                                                                                        ",
"                                                                                                                                                                                                        ",
"                                                                                                                                                                                                        ",
"                                                                                                                                                                                                        ",
"                                                                                                                                                                                                        ",
"                                                                                                                                                                                                        ",
"                                                                                                                                                                                                        ",
"                                                                                                                                                                                                        ",
"                                                                                                                                                                                                        ",
"                   A                                                                                                                                                                                    ",
"                   A                                                                                                                                                                                    ",
"        wbl3 afbf  Auba  7bbw  aya 7bbw                                                                                                                                                                 ",
"       *l    A, l: A, l: A+ S  A5  A+ S                                                                                                                                                                 ",
"       :b$   A$ f2 A$ f2$B *S  A$ $B *S                                                                                                                                                                 ",
"        uFB, A$ f3 A$ f3$Fbj6  A$ &Flj6                                                                                                                                                                 ",
"          0w A$ f2 A$ f3$B     A$ $B                                                                                                                                                                    ",
"          7q A$ l& A$ f3 A+ $  A$  A+ $                                                                                                                                                                 ",
"       *jll* Albw  A$ f3 9Blw  A$  9Blw                                                                                                                                                                 ",
"             A                                                                                                                                                                                          ",
"             A                                                                                                                                                                                          ",
"                                                                                                                                                                                                        ",
"                                                                                                                                                                                                        ",
"                                                                                                                                                                                                        ",
"                                                                                                                                                                                                        ",
"                                                                                                                                                                                                        ",
"                                                                                                                                                                                                        ",
"                                                                                                                                                                                                        ",
"                                                                                                                                                                                                        ",
"                                                                                                                                                                                                        ",
"                                                                                                                                                                                                        "
};
