/* XPM */
static char *sphere_2160[] = {
/* columns rows colors chars-per-pixel */
"160 50 147 2 ",
"   c black",
".  c #010000",
"X  c #000100",
"o  c #010100",
"O  c #010101",
"+  c #020001",
"@  c #000201",
"#  c #000002",
"$  c #010002",
"%  c #010103",
"&  c #030F0D",
"*  c #010F0F",
"=  c #030F0F",
"-  c #01100D",
";  c #02110E",
":  c #021010",
">  c #051F1C",
",  c #051F1E",
"<  c #03201B",
"1  c #03201C",
"2  c #03221D",
"3  c #03201E",
"4  c #04211D",
"5  c #06211C",
"6  c #06201D",
"7  c #04211F",
"8  c #042E2A",
"9  c #052F2B",
"0  c #062F2B",
"q  c #07302A",
"w  c #06312A",
"e  c #06302C",
"r  c #07302C",
"t  c #073E38",
"y  c #063F38",
"u  c #073E39",
"i  c #063F39",
"p  c #083F39",
"a  c #083F3A",
"s  c #0A3E3A",
"d  c #074037",
"f  c #074039",
"g  c #07403A",
"h  c #09403A",
"j  c #08413A",
"k  c #084F47",
"l  c #094F47",
"z  c #095146",
"x  c #095048",
"c  c #0B5E54",
"v  c #0B5E56",
"b  c #0C5F55",
"n  c #0C5D56",
"m  c #0C5F57",
"M  c #0A6055",
"N  c #0B6F63",
"B  c #0D6F62",
"V  c #0D6E63",
"C  c #0D6E65",
"Z  c #0E6F64",
"A  c #0E6F66",
"S  c #0E7E70",
"D  c #0F7F71",
"F  c #0F7D72",
"G  c #0C7F72",
"H  c #0E7E72",
"J  c #0F7F73",
"K  c #0E7D74",
"L  c #107E71",
"P  c #107E73",
"I  c #0D8071",
"U  c #0F8E7D",
"Y  c #0F8D7F",
"T  c #108072",
"R  c #108074",
"E  c #108F7E",
"W  c #0F907E",
"Q  c #10917F",
"!  c #0F8F80",
"~  c #108E80",
"^  c #118E80",
"/  c #118F81",
"(  c #118F83",
")  c #139D8D",
"_  c #119E8D",
"`  c #139D8E",
"'  c #109E8E",
"]  c #119E8E",
"[  c #129F8E",
"{  c #129F8F",
"}  c #149E8E",
"|  c #149E8F",
" . c #12AD9B",
".. c #13AF9A",
"X. c #14AD99",
"o. c #14AD9B",
"O. c #13AE9C",
"+. c #14AC9D",
"@. c #15AE9C",
"#. c #16BDA9",
"$. c #15BEA9",
"%. c #16BDAB",
"&. c #15BEAB",
"*. c #17BEAA",
"=. c #16BFAA",
"-. c #17BEAC",
";. c #16BFAC",
":. c #16CDB7",
">. c #17CDB7",
",. c #17CFB7",
"<. c #18CEB7",
"1. c #17CEB8",
"2. c #18CEB8",
"3. c #17DDC6",
"4. c #18DCC4",
"5. c #19DDC5",
"6. c #18DEC5",
"7. c #18DCC6",
"8. c #19DDC7",
"9. c #1BDCC7",
"0. c #18DEC7",
"q. c #19DDC9",
"w. c #1ADEC8",
"e. c #1CDDC8",
"r. c #1BEDD4",
"t. c #1AEED5",
"y. c #1BECD6",
"u. c #1CECD4",
"i. c #1DEDD5",
"p. c #1CEED5",
"a. c #1CECD6",
"s. c #1CEDD7",
"d. c #1DEDD7",
"f. c #1BFEE2",
"g. c #1BFEE3",
"h. c #1CFCE1",
"j. c #1CFCE2",
"k. c #1DFDE2",
"l. c #1DFDE3",
"z. c #1EFDE2",
"x. c #1EFCE3",
"c. c #1EFEE3",
"v. c #1FFEE3",
"b. c #1DFDE5",
"n. c #1FFDE4",
"m. c #1EFCE5",
"M. c #1EFEE4",
/* pixels */
"                                                                                                                                                                                                                                                                                                                                ",
"                                                                                                                                                                                                                                                                                                                                ",
"                                                                                                                                                                                                                                                                                                                                ",
"                                                                                                                                                                                                                                                                                                                                ",
"                                                                                                                                                                                                                                                                                                                                ",
"                                                                                                  ~ 8.8.8.                                                                                                                                                                                                                      ",
"                                                                                                  ) g.g.g.                                                                                                                                                                                                                      ",
"                                                                                                  ) g.g.g.                                                                                                                                                                                                                      ",
"                                                                                                  ) g.g.g.                                                                                                                                                                                                                      ",
"                                                                                                  ) g.g.g.                                                                                                                                                                                                                      ",
"                                                                                                  ) g.g.g.                                                                                                                                                                                                                      ",
"                                                                                                  ) g.g.g.                                                                                                                                                                                                                      ",
"                                                                                                  ) g.g.g.                                                                                                                                                                                                                      ",
"                                                                                                  ) g.g.g.                                                                                                                                                                                                                      ",
"            1 D ,.d.g.8.<.@.V r                   b D 9     h ~ 1.8.d.g.8.@.b                     ) g.g.g.    = b U ) ) ) V 1                           = V @.8.d.g.d.1.@.b 1                   V D 1       ; V @.8.d.;             d ~ ,.8.g.g.8.%.) z                                                                         ",
"          V d.g.g.g.g.g.g.g.g.g.8.9               %.g.~ : %.g.g.g.g.g.g.g.g.g.Q                   ) g.g.g.= E g.g.g.g.g.g.g.g.D                       V d.g.g.g.g.g.g.g.g.g.8.l                 8.g.V     D d.g.g.g.d.          ; @.g.g.g.g.g.g.g.g.g.g.8.>                                                                     ",
"        I g.g.g.g.g.g.g.g.g.g.g.g.9               %.g.8.1.g.g.g.g.g.g.g.g.g.g.g.b                 ) g.g.g.1.g.g.g.g.g.g.g.g.g.g.V                   V g.g.g.g.g.g.g.g.g.g.g.g.g.p               8.g.@.1 ,.g.g.g.g.g.<.          1.g.g.g.g.g.g.g.g.g.g.g.g.8.:                                                                   ",
"      > g.g.g.g.@.V b b V E %.d.8.                %.g.g.g.g.*.l 1 1 1 y ) g.g.g.%.                ) g.g.g.g.d.) V b b E w.g.g.g.d.:               1 8.g.g.g.) l 1 > y b 8.g.g.g.%.              w.g.d.d.g.g.g.<.) D l         b g.g.g.d.D f 1 > y ) g.g.g.g.b                                                                   ",
"      V g.g.g.V                 1                 %.g.g.g.2.              %.g.g.g.;               ) g.g.g.d.1           ; 2.g.g.g.p               b g.g.g.D             1 d.g.g.d.              8.g.g.g.g.%.p                 %.g.g.g.1             D g.g.g.)                                                                   ",
"      *.g.g.d.                                    %.g.g.g.p               V g.g.g.x               ) g.g.g.)               b g.g.g.V               @.g.g.g.>               @.g.g.g.1             8.g.g.g.D                     g.g.g.@.              ; g.g.g.2.                                                                  ",
"      8.g.g.8.                                    %.g.g.g.1               b g.g.g.b               ) g.g.g.p               h g.v.g.)               ,.g.g.8.                ) g.g.g.p             8.g.g.8.                    9 g.g.g.L                 g.g.g.8.                                                                  ",
"      g.g.g.8.                                    %.g.g.g.                b g.g.g.D               ) g.g.g.f               h g.g.g.)               d.g.g.8.                ) g.g.g.p             8.g.g.8.                    f g.g.g.L                 g.g.g.w.                                                                  ",
"      8.g.g.8.                                    *.g.g.g.                b g.g.g.D               ) g.g.g.p               p g.g.g.)               g.g.g.8.                ) g.g.g.y             8.g.g.8.                    b g.g.v.L                 g.g.g.8.                                                                  ",
"      8.g.g.g.:                                   %.g.g.g.                M g.g.g.)               ) g.g.g.p               f g.g.g.)               g.g.g.8.                %.g.g.g.;             8.g.g.8.                    b g.g.g.D               1 g.g.g.%.                                                                  ",
"      ) g.g.g.8.b r                               %.g.g.g.                b g.g.g.)               ) g.g.g.p               f g.g.g.)               g.g.g.3.              f g.g.g.8.              8.g.g.8.                    b g.g.g.D               E g.g.g.Q                                                                   ",
"      f g.g.g.g.g.g.g.2.%.E x                     %.g.g.g.                b g.g.g.)               ) g.g.g.p               f g.g.g.)             1 g.g.g.3.        1 z @.g.g.g.g.b               8.g.g.8.                    M g.g.g.R       : 9 V %.g.g.g.g.1                                                                   ",
"        %.g.g.g.g.g.g.g.g.g.g.8.9                 %.g.g.g.                b g.g.g.)               ) g.g.g.p               f g.g.g.)             > g.g.g.g.8.g.g.g.g.g.g.g.g.g.2.                8.g.g.8.                    D g.g.g.d.8.g.g.g.g.g.g.g.g.g.L                                                                     ",
"        = ) g.g.g.g.g.g.g.g.g.g.d.1               %.g.g.g.                b g.g.g.)               ) g.g.g.p               f g.g.g.)             1 g.g.g.g.g.g.g.g.g.g.g.g.d.D                   8.g.g.8.                    V g.g.g.g.g.g.g.g.g.g.g.g.%.y                                                                       ",
"              h b R @.%.g.g.g.g.g.!               %.g.g.g.                b g.g.g.~               ) g.g.g.p               f g.g.g.)             = g.g.g.g.*.%.@.) ) L b r                       8.g.g.8.                    M g.g.g.8.%.%.) ) ) D b ;                                                                           ",
"                        ; D g.g.g.8.              %.g.g.g.                b g.g.g.D               ) g.g.g.p               f g.g.g.)               g.g.g.8.                                      8.g.g.8.                    b g.g.g.L                                                                                           ",
"                            d.g.g.g.;             %.g.g.g.                b g.g.g.D               ) g.g.g.p               h g.g.g.)               g.g.g.8.                                      8.g.g.8.                    b g.g.g.L                                                                                           ",
"                            @.g.g.g.1             %.g.g.g.                b g.g.g.b               ) g.g.g.p               h g.g.g.)               g.g.g.8.                                      8.g.g.8.                    b g.g.g.L                                                                                           ",
"                            ) g.g.g.1             %.g.g.g.                b g.g.g.z               ) g.g.g.p               h g.g.g.)               8.g.g.8.                                      8.g.g.8.                    f g.g.g.D                                                                                           ",
"                            @.g.g.g.;             %.g.g.g.                V g.g.g.r               ) g.g.g.p               f g.g.g.)               2.g.g.8.                                      8.g.g.8.                    1 g.g.g.W                                                                                           ",
"                            8.g.g.8.              %.g.g.g.                @.g.g.w.                ) g.g.g.p               f g.g.g.)               ~ g.g.g.1                                     8.g.g.8.                      d.g.g.%.                                                                                          ",
"      1 r                 D g.g.g.)               %.g.g.g.V p 1     ; r E g.g.g.)                 ) g.g.g.p               f g.g.g.)               y g.g.g.@.1             ; p @.>               8.g.g.8.                      ) g.g.g.V               > V E                                                                     ",
"      @.g.g.2.%.) D D ) d.g.g.g.g.1               %.g.g.g.g.g.g.g.g.g.g.g.g.g.8.1                 ) g.g.g.p               h g.g.g.)                 8.g.g.g.d.@.~ D ) @.1.g.g.g.V               8.g.g.8.                      y g.g.g.g.8.@.L ~ ) @.8.g.g.g.;                                                                   ",
"    ; g.g.g.g.g.g.g.g.g.g.g.g.g.L                 %.g.g.g.g.g.g.g.g.g.g.g.g.8.9                   ) g.g.g.p               f g.g.g.)                 9 d.g.g.g.g.g.g.g.g.g.g.g.g.V               8.g.g.8.                        D g.g.g.g.g.g.g.g.g.g.g.g.d.p                                                                   ",
"      b @.d.g.g.g.g.g.g.g.g.8.p                   *.g.g.d.E *.w.g.g.g.8.@.V ;                     ) g.g.g.p               f g.g.g.)                   1 %.g.g.g.g.g.g.g.g.d.~ p                 8.g.g.8.                          b 8.g.g.g.g.g.g.g.g.%.D :                                                                     ",
"            9 l L L ~ D V p                       %.g.g.w.                                                                                                > l D ~ ~ D b 9                                                             p V D ~ L V b 1                                                                           ",
"                                                  %.g.g.8.                                                                                                                                                                                                                                                                      ",
"                                                  %.g.g.8.                                                                                                                                                                                                                                                                      ",
"                                                  %.g.g.3.                                                                                                                                                                                                                                                                      ",
"                                                  %.g.g.8.                                                                                                                                                                                                                                                                      ",
"                                                  %.g.g.8.                                                                                                                                                                                                                                                                      ",
"                                                  %.g.g.8.                                                                                                                                                                                                                                                                      ",
"                                                  %.g.g.8.                                                                                                                                                                                                                                                                      ",
"                                                  b D L V                                                                                                                                                                                                                                                                       ",
"                                                                                                                                                                                                                                                                                                                                ",
"                                                                                                                                                                                                                                                                                                                                "
};
