/* XPM */
static char *sphere_400[] = {
/* columns rows colors chars-per-pixel */
"30 9 51 1 ",
"  c black",
". c #010000",
"X c #000100",
"o c #010101",
"O c #020001",
"+ c #000002",
"@ c #01100D",
"# c #02110E",
"$ c #021010",
"% c #051F1C",
"& c #05201B",
"* c #03201C",
"= c #03201E",
"- c #04211D",
"; c #06201D",
": c #04211F",
"> c #062F2B",
", c #06302C",
"< c #073E38",
"1 c #063F39",
"2 c #083F39",
"3 c #083F3A",
"4 c #07403A",
"5 c #084F47",
"6 c #094F47",
"7 c #0A5048",
"8 c #0C5F55",
"9 c #0D6E63",
"0 c #0E6E63",
"q c #0D6E65",
"w c #0E7E70",
"e c #0F7F71",
"r c #0F7F73",
"t c #107E73",
"y c #108D7F",
"u c #108F7E",
"i c #108E80",
"p c #118F81",
"a c #139D8D",
"s c #119E8E",
"d c #129F8E",
"f c #149E8E",
"g c #149E8F",
"h c #13AE9C",
"j c #13AE9E",
"k c #15AE9C",
"l c #15BEA9",
"z c #16BDAB",
"x c #17BEAA",
"c c #17CEB8",
"v c #19DDC7",
/* pixels */
"         3@                   ",
"         r-                   ",
"-sj%@yir rrj> 9sy 6r66ss$     ",
"87  -j x r3-i x s-s, j 93     ",
"1cy--s x r--s vrs s- ctj-     ",
"  69-s j r--s x   s- j        ",
"4rs1-vsi r%-s jri s- 9ir$     ",
" @@ -r         -      @@      ",
"    $6                        "
};
