/* XPM */
static char *comma_2160[] = {
/* columns rows colors chars-per-pixel */
"15 40 17 1 ",
"  c black",
". c #010101",
"X c #101010",
"o c #202020",
"O c gray25",
"+ c #606060",
"@ c gray44",
"# c #808080",
"$ c gray56",
"% c #909090",
"& c gray57",
"* c #9F9F9F",
"= c #A0A0A0",
"- c #DFDFDF",
"; c #EFEFEF",
": c #FEFEFE",
"> c white",
/* pixels */
"               ",
"               ",
"               ",
"               ",
"               ",
"               ",
"               ",
"               ",
"               ",
"               ",
"               ",
"               ",
"               ",
"               ",
"               ",
"               ",
"               ",
"               ",
"               ",
"               ",
"               ",
"               ",
"               ",
"               ",
"               ",
"               ",
"               ",
"     o$*$o     ",
"     %>>>%     ",
"     =>>>*     ",
"     #>>>@     ",
"      ;>>o     ",
"     O>>*      ",
"     *>-o      ",
"    o>>+       ",
"    X=*        ",
"               ",
"               ",
"               ",
"               "
};
