/* XPM */
static char *dot_2160[] = {
/* columns rows colors chars-per-pixel */
"15 40 12 1 ",
"  c black",
". c #010101",
"X c gray12",
"o c #202020",
"O c #505050",
"+ c #606060",
"@ c gray44",
"# c #808080",
"$ c gray56",
"% c #909090",
"& c #9F9F9F",
"* c white",
/* pixels */
"               ",
"               ",
"               ",
"               ",
"               ",
"               ",
"               ",
"               ",
"               ",
"               ",
"               ",
"               ",
"               ",
"               ",
"               ",
"               ",
"               ",
"               ",
"               ",
"               ",
"               ",
"               ",
"               ",
"               ",
"               ",
"               ",
"               ",
"     o%&$X     ",
"     %***%     ",
"     &***&     ",
"     #***+     ",
"      O@+      ",
"               ",
"               ",
"               ",
"               ",
"               ",
"               ",
"               ",
"               "
};
