/* XPM */
static char *minus_2160[] = {
/* columns rows colors chars-per-pixel */
"15 40 11 1 ",
"  c black",
". c #010101",
"X c #101010",
"o c gray12",
"O c #202020",
"+ c gray25",
"@ c #414141",
"# c #808080",
"$ c #818181",
"% c #FEFEFE",
"& c white",
/* pixels */
"               ",
"               ",
"               ",
"               ",
"               ",
"               ",
"               ",
"               ",
"               ",
"               ",
"               ",
"               ",
"               ",
"               ",
"               ",
"               ",
"               ",
"               ",
" O+++++++++++  ",
" $&&&&&&&&&&&  ",
" $&&&&&&&&&&&  ",
" XOOOOOOOOOOo  ",
"               ",
"               ",
"               ",
"               ",
"               ",
"               ",
"               ",
"               ",
"               ",
"               ",
"               ",
"               ",
"               ",
"               ",
"               ",
"               ",
"               ",
"               "
};
