/* XPM */
static char *pos_2160[] = {
/* columns rows colors chars-per-pixel */
"70 40 39 1 ",
"  c black",
". c #010101",
"X c gray6",
"o c #101010",
"O c #111111",
"+ c gray12",
"@ c #202020",
"# c gray13",
"$ c #2F2F2F",
"% c gray19",
"& c #3F3F3F",
"* c gray25",
"= c #414141",
"- c #505050",
"; c #5F5F5F",
": c #606060",
"> c gray38",
", c gray44",
"< c #717171",
"1 c gray50",
"2 c #808080",
"3 c gray56",
"4 c #909090",
"5 c gray62",
"6 c #9F9F9F",
"7 c #A0A0A0",
"8 c #AFAFAF",
"9 c gray69",
"0 c gray",
"q c gray75",
"w c #C0C0C0",
"e c #CECECE",
"r c gray81",
"t c #D0D0D0",
"y c #DFDFDF",
"u c gray88",
"i c #EFEFEF",
"p c #FEFEFE",
"a c white",
/* pixels */
"                                                                      ",
"                                                                      ",
"                                                                      ",
"                                                                      ",
"                                                                      ",
"                                                                      ",
"                                                                      ",
"                                                                      ",
"                                                                      ",
"                                                                      ",
"                                                                      ",
"   @*  X<3673*           *26662*           *<663<*                    ",
"   7a%1aaaaaaa3        %yaaaaaaay@        3aaaaaaay<                  ",
"   7ataayqqiaaa;      @yaairqqiaaio      3aaaaaaaaa<                  ",
"   7aaa*    2aaq      6aa2     4aa2     @aai*   %-2+     :63-         ",
"   7aa6     oaai      raa      oaay     <aa2            oaaai         ",
"   7aa:      yaao     aay       aaa     4aa:            @aaaa@        ",
"   7aa:      yaa@    @aay       yaa@    7aa:            oiaay         ",
"   7aa:      yaa&    @aay       yaa@    4aa<             *22*         ",
"   7aa:      yaa*    *aay       uaa@    <aay:%                        ",
"   7aa:      yaa*    *aay       yaa*    oiaaaaarq:@                   ",
"   7aa:      yaa*    *aay       yaa*     <aaaaaaaay@                  ",
"   7aa:      yaa*    *aay       yaa*      @<6qyaaaaq                  ",
"   7aa:      yaa%    %aay       yaa%           o2aaao                 ",
"   7aa:      uaa@    @aay       yaa@             iaa%                 ",
"   7aa:      yaao    @aay       uaao             waa*                 ",
"   7aa;      iai      aay       aaa              qaa*                 ",
"   7aa:     $aa9      qaao     @aaq              iaao    :66;         ",
"   7aar3<::3iaa:      2aa8%   *raa:     %2-%o  *8aaq    oaaai         ",
"   7aaaaaaaaaa4       oyaaaaaaaaayo     6aaaaaaaaai@    @aaaao        ",
"   7aa8riaau8*         @7aaaaaaaq@      -qaaaaaaar%     oiaay         ",
"   7aa@                  @-:2:-o          X*-:<:%        @<:%         ",
"   7aa@                                                               ",
"   7aa@                                                               ",
"   7aa@                                                               ",
"   7aa@                                                               ",
"   7aa@                                                               ",
"   2qqX                                                               ",
"                                                                      ",
"                                                                      "
};
