/* XPM */
static char *pos_600[] = {
/* columns rows colors chars-per-pixel */
"18 10 24 1 ",
"  c black",
". c #010101",
"X c #101010",
"o c gray12",
"O c #202020",
"+ c gray19",
"@ c gray25",
"# c #505050",
"$ c #606060",
"% c gray38",
"& c gray44",
"* c gray50",
"= c #808080",
"- c gray56",
"; c #909090",
": c gray57",
"> c #9F9F9F",
", c #AFAFAF",
"< c gray",
"1 c gray75",
"2 c gray81",
"3 c #D0D0D0",
"4 c gray87",
"5 c #DFDFDF",
/* pixels */
"                  ",
" $=-O O--o  *-@   ",
" 5O:& ,#+1 $&+O >+",
" 1 @> 1  5 =-X  $O",
" 1 @> 5  5 O:1&   ",
" 1 @: 1X 2    2   ",
" 5,1O &,>: &>,= 3#",
" 1     XO   XO  X ",
" ,                ",
"                  "
};
