/* XPM */
static char *rot_2160[] = {
/* columns rows colors chars-per-pixel */
"70 40 37 1 ",
"  c black",
". c #010101",
"X c gray6",
"o c #101010",
"O c #111111",
"+ c #202020",
"@ c gray13",
"# c gray19",
"$ c #313131",
"% c #3F3F3F",
"& c gray25",
"* c gray31",
"= c #505050",
"- c #606060",
"; c gray38",
": c #6F6F6F",
"> c gray44",
", c gray50",
"< c #808080",
"1 c #818181",
"2 c #8E8E8E",
"3 c gray56",
"4 c #909090",
"5 c gray62",
"6 c #9F9F9F",
"7 c #A0A0A0",
"8 c gray63",
"9 c #AFAFAF",
"0 c gray",
"q c gray75",
"w c #C0C0C0",
"e c gray81",
"r c #DFDFDF",
"t c gray88",
"y c #EFEFEF",
"u c #FEFEFE",
"i c white",
/* pixels */
"                                                                      ",
"                                                                      ",
"                                                                      ",
"                                                                      ",
"                                                                      ",
"                                                                      ",
"                                                                      ",
"                                                                      ",
"                                     6=                               ",
"                                    -i<                               ",
"                                    ri<                               ",
"   +&   O-36     O&<666<&         O:ii6&&&                            ",
"   7i# :yiit    #riiiiiiir+     #riiiiiiir                            ",
"   7i,qiiiiq   +yiiyeqqiiirO    &iiiiiiiir                            ",
"   7iiii4&X    6ii<     7ii<       7ii<       -63=                    ",
"   7iir+       riy      +iiq       7ii<      Oiiiy                    ",
"   7ii-       Oiie       iiy       7ii<      #iiii                    ",
"   7ii-       #iiq       iii       7ii<      Oiiir                    ",
"   7ii-       &iiq       iii+      7ii<       =,<#                    ",
"   7ii-       &iiq       iii+      7ii<                               ",
"   7ii-       &iiq       iii+      7ii<                               ",
"   7ii-       &iiq       iii+      7ii<                               ",
"   7ii-       &iiq       iii+      7ii<                               ",
"   7ii-       &iiq       iii+      7ii<                               ",
"   7ii-       &iiq       iii+      7ii<                               ",
"   7ii-       +iiq       iii       7ii<                               ",
"   7ii-       Oiir       iiy       7ii<                               ",
"   7ii-        riyO     #iiw       4ii<       -76=                    ",
"   7ii-        <ii9#   &eii-       <iiq      +iiiy                    ",
"   7ii-        Oriiiiiiiiir        %iiieq3   #iiii                    ",
"   7ii-         +7iiiiiii6O         7iiiir   Oiiir                    ",
"                  +*-,-*O            &->-+    #>-+                    ",
"                                                                      ",
"                                                                      ",
"                                                                      ",
"                                                                      ",
"                                                                      ",
"                                                                      ",
"                                                                      ",
"                                                                      "
};
