/* XPM */
static char *rot_800[] = {
/* columns rows colors chars-per-pixel */
"200 30 83 1 ",
"  c None",
". c white",
"X c white",
"o c white",
"O c white",
"+ c white",
"@ c white",
"# c white",
"$ c white",
"% c white",
"& c white",
"* c white",
"= c white",
"- c white",
"; c white",
": c white",
"> c white",
", c white",
"< c white",
"1 c white",
"2 c white",
"3 c white",
"4 c white",
"5 c white",
"6 c white",
"7 c white",
"8 c white",
"9 c white",
"0 c white",
"q c white",
"w c white",
"e c white",
"r c white",
"t c white",
"y c white",
"u c white",
"i c white",
"p c white",
"a c white",
"s c white",
"d c white",
"f c white",
"g c white",
"h c white",
"j c white",
"k c white",
"l c white",
"z c white",
"x c white",
"c c white",
"v c white",
"b c white",
"n c white",
"m c white",
"M c white",
"N c white",
"B c white",
"V c white",
"C c white",
"Z c white",
"A c white",
"S c white",
"D c white",
"F c white",
"G c white",
"H c white",
"J c white",
"K c white",
"L c white",
"P c white",
"I c white",
"U c white",
"Y c white",
"T c white",
"R c white",
"E c white",
"W c white",
"Q c white",
"! c white",
"~ c white",
"^ c white",
"/ c None",
"( c white",
/* pixels */
"                                                                                                                                                                                                        ",
"                                                                                                                                                                                                        ",
"                                                                                                                                                                                                        ",
"                                                                                                                                                                                                        ",
"                                                                                                                                                                                                        ",
"                                                                                                                                                                                                        ",
"        a~~EV3                                                                                                                                                                                          ",
"        aF&:aE%           3:                                                                                                                                                                            ",
"        aF  +~6           F4                                                                                                                                                                            ",
"        aF   ~w  +kEEV: :L~~m                                                                                                                                                                           ",
"        aF   ~8  yA<:kc  :~8% Vf                                                                                                                                                                        ",
"        aF  t~&  ci  0I  %~4  Jm                                                                                                                                                                        ",
"        a~E~~0   Vi  0~  %~4                                                                                                                                                                            ",
"        aF:e~%   Ai  0~  %~4                                                                                                                                                                            ",
"        aF +Ee   Vi  0~  %~4                                                                                                                                                                            ",
"        aF  fA   ci  0I  +~4                                                                                                                                                                            ",
"        aF  4~:  yA<:kc   ~0  cd                                                                                                                                                                        ",
"        aF   Lu  +kEEV:   fEf Jm                                                                                                                                                                        ",
"                                                                                                                                                                                                        ",
"                                                                                                                                                                                                        ",
"                                                                                                                                                                                                        ",
"                                                                                                                                                                                                        ",
"                                                                                                                                                                                                        ",
"                                                                                                                                                                                                        ",
"                                                                                                                                                                                                        ",
"                                                                                                                                                                                                        ",
"                                                                                                                                                                                                        ",
"                                                                                                                                                                                                        ",
"                                                                                                                                                                                                        ",
"                                                                                                                                                                                                        "
};
