/* XPM */
static char *rot_600[] = {
/* columns rows colors chars-per-pixel */
"200 30 51 1 ",
"  c None",
". c white",
"X c white",
"o c white",
"O c white",
"+ c white",
"@ c white",
"# c white",
"$ c white",
"% c white",
"& c white",
"* c white",
"= c white",
"- c white",
"; c white",
": c white",
"> c white",
", c white",
"< c white",
"1 c white",
"2 c white",
"3 c white",
"4 c white",
"5 c white",
"6 c white",
"7 c white",
"8 c white",
"9 c white",
"0 c white",
"q c white",
"w c white",
"e c white",
"r c white",
"t c white",
"y c white",
"u c white",
"i c white",
"p c white",
"a c white",
"s c white",
"d c white",
"f c white",
"g c white",
"h c white",
"j c white",
"k c white",
"l c white",
"z c white",
"x c white",
"c c white",
"v c None",
/* pixels */
"                                                                                                                                                                                                        ",
"                                                                                                                                                                                                        ",
"                                                                                                                                                                                                        ",
"                                                                                                                                                                                                        ",
"                                                                                                                                                                                                        ",
"                                                                                                                                                                                                        ",
"                                                                                                                                                                                                        ",
"         chhy                                                                                                                                                                                           ",
"         c& u1       :5                                                                                                                                                                                 ",
"         c& 78 2hhr :lc5                                                                                                                                                                                ",
"         c& 78 l@ h# w5 *d@                                                                                                                                                                             ",
"         c& a,#l  s- w5                                                                                                                                                                                 ",
"         chcu &l  s; w5                                                                                                                                                                                 ",
"         c&1u #l  s- w5                                                                                                                                                                                 ",
"         c& l* l@ h# 85                                                                                                                                                                                 ",
"         c& 8w 2hhr  >h1*d@                                                                                                                                                                             ",
"                                                                                                                                                                                                        ",
"                                                                                                                                                                                                        ",
"                                                                                                                                                                                                        ",
"                                                                                                                                                                                                        ",
"                                                                                                                                                                                                        ",
"                                                                                                                                                                                                        ",
"                                                                                                                                                                                                        ",
"                                                                                                                                                                                                        ",
"                                                                                                                                                                                                        ",
"                                                                                                                                                                                                        ",
"                                                                                                                                                                                                        ",
"                                                                                                                                                                                                        ",
"                                                                                                                                                                                                        ",
"                                                                                                                                                                                                        "
};
