/* XPM */
static char *bb35e26b3274472dcf17ce0cd232da9ckdIb1tS4xs7g0KLU[] = {
/* columns rows colors chars-per-pixel */
"199 600 256 2 ",
"   c #000304",
".  c #0B0202",
"X  c #010A05",
"o  c #0B0B03",
"O  c #000509",
"+  c #0B040B",
"@  c #000B0C",
"#  c #0A0B0C",
"$  c #130202",
"%  c #1B0203",
"&  c #160A07",
"*  c #011304",
"=  c #0B1303",
"-  c #011B03",
";  c #0B1B07",
":  c #00120D",
">  c #0B120C",
",  c #011B0C",
"<  c #161607",
"1  c #000413",
"2  c #000D12",
"3  c #0C0A14",
"4  c #00031B",
"5  c #000C1B",
"6  c #160916",
"7  c #001313",
"8  c #0C1313",
"9  c #001A14",
"0  c #00141A",
"q  c #001B1B",
"w  c #0C1918",
"e  c #121414",
"r  c #151718",
"t  c #151B1B",
"y  c #1A1D1D",
"u  c #260504",
"i  c #350404",
"p  c #261606",
"a  c #31100E",
"s  c #251815",
"d  c #022303",
"f  c #0A2707",
"g  c #022B03",
"h  c #02230C",
"j  c #022B0C",
"k  c #162606",
"l  c #023302",
"z  c #023B02",
"x  c #02330C",
"c  c #083909",
"v  c #17370F",
"b  c #012314",
"n  c #0B2717",
"m  c #022B14",
"M  c #01231B",
"N  c #012B1C",
"B  c #17261A",
"V  c #023314",
"C  c #0A3617",
"Z  c #023B13",
"A  c #02331C",
"S  c #023B1C",
"D  c #2B2E0E",
"F  c #000323",
"G  c #000C23",
"H  c #0B0C23",
"J  c #00032B",
"K  c #010C2B",
"L  c #001423",
"P  c #001C23",
"I  c #0B1A25",
"U  c #01142B",
"Y  c #001C2B",
"T  c #171C23",
"R  c #010736",
"E  c #001433",
"W  c #001C33",
"Q  c #0B1835",
"!  c #00143B",
"~  c #011C3B",
"^  c #151835",
"/  c #290F28",
"(  c #012323",
")  c #012B23",
"_  c #01232B",
"`  c #0A2728",
"'  c #012B2B",
"]  c #1C2323",
"[  c #172827",
"{  c #013324",
"}  c #023B24",
"|  c #01332B",
" . c #0A3728",
".. c #013B2B",
"X. c #012433",
"o. c #012C33",
"O. c #0A2934",
"+. c #01243B",
"@. c #012B3B",
"#. c #023333",
"$. c #023B33",
"%. c #02343B",
"&. c #0A3739",
"*. c #023B3C",
"=. c #173231",
"-. c #212324",
";. c #252827",
":. c #252B2B",
">. c #2A2C2D",
",. c #27352B",
"<. c #353329",
"1. c #282D32",
"2. c #2C3333",
"3. c #293837",
"4. c #323534",
"5. c #373A3A",
"6. c #363A3B",
"7. c #450A06",
"8. c #4B3415",
"9. c #024403",
"0. c #044807",
"q. c #164D0E",
"w. c #035604",
"e. c #044618",
"r. c #045717",
"t. c #2C4E0F",
"y. c #06620A",
"u. c #056417",
"i. c #044628",
"p. c #164E2E",
"a. c #055728",
"s. c #024334",
"d. c #02443C",
"f. c #054A38",
"g. c #045738",
"h. c #2F4A35",
"j. c #046428",
"k. c #066538",
"l. c #166633",
"z. c #2D652D",
"x. c #494E20",
"c. c #010946",
"v. c #011945",
"b. c #011653",
"n. c #012443",
"m. c #012C43",
"M. c #02284B",
"N. c #023443",
"B. c #033C43",
"V. c #03384B",
"C. c #19344A",
"Z. c #012A55",
"A. c #023856",
"S. c #333B44",
"D. c #163A64",
"F. c #442348",
"G. c #034344",
"H. c #064945",
"J. c #03444B",
"K. c #034C4C",
"L. c #164F4D",
"P. c #045846",
"I. c #03544C",
"U. c #034C53",
"Y. c #044858",
"T. c #055758",
"R. c #3D4343",
"E. c #3C4949",
"W. c #334F50",
"Q. c #046548",
"!. c #0F6D53",
"~. c #046558",
"^. c #356854",
"/. c #054963",
"(. c #055964",
"). c #355367",
"_. c #056666",
"`. c #076D74",
"'. c #35726D",
"]. c #454949",
"[. c #48514F",
"{. c #4B5656",
"}. c #525454",
"|. c #575A5A",
" X c #545C5B",
".X c #496856",
"XX c #56625C",
"oX c #676458",
"OX c #4D5A69",
"+X c #595D63",
"@X c #5D6363",
"#X c #596767",
"$X c #536F6F",
"%X c #666868",
"&X c #636C6B",
"*X c #66736C",
"=X c #6A6E71",
"-X c #6A7575",
";X c #757979",
":X c #866566",
">X c #338072",
",X c #5F8E61",
"<X c #528876",
"1X c #6D8976",
"2X c #828973",
"3X c #097984",
"4X c #317981",
"5X c #557387",
"6X c #6F7985",
"7X c #038A94",
"8X c #029BA6",
"9X c #0AADB8",
"0X c #7B8484",
"qX c #639790",
"wX c #6D9193",
"eX c #00B9C5",
"rX c #02D2DF",
"tX c #868989",
"yX c #899092",
"uX c #8C9595",
"iX c #969999",
"pX c #94A49B",
"aX c #A4A29D",
"sX c #939AA3",
"dX c #8DACAC",
"fX c #9BA4A4",
"gX c #A6A9A9",
"hX c #ABB0B0",
"jX c #ADB3B3",
"kX c #B2B4B4",
"lX c #B5B9B8",
"zX c #BBBCBD",
"xX c #9BC7B9",
"cX c #B3C3B7",
"vX c #C0C2BF",
"bX c #91ADC1",
"nX c #B7BBC2",
"mX c #BCC3C3",
"MX c #B5D1CA",
"NX c #C3C4C4",
"BX c #C8CBCB",
"VX c #CAD1CF",
"CX c #CCD3D3",
"ZX c #D2D4D4",
"AX c #D5D8D9",
"SX c #DBDCDC",
"DX c #DCE2DD",
"FX c #DCDDE1",
"GX c #DDE2E3",
"HX c #E3E4E4",
"JX c #E5E9E8",
"KX c #EBECEC",
"LX c #EEF1F0",
"PX c #F4F4F4",
"IX c #F7F8F8",
"UX c #FDFDFD",
/* pixels */
"O O O O O O O O O O O O O O O O O O O O O O O O O O O O O O O O O O O O O O O O O O O O O O O O O O O O O O O O O O O O O O O O O O O O O O O O O O O O O O O O O O O O O O O O O O O O O O O O O O O O O O O O O O O O O O O O O O O O O O O O O O O O O O O O O O O O O O O O O O O O O O O O O O O O O O O O O O O O O O O O O O O O O O O O O O O O O O O O O O O O O O O O O O O O O O O O O O O O O O O ",
"O O O O O O O O O O O O O O O O O O O O O O O O O O O O O O O O O O O O O O O O O O O O O O O O O O O O O O O O O O O O O O O O O O O O O O O O O O O O O O O O O O O O O O O O O O O O O O O O O O O O O O O O O O O O O O O O O O O O O O O O O O O O O O O O O O O O O O O O O O O O O O O O O O O O O O O O O O O O O O O O O O O O O   O O O O O O O O O O O O O O O O O O O O O O O O O O O O O O O O O ",
"O O O O O O O O O O O O O O O O O O O O O O O O O O O O O O O O O O O O O O O O O O O O O O O O O O O O O O O O O O O O O O O O O O O O O O O O O O O O O O O O O O O O O O O O O O O O O O O O O O O O O O O O O O O O O O O O O O O O O O O O O O O O O O O O O O O O O O O O O O O O O O O O O O O O O O O O O O O O O O O O O O O O O O O O O O O O O O O O O O O O O O O O O O O O O O O O O O O O O O O ",
"O O O O O O O O O O O O O O O O O O O O O O O O O O O O O O O O O O O O O O O O O O O O O O O O O O O O O O O O O O O O O O O O O O O O O O O O O O O O O O O O O O O O O O O O O O O O O O O O O O O O O O O O O O O O O O O O O O O O O O O O O O O O O O O O O O O O O O O O O O O O O O O O O O O O O O   O O O O O O O O O O O O O O O O O O O O O O O O O O O O O O O O O O O O O O O O O O O O O O     ",
"O O O O O O O O O O O O O O O O O O O O O O O O O O O O O O O O O O O O O O O O O O O O O O O O O O O O O O O O O O O O O O O O O O O O O O O O O O O O O O O O O O O O O O O O O O O O O O O O O O O O O O O O O O O O O O O O O O O O O O O O O O O O O O O O O O O O O O O O O O O O O O O O O O O O O O O O O O O O O O O O O O O O O O O O O O O O O O O O O O O O O O O O O O O O O O   O O O       O O ",
"O O O O O O O O O O O O O O O O O O O O O O O O O O O O O O O O O O O O O O O O O O O O O O O O O O O O O O O O O O O O O O O O O O O O O O O O O O O O O O O O O O O O O O O O O O O O O O O O O O O O O O O O O O O O O O O O O O O O O O O O O O O O O O O O O O O O O O O O O O O O O O O O O O O O O O O O O O O O O O O O O O O O O O O O O O O O O O O O O O O O O O O O O O O O O O   O O     O O O O ",
"O O O O O O O O O O O O O O O O O O O O O O O O O O O O O O O O O O O O O O O O O O O O O O O O O O O O O O O O O O O O O O O O O O O O O O O O O O O O O O O O O O O O O O O O O O O O O O O O O O O O O O O O O O O O O O O O O O O O O O O O O O O O O O O O O O O O O O O O O O O O O O O O O O O O O O O O O O O O O O O O O O O O O O O O O O O O O O O O O O O O O O O O O O O O O O   O O O O O O O O ",
"O O O O O O O O O O O O O O O O O O O O O O O O O O O O O O O O O O O O O O O O O O O O O O O O O O O O O O O O O O O O O O O O O O O O O O O O O O O O O O O O O O O O O O O O O O O O O O O O O O O O O O O O O O O O O O O O O O O O O O O O O O O O O O O O O O O O O O O O O O O O O O O O O O O O O O O O O O O O O O O O O O O O O O O O O O O O O O O O O O O O O O O O O O O O O O   O O O O O O O O ",
"O O O O O O O O O O O O O O O O O O O O O O O O O O O O O O O O O O O O O O O O O O O O O O O O O O O O O O O O O O O O O O O O O O O O O O O O O O O O O O O O O O O O O O O O O O O O O O O O O O O O O O O O O O O O O O O O O O O O O O O O O O O O O O O O O O O O O O O O O O O O O O O O O O O O O O O O O O O O O O O O O O O O O O O O O O O O O O O O O O O O O O O O   O O     O   O O O O O O O O ",
"O O O O O O O O O O O O O O O O O O O O O O O O O O O O O O O O O O O O O O O O O O O O O O O O O O O O O O O O O O O O O O O O O O O O O O O O O O O O O O O O O O O O O O O O O O O O O O O O O O O O O O O O O O O O O O O O O O O O O O O O O O O O O O O O O O O O O O O O O O O O O O O O O O O O O O O O O O O O O O O O O O O O O O O O O O O O O O O O O O O O O O O O O O O O O O O O O O O O O O O ",
"O O O O O O O O O O O O O O O O O O O O O O O O O O O O O O O O O O O O O O O O O O O O O O O O O O O O O O O O O O O O O O O O O O O O O O O O O O O O O O O O O O O O O O O O O O O O O O O O O O O O O O O O O O O O O O O O O O O O O O O O O O O O O O O O O O O O O O O O O O O O O O O O O O O O O O O O O O O O O O O O O O O O O O O O O O O O O O O O O O O O O O O O O O O O O O O O O O O O O O O ",
"O O O O O O O O O O O O O O O O O O O O O O O O O O O O O O O O O O O O O O O O O O O O O O O O O O O O O O O O O O O O O O O O O O O O O O O O O O O O O O O O O O O O O O O O O O O O O O O O O O O O O O O O O O O O O O O O O O O O O O O O O O O O O O O O O O O O O O O O O O O O O O O O O O O O O O O O O O O O O O O O O O O O O O O O O O O O O O O O O O O O O O O O O O O O O O O O O O O O O O O ",
"O O O O O O O O O O O O O O O O O O O O O O O O O O O O O O O O O O O O O O O O O O O O O O O O O O O O O O O O O O O O O O O O O O O O O O O O O O O O O O O O O O O O O O O O O O O O O O O O O O O O O O O O O O O O O O O O O O O O O O O O O O O O O O O O O O O O O O O O O O O O O O O O O O O O O O O O O O O O O O O O O O O O O O O O O O O O O O O O O O O O O O O O O O O O O O O O O O O O O   O ",
"O O O O O O O O O O O O O O O O O O O O O O O O O O O O O O O O O O O O O O O O O O O O O O O O O O O O O O O O O O O O O O O O O O O O O O O O O O O O O O O O O O O O O O O O O O O O O O O O O O O O O O O O O O O O O O O O O O O O O O O O O O O O O O O O O O O O O O O O O O O O O O O O O O O O O O O O O O O O O O O O O O O O O O O O O O O O O O O O O O O O O O   O O   O O O O O O O   O O O O O ",
"O O O O O O O O O O O O O O O O O O O O O O O O O O O O O O O O O O O O O O O O O O O O O O O O O O O O O O O O O O O O O O O O O O O O O O O O O O O O O O O O O O O O O O O O O O O O O O O O O O O O O O O O O O O O O O O O O O O O O O O O O O O O O O O O O O O O O O O O O O O O O O O O O O O O O O O O O O O O O O O O O O O O O O O O O O O O O O O O O O O O O   O O O O O O O O O O O O O O O O O ",
"O O O O O O O O O O O O O O O O O O O O O O O O O O O O O O O O O O O O O O O O O O O O O O O O O O O O O O O O O O O O O O O O O O O O O O O O O O O O O O O O O O O O O O O O O O O O O O O O O O O O O O O O O O O O O O O O O O O O O O O O O O O O O O O O O O O O O O O O O O O O O O O O O O O O O O O O O O O O O O O O O O O O O O O O O O O O O O O O O O O O O   O O O   O O O O O O O O O O O O O ",
"O O O O O O O O O O O O O O O O O O O O O O O O O O O O O O O O O O O O O O O O O O O O O O O O O O O O O O O O O O O O O O O O O O O O O O O O O O O O O O O O O O O O O O O O O O O O O O O O O O O O O O O O O O O O O O O O O O O O O O O O O O O O O O O O O O O O O O O O O O O O O O O O O O O O O O O O O O O O O O O O O O O O O O O O O O O O O O O O O O O O O O O O O O O O O O O O O O O   O O O ",
"O O O O O O O O O O O O O O O O O O O O O O O O O O O O O O O O O O O O O O O O O O O O O O O O O O O O O O O O O O O O O O O O O O O O O O O O O O O O O O O O O O O O O O O O O O O O O O O O O O O O O O O O O O O O O O O O O O O O O O O O O O O O O O O O O O O O O O O O O O O O O O O O O O O O O O O O O O O O O O O O O O O O O O O O O O O O O O O O O O O O O     O   O O O O O O O O O O O O O O ",
"O O O O O O O O O O O O O O O O O O O O O O O O O O O O O O O O O O O O O O O O O O O O O O O O O O O O O O O O O O O O O O O O O O O O O O O O O O O O O O O O O O O O O O O O O O O O O O O O O O O O O O O O O O O O O O O O O O O O O O O O O O O O O O O O O O O O O O O O O O O O O O O O O O O O O O O O O O O O O O O O O O O O O O O O O O O O O O O O O O O O O O   O O O O     O O O O O O O O O O ",
"O O O O O O O O O O O O O O O O O O O O O O O O O O O O O O O O O O O O O O O O O O O O O O O O O O O O O O O O O O O O O O O O O O O O O O O O O O O O O O O O O O O O O O O O O O O O O O O O O O O O O O O O O O O O O O O O O O O O O O O O O O O O O O O O O O O O O O O O O O O O O O O O O O O O O O O O O O O O O O O O O O O O O O O O O O O O O O O O O O O O O O O O O O O O O O O O O O O O O O O ",
"O O O O O O O O O O O O O O O O O O O O O O O O O O O O O O O O O O O O O O O O O O O O O O O O O O O O O O O O O O O O O O O O O O O O O O O O O O O O O O O O O O O O O O O O O O O O O O O O O O O O O O O O O O O O O O O O O O O O O O O O O O O O O O O O O O O O O O O O O O O O O O O O O O O O O O O O O O O O O O O O O O O O O O O O O O O O O O O O O O O O O O O O O O O O O O O O O O O O O O O ",
"O O O O O O O O O O O O O O O O O O O O O O O O O O O O O O O O O O O O O O O O O O O O O O O O O O O O O O O O O O O O O O O O O O O O O O O O O O O O O O O O O O O O O O O O O O O O O O O O O O O O O O O O O O O O O O O O O O O O O O O O O O O O O O O O O O O O O O O O O O O O O O O O O O O O O O O O O O O O O O O O O O O O O O O O O O O O O O O O O O O O O O O O O O O O O O O O O O O O O O O ",
"O O O O O O O O O O O O O O O O O O O O O O O O O O O O O O O O O O O O O O O O O O O O O O O O O O O O O O O O O O O O O O O O O O O O O O O O O O O O O O O O O O O O O O O O O O O O O O O O O O O O O O O O O O O O O O O O O O O O O O O O O O O O O O O O O O O O O O O O O O O O O O O O O O O O O O O O O O O O O O O O O O O O O O O O O O O O O O O O O O O O O O O O O O O O O O O O O O O O O O O ",
"O O O O O O O O O O O O O O O O O O O O O O O O O O O O O O O O O O O O O O O O O O O O O O O O O O O O O O O O O O O O O O O O O O O O O O O O O O O O O O O O O O O O O O O O O O O O O O O O O O O O O O O O O O O O O O O O O O O O O O O O O O O O O O O O O O O O O O O O O O O O O O O O O O O O O O O O O O O O O O O O O O O O O O O O O O O O O O O O O O O O O O O O O O O O O O O O O O O O O O O ",
"O O O O O O O O O O O O O O O O O O O O O O O O O O O O O O O O O O O O O O O O O O O O O O O O O O O O O O O O O O O O O O O O O O O O O O O O O O O O O O O O O O O O O O O O O O O O O O O O O O O O O O O O O O O O O O O O O O O O O O O O O O O O O O O O O O O O O O O O O O O O O O O O O O O O O O O O O O O O O O O O O O O O O O O O O O O O O O O O O O O O O O O O O O O O O O O O O O O O O O O ",
"O O O O O O O O O O O O O O O O O O O O O O O O O O O O O O O O O O O O O O O O O O O O O O O O O O O O O O O O O O O O O O O O O O O O O O O O O O O O O O O O O O O O O O O O O O O O O O O O O O O O O O O O O O O O O O O O O O O O O O O O O O O O O O O O O O O O O O O O O O O O O O O O O O O O O O O O O O O O O O O O O O O O O O O O O O O O O O O O O O O O O O O O O O O O O O O O O O O O O O O ",
"O O O O O O O O O O O O O O O O O O O O O O O O O O O O O O O O O O O O O O O O O O O O O O O O O O O O O O O O O O O O O O O O O O O O O O O O O O O O O O O O O O O O O O O O O O O O O O O O O O O O O O O O O O O O O O O O O O O O O O O O O O O O O O O O O O O O O O O O O O O O O O O O O O O O O O O O O O O O O O O O O O O O O O O O O O O O O O O O O O O O O O O O O O O O O O O O O O O O O O O ",
"O O O O O O O O O O O O O O O O O O O O O O O O O O O O O O O O O O O O O O O O O O O O O O O O   q q q q q P 7 O O O O O O O @   _ P P P P P P 7 O O O O O O O O O O O O O O O O O O O O O O O O O O O O O O O O O O O O O O O O O O O O O O O O O O O O O O O O O O O O O O O O O O O O O O O O O O O O O O O O O O O O O O O O O O O O O O O O O O O O O O O O O O O O O O O O O O O O O O O O O O O O O O ",
"O O O O O O O O O O O O O O O O O O O O O O O O O O O O O O O O O O O O O O O O O O O O O O O   7XrX9X9X9X9X9XrX&.O O O O O O   3X' %.` o.` %.o.P O O O O O O O O O O O O O O O O O O O O O O O O O O O O O O O O O O O O O O O O O O O O O O O O O O O O O O O O O O O O O O O O O O O O O O O O O O O O O O O O O O O O O O O O O O O O O O O O O O O O O O O O O O O O O O O O O O O O O O O O O O O O O O ",
"O O O O O O O O O O O O O O O O O O O O O O O O O O O O O O O O O O O O O O O O O O O O O   2 8 O.O @ 2 2 2 @   _ I O   O O   7X  7X3XL.3XL.7XL.L.  O O O O O O O O O O O O O O O O O O O O O O O O O O O O O O O O O O O O O O O O O O O O O O O O O O O O O O O O O O O O O O O O O O O O O O O O O O O O O O O O O O O O O O O O O O O O O O O O O O O O O O O O O O O O O O O O O O O O O O O O O O O O O ",
"O O O O O O O O O O O O O O O O O O O O O O O O O O O O O O O O O O O O O O O O O O O   B.T.(.%.( q 8 @ 2 O 8 q _ G.(.T.`   `.O O o.%.%.B.' o.2 @ O O O O O O O O O O O O O O O O O O O O O O O O O O O O O O O O O O O O O O O O O O O O O O O O O O O O O O O O O O O O O O O O O O O O O O O O O O O O O O O O O O O O O O O O O O O O O O O O O O O O O O O O O O O O O O O O O O O O O O O O O O O O O O ",
"O O O O O O O O O O O O O O O O O O O O O O O O O O O O O O O O O O O O O O O O O   J._.G.@ O P &.B.G.J.%.J.H.G.%.7   2 U._._     4X4X4XL.O._ ` 0 O O O O O O O O O O O O O O O O O O O O O O O O O O O O O O O O O O O O O O O O O O O O O O O O O O O O O O O O O O O O O O O O O O O O O O O O O O O O O O O O O O O O O O O O O O O O O O O O O O O O O O O O O O O O O O O O O O O O O O O O O O O O O O ",
"O O O O O O O O O O O O O O O O O O O O O O O O O O O O O O O O O O O O O O O O P `.B.O @ K.G.q O       @ O O 0 P J.T.J.  2 U.`.2                 O O O O O O O O O O O O O O O O O O O O O O O O O O O O O O O O O O O O O O O O O O O O O O O O O O O O O O O O O O O O O O O O O O O O O O O O O O O O O O O O O O O O O O O O O O O O O O O O O O O O O O O O O O O O O O O O O O O O O O O O O O   O O O ",
"O O O O O O O O O O O O O O O O O O O O O O O O O O O O O O O O O O O O O     U.T.7 O T.%.    O O 7 q q P _ o.( ` ` O.w (.U.  P _.` O   O O O O O O O O O O O O O O O O O O O O O O O O O O O O O O O O O O O O O O O O O O O O O O O O O O O O O O O O O O O O O O O O O O O O O O O O O O O O O O O O O O O O O O O O O O O O O O O O O O O O O O O O O O O O O O O O O O O O O O O O O O O O O O O O O O O ",
"O O O O O O O O O O O O O O O O O O O O O O O O O O O O O O O O O O O O _ J._.#.2 T.B.    O 7 0 q 7 @ 2 0 q ( o.&.` ` O.` ` _.*.2 J.*.`.O O O O O O O O O O O O O O O O O O O O O O O O O O O O O O O O O O O O O O O O O O O O O O O O O O O O O O O O O O O O O O O O O O O O O O O O O O O O O O O O O O O O O O O O O O O O O O O O O O O O O O O O O O O O O O O O O O O O O O O O O O O O O O O O O O O ",
"O O O O O O O O O O O O O O O O O O O O O O O O O O O O O O O O O O O O   _.o.@ 7X@ O   P P q 0 ( o.#.' o.%.J.J.J.O.` O.O.` ` B.3XO J.B.O O O O O O O O O O O O O O O O O O O O O O O O O O O O O O O O O O O O O O O O O O O O O O O O O O O O O O O O O O O O O O O O O O O O O O O O O O O O O O O O O O O O O O O O O O O O O O O O O O O O O O O O O O O O O O O O O O O O O O O O O O O O O O O O O O O ",
"O O O O O O O O O O O O O O O O O O O O O O O O O O O O O O O O O O O   (.o.2 7X  O 2 ( q q #.o.( 0 0 q ( _ o.%.K.B.&.` O.O.O.*.` 7XO J.%.O O O O O O O O O O O O O O O O O O O O O O O O O O O O O O O O O O O O O O O O O O O O O O O O O O O O O O O O O O O O O O O O O O O O O O O O O O O O O O O O O O O O O O O O O O O O O O O O O O O O O O O O O O O O O O O O O O O O O O O O O O O O O O O   O O ",
"O O O O O O O O O O O O O O O O O O O O O O O O O O O O O O O O O O O %.J.O 7X    0 q 2 o.' 7 0 q 0 7 0 P _ ` %.&.&.( B.&.` O.O.B.` 7XO (.0 O O O O O O O O O O O O O O O O O O O O O O O O O O O O O O O O O O O O O O O O O O O O O O O O O O O O O O O O O O O O O O O O O O O O O O O O O O O O O O O O O O O O O O O O O O O O O O O O O O O O O O O O O O O O O O O O O O O O O O O O O O O O O O O O O ",
"O O O O O O O O O O O O O O O O O O O O O O O O O O O O O O O O O O @ _.O 7X    0 0 2 %.7 0 0 7 _ ' ' _ ' %.J.J.J.O.` ` O.J.` &.#.%.G._.2 `.  O O O O O O O O O O O O O O O O O O O O O O O O O O O O O O O O O O O O O O O O O O O O O O O O O O O O O O O O O O O O O O O O O O O O O O O O O O O O O O O O O O O O O O O O O O O O O O O O O O O O O O O O O O O O O O O O O O O O O O O O O O O O O   O O ",
"O O O O O O O O O O O O O O O O O O O O O O O O O O O O O O O O O   _.( ( (   0 P q *.7 P 7 #.#.P 0 q P q o.#.&.J.G.&.` O.` U.o.%.G.#.`.O %.U.  O O O O O O O O O O O O O O O O O O O O O O O O O O O O O O O O O O O O O O O O O O O O O O O O O O O O O O O O O O O O O O O O O O O O O O O O O O O O O O O O O O O O O O O O O O O O O O O O O O O O O O O O O O O O O O O O O O O O O O O O O O O O O O O ",
"O O O O O O O O O O O O O O O O O O O O O O O O O O O O O O O O O ( T.  T.  @ ( 0 *.7 q 0 *.0 q q 7 P 7 @ q %.&.G.I O.J.` #.o.U.o.T.B.o.`.O `.O O O O O O O O O O O O O O O O O O O O O O O O O O O O O O O O O O O O O O O O O O O O O O O O O O O O O O O O O O O O O O O O O O O O O O O O O O O O O O O O O O O O O O O O O O O O O O O O O O O O O O O O O O O O O O O O O O O O O O O O O O O O O O O O ",
"O O O O O O O O O O O O O O O O O O O O O O O O O O O O O O O O   (.0 B.@ @ q @ #.@ 0 7 #.@ 0 @ ( o.0 O 2 ( ' G.&.` O.` U.o.%.*.T.K.U.J.(.7 o.U.O O O O O O O O O O O O O O O O O O O O O O O O O O O O O O O O O O O O O O O O O O O O O O O O O O O O O O O O O O O O O O O O O O O O O O O O O O O O O O O O O O O O O O O O O O O O O O O O O O O O O O O O O O O O O O O O O O O O O O O O O O O O O O O ",
"O O O O O O O O O O O O O O O O O O O O O O O O O O O O O O O O P (.  U.O   0 _ q q 7 %.2 0 0 B.7       @ q ` ( O.J.` &._ T.B.U.(.T.T.J.B._.O `.  O O O O O O O O O O O O O O O O O O O O O O O O O O O O O O O O O O O O O O O O O O O O O O O O O O O O O O O O O O O O O O O O O O O O O O O O O O O O O O O O O O O O O O O O O O O O O O O O O O O O O O O O O O O O O O O O O O O O O O O O O O O O O O ",
"O O O O O O O O O O O O O O O O O O O O O O O O O O O O O O O   rX@ _ q     q %.0 0 *.7 q ( o.      O 7 q ` ` ` O.` U.O.U.U._.T.U._.T.(.U.3XO O.9X  O O O O O O O O O O O O O O O O O O O O O O O O O O O O O O O O O O O O O O O O O O O O O O O O O O O O O O O O O O O O O O O O O O O O O O O O O O O O O O O O O O O O O O O O O O O O O O O O O O O O O O O O O O O O O O O O O O O O O O O O O O O O O ",
"O O O O O O O O O O O O O O O O O O O O O O O O O O O O O O O   `.O K.    7 ( q q P P q 0 (     O ( 7   O ( &.G.` %.` _.J.U._.T.T._.(._.T.T.%.2 _.  O O O O O O O O       O O O O     O O O O O       O O O       O O O     O O O       O O O   O O O O O       O O O O O O O     O O O     O O   O O O   O O O     O O O O O       O O O O O O O O O O O O O O O O O O O O O O O O O O O O O O O O O O O O O ",
"O O O O O O O O O O O O O O O O O O O O O O O O O O O O O O O   ` O B.O @ 7 ' @ 2 ' @ 2 #.    O P       O ` O.` U.#.*.G.(.U.T._.T.T.`.(.(.T._.2 0   O O O O O O @   uXZX;X  O O e mXVX5.  O r # +XAX[.  O # %X;X|.  O r @XBXO @   iXZXtX  O   |.# O O O O kXVX].  O O O O O t NXNX-.O O ;.5.    @XO O 8 }.    4.=X;X4.  O O # lXZX5.  O O O O O O O O O O O O O O O O O O O O O O O O O O O O O O O O O O O O ",
"O O O O O O O O O O O O O O O O O O O O O O O O O O O O O O O O ` 8 o.  P 0 ' q q ' q q ' @   (       @ _ ` ` O.%.U.*.(.`.(.(.`._._.`.`.`.(.3XO 0 O O O O O O O   lXhXr zXiX    UXS.;.IX:.O y UXhXr PX>.  ;.UX&X=X  O IXgX}.HX  NXiXr kXkX    PXT O O   UX|.-.IX:.O O O O O UX4.4.UX#   ;XkX    UX# O >.KX    NXhX=XKX-X    UX}.-.IX>.O O O O O O O O O O O O O O O O O O O O O O O O O O O O O O O O O O O O ",
"O O O O O O O O O O O O O O O O O O O O O O O O O O O O O O O   _ P 0 O ( ( _ q ' ( q o.0 P q       #.T.T.7XB.&.B.K._._.`.`.`.`.`.`.3X`.`._.7XO P O O O O O O O   PXe O >.HX  -.HX    iX-X  r PX    gX%X  -.HX  O O   UX  8 UX  IX# O r PX    KXy O O # UX    kX=X  O O O ] HX    HX5.  =XgX    IX# O -.HX    mX].  -.HX  # UX    iX;X  O O O O O O O O O O O O O O O O O O O O O O O O O O O O O O O O O O O ",
"O O O O O O O O O O O O O O O O O O O O O O O O O O O O O O O   O.` @ O 0 P q 7 _ 7 2 ' 2 7 q     @ *.(.`.U.7X%.U.U.`._.`.3X`.`.3X`.3X`.`.`.7X@ O.O O O O O O O   KXy O ] tX  y KX    gX=X  r PX    kX+X  -.HX  O O   UX  O     PXr O T KX    KXy O O   SX;X  ].;.O O O O y KX  O   O   =XgX    IX# O -.HX    vX[.  2.SX  X UX    iX=X  O O O O O O O O O O O O O O O O O O O O O O O O O O O O O O O O O O O ",
"O O O O O O O O O O O O O O O O O O O O O O O O O O O O O O O   O.=.O O q _ q 0 ' 0 0 ' 0 0 o.    q B.7 K.3X7X7X_._.3X3X3X7X3X3X7X3X7X3X3X`.7Xw O.O O O O O O O   KXy O O   O y KX    gX=X  r PX    kX+X  -.HX  O O   UX  O O   PXr O T KX    KXy O O O   PX=X  O O O O O y KX  r e O   =XgX    IX#   -.HX    vX[.  2.SX  O UXlXlXPX=X  O O O O O O O O O O O O O O O O O O O O O O O O O O O O O O O O O O O ",
"O O O O O O O O O O O O O O O O O O O O O O O O O O O O O O O   O.=.O O P _ q q ' 0 0 o.0 q o.  @ ' *._ o.`.9XeX7X3X7X3X7X7X7X7X7X7X7X7X7X`.7X8 O.O O O O O O O   KXy O O O O y KX    gX=X  r PX    kX+X  -.HX    O   UX  O O   PXr O T KX    KXy O O O     PXtX  O O O O y KXe KXUX2.  =XgX    IX#   ;.HX    vX[.  2.SX  O UX-.4.2.8 O O O O O O O O O O O O O O O O O O O O O O O O O O O O O O O O O O O O ",
"O O O O O O O O O O O O O O O O O O O O O O O O O O O O O O O   O.` @ O ( _ ( q o.q q o.0 q 7 7 P q o.U.*.#.@ 7 (.8XeX8X7X7X8X8X7X8X7X7X7X3X8X@ O.O O O O O O O   KXy O O # O y KX    gX=X  r PX    kX+X  -.HX  AXe   UX  O O   PXr O T KX    KXy O O   yX    PX5.O O O O y KX    ZX2.  =XgX    IX#   ;.HX    zX[.  2.SX  X UX  O # O O O O O O O O O O O O O O   O O O O O O O O O O O O O O O O O O O O O O ",
"O O O O O O O O O O O O O O O O O O O O O O O O O O O O O O O   _ P 0   0 0 P 7 P 0 7 ( 7 O q 7 7 @ O 2 O O         ( `.eXeX8X8X8X8X8X8X7X7X8X  P O O O O O O O   PXe   2.KX  ] HX    iX-X  r PX    kX|.  :.SX  LXy O UX  O O   IX# O e PX    KXr     O UX  O |.gX  O O O -.HX    SX>.  ;XiX    UX# O ;.HX    NX].  -.HX  # UX    gXtX  O O O O O O O O O O O O O O O O O O O O O O O O O O O O O O O O O O O ",
"O O O O O O O O O O O O O O O O O O O O O O O O O O O O O O O O ` 2 o.  P 0 o.q q o.q q o.O   *.0 O               ( 0 @ q *.7XrX9X8X8X8X8X7X8XO 8 O O O O O O O   gXzX>.CXtX    UX|.R.UX-.O t UX    nX%X  8 UX4.UXO O UX  O O   kXkX4.NXhX    KXgXfX=X  PX;X4.PXR.  O O O # UX5.gXIX5.  >.IX>.ZXIXe O >.KX    NXNXtXIX|.    PX;X5.UX-.O O O O O O O O O O O O O O O O O O O O O O O O O O O O O O O O O O O O ",
"O O O O O O O O O O O O O O O O O O O O O O O O O O O O O O O   O.O B.O 7 0 #.7 0 #.7 0 #.    P %.7 q q ( q     ' O q O 7 0 O q T.8XrX9X8X8X3X@ I   O O O O O O O   =XlX+X  O O # gXhX-.  O O ].    2.t O   >.zX-.O O ].  O O O   =XkX%X  X   4.}.}.5.    iXkX5.    O O O O y lX@X  y O   5.zX5.# # O # S.    :.}.|.T   O O   iXkX>.  O O O O O O O O O O O O O O O O O O O O O O O O O O O O O O O O O O O O ",
"O O O O O O O O O O O O O O O O O O O O O O O O O O O O O O O   `.O K.  @ q ( ( q P _ q   _   q 0 %._ P 7 O q P       '     #.0 7 2 q _.9XrX` 2 `.  O O O O O O O O       O O O O     O O O           O O O       O O   O                                                         O O O O     O O O O O O O O O     O O O O O     O O O O O O O O O O O O O O O O O O O O O O O O O O O O O O O O O O O O O O ",
"O O O O O O O O O O O O O O O O O O O O O O O O O O O O O O O   rX8 P P   q @ o.@ @ o.2   O o.@ 0 2 0 q 2 2         '     q ( 7 @ ' 7 @   U.O B.8X  O O O O O O O O O O         O   O O               X X                 X X                               O O               O O O O O O O O O O O O O O O O O O O O O O O O O O O O O O O O O O O O O O O O O O O O O O O O O O O O O O O O O O O O O O O O ",
"O O O O O O O O O O O O O O O O O O O O O O O O O O O O O O O @ @ `.  U.  7 q ( ( q 7 G.    @ *.( 0 q 0     O   @ P       _ 7 q o.q _ O   U.O `.  O O O O O O O O O                 X @               X X             X X X X                       .       O O                 O O   O O O O O O O O O O O O O O O O O O O O O O O O O O O O O O O O O O O O O O O O O O O O O O O O O O O O O O O O O O O O ",
"O O O O O O O O O O O O O O O O O O O O O O O O O O O O O O O O   T.q %.2 O ( 0 %.0 ( @ _   @ q _ #.o.' O o.#.%.P 7 O   ( 7 P P o.P O O ' q %.J.O O O O       O                       @               .           .     . . . .   . . .           . .       O O       .         X         O O O O O O O O O O O O O O O O O O O O O O O O O O O O O O O O O O O O O O O O O O O O O O O O O O O O O O O O O O ",
"O O O O O O O O O O O O O O O O O O O O O O O O O O O O O O O O O P (.O (.  O 7 @ %.2 @   _ q @ 0 7 7 q q q 2 7 0 @ ( #.@ q 2 #.@ q O   T.O _.  O             *   O               . . # O           . $ $ .     . . . . . . $ .   . . .           . .                 . .               X   X O     O O O O O O O O O O O O O O O O O O O O O O O O O O O O O O O O O O O O O O O O O O O O O O O O O O O O O ",
"O O O O O O O O O O O O O O O O O O O O O O O O O O O O O O O O O   (._ q %.O   q 0 #.  O   0 #.P O 0 0 0 0 7 7 ( #.( 7 q 7 *.7 P O   T.  B.J.O O O O         q 1 4 1 O         O . . 8 1 O     O O   $ .           . . . . .                               o                     .     X X X         O O O O O O O O O O O O O O O O O O O O O O O O O O O O O O O O O O O O O O O O O O O O O O O O O O O O ",
"O O O O O O O O O O O O O O O O O O O O O O O O O O O O O O O O O O O _.2 7XO O       ' O     0 ' ( #.' ' ' o.o.( 0 q 0 ( %.7 P @   ( T.7 `.  1 1 1 O O       0 4 4 O O               : 2       O O       O O O O O O                                       .   O O O     O   . . .   . . X *             O O O O O O O O O O O O O O O O O O O O O O O O O O O O O O O O O O O O O O O O O O O O O O O O O O ",
"O O O O O O O O O O O O O O O O O O O O O O O O O O O O O O O O O O O o.J.O 7X  O       0 q   0 q @ 0 0 0 0 7 0 q 7 q #.( 7 P @ O : 3XO (.7 @ @ O 1 O   O O   @ 7 @ X                 X ,       O O       O 4 O 1 1 O                     O       O       O +   1 F O       O .       $ $ . o               O O O O O O O O O O O O O O O O O O O O O O O O O O O O O O O O O O O O O O O O O O O O O O O O O ",
"O O O O O O O O O O O O O O O O O O O O O O O O O O O O O O O O O O O   T.*.@ 7X  @         q o.q O @ 2 2 2 @ 7 P ' ( O 0 q O O 7 7XO T._   X 7 @ 7 2 O O O O 7 q 9 :                 X h               O O F 1 O O O         O O         O O O O O       1 + O J R O       1         . . . $           X   O @ O       O O O O O O O O O O O O O O O O O O O O O O O O O O O O O O O O O O O O O O O O O O O ",
"O O O O O O O O O O O O O O O O O O O O O O O O O O O O O O O O O O O O O T.%.O 7Xq O         @ ( 0 7 ' ' ' #.' q 0 q ( 0   O #.`.O K.#.O   X 8 @ 7 5 O O O O @ > > o                   =   O           O   U O : : O O O   O O O O O O O O O   O O       O O O 0 L O     O O             . $       . . .   * * X     X O   O O O O O O O O O O O O O O O O O O O O O O O O O O O O O O O O O O O O O O O O O ",
"O O O O O O O O O O O O O O O O O O O O O O O O O O O O O O O O O O O O P J.T.B.2 B.U.  O O           q q q q P ( q 7 @   @ T.' @ T.' `.    O e # 8 8 O   X   $ p u & .               . %       . .         b X X *   O O   O O O         O       O       @   X c d       O X               .       . . . . * * X     X @ O   X X       O O O O O O O O O O O O O O O O O O O O O O O O O O O O O O O O O O O ",
"O O O O O O O O O O O O O O O O O O O O O O O O O O O O O O O O     O O O     %.(.q   U.G.  @ O     0 7 @ 7 0 O X     O U.&.. ` `.q O   O   . & & & =     X   . p u %                   $       . .         j   $ o                       O O   O O     O 8   * l g     O @ X                         . . . & o X     X @ O   * *         O O O O O O O O O O O O O O O O O O O O O O O O O O O O O O O O O O ",
"O O O O O O O O O O O O O O O O O O O O O O O O O O O O O O O   ' T.O O O O O O 7 `.J.@ O G.H.' O             O @ #.K.&.  8 T.(.O O           o o o = X       . % % .                                 O O   h   $ $ .                                     X   X = =     O                                 $ u %     . o X     *                         O O O O O O O O O O O O O O O O O O O O O O O O O O O ",
"O O O O O O O O O O O O O O O O O O O O O O O O O O O O O O O   ' 7X7X        O O   o._.U.0 O 7 | &.G.B.#.B.G.&.` O   I T.(.(   O O O         . $ o u . . .   . % % .                                 O O O -   . .                                       X   . $ .   1 4 O O O     O O                   . $ $ . O + o X   .         O                   O O O O O O O O O O O O O O O O O O O O O O O O O O ",
"O O O O O O O O O O O O O O O O O O O O O O O O O O O O O O O   #.8XeX7 H.(.`.  O B._   ' T.3XA.q ` 0 @ @ 2 0 ( q H.(.T.P         4 O O       + % $ u $ O O O . + $ .                           O O O O O   X   . .               O                           . .     4 G 1 F 4 4 1 1 O           O O     O 1     O F $ .   . .     O O O O   O           O O O O O O O O O O O O O O O O O O O O O O O O O O ",
"O O O O O O O O O O O O O O O O O O O O O O O O O O O O O O O   9XrX` P _.`.3X  B.&.O O     G 5 L.. O O O O O O &.8   O O     O   F O         + % . $ . O O O                                 O O O                             O O                     . .           2 7 O 1 F R R J 1 O         O O     1 1     1 1 u .           O O O O O O O           O O O O O O O O O O O O O O O O O O O O O O O O O ",
"O O O O O O O O O O O O O O O O O O O O O O O O O O O O O O O O I I %.#.` ) M T.&.        . m b (.rX9X9X9X9X9XrX_   O O X         @ X         O O       O   O O                                 O           .                                           . .           - *   X @ G J R F 1 O       O       2 O     9 X $ .               O O O O               X     O O O O O O O O O O O O O O O O O O O O O ",
"O O O O O O O O O O O O O O O O O O O O O O O O O O O O O O O O 2 7 2 7 7 : b O X X     O O g e.O O O O O O @ O O O O 2 @   O O O X 7 1 O O O O O       O   O     O O         O O O                     .                         X                                   * X X X - h , 0 4 4 1 O O   O       :       n         .       X   O O O O O O         X X           O O O O O O O O O O O O O O O O O O ",
"O O O O O O O O O O O O O O O O O O O O O O O O O O O O O O     X X         *     X O O     * 0.*   O X O O 1 O O O O 1 O   O 1 1 O G J F 4 1 O X       O O 4 4 O O O O   O                           . .                                                             % $   o - d g d X O O O O O O       X       f               .     X X @   O           X X O O       O O O O O O O O O O O O O O O O O O ",
"O O O O O O O O O O O O O O O O O O O O O O O O O O O O         X *   O O 1 2 1   O O O 1 O   k - O 1 O   O X X   O O O O     O O O 2 F 4 4 O O O O O   O 1 R R 4 4 J F 4 1 O O O                                                   O O           O                   $ . . $ u u < - * X   O O O O O O O       * *               . .   o X         O O O     O O O           O O O O O O O O O O O O O O O O ",
"O O O O O O O O O O O O O O O O O O O O O O O O O O O             + + F F J F 4 O O O O J F   = - 1 R O   O @ X   O O X O     O X   * , * * X O O O O     O G G 4 4 R R R R 4 4 4 O                 O O                             1 1         1 O                   .     . u i i u . X X     O O 1 F 4       -   O                 . $         O 4 1 O   O 1 O               O O O O O O O O O O O O O O O ",
"O O O O O O O O O O O O O O O O O O O O O O O O O O           O + 6 6 F F 5 5 2 O   O O G K O X u O R O   O O o   O O X O   O O @ O : b , , X     O O       h h : X 0 0 L K 4 1 J 1 O O O O         O O                             4 4         4 O                         . $ u u u $ .     O O O O 4 1 O     X                     . . .   .   O G O O   O 2 @       O O   O O O O O O O O O O O O O O O O ",
"O O O O O O O O O O O O O O O O O O O O   O   O X X X         O O + O @ N 7 9 M 0 O O O 7 N X O % 1 M *       % .     . .   O O 1 + 1 T 6 3 o     X         d d - * g g j h ,   2 O   O O O O O O O O X                             7 O         :                             . . . . $ $ . .   X O @ > O     O                               .   X , X O O @ X X     O O O   X   X O O O O O O O O O O O O O ",
"O O O O O O O O O O O O O O O O O O O O   X X O @ O X       O O O O 7 X e.M M P 0 1 O O 2 0.- O   4 M g       .         .     O O O O a u % $ .             u u & X ; ; d g - X h X       O   O 4 F @ X                             ; *         ;                                               . O * d X   O O       O                           - -   O O @ &   O O O O     X   * X   O     O O O O O O O O ",
"O O O O O O O O O O O O O O O O     O O O O @ O O   X             O , O h ; s s / 3 O O O h , O O @ U h   O                     X   X * o o                 u i % $ i i i u & . - X             O 1 O   O O O O                     *           *                                                   = =           O O 1 O                         o o     * o .   O O O X       X *           O O O O O O O O ",
"O O O O O O O O O O O O O O       O O 1 1 O X O X X               O & % X s a s T G 1 O X > > O O O P >                               = o                   . % $ . % u u i u . u $   O         * *     O   1 4 O O                 o           X                                                 X u u             1 R 4                         . .     o .     O O O     O   o O O           O O O O O O O ",
"O O O O O O O O O O O O O O O O     O @ @ O O @ @ X   O 1 O     O O $ & O w 6 I L q @ O O # 3 @ O   h *                         1 F   % % $ .                 .     . $ $ % % . % . O 1   F O   X * O O     O 1 O O O                                                 O O                           $ .   O       O 5 F 4 1 O           O O             . .     O 1 O o   O O + 4 1 O O O       O 1 O O O O O ",
"O O O O O O O O O O O O O O O O       X - *   O X . . O 4 O   O O O O + + 2 e r r , : O O + # X O   - d                         F c.  $ $ . .                           . + 4   . . O 4   J O . $ $ O J   O X *   O O                                                 1 O                       . . .   O O       O Y , O 4 1 O O       1 O           . . .     1 1   .   O 1 1 J O O O O O O   @ 2 O O O O O ",
"O O O O O O O O O > X O   O O   O       o o     . $ . O 2 O O O O O O . + O , = ; = = O O O o X X   X -                           X.                                      O 2 O     O O   P     . % O 0     X *             O O O O O                                 O O                       . .               @ , - X O O 1 1 O     2               .     O @ O .     O O @ q 2 O O 1 1 O X * * X   O O O ",
"O O O O O O O O   - - *   O @ O O O     % u +     o O   @ @ O O O O O O O O - * < & & . O   X         & .                         w.*                       O               :         *   V X     . X f     . $             O O O 1 4 O O O                           X                                           * < o X -   1 4 O     ,   O               O O * . O     X   j * 1 @ O 1 O   * d - X         ",
"O O O O O O O O   X - * @ O O O   O     + % 3         O O 8 O O O O O O O O X = u u % .     X         $ .                         0.*                                       2       O * O C *       X -     . $   .           O O O 4 1 F F O                         X                                           = u $ . X X @ O O   X X                   O X X O O       X - o @ @ 2 7   . = X X X         ",
"O O O O O     O     X X X O O &     O O 1 + O O O O O O   O O O O O O O   O   $ % % $ .                                           = .                                       @       O     =         X X     . .               X   X @ O 4 F O O 1 O                                                               o $ . % .   * X       O 1 O               X     O         $ = X @ 1 8 X   o $ . .           ",
"O O O         @ X O O o O O O $     O O 4 O   O O O O O   O O O O O O O   #   +   # # O     O   O O #   O   # # o . #   O   O     + .   O   -.  1   #     O O #             X             <         o                       O .   X * X , :   O 4 4 O         O O                                                 .     $ . . o         1 R R 1                       O   + % $ * @ 5 6 . O O . O 1 + . O     ",
"1 O 1   O O O 2 @ O O O O O     .     O 4 @ O X O O O O O O O O O O O   hXlXPX# %XSXBX# AX;Xy NX# UXgXHX  hXNXNX  IXgXzX      SX}.O VX%X  IX;XLXO zXzXSX%XO UXjX@X              O O   O   X                 O               + . . + $   , * O O O O O   O O   1 4 O   O O                                                   $ $ .       1 c.c.R 1               O         1 +   O @ > % O 4 1     1 1 . O   O ",
", X 7 X O O O O # + O O O   O   .     O O : 1 O O O O O O O O O     O   kXe [.=X;X5.    kXNX# hXe kX  iX;.kX#     KX  ZX#     hXkX1 LX%X].=X  iX:.NXe   FXO ZX                  1                                           1     $ $ . a +     * X       O   4 4 O   O O                                               O   . .       O , @.v.R R 4 O                 O O 1 O   O @ &   O 8 O   O @     O O O ",
"l * * - O O O O @ @ @ O O   O     O O O @ , @ O O O O O O O O           gX].kX5.|.AXzX  VX;X-.kXe lX  gX>.iXzXaX  KX] PX      NXuX#X=XtX].;X  aX3.cXt   ZX  UXmX>.              O                                           X         . u $   . . X           , O                                                                       h r.x 0 R R 4         O     O 1 O X O O o & O   : > 1 1 f X   O O O , ",
"g d X g   O @ O O 0 O X   O   O O O O O O : @ 1 O O O         O O       gX=XSX  ;X].#   AX# hXaXe lX  gX>.kXy #   PXaX@X      SXe UX> iX].;X  iX,.mXt   AXO DXX                 o                                           o     .     o .   . $ .           g *     X                 O O O                                         $ k 0.l j 0 J 4 O             O 1 X   O   $ $ .   * O F 5 ,         X * ",
"o & . = X O O @ O @ X           O O O O O 5 O @ O O O O         O       NXr VXy ;X=X;.  HX  FXiXe ZXr JX> zX5.>.  PX  IX      KX  f ;.lXs NXO SX> ZX5.].BXo JXB t                                                                 .   . .     . . . .         *       O O               O O O                                         $ D D < d g , O O 4 1         X X   O   . . .   *   @ 2 1 1 O     X *   ",
". % + . > O O @ O O X   O     O O O O   O O @ O X     O       O O   O   ].# e 5.r tXiXt [.  2.5.  ;XiX4.  2.yXiXO |.  [.O     |.  o # ].  |.lX].  5.yXtX    ;XiX|.                                                                    . .                     .       O 1     O O                                                   . $ i i i p d -   O F F O       -     O   . .         : : @ 1 O   O   X   ",
"O . O O O 1 1 O O 1 J   O O O O O O O O O O , O 1   O   O O O O O O O                                           O   O       O   O O .   O                                             O                                                                       O       O O O               1 1                     O                   + % % u a p     O 7 O O   1 J X                   . = 2 O 4 O O +       ",
"O O O 1 1 4 4 O X 1 c.O   O O   O O O 1     * O F   O   O O O O O O             O O                             O   4 O     O O   1 O                         O                     O 1                                                                       O O     X   O               F 4                   O O                 O O   . + / u .   * ,       4 J                     $ & @ O 2 O           ",
"O O 1 F F 4 0 X     P >   O           O O     O 5     O O O O O O O             O                                 O 1 O     O     O O                         O                     O O                                                                       O O                     . . 2 O                                       O O   . O # .   . < o       n O                   . + +   @ X         O   ",
"O 1 1 F E @ * -   O * 0.                X       * >     O O O O O O                                           O   O X O                                                               X                                                                       X       $ .                 f X                                       X     O ,       . u $     * c O                   . O     X         O 1 + ",
"1 F 1 1 M f X ; . O   x X O         O O O   O O O q   O O O O   O                                     O   O         O O                                                               o                                                                       X       . .           O     -                                         X     O 8       . % .     * * O                                     O O   ",
"1 5 5 O d l X $ $   O   %           O   O O O O   5 O O O       O                 O                       O       O   O                                                                                                                           O O O                               O 1 O                                               X         .         $ X O   O                                 X O O ",
"1 2 9 @ * - $ $ .   O   . O O O       O O O   O   O :   O O                                         O O                                               O                                                                                         O O O                         O       O R 4                               O               X   O         O     % .               O O   O O   O   O O O .   1 R ",
"O O - *   & % + O O   O O O O O O   O O O   O 4 O   8 O O O               O   O 1                   O       1           O O           4 1 O           O O                                 4 O                       O O         O O         O O O O O           O 4           4 4 O 1 X 0 O   O         O O           O 4 O     O O         O 4       O 1     .             O O O O     1       F O   . . G F ",
"O O o & $ . . O O O O     O 1 O O   O O O O O F 4   5 O O O         O         O 4                           1                         F F O O         1 1                                 J 1                     O O 1         O F       O O   O O       O O   4 F         O 4 F O 4 * j   O 1 O       O O           O 4       O O         1 O       O O O               O O 1 O     O     O O 7     .   V   ",
"X     % %         X   O O O O O O O O O 1 1 O O * O O O 1 1 O O               O @                 4.%X%X|.|.@XXX|.|.|.@X%X@X|.|.=X>.  1 9             O O                                 2 O                       O O         O O   O O O O     O       O     , O           9 X O O $ =     O O O                     X       O           *         X                   O O 4 O     *     1 n *       f -   ",
"O   . $ $   O O O X O O O O 2 @ O O O O O 1 O   f   O * O O O O O               * X             =X>.        X             o       5.|.  0.  X           *                                 - *                                   * * O O O         .             c           X d X X   u u     X O O O                 X X                 X -         X                   O X O O O O       @ *       X -     ",
"X O O O O O O O 1 F 4 O O O @ @ O O O O O O @ O X X O X X X X                                 ].>.            o           *         ].-.v               o                                 o X                                   o X           .                 ;             *   o   $ .     X     O O               o                   X                                 * X O 1 O     X X   O     *       ",
"*   O O O O O 1 F R J 4 O O @ @ O O O O 1 4 5 O           X X X                 O + O O O     =X                                      %X.                                                 . .                                   O O       . .                   .             .   .         . .   O O                 .                                                 . $     O 1 1 O   o                   ",
"8 . 1 O 1 1 4 1 4 0 0 2 O O 2 @ O O O 1 4 4 4 O           . $ .                 O O 1 1 O   O }.                                      XX                                                                                                .                                                   . $           O O O                                         O                 + . O G X O O                     O ",
"/ 3 F 1 1 1 1 @ O , j , @ O J F O @ 1 4 1 @ : X O O       . . .                     O O   O o OXF F O O     O                         |.          O                                                       O               O           O O           1 O                                           .       O 4 O                                         O O             O O . 5 G X                         O ",
"a 1 1 @ O @ : @ O @ < < 3 O G G 1 2 1 2 @ * * X O O                                 X * X   O }.F J 4 O O           .                 |.      O O O                                                     O                 O           1 O           4 O                                       O   . .       1 O                                         O               O     , o       O                 O   ",
"% ; X , @ O @ O @ + u u & @ O V 2 1 @ @ X X o $   O                                 . o .   O }.* h @     O O   >.UX8                 |.                                                  ;X        r zX              r |.            X             *                                                       *                                                           X   X j . . O                   O O   ",
"% X * O @ O O + + O + + # O O , : @ @ X X . . $ O O                 O               . $ $   O }.X d - X       >.UXKXUX8 1 1           |.          X                                       UX        t BX              4.ZX            -             o                                                     O X                                                           O   o         O                 O     ",
"% O @ O O O O O O @ O O O O 2 @ 8 X X X   . . . O   O                                   .   O }.. u u       >.UXo IX] UX# O O O O O O +X  O                                               UXO ].  O   r O . + %X5.O   4.zXy 4.  O       r   ].#   }.}.  O   5.}.# .   O O                                 O         O O                                                 O   .                                 ",
"% O O O O O O O O O O O 1 2 @ @ O X X O     O O O O O O                                     o }.  u i .   # UXe # UX  4.UX        O 1 &XO O O O O                                         IXlXkXFX  # UX    UX=XzXJX  >.UXiXSXyX        gXKXzX  ZXgXgXSX  tXAXiXgX                                                      O                       O O                     O O         O O   O O                 ",
"+ 1 1 O O O O O O O O O O @ O O X O O O O O O O O O O O           O O           O           X }.    . .     #   O UX  . #     O     O &X    O O O O             O                 O O     UX    UX  # PX  5.BX  >.HX  >.ZX  -.GX        gX|.  O UX    UX  LX#     O O O             O O           O O     4   O O 1 O     O J O           O 1 O F O                     O 1 O O     F O   O O     O           ",
"+ 1 F 1 O O O O O O O O O @ O X O O O O O O O O O O O O           O J O         O O     O   O OXO         1 1   O UX  % . $ .         *X  O O   O O     O O                       O 4 O   UX    UXO # PX  ].ZX  4.HX  >.SX  >.SX        gX%X  . UX=XZXzX  yXUXBX-.  F 1             4 O           O O   O R     4 J O     O c.J           1 1 O F O                     O O O     O 1     O O                 ",
". O 5 2 O @ O O @ O O O O O X   O O O O O O O O O O O O O           F O         O O     O   O OX      O   1 1   # UX  . . . .     O   oX. O O   O     O O O O O O                 O F O   UX    UXO # PX  5.VX  >.HX  >.AX  >.SX        gX%X  O UX4.t   3   r ].UX  0               2 O             O   O 5     @ 2     O X Y R 1         >   , O                       *         ;       X                   ",
"+ O O 0 O @ @ O @ @ O @ O O X   O O O O O O O O O O O O O O         X f       O   O     O   O }.      O     h   O ].              O   oX$       O     O O O 4 R F                   ,     UX    UXX # PX  r PX+ uXZX  >.SX  >.SX        gX%X    UX    t o #   . UX  c               d                   - *     - *       j g L 1     O   -   -                         X       X X                           ",
"O O O @ @ O O @ O O O O O       O O O O O O O O O O O O O O           -                   X O }.X           ;       O             O   |.          O O     X   5 F O                 f     SX    SXo # VX    %XAX;XHX  -.kX  -.lX        tX}.    }.UXIXyX  gXIXIX].  -   O           X                   *       @     O   < d d               o                                 o     O                       ",
"O O O O @ O O O O O O O     O   O O     O O O O O O O O O O O           .                   O }.          O                     O O   |.              O   O   d h                           O O   o     O O O   >.HX      O     O             O         X           .             . .                   .       .   O   . i u X   O     .   . .                                                               ",
"O O O O O O O O O O X       O O O O O O O O O O O O O O O O O                                 %X                O               O     =X            O   O . . = -                                           ZXPXUX4.    O                                                                                                 % i .     O           O   O   O O O       O O           O   O F O                 O ",
"O O O O 1 O O @ X 1       O O O O O O O O O O O O O O O O O O O O O                           [.r               O                   4.4.                O O   u i .         O     O     O O               O                   O                                     O               O O       O J 1 O   O     O O         . $                   1 1   O 4 R F       1 1               4 4                   O ",
"O O O O 2 1 O O   1     O O O O O O O O O O O O O O O O O O O O O O                             tXy             O 1               >.=X                  J 1 F 1 % .           O       O O O                     O O         O F O                                 1 4               1 1       1 R F O         1 O               .               1 O   O O O.O       @             O   C                     O ",
"O O O O @ O X X   O X   O O O O O O O O O O O O O O O O O O O O O O                           O   [.%X}.|.|.|.|.+X+X|.|.|.|.|.|.%X5.  O                 G 1 F 1               O 4 1   O O       O                           O 2   O                               @ O               O O .     f , *           X O                               X     * f l       X X               d f                     * ",
"O O O O O X         X   O O O O O O O O O O O   O O O O O O O O O O                                   o O O O O O = O O O O O O                     O   , * , X                 F J                                           *                                   ; X               *         0.* ;           o                                     O X f X       X                 <           O         $ o ",
"O O O O O O   O O         O O O O O O O O O O O O O O O O O O O O O                             O   # -.-.-.-.-.-.;.-.-.-.-.-.-.                        * * * *                 - L F O . .                                   X                                   o                 X         <                                             O O         o                         . .                   . $ . ",
"O O O O O     O O O O O O O   O O O O   O O O O O O O O O O O O O O O                         O   =X}.5.5.5.5.4.5.5.5.5.5.5.5.5.%X%X  O                 . .                     o f G 1 .                                                                                                   . u                                             O O                               O O             O O           o ",
"O O O O O   O O O O O O O O O O O O O O O O   O O O O O O O O O O O O O                         iX                                # tX                  . .                 O   % p 9 1                                                                                                                                                                   4 O             O   F R O           4 O         O O ",
"O O O O     O O O O O O O O O O O O O O 1 O O O O O O O O O O O O O O O                       %X# O                           O O O t ].  O       O                             . i ; @ O                             O           O   O O O               O                   4 R     O                                                                 O R O                 b.F           O 4 O       O O O ",
"O O       O O O O O O O O O O   O O O O 1 O O O O O O O O O   1 4 O O F O                     %X                      O     O O       %X  O     1 F                 O         O   . / 2                             O 4         O O   O F J   O O O O   O 1                 O R R O   O                   O O O                                 O O   O , q                 l j.X           n         O O O O ",
"      O   O O O O O O O O O     O O O   O X   O O O O O O O O O 2 X   8 O           O       + }.        O O O                         |.    O   O 5   O             O O             + &   O                         O @                 @ 2   O O O O     O                   e., O O O                 O O O O O                       O O O   O 1 O   q.      O O         0.g             X   O O O O O O O ",
"    O O O O O O O O     O O   O O O       X X O O O O O O O O     *   * *     O   O O O     O }.          O O       O                 |.  O O     j   O                             h o     O                         *                 - * O   O         o                 X 0.X X                                                             X O O   =                 . p                   O O O O O O O ",
"  O O O O O O O O O O   O O   O O O O   O   O O O O O O O O O               O               O }.                  ;X                  |.          *                             O   *       O                                           X                                     a                                                                 X     . .                 $ $           O         O O O O O O ",
"O O O   O O O O           O O O O O O O O O O O O O O O O O               O                 O }.                o UX                  |.          .                                       HX                      O                                                         . $ . . .                                                         . .   O O O O                             O         O 1 1 O O # ",
"  O O     O O           O O O   O O O O O O O O O O O O O O O             O O               O }.                O UX                  |.              O                                   UX            O                                         O       O                                                                     O           O . .     O O                                         O 1 1 1 O + ",
"          O O       O O O O O O O O O O O O O O O O O O O O     O O         O   O O       O O }.    O O     t   O UX    y             +X        O O                                       UX    ;.ZXNX#   ;X#   tX;.  =Xy       ].# zX-.o NXZX>.    iXZX=X  J         O 1   O                         O           O O           4           O   .     O                                           @ 2 5 4 1 3 ",
"          O   O O O O O O O O O O O O O O O O O O O O O         O       O O     O O         @ }.    O O O # UX>.# UX  [.UX      O O   +X        O R O                                     UX    UXe 5.PX  lX|.  IXiX  IXe       %XUX].  HX].y UX  iXfXs }.O ! O O     O 4                             O             O           @                                                               O @ 2 2 5 5 1 ",
"O O     O O O O O O     O O O O O O O   O O O O O O X           O       O O       O         # }.    O O   O # UXy IX5.UX  O           @X        O q                                       UX  r LX    UX  }.gX;.uXGX  UX        =XiX    UX    UX. BX}.    n C         X ;                             O                       * X                 . .   O O                                     O O @ 7 5 5 1 ",
"    O O O O O     O   O O O   O O O O O O O O O O           O O O         O O       X       X }.      X     O # UXPXUX  O             |.          c X O                                   UX  r PX  O UX  r HX}.5.KX# JX        %XgX    IXZXIXtX  y IXUXgX* d         X o                                                                           .     O O                                 O O O @ : 0 5 5 ",
"O O O O O O O O O O O O O O O   O     O O O   O O     .   O O O                 O O         X }.              O e IX          O O     |.          o                                       UX  r LX    UX    PXiXy ZX|.gX        %XgX    UX      O       UX# .         $ .                                                                                   O                                 O O O @ : 0 7 0 ",
"        O O   O       O     O   O O O O     O O                   O   O             O O     O }.              O     O                 |.          . .                                     UX    UX>.].KX    KXPX  -XPX].        -XhX    KX}.;.;X  ].5.4.UX                                                                                          O O O   O O             O     O 1 4 4 4 O 1 F J 1 7 L G G ",
"O O O O O O O   1 4 O O O O O O O O O O O O O                 O O O O   O O O O O O O O     O }.                    O                 |.  O           O                                   =X    -.vXkXO O O R.%X  # tXO         :.S.  O   kXlX].  4.hXzXr O                                           O O O 1 O   1 1 O     O O       O O     O   O F c.4 O J 1 O   O O O O O O O F R R R J 1 1 E K 2 7 L 0 0 ",
"O O O O O 4 4 O F R F O O O O O O O O 1 F F 1   O O O O O O O O O O O O O O   O 4 1 O O F O O }.  O O 1 O O O O O O 1 4 O O 1 F 4 4 O +X  O O O O O 1 4 4 4 F 4 O O         O 1 1 O O   O O O O       O O J F O 4 1 O 1 4 O     O   O O 1 O   O         O O O       O 1 O O O O O O O O O O     O O O 1 4 F R 1 O F 4 O   O O       O O O     O   O @.v.1 2 L O O     O O O O O X , b , b X X g m @ @ 9 , 7 9 ",
"X O O   O O @ X O q b X O O O O O O O O 1 5 @ O O O O   O O O O O O O O O O   O F 4     J 1   =X  O 1 4 O O O O O O F R 4 O 4 c.J c.4 6XO 1 1 1 1 4 J R c.c.c.R F 1   O O O O F J O O O O 1 1 O O   O O O U c.F R 1 1 F J 4 O O O O O 1 4 1 O O O O   O O O         O O O O O O O O O   O         O   O O 9 7   X , O     O                       d r.- X d *         X       . * f d ; - X o p * O 6 > : 8 s ",
"=     O O   X X   * l - O   O O O O O   * d -       O   O   >   O X X   O O     * - O O * f   -.].    >   X X   O   X m - O   e.j - 1XB * * X X X X , j Z Z Z m - X           , h X       X X         O   m i.0 b X X - - *     X   X * * * X           X             X       X                   O   * X d X   X -                           O   D k   $ u         . . .     $ i i u i $ . i i O 1 + # @ 2 6 ",
"i $   O O O O % +   & i .   O O O O O O O $ u $                             O O X <       *     ].|.                  X       * > 1Xh.o o o X   X X * f k k k k = X           * = X   O   o o             ; z U t   o = o o         . o o o                         . o       .         O O             u i .   u u                         1 1 . i % $ % %             .     . % $ $ .   O o O O 1 O @ 2 7 7 ",
"T O             .     % $ O O O O         . % %           O O     O .   O   O O . % %   O .       r +X%X%X%X%X%X%X%X%XoX:X%X%X%XoXu i i u $ $ .   $ u i 7.7.7.7.u $           % i $       . %           . u i w / . $ u u $         . $ % $ .         . .           . .   O . .         O O           . $ $   . $ .                         O   . .                   O                   O O O 2 @ @ @ @ : 7 ",
"0 0 O   O O O O O O   O     O O O           . .               O O           O O O   .   O O                             .       . $ $ . . .         . $ % % % % . .           . .     O     .             . u f *   . . .                                                             O                                                     X               O O O   O O                 O O O O 2 @ 2 @ @ 2 7 ",
"L L 2     O O O O O   O 1 O         O O O   O     O O O   O O O         O O     O   O O O   O O O     O                           O         O                                                         O     . i =               O                         O                                 1       4 4 O 4                               .   1 O         O R 1 1 O O   1 O     O       O @ O @ 2 O @ @ @ : 7 ",
"L L L 1     O O O O O   F 4         O O O   .     O O O O   F F O O     4 1 O O O   O O O     O O O O O       1 O O         O O       O O O R O                     O R O             F O O     O           O u u         O O     O   O O   F 4         O R                               O R O     R 4 O F                                   2 O         , (   @   O   4 4             O @ O O 2 O @ @ @ @ 7 ",
"L P L L O     O O O O   O n X O       O O     O   O O O     O )     O   O 2         O O O O O O O O O O O O   1 O O       O O O       O 1 O E 1                     O v.O             K O     O O               .   O     O O           O   5 O         O I                               , N       i.  - X                                 - X           q.X X       X : 4 O       O O O @ 2 O O O O O O @ 7 ",
"P L L P 0 O O   O O   O   X *                   O O O O O     f -         * X O O     O O O O O O O         O   *   O         *         : X x c           O           r.*         O   c *       O                     O   X X               f X         - c                               c *   O X c   ;                                               $ =         . o - 1 4 O       O @ @ O O O O O @ O @ 2 ",
"L L P Y P 5     O O O O O       O O O O O O O   O O O O O   O X o     O O   O O O   O   O   O O O O O       O   X             X     O O X X * f   O                   c *             ;   O                             O                   <           o o                             O =     O % $   .                                 O             .           . % * * J 4       O @ @ O O @ @ O @ O O @ ",
"P P P Y P P O     O O O         O O O   O O O     O O O   O O       O O       O     O       O O O O O                               O O O     u                       u .             .                                 O                   .           . .                               .       .                                                                 . % + * 0 4 O     O O O O O @ O J 2 1 F 2 ",
"P U P P Y Y L O   O O       O   O O O       O O O O O O   O   O O   O     O   O       O O O O O O O O O                             O O                                                                                   O                   O                                                                                       O O O O                         . % = - O O   1 4 4 F F 5 1 L ! 1 @ G 2 ",
"E U P P Y Y Y L O O   O     1 O 1 F     O   O 4     O     O   O O   O O O         O     O O   O   O   O O                                 O O O                       O               O                                 O   O             O               O                                     O   4 1   O       O                 O O 4 4 O                           $ u o   O O G G G L 5 @ * C O O h : , ",
"Y _ P P Y Y Y W 5     O     1 1 1 ! O   1   O b.1   O   O             1 O           O         O 1 O       4                                 O           O                       O O   O O                 O O           O O O O         O O O             O O     O O       O                     O F O         O                   O   5 @                             . % . O O @ ( P , b : X f - O @ : O > ",
"P _ ( Y U Y Y P 9 X           >   - x         f 0.    O   O     O     O O                     O 0         1 O                         O   O             O O                     O O O O O                 O O           O   O O         O O               O     O O O       O                   O X x           O O                   * * X                               .   O   b ( 0 : @ O O # O @ O O O @ ",
"Y P _ P P P q 9 ; o             X   f           0.  O           O O     *           O     O     f X     O   o                                           O O                     X O   o                     o O         X   X O O   O   X                 X   O O O                               X -             O                                                 O           O v.0 2 @ O @ O O 1 O O @ O @ ",
"Y Y Y P q 9 9 > & % +   O O   O       . O       . %     O         O           O O   O O O O O O           O         O                                     O                     O                                         O   4 4                           O O O                                 .               O                                               O O     O O   N.~ 7 2 O O O O O O @ O O O 2 ",
"Y P q 9 9 8 e & & $ .     O O O O   O                 O         O O O         O O O O O O O O     O                           O O                                                 O O O                                       : 4 O                             . .                                                                                               O O   O O   N P.0 U @ @ @ @ O @ O O O O @ @ ",
"q 9 9 8 e r # o $ .         O O O O O                 O                       O       O   O O                     O         O O                 O                               O   O                                 O       * *                         O     .       O                                       O   O O                         O O               X O   X O   l.V Y R O 2 @ @ @ @ @ @ @ O @ @ ",
"> 8 e e 6 5 @ o . . O         O O     O     O O         O O O O O   1 1 # lXtX  |.uX;X  ].    +XuX=X  +XzX:.iX%XtX  O   iXkX#   0Xe   -.4.  # |.        ].#   y 4.    }.  4.lX;X  }.O # >.=X=XiXr       [.  O   iXkXy   |.iX] $ ].#   O                               O O                 O O           O O O       O O                         O O             O O O O O   m i.*  .F X O O @ @ @ @ O @ O @ @ ",
"e 6 3 5 5 0 * o .     O       O O           O O     O     O O O O   F O KX3 ;.  PXt -.r VX    PXr y 4.zX# # -.PXr O   uX|.r O e KXyX  %XJX  uXBX        KX    }.yX  # HX  PXO y   HXo -.kX# ZX4.O O O   AX    tX%X# PX  IX# UX  lX>.O 1 O                             F 1                 O             O O                                     O               O O   O O O &.1 D b 1     X O @ @ @ @ @ O O @ ",
"6 3 5 5 5 * o . .     O O                     O     O O       O         IX#     HXO X r zX    KX    }.;X  O   HX      zXy O   |.].HX  tXNX# zXgX      ].=X    ].tX  # ZX# NX      ZX# :.gX  lXr   O   ;XR.    gX-.  HX  KX  SX  gX>.  :                               ;                                 X             O                                         O     O   Y U H a @ O     X O O O @ @ @ @ O O ",
"1 5 5 0 7 * o .     O O O O O   O O           O O O O O     O O O O   * 2.NXJX  SXgX=Xe zX    JXgX|.].;X      HX      lX] X   zXO AX. aX>.NX[.VX      ZX      ].tX  # ZX# NXt JX  NXgXzXyX  lXr   X   HX      hX-.  HX  KX;XZX  gX>.O ;                               ;                                             O O                                     O   O   O   5 m._ 6 u @ O         O O O O @ @ @ @ ",
"5 5 5 0 * o . .   O   O O O O                 O O O O O O O O O O   O X     iXt HX    r kX    JX    }.=X      HX      NXr     HXgXPXy gXr VX  SX    # zX      ].;X  # ZX# NX  kX# ZX. y hX  lXr     4.yX      hXt   FX  KX  iX>.iX>.4 O O         O                                                                   O                               O O         O     L.( q . @ O               X @ @ @ @ O ",
"5 5 0 7 X o .     O O O O O O                 O O O O O O O O O O   O   iXtXKX  KXgXlX# UXzXe LXgXgXO IXiX}.  PX      5.HXhX# SX  4.iXkX-.    PX    gX>.      ].PXBXO HX  SX;XUX  HXO >.zX  BXr     CX#       5.HXiXzX  PXiXHX  IXe 0 O O       O O                                     O                                                     O     O     O     O O   { ..q O @ @                 O O O @ @ @ ",
"G L 0 : o .           O O O O O               O O O O O O O O O O O   O   -.  #   # # O O # O   # # #   -.O O   O       # t     O   O   O   O   O   O           O #     #   -.O #   O     O   O   O .           # y   #   #   # >   - O           O                 O                 O O O                       O       O O O O O           O   O F F   O O   X O O H.L 1 O G O   O       O         X O @ O ",
"q U 0 * o +   O O O   O O O O R 4     O   O O O   O O O O O O O O O O O O   O O J O         O O O O O O O O     1 O           O O   O O             O O           O O           O 1                             O   1 O             u O             O 1               O 4     O       1 R                       O 1   O     1 O 1               O X O.1   O     O   V.+.U O L K O O O O                 O X @ ",
"e.7 , * .     O O O O   O O O O  .        O O O       O O O O O O O O O O   O O ! 4   O     O O O O O O O O     R F     O O O     O O F         O O O O           O O O     O   O R                             O   F O         O   $ 1 4           O 5 O             O 5   O         9 Y                       X O   O   X O X O           O     c l   O   O O O ( /.X.1 X  .O 1 O O                       O ",
"b e * o . O O O O O O   O O O   g f   O   O O     O O O O O O O O O O O O O   O - q.      O O O       O   O   O : S   O O O O   O   O 9       O O O O X           O X         O   i.                              O , O       O O     2 G           X -               - * O           c -   O                   o     O   O   X               O   ;   O O     X   !.$.Y O j - O 5 O             O           X ",
"0 > o $ . O O O   O O     O O     $ .             O O O O O O O O O     O O       = .       O O       O     O     v   O O O   O O     X X             X       O     X   O         0.  O   O                         ;       O O       * :         O O X O O           .           O   <       O                     O O O                   O   O   O     O O   s.g.{ 5 @ 2 O * @ O O         O               ",
"7 X $ .   O O O   O O O O O   O O O         O O     O O       O O O O O O   O O   . .   O O   O     O   O O     O $ .             O               O   O O           O             $ .                     O O             O   O       u o O                                 O             O                           O   O                 O                 7 ~.) 9 5 2 2 O > 1     O     O O               ",
": o . .   O O O O O O O O O O             O O O O O O O     O O O     O O               O O   O     O           O           O       O                   O   O O     O               O                                       O O       % . O O                                   O O                                   O         O O O         O   O O     O   P.$.q , 2 @ O + O 4 O O         O               ",
"* o .   O O O O O O O   O O O O O O       O O O O O O O     O O O O O O       O         O O O O       O           O         O   O O O O                 O O O O             O   O O   O   O                                 O       O     O O                                     O                             O O O           O O O     O O O   O O   O   j k.q 7 O 5 O O   M 1 O           O               ",
"* $   O   O O O   O O O O O O O O O O     O O   O O O O O O O O O 1 O         O O O   O       O       O 4 O O O O O 1 O               O                 O                 O     O O     O O                   O               O O 1 O   O O O                                   O F O   O                       O 1     O     O O O       O O O             i.9 0 O 0 @ O @ X - O     O                       ",
"o .   O   O O O O O O O O O O O O O O O   O O   O O O O O O O O O O @         >.S.5.5.5.5.5.5.5.5.5.5.5.).R.5.4.5.5.).5.5.5.5.5.5.5.5.5.5.5.5.5.5.5.5.-.                  O   O 4 O   O O O                   O   O O   O     O O G O     O O                                   X 8   O                   O     X     O       O           O   O O     O   0 ( 0 @ 5 0 O O O # O O O                 O         ",
"$   O O   O O O O O O O O O O O O O O O         O O     O O O O O   *     4.=X2.T -.-.-.-.-.-.-.-.-.-.-.-.z.B -.-.-.,.,.-.-.-.-.-.-.-.-.-.-.-.-.-.-.T 4.;X]             O O     h * O O O         O O                             n   O   O   O                                 * *   O                             O O               O O   O O O         O.5 7 : L 1 O O O O O O   O         O O           O ",
".   O O O O O O O O O O O O O O O O O O O       O O O   O   O   O       4.].    O O       O O   O   O O   ;   O O O   =   O O O O O       O O O   O O O   %Xt O                 * X O O O                       O   O             X   O   O O                       O O       O       O                     O       O O               O O O             Y L E O U L O X O O O F O   O             O O 1 O     ",
". O O O O O O O O O O O O O O O O O O O O O     O O O O   O   O O O     ;X  O O O O O O   O     O O     O . O     O O     O   O O O               O         ;X      O O         O O   O O   O           O O         O O           O O O     O O                     O O         O O                             O   O O           O O   O O           @ o.N 2 @ @.4 O O @ O 9 E O     O O   O         2 O     ",
"O O O O O O O O O O O O O O O O O O O O O O     O O O O O             2.;.O O O O O O O   O         O   O   O O O         O   O O O               O     O   ].r   O O O         O O O O O O O           O O         O O     O     O O O     O O   O                 O       O             O O           O     O   O O O O         O O O O O O         &.7 7   C m O O O O + n G     O   O           * X       ",
"O O O O O O O O O O O O O O O O O O O O O O O     O O O O O     O O   R.r   O O O             O O O O O O     O   O   O     O O O O O O O O         O       >.>.    O         O   O O     O O           O     O O       O O       O X         O O O                       O O   O O O O O         O O O   O         O O O       O O O     O   O O   q _ 2 O + < X O O O O 6 q F                               ",
"O O O O O   O O O O O O O O O O O O O O O O O       O O O O O O 1 4   h.r O O O O O     O O O O O O O   O R 1   O   J O O O     O O O O       O 1 1   O     >.-.              O O O O O     O         O O O   O O O       O O O O     O 1     O O O         O O O O O     O   O O   1 1             O O             O O O         @ O   O O O 1 O O %.K 5 X 3 + O O O O @ o N 4                               ",
"O O O     X O O O O O O O O O O O O O O O O O O     O O O O     O :   R.r O O O O O   O O O O O O O O # O ` 7   #   U 7 o #   O O O O O O O   O 1 5     O   >.-.    O     O   O O O O O O         O   O O O O O O O         O O O     O 7     O O O         O O O O O     O   O O   , O O O       X X     O     O O O O O   O   X X     O   O O   m.X.X.O F F 1 1 O O O X p h O                   O O         ",
"O O O O O O O O O O O O O O O O O O O O O O O O       O         O     R.r   O O O O O O O O O O O   -.SXUXSXh.>.UX[.- > UXNXPXO O O O O O O     X f   O   O >.-.  O   O       O O O O   O O   O         @ O O O O   O O O O O   X O PX  * O     O         O O         O O   zX].O   X     O         O   O   UX5.  O O O O   O         O O   : O 7 N.p.2 O ~ 0 2 O O O O O i . O                               ",
"O O O O O O O O O O O O O O O O O O O O O O O O O     O   O O   O O   h.r O O O O   O   O O O O O O     UX  . iX%XBX  # KX  iX}.  O   O           o O   O O >.;.  O         O   O O     O   tX  O           O         O O       O O UX  O       O O             O           NX].          O           tX  O -.  O       O O         O O   X     &.b j 1  .9 , @ O O O X O . 1 O O O                           ",
"O O O O O O O O O O O O O O O O O O O O O O O O O O         O   O O O S.r   O     O O     O O O   O O   UX    JX  IX  # KX  zX4.O O                 O O O O >.-.    O O   O O   O O O O   gXUXNX  4.KXKX5.    hXPXZX4.  e KXKXhXO O UX    gXPXvX  O     r KXKX|.  y KXKX[.  NX].  4.KXKX>.  r KXPX;.uXUXBX  hX#   -XPXFX#   %X=XPXNX      X   P _ 7 @ 7 m O O O O O O X 1 1 R O     O O   O O                 ",
"    O O O O O O O O O O O O X   O O O O O O O O O O         O O O O O S.r     O O   O O   O O   O O O   UX    PX  HX> # UXtXPXe   O               O O O O   >.-.  O O O   O     O O O   O t IXO   UX#   UX  |.kX  ;XhX  KX>.  PX-.# UX  %XkX  hX;X  O   UX-.e ]   UXy O UX  NX].  UX# y UX  PX-.O O r UXo   IXe t PX  >.KX  gXgX  NX|.O   X O &.2 1 2 2   O O O O O O O X C : O                             O ",
"    O O O                 O X O       O O O     O                 O   R.r O 4 O       O   O O   O   O   UX  y UXSXUX].# KX  4.kXO O   O O         O O O O   >.-.  O O O O O O O     O     # IX  O UX    UX# tXtX  ;XgX  PX#   PXy # UX  iX+X  gX;XO O   IX-.O     UX  O UX  NX].o IX  e UX  UXO O   O UX    PXe 4.ZX  8 IX  gX%X  gX=XO O O m.W G @ U 4 O O O O O O O O X ;   O O     O                     O ",
"  O   O     O O     O O   O O O       O O O               O O O O     S.r   ! Q   O       4 K   O   O   UX  uX%X  >.NX# PXe kX=XJ 1     O O O   O   O O O   >.:.O O O O O   O 1 O   1 4 O # IX  # UX    UX# tXtX  ;XgX  IX8   PXT o UX  tXPXHXNX  O O   5.KXUX-X  IXSXPX[.  NX].# UXSXLX>.  UXO O   O UX    PXe 5.ZX  C IX  gX=X  gX=X    ` /.! 7 7 X.1 5 1 O O O X X @ .   O   O     O O O                 O ",
"O O O O O O O O O O   O O O O O O O   O O O O O O O       O O O O O   S.r O O u.*     O O   C -   O     tX  =X8 O O 0X  uXhX%X  _ N           O O O O O O   >.:.O O     O O O 2 O   O Y   # IX  O UX    IX# 6X;X  %XgX  PXO   PXy o UX  iX|.      O : O     # PX  UX  *     NX].+ IX        UX      # UX    PXe 4.ZX  f IX  gX=X  gX*X  * k.K.` @ M 9 7 U G 2 1 O O O @ O O O O       O O                 O O ",
"O O O O O O O O O O O O O O O O O O O O O O O O O O O     O O O O O   5.r O   = & O O O     X =       O   X   O O O   O         - q.    O O O O O O   O O   >.:.O O O O O     >   O   f   # UX4.  KX%X%XPX  r UXgXUXyX  iXAXNXUXy # UX  4.LX].gX:.  X   uX}.gXlX  SXtXXXgX  VX[.  PX%X%XuX  ZXiX%Xh.O UX5.  UXe X UX].aXmX  lX;X  lX1X  g k.#.@ 7 9 @ , 9 2 2 5 G J 4 1 O O O   O O O       O O             O ",
"O O O O O O O O O O O O O O O O O O O   O O O   O O O O     O O O O   R.r   O O .   O O O O       O O O     O O O                 % . O   O O O O O O O O O >.:.O O O O   O   O   O   X     5.tX    tXtX  O O # ;.].hX    -.# SXy O 5.    5.uX[.    O O 4.tX=X  #   ;XtXr O >.8 O   tX;Xe X   ;XtXe   4.yX  5.O O r uX=X  O -.r   -.r O j s.@ O q 2 # ; X @ : M P L G 5 4 J O   O O O                         ",
"O O O O O O O   O O O O O O O O O O O O O O O O O O O O     O O O O   5.] O O   O O O O O O O O O O O O O O O O O O O O O               O   O O O O O O   O 4.-.O O O O   O O O O O   O   O     O O     O O O yX2.VX0X  ].%X5.UX# O   O O       O O O O O     O O O     O O   O O O               O             O O     O O O O O     O M P O @ 0 1 # 1 1 O > , h b 0 0 X.v.O O   O O                         ",
"O O O O O O O O O O O O O O O O O O O O O O O O   O O O O   O O O O O # |.      O O O O O O O O       X O O O O O O O O   O                       O O O O   =X    O O O     O O   O O   O   O   O O O O O     }.hX=X  O e tXgX>.  O O O O O O O     O O O     O O O O O O O O                   O   O O O O   O O X X O O O O O   O X : X.1 X q 7 O X 5 1 . & & < * : > e.P O O                   O O O O   O ",
"O O O O O O O O O O O O O O O O O O O O 4 1 O O O 4 1 O 1 O   O O O     +Xy 4 O O   O O O O O O O O 1 O O O O O O O O O   O O O   O O                 O   4.].O   O O O   O   O O O O O O     O O O O O O O O       O   O   O O O O O O O   O O O   O @ O     O O       O                 O O O   4 J   O O O O O X O O O   O       O 9 M.@ 2 E 2 O : : O O O O $ # @ a k 1   O                         O   O ",
"O O O O O O O O O O O O O O O O O O O O O :   O O 1 q X @ O   O O O O O   =X$X>                     O O                       O O                     # |.}.1 4     O     O F   O O O O O 1 1     O O O @ O O   O   O O O   R F   O O O O O O O O O O O       @ @                 O O O O O O O   p.: O O O O O O X @ O O   O   O O   f.W X A P @ 1 X O O X O O O O O u o O   O                         O O O ",
"O O O O O O O O O O O O O O O O O O O O O   O O O O * @ X X   O O O O O O   ;.,X+XXX|.XX@X@X@X@X@XXX|.,XXX@X@X@X@X@X|.@X|.XX@X@X*XXX+X+XXX@X@X@X|.|.XX}.8   : w     O O   O n   O   O O   @ X     O O X @ O O   O   O O O   e.*   O O O       O       O       -   O           O O O O O O O O X o c   O O O O O X @ @ O O O O O O 1 * a.2 * C @ @ O O O @ O O O X @ @ + O O     O O           O O O O O O 1 O ",
"O O O O O O O O O O O O O O   O O O O   O O O O O O O O O     O O O O O   O   .                                                                         O O X *       O     ; O   O O O O * X O   O O X X   O O O   O O O O < X                       O O O           O O O O O O O O O O O O   O   O O O O O O O O X O O O O   @ O ; _ O 8 @ O 1 O 2 @ @ 2 O O O @ @ O O O O O O O         O O O O     : 2 O ",
"O O     O   O O O O O O O   O O O O O O O O O O O O O O O O O O O O O O O     O O   O O   O O O O O O O O O O O O O O O O O O O     O   O O O     O O   O O O                 O O O O O O     O O O O O       O     O O O X O             O     O O O O O O O O       O O O O O O O O O O O O O O O O O O O O O O O O O O O O O @   ( L O 7 1 O @ O @ @ X @ @ 1 O 1 2 O O O O   O                 O O O @     ",
"O   4 1 O O O O O O O O O O O O O O O O O O O O O O O O O O O O O O O O O O O O O O O O O O O O O O O O O O O O O O O O O O O O     O O O O O O   O O O O O O       O O         O O O O O   O     @   O O O O           O O O     O   O O O O O O O O O O O O O O O     O O O O O O O O O O O O O O O O O O O O O O @ O O O O O O   m.1 X 5 G O G 2 O O O @ @ @ 7 2 2 O 1 1 O         O     O O O O O O       ",
"O   4 b.7 X   O O O O O O O O O O O O O O O O O O O @ @ O O O   O O O O O O O O O O 1 O O O O O O O O O O O O O O O O O O O O O O     O O O O O O O O O O O O O O O O O O         O O O O             O O               O O O O O O O O O O O O O O O O O O O O O O     O O O O O O O O O O O O O O O O O O O O O @ @ O O O O O   * @.O @ ` @ ( G X @ O O O O @ : O O X : 0 O         O     O O O @ O O   O O ",
"  O   : y.X O O O O O O O O O O O O O O O O O @ O @ @ @ @ @ O O O O O     O O O O O 2 @ O O O O O O O O O O   O @ O O O O O O O O     O O O O O O O O O O O O O O O O O O O O O     O                       O O O O O O O O O O O O O O O O O O O O O O O X O O O O O O   O 1 4 O O O O O O O O O O O O O O O O O @ @ O O O O X   M L O : h * C O 4 5 1 @ @ @ @ @ 2 @ @ : O   O     O O O   O O > O       O O ",
"O O   O o p   O O O O O O O O O O O O O O O O @ @ @ @ @ @ O O   O O 8 O O O O O O O 2 X O O O O O O O O O O O O O O O O O O O O O     O O O O O O O O O O O O O O O O O 1 R O O O O O                 O O O O O O O O O O O O O O O O O O O O O O O O O O   O O O O O O   X 9 N O O O O X O O O O O O O O O O O O @ @ @ O O O O   o.4 O L 5 O O 2 q U 5 2 @ 2 O @ 1 2 1 1         O O O O O O X O O   O O O O ",
"    O O O   O O O O O O O O O O O O O O O O O @ O @ @ @ @ O @ O O O X @ O O O O O 1 @   O O O O O O O O O O O O O O O O O O O O O     O O O O O O O O O X O X O 1 1 O O   i.X O O O O O     X O   O O O O O O O O O O O O O O O O O O O O O @ O O O O O O O O O O O O O   X * - O O O O O O O O O O O O O O O O O @ @ @ O O   O , Z.O : ~ O O @ : b X.5 1 1 G 2 7 G 5 E J O O O O O O O   O O O 5 4     O O O ",
"O O O O O O   O O O O O O O O O O O O O O O O O O O @ @ @ @ @ @ O O O O O O X O O 1 @   O O O O O O O O O O O O O O O O O O O O O O   O O O O O O O O O X X X X 2 0   O   < X O O O           O O O O O O O O O O O O X O O O O O O O O O O O O O O O O O O O O O O O O O       O O O O X X O O O O O O O O O O O @ @ @ O O     g.@.O  .W O @ 2 8 n q : 2 q U 5 9 P q V.F   1 R 4   O O O O   * : O O O O O O ",
"      O O   O O O O O O O O O O O O O O O O O O O O @ @ @ 2 2 @ X O O O O O O O O @ @ O O O O O O O O O O O X O O O O O O O O O O O   O O O O O O O O O O O O O X * O   O O O O O O       O   O O O O O O O O O O O O O O O O O O O O O O O O O O O O O O O X O O O O O O O O     O O O X X X O O O O O O O O O O @ @ @ O X O - l.5 X f.2 1 @ 2 8 8 0 5 L 9 P 2 9 8 <.N.4 - j M 1 O O O O O O X O O     O O O ",
"O O O O O O O O O O O O O O O O O O O O O O O @ @ @ O @ @ 2 2 2 X   O O O O O O X X X O O O O O O O O O O O O O O O O O O O O O O O   O O O O O O O O O O O O O O O O O O X O O O O   O O O O   O O O O O O O O O O O O O O O O O O O O O O O O O O O O O O X O O O X O O O O     O O X O O O O O O O O O O O O O @ 2 2 O X O - #.O > @.O @ : M 8 : 0 0 w e : 7 8 & 8.N O X * X   O O O O   O   O   O O O O O ",
"c   O O O O O O O O O O O O O O O O O O O O @ @ @ 2 @ @ 2 @ 5 L O   O O O X O O O O O O O O O O O O O O O O O O O O O O O O O O X O O   O O O O O O O O O O O O O O O O O O O   O O O O O O O O   O O O O O O O O O O O O O O O O O O O O O O O O O O O O O O O O O O O O O O O O   O O O O O O O O O O O O O O O @ 7 @ O O   ) U O m P O @ : : @ 9 : : X > @ 7 @ u a X O   O O O     O O O O O O   O   O O O ",
"f $ O O O O O O O O O O O O O O O O O O O O O O @ 2 2 2 5 2 5 ! %.  O O O O O K 1 O O J O O O O O O O O O O O O O O O O O O O O O O O O O O O 1 O O O O X O O O O O O O O O O   O O O O O O   O   O O O O O O O O X O @ 1 F @ O O O O O O O O @ O O O O O O O O O O X O O O O O O   O O O O O O O O O O O O O O O : 7 O O O   V.5 O n O @ @ @ 2 2 @ @ @ O O @ 2 2 + + O O O O O O O O O O   @ O O O O     O O ",
"      O O O O O O O O O O O O O O O O O O O O O @ 2 2 2 2 2 0 L p.d O O O O X 2 > O O 2 f O O O O O O O O O O O O O O O O O O O O O O O O X 2 0 @ @ X O O @ O O O O O O O O O O O O O O O O O O O   O O O O O O O X O O q N.O X O O O O O O O @ O O O O O O O O O O O O O O O O O O O   O O O O O O O O O O O O O : @ O O   j Y.1 @ 5 @ O @ 2 @ @ @ @ @ 2 @ @ 2 2 O O O   O O O O O O O O   X O O O O O O O O ",
"O     O O O O O O O O O O O O O O O O O @ @ @ @ @ 2 @ 2 5 5 L P 9 p   O X O O O @ O O X , O O O O O O O O O O O O O O O O O O @ O X X O O O O n @ O X O 1 5 O O O O X O O   O O O O O O 1 1 O O O O O O O O O O X O O X j q.O O X O O O O O O @ O O O O O O X X O @ O O O O O O O O O     O O O O O O O O O O O O : @ O O   a.' O L E @ O 2 5 1 2 @ @ 2 @ @ @ 2 2 2 O O     O O O   O O O O O O X > O O O O O ",
"      O O O O O   O O O O O O O O @ @ O @ @ @ @ @ 2 @ 2 5 0 0 q P #   O           O O X     O O   O   O O     @   O O O     @       O     O O @   @   @ O X     O O   O     O O O O O X : 8 O O O O   X O O O X X O O X X o O O O O O O O O O O O O O O O O O O X 2 F O O O O O O O O O O X X O O O O O O O O O O @ O @ O X i.2 X G.5 @ O 7 L 5 5 1 @ O @ @ 5 2 @ O O O         O O   O O O O O O       O O O ",
"O   O O O O O O O O O O O O O O O O @ O @ @ @ @ @ 2 2 2 5 0 L P P 8   e BXiXiX-.zXuX  O S.iX    hX  }.] # ZXzX  ;X# O O [.tXO BXiXlX8 zXBXy O   tXO %Xt -XlXiX[.e   tX  ZXNXO O O O O X X @ X O O O O O O O O X O O O O X O O O O O O O O O O O O O O O O O O O X : L O O O X O O O O O O   X O O O O O O O O O O : O @ O * o.O d s.1 @ O 9 P 0 7 O O O 2 5 2 @ O O O O           O   O O O O O O O O O O O O ",
"1 K J E O O O O O O O O X 1 4 O @ O O @ @ @ @ @ 2 2 2 2 0 L L P P q   O # ZX  iX4.;X;X  zXZXO O IX].uX4.AX8 #   AX8 O   BXZX    HX  %X@X# O O   KX  IX  HX  # 4.gX].=XNXy # O O O O O X X X O O O O O   X O O O O O O @ @ O O O O O O O O O O O O O O O O O X O X s w @ X X X X O O O O O O   X O O @ O O O O O @ @ O O   m U O m 0 O O @ q L @ X O O O : @ O @ O O O O O             O O O O O O O     O O O ",
"O X h m q.X O O O 8 X O O 4 O., O @ O O @ @ 2 2 1 2 2 0 L L P P P P X O # VX  iX:.5.iX  FX;X4.# gXjX=X2.ZX].    BX8 @ O VXuXT   HX  |.;X:.O X   CXsX2.  AX-.y   NXiXO NX|.O O O @ O O O O X O X O O O O O O X O O O O 2 2 O X X O O O O O @ O O O O O O @ O O @ O u # 2 X O O O O O O O O O O X X @ @ @ O O O O @ @ @ @ X o.4 O 7 @ O O : b 5 O O O O @ 2 1 @ O O O O O O O O O         O O O O O O   O O O O ",
"O       * o O O O X X O O O * c @ @ @ O @ @ 2 2 2 0 0 0 L L P P P P >   # VX  ;XSXIXO -.kX5.iX# kXfX6XR.O uXUX# BX8 2 5.iX[.6X  HX  [.BXuXO O   NXCX#   ZX0X@X  =XcX    tXUXr O 2 @ O O O O O X O O O O O X X X O O @ 0 2 O O O O O O O O O O O O O O @ O O @ X O O @ G @ O X O O O O O @ O O   X X @ @ O O O O @ X @ @ , V.O @ 0 @ O @ * 9 @ O 1 1 : * : @ 0 2 O O O O O O O O O O         O O O O 4 J O   O ",
"O O O 1 O   O O O O O O O O O O @ @ O @ @ @ 2 2 2 2 0 0 L P P P P P q   # VX  uXr HX# @XBXuXZXO CX2.PX5.    %X[.VXO   tXnXsXmX  HX  @X[.    O   HXe NX  SX    # 4.tXO     [.-XO 0 @ O O O O O O O O O O O O O X X O @ ` 2 O O O O O O O O O O @ O O O O O O O O O O @ 9 @ X O O O O @ @ @ @ O O   X X O O O O @ O @ : O  .M.O @ 2 @ @ O @ 7 @ @ 2 2 O X O @ : @   O O O 1 O   O O O O             * p.! O O O ",
"  O O O * X O O O O O O O @ @ O @ 2 @ @ @ @ 2 2 2 2 0 L L L P P P Y q @ # BX  uX5.R.;XNX#   GX  BX  IXB tXkXKX  jXBXiXBXO   JX  SX  ].KXFXh.O   SX  BXe BXBXZX  5.tX  -XlXPXX O 7 @ @ O O O O O O O O O O O O O O O , m @ @ O O O O O O O O O @ @ O O O O O O O O O O @ @ @ O O O @ @ @ @ @ O O O   X O O O @ @ O : : * T.U O 7 2 O @ O O @ @ @ @ @ O O O @ @ O O O O , E 1 O   O O O O           < d   O O O ",
"O O O   X   O O O O O O O @ @ @ @ @ @ 2 @ @ 2 1 2 5 L L P P P P P P P >     8   O O     O @   8   8   @   O   8         2 *   I   2 O       O 8   >   >       2 O   :   O   2 O @ @ O O O O O O O O O O O O O O O O O 7 2 O O O O O O O @ O O O O O O O O @ O @ O O O O @ @ @ O O O O @ O @ O O O O   X X O O O O : @ S T.1 7 0 @ O O O @ @ : @ @ 2 O O @ @ O O O O   v *     O O   O O O O         O   O   O ",
"O X 4 F O O O O O O O O @ @ O @ @ @ @ 2 @ @ 2 2 5 0 L L P P P P P P Y 9   O @ O O O O O O O O O O @ @ @ @ O @ @ @ @ @ @ @ @ O 7 2 2 @ O O O X 1 @ X X O O O O O O O O O O O O O @ @ O O O O O O O O O O O O O O O X O 7 2 O O O @ O O O O O O O O O O O O O O O O O @ O O @ O O O O O O @ O O O O O O O X O @ O O , : g.V.O 0 5 O @ @ 2 2 2 @ O O @ O O @ @ O O X O X   O O O   O O O O O O O O   O   O   O O ",
"  O 4 v.N X O O O O O @ @ @ O @ O @ @ @ @ @ 2 2 5 L L L P P P P P P P q o O @ X X O O X O O O X O O @ @ @ @ @ @ 2 X @ O X X O 2 0 7 G 1 X X O G 0   O @ @ @ X X O O O O O O O O @ @ O X O X @ O O O O X O O X O X O O 7 @ O @ @ O O O O O O O O X O O O @ O O O O O @ X O 2 O O @ O O O @ O @ O O O O O O X O O @ 7 d Q.~ @ 0 2 O 2 5 0 5 1 @ O @ @ X O @ O O O O O O   O O O O O   O O O O O               O ",
"O O O * l ; O O O O O O O @ O @ @ @ @ @ @ 2 2 0 L P P P P P P Y Y Y Y _ : X O X O O O O O X X O 1 O X O X X X X X X X X X   O O * @ 7 0 @ O @ L , X X @ O O X X O O O O O O @ O @ @ O O O @ X X O X X O O O O O O O O 7 2 @ @ @ O O O O O O O O X O @ @ O O O O O O O O @ 1 2 O O O O @ 1 5 5 G @ @ O O O X O X @ , x P.2 : 0 @ 7 P 0 0 0 2 2 2 5 @ O @ 2 O O O O O O O O O O O O O O O O O   O O O 4 O O   X ",
"O O O O   . O O O O X X X O O O @ @ @ @ @ 2 2 0 0 P P P P P Y Y Y Y Y Y )   X           O   O   ! B.1 1 1 4 4 1 4 F 4 O 1 1 4 4 J F G U E R c.L @   O @ X O X O O O @ O O @ O X O O 5 1 X @ O X O 2 K O X O O X 1 O O 7 2 O O O O O O O O O O X X O O X L 5 X O O O @ O @ 8 2 O @ @ O @ f.q  .0 X O @ O O O O X @ , A X.@ 7 5 7 q q q 0 9 : 7 L 5 @ 2 2 O O O O O O O O O O O O O   O O   O O   X C c.O     * ",
"X O O O O O   O O O O X X O O O O O O O @ @ 2 0 0 q q P P P P P P _ Y Y o.G 4 1 1 4 1 F K K 5 G G Q.Y.A.A.A.Y.Y.B.J.$.( P ( ' &.g.i.) A #.J.Q.A.! F 5 7 @ @ O X X @ @ O @ @ O @ O @ q ` X O @ @ O : p.X O @ @ X w @ @ : 7 O O @ O @ O O O O O X O O O X n X X O O O @ @ X e @ @ @ O O X c * f X @ @ @ @ O O O O @ , J.L @ P 0 P P q q 0 7 @ w L 2 @ 0 2 O O O O 1 O   O O O 2 O O O O O X @ O   ; c X O O O   ",
"@ O O 2 2 X   O O O O O O O O O O O O O O X X : : : * > 0 0 q q q ( _ ( A.P.s.S N M M M } a.Z m m S j.j.u.u.u.r.r.r.q.N N b h j z l h h q ..0.i.T.A.A.A.~ 5 @ @ O O X X O @ @ @ @ @ * h O @ @ @ O X l X @ @ @ O , X X 7 : @ @ O O @ @ @ @ O O O O O O X X O O O @ @ @ O X # @ @ @ O O : X @ O @ @ @ @ @ @ O O O @ V Y.5 : q h *._ Y P 7 5 H w 2 @ : 0 2 O O O @ G 1 O O X > O O O   O O O O O       O O O   O ",
": O O O @ @ O O O O O O O O O O X X X X O O O O O 1 2 O @ 2 : : : 7 b q @.w.q.l h , , , - - * X X * - < < 8 t t P : > 7 : : @ @ @ O 2 G ! j @ * e.a.I.~.~./.~ 5 @ X @ @ X O O O @ @ @ X @ @ O O O O O X O O O O O X X : : @ @ @ O @ O O O O O O O O X O O O O O O @ @ @ @ O @ @ O @ @ @ @ @ @ @ @ @ @ @ @ @ @ @ * k.Y.0 q 0 B V N ( _ L V ) 0 ! 2 7 : 1 O O O 9 ! 1 O O O O O O O   O O O O O O O O @ 2 O O X ",
"* O O O O O O O O O O X O O O O O @ 2 1 O O @ @ @ @ 0 @ 2 @ : @ @ 2 : R B.d   X O @ @ 2 2 O O O O O @ 2 @ 7 h , - : @ @ @ @ O @ @ 5 2 v.f.- : G 7 d S a.z.j.k.J.! L 2 X X X X X @ @ X X @ @ @ O @ @ @ O @ @ @ @ O X X @ @ @ @ @ @ @ O O X O O O O O O O O O O O O O O O O O @ @ @ O @ @ @ @ @ @ @ @ @ @ @ : @ * f l.V.9 _ Y 8 : w m N 0 - X q.0 @ 7 @ O @ O &  .v.O X O O O O O O   O O O O O O O X X O O X X ",
"& O X O O O O O O O @ O O @ 1 * @ 2 2 U P X @ @ X O @ @ @ @ @ @ 7 : : ~ j.d # ]. X}. X X X X X}.}.{. X X[.r   : 2 7 : @   t {. X X X X5X,X{. X$X$XOXXX^.9 n c z ..A.A.v.F O X X X X X X X O X X O O O O O O @ @ X X @ @ @ @ @ @ @ O O O O X O O O X O O O O X O X O O O O O @ @ @ @ @ @ @ @ @ @ @ @ @ @ O X X X k l.m.M %.L 7 : : : , @ @ @ * 1 @ 2 @ O O O i p.! O O O O O O O O O O O O O O O O O O   O O O ",
"$ O O   O O X X O O 2 @ O O @ , X @ : @ N - O X X O @ @ @ @ @ @ @ : @ W l oX@Xt 8 8 8 8 8 8 8 8 8 8 8 8 e  X-X  2 7 2   ;X].8 8 w 8 Q f.C 8 Q Q n n I :.;XW.0 E 0 i.j.k.B.v.G 2 O X X X O O O O X O O O O @ @ @ O O @ @ @ @ @ @ @ O O O O O O O O X X O X @ O O X X O O X O @ @ @ @ @ @ @ @ @ @ X X O O O O X O - I.M.M M 0 0 2 2 @ @ O X O 7 5 @ 2 X 2 5 O 7.v 5 O O O O O O O O     O O O O O O O O   : 1 O ",
"X O O O O O O O O O O X O X X O O O O X   O O O O O @ @ @ @ @ @ @ : G L .X2.O @ O O O O 7 7 @ @ @ @ 2 2 2 O r -X  @   tXO @ G P , R A.S c 4 o.} q 0 0 q O [.h.f.V.P - d l a.$.~ R 4 O X   O O O O O X X O @ O O O @ @ @ X @ @ O O O O X X O 5 5 O X X O X X X O X X O X O O X @ @ O @ @ @ @ X X O O O @ @ O X X e.g.%.( L 9 9 0 5 2 @ 2 2 @ 9 2 @ @ * 9 2   u @ O O O X O O O 2 1   O O O O O O O O O X X     ",
"O X X O O O O X O O   O O O X O O @ @ @ O O O O @ @ @ @ @ @ @ @ : : R ( *X2 , @ @ O O @ 2 0 @ @ @ @ @ : @ @ @ [.t @ 4.2.2 5 P b 2 V.k.V O Y C * : 7 7 0 0 1 6XX a.f.L 1 @ X h S i.N.E 4 1 O O   O O O O X O 0 1 O @ : 7 O O @ @ O @ @ O X O , , O X X O X X X O X X X X X O O O @ O O X O O O O O O @ @ @ X   X { A @.( 0 , q q 7 5 0 7 O @ 2 2 2 O : O O O O @ O X O O   X : 8 O   O O O O O O O O O         ",
"O X X O O O O O O O   O O X O X X O O O @ O O @ @ @ @ @ @ @ @ @ : : v.^.<.L , @ @ O @ @ @ 7 : @ @ @ @ @ @ @ @ >  X  &X  G 7 * : G d.0.- G { * O @ 2 0 7 @ M ).C.2 k ( W K 1 @ : - m | o.~ ! 4 O     O O O X 7 P 2 @ @ * @ O @ O O @ @ X O O X X O X O O O O O @ O X O @ O O X X O O O   O X O @ @ @ @ @ @ O X * i...V.L 7 7 , 9 0 7 M 1 @ 7 0 0 G X X O O O O 2 O X O O O @ X       O O   O O O O O O O       ",
"X O   O O O O O O O O O O O @ O O X O X O O @ @ @ @ @ @ @ @ @ @ : 2 W .Xs q , O @ @ @ X O : : @ 7 @ @ @ @ @ @ X  X  #XO 0 2 O K v.{ f O q f O X O X @ @ 2 2 ,.h.&.G 0 M N.W G @ 1 7 9 N s.P.H.U 5 1 O O O X O * 0 L : @ 7 : @ @ @ @ @ O O O @ 2 O O O @ @ @ @ 2 2 @ 2 @ O O X X O O O O O @ @ @ @ @ @ @ @ O X - e.a.Y.U 0 7 : : : 0 7 @ * ( 0 q @ O O X O O @ @ O X O O O O O O   O O O O O O O O O           ",
"X X O O O @ O O O O 2 : O O 4 L X @ O O O O O @ @ @ @ @ @ @ 2 @ : 5 ' .XT 7 @ @ O @ @ @ O     X 7 7 @ @ @ @ @ O  X  #X  7 0 G M.T.m - O X   O 8 @ O @ @ @ 7 S.:., ( 0 2 ( U.Y.W Y 0 0 0 h j m ) o.m.v.G 2 @ @ X X 9 7 @ , : @ @ @ @ @ O O X X @ O O @ @ @ @ : 1 7 n :   O O   X O @ O @ @ @ @ @ @ @ @ @ @ @ X , h w.T.+.E 0 7 @ q L : @ : 0 0 2 O @ X O O O X @ O O O O O O O O O O O O O O O O O         O O ",
"O O O O O X X X O O O ; X   1 n ; O O O O O O @ @ @ @ @ @ @ 2 7 : K N h.^ , @ @ @ @ O O }.LXPX0X  @ 2 @ @ 7 : O  X  #X  0 , L T.a.h O yXZXAXfX  O @ @ @ @ @ 3.W.5 * : L M r.r.) _ P P Y 0 @ 8 B ) )  .#.E G 5 4 X X : : @ : : @ X O @ X X O O @ O   @ O X O O q h X   O O O X X O O O @ @ O O 7 @ @ @ : @ X X * 9 w.I.d.+.0 0 > q 2 @ : 9 P 0 O O O O O O O @ 2 O O O X O   O O O O O O @ O O         O O   , ",
"O O O O O O O O X O O O O     O X @ X O O O @ @ @ @ @ @ 2 @ 2 7 0 Z.i.h.[ b : @ @ @ O O UXO   HX:.@ : @ @ @ 7 @ +X  #X  @ @ ! G.e.X   KX>.r 8 @ O O O @ @ 2 2.3.M 0 @ 7 q : X * M o.q 9 : R.UXuXO B.) 9 N ) G.A.E 1 2 @ @ : 7 @ O   @ X O O O O 5.hX  O O uXuX*   O   O X X X O X O O O O &XzX  @ @ @ @ @ O X * 9 e.I.*.Y 9 @ > @ 2 2 : 9 q 2 O O O X O O X 0 2 O O O O O X @ @ X X O : O O         O O O O X ",
"O O O O O O O O O O O O O O O X O O X O O O @ @ @ @ @ @ @ 7 0 7 L Y.u.[.[ , : : @ @ O ] SX  O gX XO 7 : @ @ 7 @ XX  #X  * G +.} h 5   JX] O 5 2 @ @ @ @ @ @ 2.:.X @ 2 2 : : E 5 @ h M 7 O nX3.V @.M   0 P   d r.P./.M.G O O 9 X 5.].O @ X O O   SX:.@ 0 9 tX;X    @ O         @ @         @XkXO   O @ @ @ O X * 9 e.I.o._ 0 2 : 7 7 2 7 7 7 2 O O O X X X * P 1 O O O O O , 7 O O X X O O         O O O O   O ",
"X O X O O X X X O X O X O X O O 2 @ X @ @ @ @ @ @ @ @ : : : 7 9 L $.q.}.[ : : : @ @ O :.SX    hX&XO 7 7 2 @ 7 @ XX  @X  2 U | h @ U   SX0X0X3.0 7 1 2 @ @ X 2.1.U 5 2 0 0 @ m s.K 2 : * E.UXIX{..XqXIX[.,.IXUXjX, e.xXGXUXnXF W.UXUX[.X @ @ 2 8 UX  M A X =XSXPXSXO   @XIXUXfX    0XUXUX8 @XlX  kX[.O 2 @ @ X * , 9.P.@.P 7 2 @ @ : , @ 0 5 2 O O O O O O w Y 1 O X O O O   O O O O O O O O   O O O O O O O O ",
"X O X O O O O X O O O O X O X O @ @ @ @ O @ @ @ @ @ @ @ : 2 7 , E ) f E.B : : @ @ @ O :.FX    hX#X@ @ 2 2 2 : O  X  #X  G +.) : E N   SX;X-X1.X @ @ 0 0 2 O 2.3.) f.@ @ q 0 7 * ) M @ 2   mX^.@ ).IX2   KX[   HXh.* PXz.d IX_.m.nXE.@ : : 7 7 iX1X: h *   ;XkX  iX0X  8     UX# O UX      @XkX:.KX  7 : : @ @ X , 0.~.m.P 7 7 2 @ @ @ , 9 P 2 O O O X O O 9 ! 1 X O O O O O O O O O O   O O O O O O O O O X @ ",
"O X X X O 5 : X   1 ! 2 O O X O O O O @ @ 2 @ @ @ @ @ @ : @ 7 0 M.i., E.B 2 : : @ @ O ] FX  O gX X@ 0 2 7 7 7 O  X  #XO X.A m @ ( c   KXy O O @ O X 2 L L 0 3.2.* n , @ : : , 7 : , @ :   BX[.X .XCX' U IXm.5 AX).O IX` * PXz.r.MX5XW L 0 ) X UXX * @ @ O 0XtX  ;XiX    B 2.UX# r PX  X O @XiXLX8 : @ @ : : @ : , q.Q.o.W 0 : : @ : 2 7 7 @ @ O O O O O <  .v.@ X O X O O O O O O O O O   O O O O O O O O X @ ",
"O O X X X @ * @ O O 0 q.; X O @ @ @ @ O @ @ : @ @ @ @ @ 7 7 7 U /.u.k W.[ @ 7 7 7 @ @ # IX    GX2.2 P q 9 7 7 O #X  #X! B., X 5 : *   KX:.e e O @ 1 0 q 9 : 3.1.@ O @ @ @ @ @ @ 2 7 : 2   BX[.O [.VX* , IXL.P AXOX9 IXf.7 IXC d MX$X%.m.@.( W.BX  @ X X O 0XtX  ;XiX  kXZX=XUX# r PX  O O @XiXPXO : @ @ @ @ X @ @ v g.*.m.5 @ @ @ 2 : 7 2 O @ O O O @ O a  .U O X O O O O O O O O O   1 O O O O O O O O O X e.",
"O O O O X O 1 X X O X O > O O O X @ O @ @ @ @ @ @ @ @ : 7 7 9 v.I.q.& W.[ 7 7 : : @ @ O }.PXUXtX  2 0 M 9 : 7 @ #X  &XK.a., 2 7 7 @   tXCXCXmXO 0 0 0 9 q 7 3.1.2 2 @ @ @ @ @ @ 7 7 7 7 O BX[.O [.BXO O PXf.P CX'.9 IXn , IXm.5 NXOX%.T.G.0 AX3.5 @ @ X X 0X0X  -XuX  UX    PX# e LX      @XhXR.ZX  @ @ @ @ O @ 9 o.P.B.' 5 2 2 7 7 0 2 @ @ @ O O O X O a n 2 O X O O 4 5 O O O   X V M.1 O O O O O O O X & k ",
"O O O O O O 1 0 @ X X O O @ O O O X O @ @ @ @ @ : @ : : 7 0 q Z.~.q.2 E.] : : : @ @ @ 7 O # SX  0 0 7 : M 9 7 @ #XO 5XS c @ Y 9 : 2 0 O O O o.X.( q 0 9 9 , 3.1.0 2 2 @ @ @ @ 2 7 7 7 0   SX{.O {.SXO L dXAXwXUX( : UX[   UXp.M hXCX_.Q.i.B UX4 L L G 2   ;XKX;XUX:.  BXkXgXUXe   PXfXlXr =XBX  KX].O @ @ @ @ : A f.Q.B.o.0 0 0 0 7 0 2 @ O O @ @ @ O O # O @ @ @ : m ` 5 O   O O o q.: O O O O O O O O O   O ",
"O @ X O X O 1 @ : O O X O @ @ O O O O @ @ @ @ 7 : : 7 7 0 9 Y /.Q.x.2 E.[ : 7 7 7 2 2 @ : 8   0 7 0 : @ : ` P @ #XJ qXj : L #.0 2 7 U @.0 0 *.H.q q 0 7 9 : 2.3.q q L 0 2 @ 2 7 0 7 7 M 7 t 8 0 L [ %.H.q ^.<X) d.%.=._ M [ ' %.G.qX!.$.( O.f.P.M.Y q 0 7 O :.XXt O 8   [.4.  : @   {.R.O : e : O ] @ @ @ @ @ * h p.g.%.X.7 0 7 2 0 7 @ @ @ @ O O @ 2 O O @ @ O O o ; X O   O O O O   O O O O O O O O O O O O ",
"X X X X O O 1 0 X X O @ @ @ @ @ @ X X @ @ @ : : : : 7 7 0 9 W (.j.8.0 E.:.: : : 7 2 7 : : 7 0 7 7 : 7 : @ 7 o.n OXm.qXj 0 U M ~ o.q q T.' q 9 T.| 9 7 7 7 @ R.[ 9 N ( ( 7 7 7 7 0 7 7 9 0 P P #.o._ *.G.J.*.| M N i.K.Y.+._ K.T.P.g.S ' @.B.d.s.g.Y.W 0 7 : 2 @ @ @ X O O X O O X & O O O @ @ @ @ @ @ @ @ @ @ X h | P.A.X.2 7 @ 9 W E 5 @ @ @ O X 7 @ O O @ O O O O   O     O O X O O X O O O O O O O O O O O ",
"X X O O X O @ X @ O @ @ 2 @ O @ @ @ O @ @ @ : : 7 7 7 7 0 0 W I.q.-.M O *XX : 7 7 7 : 7 7 0 q 0 : : : 7 : 7 q .XD.Q.^.5.~ *.' o.H.| P | g.9 0 A p.7 7 0 7 O ;X  0 q ) q q L 7 7 7 0 P Y ( | { ..#.( #.G.K.K.o.P P M G.T.T.Y.I.a.} A o.*.f.} $.o.m a.T.M.0 7 7 7 7 7 2 O O @ O O X   O O O @ @ @ @ @ @ @ @ @ @ @ h i.k.A.P 2 7 7 b N._ @ @ O @ O X O O O @ O O O O O O O O O O O O O O O O O O O O O O O O O O ",
"O @ @ O O O O @ @ 2 @ 2 2 : @ @ 2 ! O.* @ @ @ : 7 7 7 7 0 7 v.f.v 0 M * {.2.O 7 7 : 7 7 7 0 9 7 7 : : : 7 : t 6XG.l., yXo.G.G.$.{ f.( M N 9 q 9 : 7 0 q O {.3.0 0 0 9 ) M 0 0 7 q ' *.} N N ) | $._ ' G.I.T.J.N.J.B.I.~.~.g.Z 9 q q ( { ) M b | ' N 0.k.A.U 0 7 : : 7 2 @ @ @ X O X 0 @ @ @ @ @ @ @ @ @ @ @ @ X - C a.N.0 2 : 7 N X.@ @ @ @ O @ @ O O O O O O X O X @ X X X O O X O O O O O O O O O O X O O f ",
"@ @ 7 @ X @ O @ @ 2 0 : 5 7 : 2 : 7 a.v X : 7 : 7 7 7 0 M q A.k.x P h 7 O  X*Xt 8 8 8 w 8 8 8 8 8 8 8 8 t OX6Xm.Q...o.X.wX$XH.d.&.` f.8 w w w w 8 w 8 =.-XR.@ 7 7 7 @ , ( 0 0 ( ' N N N 9 q N N ) { | ..g.a.i...$.*.f.Q.a.m 9 P @.Y X.q , 7 0 , b ( ( z j.Y.n.0 7 , @ X @ 2 @ @ X X w 5 @ O @ X @ @ @ @ @ @ O X X q i.n.P 5 9 7 N 5 @ @ @ O O @ X O O X 5 4 O O @ @ @ @ 4 O O X X O O O O O O O O O O O X O - ",
"@ X X X X X X X X @ 2 q 0 L 7 @ @ 2 : @ 2 X @ 7 7 7 7 9 9 Y Y.u.h.( h 7 9 @ 8 [. X XOX#X X X X X X X XOXOXV.I.Q.s.*.N.H.#.L.<X<X<X$X$X$X X X X X X X#XE.O : 7 : 7 P _ 0 ( | 0 q ' P 0 q 7 9 9 9 9 9 9 , 9 ( ' +.%.*.} Z 9 0 q ) ) $.#.L @ : 7 7 : h ' W ) r.~.A.0 0 : @ @ @ @ @ O . s @ X X O X @ @ @ @ @ @ O X : M i.m._ 1 9 7 7 2 @ @ @ O O O O O O < %.F X @ @ 2 7 ` 5 O O O O O O O O O O O O O O O O O O ",
"@ O O O @ @ @ @ @ 2 5 P q P M q P N N 9 0 b X : 7 7 7 9 , ! J.q.] { 9 7 7 9 7                     O J n.f.g.f.H.K.d.B.$.*.B.*.G.' s.9 f.X             X 7 : 7 7 7 ) p.7 M m 7 7 9 ( P 0 0 9 0 7 7 7 7 0 _ N.J.J...N 9 P q P ( 0 9 , 9 P 2 : 7 7 q G , g.V.' r.Q.A._ 7 @ @ : @ @ O X o @ @ O O O @ @ @ @ @ @ O X , 9 e.V.P 5 : 7 2 @ @ @ O X O O O O + 7.` 1 X @ @ : 9 X O O O O X O O O O O O O O O O O O O O ",
"0 7 : O : : X @ 2 0 : q m , b , , , , 7 0 , : 7 7 0 0 9 0 v.g.q.q b 9 0 9   E.-X-X*X*X*X&X&X&X&X=X5XwXqX1X$X%.I.P.K.K.G.#.qXqXqXqX1X1X-X*X&X*X*X*X&X*X*X4.O 0 9 9 9 , 0 7 7 7 0 q 9 9 Y Y q 9 0 0 P +._ @.U.P.} 9 0 q _ Y _ o.7 : 7 q q : : 7 : b O.0 f x $.@.e.j.(.n.0 : 0 @ @ X O @ @ : : @ @ @ @ @ @ @ @ @ @ : 9 a.Y.L 2 7 7 2 @ @ O O X X X , ( 1 < @ X @ @ O O O X 1 X O O O O O O O O O O O O O O O O O ",
": : @ O X @ 2 5 2 7 @ 2 7 @ @ 7 2 @ 7 2 P h @ 7 7 0 0 9 0 n.a.,.q 9 0 9   yX1.O O   O     O G E X.o.o.d.{ C.dXH.T.T.I.L.dXH.*.H.K.s.2 O O O O     O O O R.0X  0 0 0 0 0 0 0 7 q q 9 9 q o.X.P _ %.*.J.B.B.s.j 7 L W @.#.*.| , : : : 0 0 7 7 : : : , 7 0 : j ..o.x u.Q.n.P q 7 @ @ O : 0 @ X @ @ @ @ @ @ @ : @ : , m l.T.L 7 7 7 @ @ @ O X X O O @ @ O O @ O @ @ @ O O O O @ O X O X O O O O O X O   O X O O O ",
"@ 2 : @ O 5 5 L 9 , @ 2 0 7 7 7 0 0 7 7 P h : 7 7 9 q 9 U A.a.M ' b 9 O 0X@ q , 7 7 : 0 U ~ J.!.P.I.g.I.T.I.$.dXd.I.d.dX$.I.I.P.k.g.I.N.@.W L 0 7 9 q q 0 t #X2 q q q q q q q q q q q q @.U.G.*.H.G.I.g.b 9 0 L *.d.' $.N , 0 7 : 7 7 7 7 : 7 : : : 7 0 0 0 , b _ 9 c g.M.o.0 @ @ X * X.2 @ @ X @ X @ @ @ @ @ @ , 9 p.U.L 0 : 2 @ O X X O @ O @ @ @ O @ O @ @ @ @ O O : 9 @ O O X X O O O O O O @ 5 @ X b M.4 ",
": 2 2 5 2 2 : : X @ 2 2 7 7 0 7 7 q ( 0 q h : 7 7 9 q 9 ~ I.r.X...h 9 ] OXq 9 9 7 : L v.J.f...} S V { | s.i.A W.^.I.qX!.g.e.Z N M b m N g.!.T.N.X.U P q q @ *X@ q q 7 7 9 q ( _ P ( ' #.I.P.I.J.T.g.e.h q q P ' ' ( N 9 7 9 q 0 : : 7 0 7 7 7 7 7 7 7 7 0 q U 7 A %.U d a._.A.L : 2 - #.2 @ X O @ @ X @ @ @ @ @ * N i.G._ L : 2 O O @ @ @ @ O O @ @ @ @ O @ @ @ @ O X 9 : O X O 2 O O X X 2 2 - e.! O < q.( O ",
"@ 5 K 0 9 : @ X X O O @ 2 7 7 7 7 7 0 q 9 9 : : 7 0 q 9 v.f.c X.A , 0 W.=.b , 9 L U m.I.r.m M b q Y X.+.#.X.X.P qXi.1Xl j 7 0 9 9 q 0 : 9 j Z i.P.Q.T.B.X.q R.3.q P 0 0 0 q _ B.o.#.K.G.I.T.T.P.g...P P P P ( o.( 9 q q 9 9 9 0 7 : 7 q 7 7 7 7 7 7 : 7 7 9 A @.q x ..W n z.~.A.L 7 , M : @ @ @ @ @ @ @ @ @ @ @ * S s.G.@.U @ @ @ q 7 @ @ : @ @ @ @ @ @ @ @ O O @ 2 @ @ @ O X : 1 @ O X : @   = * X O O   O O ",
"G U q , : @ @ @ @ @ @ @ @ @ 7 : : 7 0 P 9 7 7 : 7 0 q q n.f.A o.V q L W.[ 9 Y n.B.*...V h 0 U U U X.m.B.*.f.a.h XXX #X  0 U W L 0 U @.q 2 7 : : , x i.k.Q.P.W.).B.o.o.o.%.+.%.I.*.#.H.I.T.~.Q.i.M _ +.N.o.( ` M 9 0 9 9 q 0 7 7 : : 7 0 7 : : : 7 7 7 : 7 7 , S N.U , A @.[ c k.T.U 2 7 7 2 : X @ @ @ @ @ @ @ @ : h e.~.+.U @ 2 9 : @ @ @ @ @ @ @ @ @ @ @ O O : q 1 @ O @ O X X X X O O X O O X O O O O X X O ",
"0 7 7 : @ 2 7 : @ @ @ @ @ @ @ : : : 2 L N 9 7 7 7 7 9 Y V.i.' | A ( ( ^.=.n.A.P.a.e.X 9 Y E U A.J.N Q.k.e.h M 8 #XO $XO U n.(.K.N.%...@ w 2 2 0 7 0 : b x e.W.'.~.U.J.B.G.#.N.H.$.%.I.I.g.l.Z b X.B.d.' %.( q 9 7 9 9 9 9 7 7 0 7 7 : 0 7 @ : 7 7 7 7 7 7 7 : 7 V f.+.0 m #.Y x a.K.W P 7 : @ @ : @ @ @ @ : : : 7 9 t.~.V.X.5 7 : 7 @ @ @ @ @ : @ @ @ @ @ @ @ @ @ @ @ @ O O O O O X O O O O X O O O O O O O O ",
": 2 0 7 : 7 7 : : : @ 2 : @ : : : : 7 0 M P 0 7 9 0 9 v.G.i.#.$.$.) ( )./.~.j.r.V O AXW.m.dXVXe.e.IXX b 0 0 q 0 #XF 5X_ ..A A } N { : jXPXIX$X' ( 0 q q q 7 3.h.e.a.P.U.T.N.V.U.U.B.g.a.m M q Y &.$.N q ( q 9 7 7 7 0 7 0 O w 0 L 7 : q @ 5.0 7 7 7 7 7 7 7 : 7 : d i.+.0 9 { +.q x f.Z.U 2 : @ : @ @ @ @ : : : 9 9 h.Q.J.o.P 0 7 : : @ @ @ @ : @ @ @ @ @ @ @ @ @ @ @ O O O O O O O O O O O O O O O O X O O O ",
"2 2 7 7 : : : : : @ @ 7 7 : : : 7 : 7 0 b 0 ( q 9 q q M.g...$.s.s.#.M.4X!.q.D P +.@.dXqXe.BXJX  2.CXO q 0 W M.N.qX| qXg , 0 : 7 9 0 t LX  * : P q 0 _ _ _ 0 S.3.7 9 b N } #.J.T.~...b 9 q X.' ( ' ( q 7 7 q q 7 7 7 7 7 X hX-X_ q 2 @ L   HX2.@ 7 7 7 7 7 7 7 7 : 7 - S %.L , a.o.L h a.Y.n.2 : : : @ : : : : : : N p.Q.B._ _ L 7 @ : @ @ @ @ : @ @ @ 2 @ @ @ @ @ @ @ @ O O O O O X X O O O O O O X 1 1 O O O ",
"7 : 7 7 7 : 7 7 7 7 : 7 7 7 7 7 9 : 7 0 , : 0 _ _ q Y A.g.i.*.B.U.T.k.^.=._ @.Y.Q.k.<XcX  AXNX8 -XiX5 ~ m.V.P.e.$XX XX  : 7 7 7 7 7 ] KX    : 9 0 q @.o.( ( W.S.P q P Y P P ' d.P.9 0 9 _ _ #.' 8 q 0   w ;.  0 7 7 7 7   UX  ` : 7   3 8 ZX1.0   t :.  0 @ O 8 O X 0 X j | 1 e ,.  M C j.~.M.L 7 7 : : : : : : , S P.P.%.( ( P 7 : : 7 @ @ @ @ @ O 7 7 2 @ @ @ O O @ @ @ O O O @ X O O O O O O @ , P 1 O O O ",
"7 7 7 7 : : 0 0 : : 7 : : 7 7 7 9 9 0 q b 7 0 q +.{ X.U.a.*.Y.T.Q.l.i.'.(.T.g.i.e.C B JX8 CXtXS.nX$Xd.d.i.) m @ #X  #XO 7 7 0 7 7 2   SXKXNXO : @ @ 9 ) ( X.).W._ _ _ Y 0 q q ' J.P U P w UXX 8 UX  t PXAXHXgXO 7 7 7 : {.kXO : 9 O [.IXAXUX[   fXHXBXAX  yXfX  CXVX  gXtX> PXGXFXNX  M A r.Q.A.U 0 : : : : : : 7 Z s.g.+.P P P 0 7 9 7 @ @ @ @ @ @ > 5 @ @ O 2 O O @ @ O O O @ @ O O @ O O O O O X X O O O O ",
": 7 7 : : 7 7 9 : @ 7 : : 7 7 0 9 7 0 M M 9 9 q _ #.m.T.I.T._.Q.g.p.f.'.L.f.d.| b q O IXS.dX$XwXGX[ , 0 P Y b O XX  #X  7 @ 7 7 7 7 8   8 *XAX  0 U 0 0 0 9 W.h.q ( _ o.( _ X.@.T.*.#.' w IX  8 UX  8 IX  O IX  7 0 q   JXt 7 7 0   JXt   FX:.  UX    KXt 3.HX  ZXAX  FX:.@ UX  9 UXO 9 ' ( t.k.(.W 0 7 7 : : : , b ..Q.M.q P P P q 0 2 @ @ @ @ @ @ : 7 7 h B.K @ @ @ O O O O O O O O O X X O O O X O O O O O ",
": 7 : : : 7 7 , : 7 : 7 7 7 7 7 9 0 q M q q q X.@.B.Y.~.T.~.g.g.s.d.*.$XL.s.} ( Y +.P PXdX^.B cXLXO L Y Y ( : O  X  #X  7 7 7 : 7 7 @ O @ O PX  5 ( 9 : 7 2 3.2.0 9 ( _ q q ' G.~.$.) ( 8 IX  8 IX  8 PX  8 UX  7 7 q [ LX  7 7 7   KX]   HX:.  UXO   PX] O UXO zXBXO UXO O UX  , UXO 0 j | Y v r.~.M.L 7 7 7 7 : m f.Q.A.P ( ( ( P 7 2 @ 2 @ @ O @ : 2 O v b 2 @ @ @ @ O O @ O @ O O O X X O O O O O O O   O ",
": 7 : : 7 7 9 9 : 2 7 0 0 7 7 9 q q P ( _ P X.M.Y.T.~.~.Q.a.i.#.B.G.*.'.p.' +.M.K.g.j VXUX8   PXLX  0 9 Y ' 7 @ XX  #X  7 : 7 7 7 7 8 gXR.cXiXO 2 @ @ 7 0 : 2.3.7 0 0 7 7 0 P ' I.| P q 8 IX  8 IX  w PX  8 UX  0 7 O hX$X0 7 7 7   LX]   HX;.  UXO   PX]   IX:.uXiX3.IX  O UX  X UX* %.L 9 { @.q q.Q.A.U 0 0 0 7 V P.Q.V._ ( ( ( P 0 5 @ @ @ @ @ @ @ 2 O O X X @ O X O @ @ @ @ O O O O O X O O O O O O O O O ",
": 7 7 : 0 0 9 7 : 7 0 q ( M q P P _ X.o.o.o.A.Y.~._.Q.P.~.P.*.G.J.K.K.'.L.f.$.i.Z m 9 =.#X: @ E.4.@ 0 P P ` : @ XX  #X  7 7 7 7 2 7 O {.fX&X  0 7 7 7 7 9 0 3.3.0 , 0 0 7 0 o.#.T.G.) q 8 IX  8 IX: w PX  8 PX  7 7   UX  q 0 0 0   KXT   KX;.  UX    PXt   ZXlX[.}.hXVXO O UX  O UX  Z H.E - e.J.+.C k.T.+.q 0 7 h ..g.B.@._ ( P P P 0 2 2 @ 2 @ @ @ @ @ X O @ X @ 2 2 @ @ @ @ O O O O O O O O O O O O O O 6 ",
": : 7 7 L N b 7 7 7 0 0 L W X.' ' _ o.N.V.U.P.I.(.Q.z.&.U._.I.K.I.g.i.'.p.A M q q P q q ( M 9 7 7 0 7 P q 9 : @ XX  #X  7 7 7 7 2 7 7 7 O @ 0 0 7 7 0 0 0 7 3.3.0 q L P P q ' *._.T.*._ O VXKXGXNXO 8 UXIXUX4.5 P 7 {.jXO 0 0 0 0 @ [.UXPXCX2.O &XUXKXcX  O -XUX8 8 UX&XX O IX  @ IXO : j i.+., Z f.o.m r.Q.A.U 9 b #.g.J.o._ ' _ ( ( P 0 2 @ 2 @ @ 2 @ @ @ @ @ O @ : @ @ @ @ 2 @ @ O O O O e ) H.v.G @ O @ O ",
"7 7 : 7 0 b , 7 0 0 0 L q M M M P ~ A.T.~.a.s.J.P.g.d.V.U.I.~.P.} ..N {.[ M q q q q q 9 7 7 7 0 0 0 0 0 0 7 7 O #X  #XO 7 : 7 7 : 7 7 7 7 7 7 7 7 0 U X.m.m.W.).V.V.J.L.` q _ $.~.T.s.) ) X w O   ` 8 LX    2 &.' q @ O 0 0 q q q P @ @ O   @ 7 O O #   0 0 O   : 7   O 0 q   9 9   0 7 7 , N U 9 h N o.) e.k.A.U m f.P.K.%.0 _ X.( ( P 0 5 @ @ @ 2 7 2 @ @ @ @ @ O @ 1 5 5 2 7 5 2 O O + & a < - O X O O O O ",
": : 7 7 q b : 7 0 q 9 9 q q P +.A.T.Q.g.i.$.V.P.f.V.H.d.d.i.$.T.g.{ ) h.h.q ( M 9 q 9 9 7 7 7 0 q 9 9 7 0 7 7 t {.O #XO 7 7 7 7 : 7 7 7 0 7 0 Y Y V.L.=.d.^.;X<.h.<.<.-.8 0 P | I.P.| q q q 0 9 0 0 8 PX  2 Y 0 7 7 0 0 0 0 9 7 0 0 q P 0 7 7 7 7 0 0 7 @ 0 P 0 7 7 0 0 0 0 7 7 7 7 : 7 7 0 : 9 q 0 : } %._ V a.J._ d.f.*.o.o.B.W ( P P P 5 2 @ @ 7 7 2 @ @ @ 2 2 # r [ P 2 8 O O O       O O O O O O O O O O ",
": 7 : 0 M h 7 7 7 9 9 9 Y n.A.T.j.a.s.i.{ M.I.P.U.P.I.S N ' ' B._.Q.A X 0XO ( ) M 9 9 0 7 : 7 7 7 : : 7 7 7 X -X@ 7 t {.O 2 2 7 2 5 0 P _ ( 7 q n B D # 0   tX  @ 2 7 7 7 7 0 ( *.d.( 9 0 q 0 7 0 7 7   2 =.3.O @ 7 7 7 7 7 7 7 : : 7 P P @ : : @ @ : : 7 7 9 7 7 7 q [ ( q q w ` U 7 7 0 0 7 7 7 9 L 0 , { m.q V s.K.P.B.H.o.( ( ( P q P L 5 P @.m.U 0 @ O 2 : : @ 2 O O O       O X O O O O O O X X X O O O ",
"7 : 0 9 9 9 9 9 0 0 P ~ A.T.Q.a.p.| $...m.G.I.P.a.S @.I.A q X.$.$.T.g.N =.0X  q 9 9 7 7 7 7 7 7 7 : 7 7 :   {.E.2 7 O $XS.  : 7 (  .q 7 8 : @ @ @ : 2 2   yX8 0 7 0 0 0 7 7 P o.I.T.) M q q q 0 0 0 0 9 7 ;.. O @ 2 7 7 7 7 7 7 7 7 7 P W @ : : : : : 7 7 7 @ : 0 I P 7 0 : : 8 r : 7 9 [ X.P 7 7 7 A B.U n s.n.L Z g.~.T.#.0 b ( P ' X.X.=.S.].h.P 0 @ @ @ O O , q 5 O O O O O O O O O O O O O O O O O O X O ",
"P 0 0 M m 9 L P ( W m.J.P.i.} | | { #.A.g.a.N.a.C X.' o.P.N q @.$.#._.i.9 [ 0X{.W.[.W.E.E.E.E.E.[.[.E.W.{.;X2.5 [ q P X [.;X].E.E.E.E.E.E.E.E.E.].E.E. X0X8 7 7 7 0 9 9 9 0 P *.I.~.$.( M q 0 7 0 0 q 0 0 q @ O O : 7 7 7 7 7 7 7 7 2 o.W 2 @ : 7 7 7 7 7 7 7 7 @ n ( ( 0 7 2 2 @ 7 7 8 8 : 7 7 7 0 : V &.W 7 } J.m.f.!._.W q q N [ h.L.V.[ 0 5 O P L 2 @ 2 @ O * @ @ O O O O O O O O O O O X O O O O O O X O ",
"A.H.&.;.M E +.%.N.G.f.{ | { { ) ) X.A.P.e.X.S C P ) q N +.I.S q B.K.K.~.f.b O [ =.=.=.[ ] ] [ [ [ ] ] =.t   7 : w P b , @   B ] ] ] ] ] ] ] ] ] ] ] [ 8 O 7 7 7 7 0 9 0 9 0 q &.d.T.*.M M q 0 0 0 0 0 0 q ( @ : @ O @ @ : 7 7 7 7 : 7 %.Y 0 @ : : 7 7 7 @ @ 2 : 7 @ > ` @.U 2 7 7 7 7 0 7 7 0 7 7 , 7 7 b | %.X.s.H.K.P._.~ q 9 | O.:.` P ' +.L s ' K @ O O X X X O O O O O O O O O O O X 2 G O O O @ O O O O ",
"P ' [ B X.V.T.k.g.$.G.=.n M X.| ) n.I.y.[ N P +.A b q ( ( ~ T.} Y J.I.I.Q.*.#.( ,.> w w 8 8 8 8 > 8 8 > O O 7 7 7 9 : 2 7   # # # # # # 8 # 8 # > 8 8 O @ 0 P Y q : 9 0 0 0 0 _ #.I.' q q 0 7 7 7 0 0 7 q ' 7 7 7 L.@ @ 2 @ 7 7 7 7 7 _ 0 0 @ @ 7 7 7 7 7 7 : 7 @ : @ p h.V.U 7 7 0 7 7 7 7 7 7 7 0 0 q Y q i.Y.W V g.~.T.m.Y M ( Y ( ( I [ o.L s ( G O O O O X O O O @ O O O @ O O O O h N G O X O O O O O O ",
"0 Y m.V.K.P.k.r.C ( N n [ ( ) ) M.H.e.b q q ~ A b 9 q X.V.p.=.K.d.%.U.g.o.I.qX<X X#X#X#X#X#X#XXXXXXX#X X#X6Xt O 7 7 7 X ;.-XXX X X X XXXXX X+X XXX#X#X$X-XO $.!.s.: 0 0 9 9 0 _ #.T.' q 9 9 0 0 7 0 0 7 q q 7 7 7 9 2 O O @ : 7 7 @ 0 0 : I 5 @ 7 0 7 7 7 7 2 : : 7 : @ u h.+.7 0 0 0 7 0 0 Y U I _ 0 0 7 9 M V | o.g.~.K.B.W q 9 ( M ( 0 q q P y { R 1 O O O O @ O O O O O @ @ O O O X O   X O O X O O O O # ",
"_ V.U.Q.a.} ..i.N q P ( M P _ M.T.a.o.N P +.V 9 9 9 q ( ) N t _ | b P U. .dXH.I.g., 9 7 7 7 : : @ @ @ : O   -X:.7 7 O E.}.  O O O O @ @ O @ 0 q @ @ 0 @ @ iXO , * 0 7 9 9 0 0 H.$.~.$.q q q 0 0 0 0 0 7 0 0 7 7 7 7 7 @ O O @ : 7 7 P q : P L @ : 7 q 7 7 7 : : 7 : 7 : + <.W 0 0 0 7 _ U q ) q 0 0 7 7 7 9 q 0 m f.g._.o.f.n.q q ( _ _ P P n _ / ,.W 1 @ @ @ @ @ @ O O @ O O O @ @ O O O O O O O O O O X O O ",
"Y.k.a.i.i.{ A ' | A M 9 P M M.T.u.&.S ) +.e.j q 9 9 q M q q M q _ #.( O dX9 H.~.P.i.9 q 9 9 9 7 7 7 7 7 0 7   ;XO 7 w *XX 7 7 @ 0 0 : 7 7 7 q ) : 7 7 0 0 O 0XO 7 0 7 9 9 9 0 ' *.~.H.( q q 9 0 0 9 0 7 7 0 7 7 7 7 7 7 2 @ @ @ 7 7 P 0 : 0 0 2 @ : 9 9 7 7 7 7 7 7 7 @ X >.P 7 7 7 7 q 0 : 7 7 7 7 7 7 7 9 9 9 M b l.T.P a.A.P q M ` _ P 0 -._ w w 5 2 @ @ @ @ @ @ O O @ O O O O O O O O O O O O O O O O O O ",
"i.e.} { ) ( ( ) V b 0 9 q v.Y.u.=.@.e.X.S j 7 9 , 7 0 q q 9 q q 9 _ *.h.E.B.{ V.I.$. ., 0 9 7 7 7 7 7 7 7 0 7 ] [.O @X: 7 : : @ q q : 7 7 7 7 @ 7 7 7 0 7 7 @Xw : : 7 0 0 q 0 #.$.~.I.( q q 9 0 0 0 0 7 0 q 7 7 7 7 7 7 7 7 @ @ @ @ q 7 : 7 0 5 @ : 7 9 0 : 7 7 7 7 @ @ O ] P 7 7 0 7 7 7 7 7 7 7 7 0 7 7 9 9 9 q j k.Y.q a.Y.X.q M N ' X.L 0 0 5 7 @ @ @ @ @ @ @ @ @ O @ @ O O O O O X O O O O O O @ 7 1 @ X ",
"' { ) ( ( ) N 9 7 0 q q E m.e.n 0 ( +.{ h 7 9 7 0 0 0 9 9 9 q q q 0 ' $X[ P B.) M.P.d.g., 0 7 0 7 7 7 7 7 7 : O #X  #X  7 @ @ @ @ @ 7 7 7 2 : 7 7 0 0 7 7 7 3.3.7 7 7 7 7 0 0 &.$.~.d.( q 0 0 7 7 7 7 7 O.&.: 7 0 0 0 7 7 7 7 @ @ @ 7 2 : 2 ( Y 7 @ : 9 q : 7 7 7 7 @ @ @ ` L 7 0 7 7 7 : 7 : 0 7 7 7 : : 7 0 9 q v Q./.( i.K.+.( ( f.T.@._ E 0 7 2 @ @ @ @ @ @ @ @ @ @ @ O O O O O O O O O O O O O X : 2 O X ",
"( _ ( M b 9 q 9 0 L 9 E n.Z , 7 0 P b 9 0 0 7 7 9 7 9 q 9 q q q q 9 0 W.=.M P H.) Y.Q.g.g., q 0 0 0 7 7 : 7 7 O  X  #X  7 @ @ @ @ 7 7 2 @ @ 7 7 7 7 0 7 7 7 3.2.7 7 7 0 7 7 9 q ' *.| q 0 0 7 7 7 7 0 7 =.S.2 7 ` 0 7 7 7 : q P @ 2 0 @ 2 @ ( O.2 : : 7 9 7 : 7 7 2 @ @ : ` 0 7 7 7 7 7 7 7 7 7 7 7 7 7 7 : 7 7 9 c Q.A._ ..g.V.Y M ) ( P q q 0 0 7 @ @ @ @ @ @ @ @ O O O @ @ O * ` ~ K 2 O O O O O O X O O X ",
"$.A b 9 9 0 9 0 L 9 ! A.e.; @ : 0 q , 0 7 0 7 7 : 7 q 7 0 q 9 q 9 9 0 E.[ q q P J.d._.Q.s.L.:.: 7 q 9 7 7 7 : @ XX  #XO : : @ @ @ : 8 :.2.]   0 : 7 0 7 7 7 3.3.7 0 q q q : 0 q P K.*.0 0 O 0 7 7 7 7 7 ` =.O   q 7 7 7 7 7 q q : Y L @ @ @ 9 _ 7 8   @ , 0 7 7 7 @ @   : q 7 7 7 7 7 7 7 7 7 7 7 7 7 7 , P 7 q q e.~.' #._ r.J.U 7 M ( P q q 0 0 2 2 2 @ @ @ @ @ @ O @ j o.1 X : 9 2 2 @ O O O O O X X O O X ",
"V , 7 0 9 9 9 q 9 ~ A.u.v 0 , 0 0 q 9 : 7 7 7 : : L @. .9 9 9 9 9 9 0 E.[ q q 9 _ d.s.T.S PXUX* 9 0 q 7 0 0 7 @ XX  #XO 7 : : : @ O {.IXkXAXmXO 0 7 7 0 q 7 3.3.7 0 7 7 9 q 7 q P I.H.9 X lXO 0 7 0 0 7 ` 8 0XPX8 7 : 7 7 7 7 0 : +.$XO : @ @ 9 0   AXh.: q 7 7 @ @   hXX 7 2 7 7 7 7 : 7 7 7 7 7 7 7 : n X.7 N M a.(.M f.~ 0.~.~ 9 M P P q L 7 0 w n U 1 @ @ @ @ @ O @ X O @ O X X O @ O O O O O O O O O O O ",
"q 9 7 0 9 9 q b L ~ Z d 7 q 7 q _ A , 7 7 7 7 : @ 7 9 9 7 0 7 7 9 0 7 E.[ 0 P M 9 _ $.' J.JXcX^., 9 9 q 0 0 0 @  X  #XO 7 : : @ 2 O [.hX    UXO L.q 7 7 0 7 3.1.7 0 7 7 7 q 0 q ( H.H.9 O UXO 7 0 @ @ 0 ( t UX  0 @ =.@ 7 7 0 7 O fXyX7 7 @ O 7 0   uX[ : ) @ X O :   UXO @ 7 2 7 8 [ : 7 7 7 7 7 7 7 7 : 0 b o.m k./.9 i.~ z k.M.0 M M P P 0 9 _ 1.,.n.1 @ @ @ @ @ @ @ 2 O O O O O @ @ @ @ O @ @ O O O O O 2 ",
"M , 7 7 9 0 q U Z.e.d 2 7 K #.| N b , 7 7 7 7 : : 7 7 0 0 7 7 7 7 0 7 E.[ 9 0 _ N : _ *..XMX<XiX| 9 9 7 q 0 7 @  X  #XO 0 : : 2 I q [.lXO   UXO 7 0 0 7 7 7 3.1.7 9 0 7 7 2 0 P &.| $.0 O UXO 8 8 iXtX  7 -XJX].O kXlX=.: 7 0 0   UXO q 0 : 1.  0X[ 5.8 , X yXyX2.X   UX] tXw 7 w AXfX` 7 7 7 7 7 7 7 7 9 7 N o.N Q.Y.N f.+.V j./.L 9 M ( P ( d.J.I ` L 2 @ @ @ @ @ @ O @ @ O O X O @ @ @ O @ @ @ @ @ 2 @ m 0 ",
"b 9 7 0 0 9 U Z.j.v 3 q P ' N b 9 7 7 : 7 7 7 : @ 7 0 0 7 7 7 7 7 7 7 E.[ 0 0 0 _ M 9 G MX{.L.JXO %.9 : 7 9 0 O #X  #X  q 7 : 2 0 9 [.lX    IX@ 7 0 0 7 7 7 3.3.0 q q 7 7 2 0 P #.' *.o.O UXO   UX XuXAXO iXKX{.8 HXhX=.@ 7 7 9 5.NXO 9 0 @ ;XUXuXO PX:.  FX;X].UX8   PXgX-XUXO 1.LXiX[ 7 7 7 7 7 7 7 9 9 7 { _ p.~.V.V *._ m u._.+.( ' *.G.*._ L 7 0 0 7 : 7 2 @ @ @ @ @ @ @ O O O @ @ @ @ @ @ @ O @ 2 @ X @ ",
", 0 7 0 9 U M.i.Z q 9 q 0 q q 9 7 7 7 7 7 7 : : @ 7 0 7 7 7 0 0 7 7 7 E.[ 0 9 7 0 X.A   JXMXfXUXV q B.m @ 0 7 O #X  #X  7 7 : 2 @ @ [.lX    IXO 7 7 7 7 7 7 3.1.7 0 0 7 7 7 7 ( M #.K.o.O UXO T KX  O IX  3.SX  O jX#XO 7 7 9   AX:.9 9 9 @ -XiXO O KX]   UXO O UXw   UXO   UX8   AX5.@ 0 7 7 : 7 7 7 9 9 , ) q z.~.m.e.m.9 , q.Q.T.H.G.| _ P 0 q 7 w q 7 7 7 2 @ @ @ @ @ 2 @ O O @ @ @ @ @ @ @ @ @ O O o ; q ",
"7 : 0 , Y A.k.q.) m : 7 0 q , : 7 7 7 7 0 7 : : 2 7 7 7 7 7 7 7 7 0 7 E.] 0 9 9 0 0 ` : UX[ p.KX).i.q I.A : 7 @  X  $XO 2 7 @ @ 2 @ [.gX    UX  7 0 7 7 7 7 3.3.7 0 0 0 0 7 7 P $.$.T.| O UXX T UXgXIX-X@ 3.FX  O lX#X@ 7 7 9 : UX  0 9 7 @ -XgX@ O LX] # UX_ 0 UX(   UXn   UX@   ZXR.@ 0 q 7 : 7 7 7 0 9 : M b p.(.P i.W j @.m j.A.P q M ( q 0 0 7 7 7 2 @ @ 2 @ @ @ @ 7 2 @ O @ @ @ @ @ @ @ @ O O O O & k P ",
"0 0 9 L M.k.w.r * 7 7 L ( h 7 7 7 0 7 7 7 7 : : 5 7 : 7 7 q 9 7 7 0 7 E.] 7 0 q 0 0 7 {.CX  7 fXsXT.i.q H.b : @ #X  #XO 0 0 : : : O [.UXKXIXiXO 7 0 0 7 7 0 3.3.) | q q 9 9 9 0 *.d.~.#.O UXO ] PX8 O O 0 4.SX  O lX@X@ 7 7 : uX0X: M | | q -XhXM o.LX=.  UX: O UX8   UX@   UX@   ZXR.@ q ( 0 7 7 7 7 7 7 7 7 , a.A.9 ' 5 d $.q e.Y.L q ( P 0 0 7 2 @ 2 2 O @ @ @ @ @ @ @ 2 @ O O @ O @ @ @ @ @ O O O @ # X 5 ",
"9 7 0 M.g.0., : L W N 0 m 9 7 7 7 7 7 7 7 7 7 7 W C , 0 0 Y m 0 7 0 7 E.[ 0 9 9 9 9 9 q @ q 9 G &.o._.g.9 U.i.O #X  #XO q _ 9 2 7 7 : O @ O O q 0 q q 9 q q R.3.M b q ( ( q q q *.H.~.d.@ UX@ ) UX{ H.'.H.^.JXf.P.MXqXf.$.| s.UXI.P.P.~.~.Q.wXcXg.P.LXL.O KX#X&XUX8   UX8   UX:   SXR.@ 7 q 0 7 7 7 7 7 7 , P 9 g.M.h &.2 : N P 9.I.~ q q q 0 0 2 @ 2 7 2 @ @ @ @ @ @ : @ @ O @ @ 2 @ O @ O @ @ @ O @ @ X @ @ ",
"9 L v.} x P b : 5 q 7 9 : : 7 7 7 7 7 7 7 7 : @ 7 , 7 7 0 7 : 7 0 0 7 E.] 0 0 9 9 9 9 9 q P 9 7 @.P.*._.i.X.K.M XXO $X  7 +.h.X 7 7 0 0 0 9 0 0 0 q q q 9 9 3.3.9 9 9 q M 9 q ( H.H.I.d.9 lX: m $XKXHX.XV p.fXA ..h.KX.X9 9 p.dXN M A i.} m {.-Xm m hX[ M : gX XPX8   lX@ O kX@ @ E.PX5.: 7 7 7 7 7 7 7 7 M P V ~.n.b _ 7 * j +.b a.M.L q q 9 9 ( f.A.5 @ @ @ @ @ @ : @ @ O X @ 2 : 2 @ O O @ @ @ @ @ @ : 9 ( ",
"q v.$.c K N , 2 7 7 0 , 7 7 7 7 7 7 7 7 7 7 : @ 2 7 : 7 0 , 0 7 7 7 7 E.[ 0 0 0 0 0 9 9 9 P o.b 0 V.g.$._.P.d.*.<X  *XX 7 Y W.p 7 7 7 0 7 7 0 0 q M q 9 7 7 3.1.0 q q q ) G.$.' #.d.d.$.(   9 q 9   X b M 9 7 ' ) 7   : 0 7 b b ' 0 M ) N M 7 : ) N @ 0 q [ @ X UX@ 8   7 0 O 7 7 O   @ 7 7 0 7 : 7 7 7 0 N 0 q.~.+.b P 7 7 , o.M r.Y.U q q #.P.J.| L 7 2 @ @ @ @ @ @ @ @ O O @ @ 2 @ @ @ @ O @ @ @ : : 9 q 5 ",
"! *.Z 8 M q Y M L 9 : : 7 7 7 7 7 7 0 7 7 7 : @ 7 7 : 7 7 : 7 7 7 7 7 [ [.7 0 0 0 0 9 9 9 9 P | 9 q %...*._.i.:.'.i. Xw q 0 &.;.7 7 0 7 0 0 0 9 M M 9 9 9 : #X8 q #.*.T.Q.g.N ( ' d...| 0 : : 7 9 9 9 9 9 9 M M q q q P 0 7 q ( P 7 9 9 9 9 0 7 9 0 q q X #XLXIX0X  @ @ @ 2 2 7 7 7 7 : 7 7 P 7 : 7 7 7 7 M 9 a.T.q N P 7 : , ) _ e.T.Y.G.K.N.P 2 7 7 7 5 @ @ @ @ @ @ @ O O , b L 1 d ` L 2 @ @ @ @ @ @ @ 2 O ",
"#.l G q P W A 9 9 , : 7 7 7 7 7 7 7 7 7 7 : : 2 7 7 7 7 7 7 7 7 7 7 7   0X  0 0 0 0 0 9 9 0 7 0 ( 9 0 o.d.*.| uXO H.i.;XO ( q B 0 q 0 7 7 0 0 q M 9 q M M : ;X7 G._.P.i.{ 9 q q $.| N ) q 7 7 7 7 7 0 9 0 0 q q 9 0 7 =.O.0 q ( 0 7 7 9 q 0 7 7 0 0 7 Y 2 @   X O 0 : @ 7 2 @ @ @ : 7 7 7 7 q 0 : : 7 7 7 0 , g.V.7 ) 0 : 2 : A _ t.Q.Y._ P q P 7 9 5 7 0 2 @ @ @ @ : 0 1 , b p.@.G : @ 2 @ @ @ @ @ @ @ O O O ",
"w.e 0 0 0 ( b 9 : : : 7 : 7 : 7 7 7 7 7 7 : @ 2 7 7 7 7 7 7 7 7 7 7 7 7 O iXr O O O O O @ O O O @ 2 @ O q : yX=.( q J.L.;X@ @ O X @ @ X O O @ : : @ : O [ dXs.s.{ ..b 9 9 7 0 ` ( q q M 9 7 7 @ 7 0 0 0 9 0 0 0 9 7 0 7 9 M ` P 0 0 9 9 7 7 7 7 0 0 7 ' P @ 9 ) 0 7 7 9 P 2 @ @ @ @ @ : : 7 7 7 7 : 7 7 7 0 - g.n.- #.2 : : : N X.v j.(.U M P P 0 7 7 : 2 @ 2 @ @ @ : 7 2 X @ X @ 2 O @ @ @ @ @ @ @ O O O O O ",
"D : q U N 9 7 , 7 7 : 7 7 7 7 7 7 7 7 7 7 : @ 2 7 7 7 7 7 7 7 7 7 7 7 7 0   @X*X&X&X&X&X&X&X&X&X&X&X-X&X&X-XO L G.N q *. .*X&X*X&X&X&X*X&X&X*X*X&X$X-XwX<Xi.i.: 7 9 7 9 9 q q 0 7 q q 9 q 7 : : 7 : 7 7 7 9 0 7 0 7 7 7 7 0 q ( W.` 7 0 0 7 7 7 0 0 7 ( U @ 7 9 7 7 0 7 7 7 @ @ @ @ O @ : : 7 2 7 : 7 7 9 5 c ~.v.f %.2 : @ 9 { Y 0 q.T.~ q P P 0 9 0 : P 5 @ @ @ @ O O O O O @ O X @ @ O @ @ O O O   o : 0 1 ",
"8 , 0 P P b , : : 7 7 7 7 7 : 7 7 7 7 7 7 : @ 2 7 7 7 7 7 0 7 7 7 7 7 7 7 7 @                       4 {   @ I 0 ~ ~.A q I.g.X                 @ N | } m h , 7 7 q 9 ( M q 9 7 7 9 9 9 7 9 7 7 : 0 9 : 7 7 7 7 7 7 7 0 0 7 7 0 0 B E.L._ 0 0 7 7 7 7 7 @ 0 2 : 9 0 7 0 7 7 7 7 7 2 @ @ O @ @ @ 7 7 7 0 7 9 2 q.~.U h Y 7 : @ : : : 0 j g.M.P ( P M s.@.` &.G O @ @ @ O O O @ @ @ @ @ @ @ O @ O X : 1 O a n U 4 ",
"9 7 7 7 q , , 7 : : 7 7 7 : : 7 7 7 7 7 : @ @ 2 7 7 7 7 0 7 7 7 7 7 7 7 7 7 7 7 7 7 7 0 7 0 0 7 0 0 7 0 o., 7 _ q V.~.{ ( U.Q.b 7 q 0 7 7 ' H.f.i.b 9 0 q M M M N ( M 9 7 7 7 7 q 9 7 : 0 0 7 7 : 7 9 7 7 7 7 7 7 7 7 7 7 7 q q 0 2 q &.o.0 7 7 7 7 0 7 9 0 9 ) 0 7 7 7 0 0 0 0 7 7 7 @ @ O @ @ 7 7 0 0 0 : r.(.0 A U : : @ : 7 - ( 9 r.A.( ( ) ) _ _ U 2 @ 2 @ @ @ O X O @ @ @ @ @ O @ O O X C l.v.5 & , 5 1 ",
"q N 9 9 7 : : : 7 7 7 7 7 7 7 7 7 7 7 7 : : @ 7 7 7 7 7 0 0 0 0 7 7 7 7 7 7 7 7 7 7 7 7 0 0 0 7 0 7 7 7 U  ., 0 #.) J.~.N ( T.Q.m 7 ' f.$.| ) : : 9 q q q q 9 0 7 7 7 7 7 7 q 7 7 9 7 7 0 0 7 7 7 7 7 0 7 7 9 9 7 7 7 7 7 7 P P q 0 7 0 q q 0 0 7 0 q 0 q _ o.o.0 7 7 9 0 0 0 0 7 7 7 7 2 @ @ @ @ 7 0 7 0 : r./.: i.U : : : 7 7 - ..P V K.%.g.~.Y.W 2 @ 2 2 2 @ @ @ @ O O @ @ @ @ 7 9 5 O X O X * 1 O # : 5 1 ",
"q 9 q b , 7 7 : @ 2 7 7 7 7 7 7 7 7 7 7 : : @ 2 7 : : 7 0 0 0 0 0 7 7 7 7 7 7 7 0 7 7 7 7 0 0 7 7 0 0 : 7 0 9 9 P o.' T.Q.V _ I.Q.| d.i., 7 9 0 0 q q q 9 9 0 7 7 0 9 9 7 : 7 7 7 9 7 7 7 0 7 : 2 7 7 7 7 : 0 9 : : 7 7 7 7 P q 7 7 7 7 7 0 0 0 q 0 0 7 7 %.o.q 2 7 9 9 0 0 0 7 7 7 7 7 7 : 2 : 2 @ : 9 0 , a.n.h d.L : 7 7 7 7 : S ~ c P.A.%.o.L 0 7 7 7 2 2 @ : 7 @ @ @ @ @ 2 @ O O O X O O @ @ X O p n U 1 ",
"h @ : @ : : : : : @ 7 7 7 7 @ 7 : : : 7 : @ @ 2 7 7 7 7 7 0 0 0 7 7 2 7 7 7 7 7 7 : 7 7 7 7 7 7 : : : : 2 0 0 _ h q _ #.T.k.m _ J.d.N : 9 9 q q 9 q q q 0 7 7 7 7 7 7 7 7 : 7 7 7 q 0 @ @ 7 2 @ : 7 7 7 7 @ : 9 : : 7 7 7 7 0 0 7 7 7 7 7 7 7 7 7 0 7 @ @ P q 7 7 0 0 0 7 7 7 7 7 7 7 7 : 7 7 0 P 7 O 7 7 g I.E h ` 2 : : : : 7 7 h _ D j.A.P ( Y 7 2 7 2 2 2 @ @ @ @ @ @ @ @ O O O O @ O @ O O O @ O @ 7 4 @ ",
"* @ X @ @ : 7 7 : : : 7 7 7 2 2 : : : : : @ @ 2 : 7 0 7 7 7 7 7 7 7 7 7 7 7 7 7 q q 7 7 7 7 7 L { : 2 7 7 0 0 W f.* L %.s.T.g.( N.J.J.P.N : 0 q 7 0 9 q q 7 7 7 7 7 7 : 7 7 7 0 9 9 9 0 : 7 7 : : 7 @ 7 7 @ : : : 9 9 : : 7 7 7 7 7 7 7 7 0 7 7 7 7 7 @ @ q 0 7 7 q ' 0 7 7 7 7 7 7 7 7 : 7 0 7 q 0 @ @ @ x Y.L , L @ : @ 7 : 0 : 7 9 , r.(.W q P 0 0 2 @ 2 @ @ @ O O @ O O O O O O @ O O @ O O O @ O @ 7 1 + ",
"@ : @ @ : @ : : : : 7 : 7 : : : 7 2 7 7 7 7 @ @ 7 7 L M 7 7 7 7 7 7 7 7 7 7 7 0 ` q 7 0 0 @ 2 0 q : 7 0 q 0 0 0 o.N : W f.' J.$._ *.P.$.H...0 @ 7 7 9 0 9 7 7 7 : 7 7 7 7 7 7 7 q q q 7 @ 7 7 : : 7 7 7 2 @ : 7 : 9 9 7 7 7 0 7 7 : 7 7 7 0 7 7 7 7 7 @ @ 7 0 0 q q &.0 7 7 7 7 7 7 7 7 7 7 7 7 7 0 @ @ @ S V.2 N L : 7 : @ : 7 7 7 9 0 9.P.v.P 0 9 2 2 2 @ @ 2 O O O O O O O X O @ @ @ O O O O @ X 8 B s.! + ",
"* : : : 7 7 : : 7 : : G @.r.> : 7 7 7 : 0 ( b 2 7 7 0 9 : 7 7 7 7 7 7 7 7 7 7 7 7 : 7 @ @ @ 7 0 0 q P P P 0 0 7 0 P q 9 ( ' L T.g.{ %.d.P #.!.S 2 q P 9 q 9 7 7 7 7 7 7 7 7 7 7 q q q 7 @ @ 7 7 7 7 7 7 2 @ 7 7 7 : 7 7 q q 0 7 7 7 7 7 7 7 7 7 7 7 7 @ : 7 P q 7 7 7 0 7 7 7 7 7 7 7 7 7 7 7 7 7 0 @ @ : a.V.2 M 0 : 7 7 : 7 7 7 7 7 7 , { ~ L 0 7 7 2 @ @ @ 2 O O O X X X O O @ O O X O @ @ 8 7 7 2 : q 5 O ",
"h : : 2 : : @ @ : : : 2 0 : @ : : 7 : 7 @ O @ : 7 : 7 7 7 7 7 7 7 7 7 7 7 7 7 7 : @ @ O @ 2 0 P q 0 0 7 7 0 7 : @ 2 q q 0 P #.@.~.a.) o.s.9 o.d...M : 9 q 9 0 7 7 0 7 7 7 : 7 7 0 q 0 7 @ @ 7 7 : 7 7 7 @ : : 7 @ 7 7 @ @ ` P 9 : 2 2 7 7 7 7 7 7 7 7 @ @ 7 0 7 7 7 7 7 7 7 7 7 7 7 7 7 7 7 7 : 7 7 2 7 - j.Z.@ 7 2 : 7 7 : 7 7 0 7 @ 7 7 x @.L 0 2 7 @ @ @ @ O O O O O X X @ @ @ n _ U 2 2 @ O O O O O O O X ",
"*.} j * : : @ @ @ : : @ @ @ @ : @ @ : : @ @ : : : 7 : 7 7 7 7 7 7 7 7 7 : 7 : @ @ O O 7 7 7 7 7 7 7 7 7 7 0 7 : 2 7 0 _ M 7 W $.*.~.S ' T.f.9 q N.!.g.b q q 9 7 7 0 q 0 7 7 7 7 9 9 9 7 : @ 7 7 7 7 7 7 7 7 7 7 7 7 7 7 : +.0 9 7 @ @ 7 7 7 7 : 7 2 2 @ @ 7 7 7 7 7 7 7 7 7 7 7 7 @ 7 7 7 @ @ @ 7 7 2 2 - g.~ : 7 @ : : : 7 7 0 7 2 9 i.U l P.~ 0 0 7 7 2 2 2 @ @ O @ 2 2 7 w P 0 9 2 2 O @ O O O @ @ @ 7 1 O ",
"n.T.k.e.h * X : @ 0 , : @ @ @ : @ @ @ : @ @ @ : : 7 7 7 7 7 7 7 7 7 7 7 2 @ O @ @ @ 7 7 7 7 7 7 7 7 0 0 0 9 7 @ 7 0 0 q ( 9 , Y ' o.T.) J.Q.i.q q %._.!.f.9 9 9 7 9 q ` q : 7 7 9 9 9 7 : : : 7 7 7 7 7 : : @ @ : : : 7 7 U @ : : 7 2 : 7 7 7 : 2 7 @ @ @ : 7 0 2 2 2 7 7 7 7 7 2 @ @ : @ @ @ : 0 7 0 2 f H.K : 7 @ : : @ 7 0 0 7 0 7 M U - i.n.0 0 0 0 0 0 1 @ 2 w q L 2 @ 2 2 O @ O O @ O O O @ O O e 7 5 O ",
"9 P +./.Q.r.,.q j 9 9 , @ @ @ @ @ 2 2 : : @ 2 @ : : 7 7 : 2 2 7 : 7 7 @ O O @ 2 2 7 7 7 7 7 7 7 7 7 7 0 0 7 : @ 7 7 7 0 q q 0 0 _ ( +.I.} J.Q.N ) M ' K._.P.b 0 0 9 9 7 q 0 7 7 9 9 0 7 : @ @ @ : : 7 7 : : @ 2 @ @ : : 0 0 7 7 : 0 7 7 7 0 7 7 7 7 ` I 7 7 : 7 7 7 7 7 7 7 7 7 2 @ @ : : @ @ : 7 7 q 2 x A.4 b L @ : : : 7 7 0 7 7 7 7 ` 5 x M.[ >.=.O.4.=.1. .v.4 X @ @ @ @ @ @ @ @ @ O O O O O O O @ @ 2 @ ",
"&.S q U Y.Q.j...z - 7 b , : @ 2 : : @ @ : @ : : : : 7 7 7 : @ 7 0 , O @ @ @ 2 7 7 7 7 7 7 7 7 7 7 7 7 7 7 7 @ @ 7 7 0 0 0 0 q 0 q _ P B.~.i.U.f.M $.) ( #.T.Q.M 7 0 9 9 7 0 7 7 0 7 7 7 : @ @ 7 0 q q q 7 7 7 7 7 7 7 : P P @ 7 7 7 7 @ : 7 7 7 7 7 7 0 7 7 7 q X.P 7 7 7 7 7 @ 0 0 : 7 7 @ : : 7 : 0 7 i.m.@ i.L @ : 7 7 7 7 : 0 0 7 : q G , #._ :.5.&.R.C.V.~ 5 2 @ @ @ @ @ @ @ @ @ @ O @ O : : 2 O O O O O ",
"P _ o. .( o.B.T.Q.q.D : , : @ @ 5 : @ 0 - @ : 7 : : @ 7 2 q , 2 W C X 2 7 2 7 7 7 7 7 7 0 0 7 7 7 7 7 7 7 7 @ @ 7 7 7 0 0 0 0 q 0 0 P _ U.Q.$.I.) q ' q 9 q o.H.$.b , 7 0 : 7 0 q q 9 7 q 0 @ 0 q P P 0 7 7 : 7 7 7 2 : P 0 @ @ 7 7 0 0 @ @ @ @ @ 7 7 @ O : : : P L 7 7 7 7 7 7 q q 0 7 2 @ @ : : O P 0 s.W X ( 5 : 7 7 @ 2 : : q 0 7 2 2 2 * } +.] <.%.O.+.G 1 @ @ @ @ @ @ @ @ @ @ @ @ @ O O @ w K @ X O O O ",
"B.H.i.9 M _ X.m.Y.P.a.V b - @ @ 2 : 2 Y j @ @ 7 : @ @ 2 2 : @ 2 2 @ @ 2 7 @ @ 7 7 @ O 7 2 2 7 2 2 7 7 2 @ @ @ @ 2 : 7 7 7 7 7 0 q : 0 ( #.B.$.+.*., 0 q ) N 9 L V.!.g., 7 0 9 P ( P q 7 7 2 @ @ @ 7 @ 2 7 : : 2 : 7 7 7 0 : 2 : : : 7 0 7 : @ @ @ @ 2 @ O : @ @ @ 7 0 0 7 7 : 9 ( q 7 7 7 2 7 7 7 : 0 b k.n.: q 2 : 7 7 : : : @ 2 2 7 0 , 2 o q.T.&.3.V.E 2 7 2 2 @ @ @ @ @ @ @ @ @ @ @ @ 2 O @ @ 1 @ O X O O ",
"N.i.V Y N...) O.V.U.~.I.g.0.d X : @ @ @ @ @ : 7 : @ @ @ @ @ : @ @ @ 2 2 B #X] O O [.0XO [ {.].4.O ].O E.S. X8 5. Xh.O 7 ` ` O h.w #XXX` L.A C.` ).dX[ 7 q ' ( 9 9 J._.~.N 9 9 7 9 9 9 0 : : @ : 7 7 : : 7 7 7 7 7 : 7 q 7 2 @ : : @ : 7 7 7 7 @ @ @ @ O @ @ 7 : : 7 0 0 7 7 7 9 q 0 7 : 0 7 7 q 7 ( 1 v !.~ m W 2 : 7 7 @ @ : 7 @ @ : 9 : ) G v k.(.U L 0 7 7 7 2 2 @ @ @ @ @ @ @ @ @ @ @ @ 2 @ O @ @ O O O O ",
"J.W.h.$.N.J.g.3.o.N.U.Q.U.Q.u.x * @ 7 : : @ 2 : : @ 2 q ( M b 7 : : 2 O mX%XHX[ @XhX4.KX8 iXBX1.].UX[ S.HX;X  UX[.R.O @ tX@XfX X-XjX1XO PX  UXq GX'.^., q 9 q { q _ G.K.~.f., : 9 9 0 7 7 7 @ @ 7 7 7 7 : 7 @ @ @ : : 7 q 7 7 : @ @ : 7 7 7 7 @ @ @ @ O @ : @ @ : 7 7 7 7 7 0 7 7 7 7 0 7 0 9 M ..W O x Y.G  .W @ 7 9 9 9 q P M _ P 0 r <.G.n.2 j G.n.2 7 2 2 2 @ @ @ @ @ @ @ @ @ @ @ @ @ @ @ @ O @ @ O O O O ",
"P * 5 E | ( q q 0 Y n.d.g.%.B.K.a.v o @ @ @ @ @ @ @ 0 ` N M 9 7 : @ @ O lXt [.-XiX:.  FXO R.0X  zX[.yX  lX] O GX  O 7 @ ;XR.KX  -X[.O O mX[ gXE.sX2 P.} 9 M q 7 0 q q o.*.T.Q.b 7 9 9 7 7 7 @ @ : 7 7 7 : 7 2 @ @ 7 7 7 7 7 2 @ @ @ @ 7 7 7 @ @ @ @ @ @ @ : @ @ @ 7 7 7 7 7 0 0 7 0 0 0 7 0 7 M q P * i.A.2 ( 5 : M ( _ ' _ &.Y Y P 0 0 2 ( W G d N B.+.5 @ 2 7 : 2 @ @ @ @ @ @ @ @ @ @ @ @ @ O O O O O O @ O ",
": : : O 1 U ` N 9 P n.U.u.Z L +.V.f.a.l * O : , @ @ 7 q 9 0 7 : : @ : O fXfXHXT fX2.  HXO R.tX  HX  AX  lX4.o IXCX[.O O =XKX[.@  XKXZX@ 3.UX] O BXIX'.Q.S q M 0 0 0 q M _ #.*.T..., : : 7 7 @ @ 7 7 7 7 7 7 @ @ 7 P 7 : 7 2 @ @ @ @ @ : 7 7 : @ @ @ @ @ @ : 7 : 7 7 7 7 9 9 q 9 9 0 : , , , j g.~.~.I.~.A.q q q q ' #.%.@._ &.W P q 0 7 2 @ q 5 , N ` i.Y._ ( q O.K @ @ 2 2 2 @ @ @ @ @ @ O @ @ @ @ O X @ @ O ",
", : @ 2 0 ( ( ( ( q Y M.I.r.j 0 L n.Y.Q.a.v : , @ @ X O X @ 7 : 7 7 : O kX[ KX  gX:.  SXL =XtXO UXhXPX  nXW.2 FX  O 0 @ ;XE.PX  ;X[.  0 O HX  U 7 O LX*.P.m q 9 0 9 9 0 0 q P X.G.!.i., 0 7 : : : 7 0 7 7 7 7 0 q 7 7 : : 7 : : @ @ @ : 7 7 7 : : : : : : 0 7 7 : : 9 q 9 9 9 , h V i.g.Q.~.Q.~.T.K.@...B.) &.#.%.o.o._ _ P P P P q q 0 7 @ C @.1 , 9 ..B.B.W 5 2 2 : 2 2 2 @ @ @ 2 2 @ 2 2 2 : 0 5 O O @ @ @ ",
"9 : O 5 P 9 q q P ( ( +.J.g...A 9 P P v.T.e.N ( ) ` C.5.<.r 7 9 7 7 7 O CX,.gX}.}.NX XHX  {.iX XtX  mX1.VX1.O UX-X&XO O tX&X0X;X&XNXuX=.  UX  T dXdXfXG.T.g.9 q 9 q ( 9 7 q { M #.K.~.{ , 7 7 : 7 9 9 7 7 7 0 q 2 @ @ @ @ 7 @ : @ @ : 7 7 7 7 : @ @ 7 7 , : 7 7 7 9 , b A S a.Q.P.Q.T.H.B.o.o.B.%.X.q ) K.W ) ' _ _ ' ' _ ( P P P q 0 7 7 2 : | R - { @.Y | %.0 7 0 7 7 2 2 @ 2 @ @ @ @ w q 2 @ @ 2 @ O @ @ O ",
"7 : 2 U ' [ 0 0 P o.( +.%.B.s.V q 0 q L M.i.9 P P ( q 2 O @ 2 7 @ @ @ 2 t : O [ O 4.|.O 8 @ 8 r O 7 : w w 8 @ ] 5.:.@ : 8 8 O ] @ 2.5.w 7 T d.h R.OX, o.T.~.a.: q q ( M 7 7 0 q ( |  ._ %.b X @ 7 9 9 : 7 I 0 @ @ @ @ @ @ 0 7 : : 7 : 7 : 9 7 : @ @ : 7 7 , - , M N i.Q._.I.P.Y.o.( q 0 9 : 7 q q @ V _ s.@.L q q ( ' _ _ _ _ P P q 0 7 2 @ * N G 9 ) F : b s.I.U @ 0 7 7 2 7 2 2 @ @ @ @ @ @ @ @ X @ : : 2 O ",
"O O 5 U ( 9 q q P P ( X.@.V.g.0.q q Y ( ) ) h 9 , 2 7 : @ 2 @ : @ : @ @ @ @ @ @ @ @ O 2 2 @ @ @ @ @ @ @ @ @ @ @ @ @ @ 7 2 2 7 7 7 7 7 7 7 0 L ( : 0 Y ) X.(.~.V 0 9 9 q q : 7 7 ) P | M q K.f.9 : : 7 7 0 0 7 : @ : : : 7 q 0 : : : 9 7 9 q 9 @ : : , , b a.!.P.' P q #.%.Y _ 0 0 7 : 7 7 9 0 7 @ = p.E j T.W 0 q q ( _ _ _ _ P P P P 5 @ O @ b U O b P O n ..d.V.G O 7 7 2 7 7 2 2 2 @ @ : @ O @ O X X : 5 O ",
"O 2 7 0 0 P P P q P P ( ( _ X.| ( M q ~ H.H.e.g , 2 2 7 7 @ 7 9 : @ @ @ @ @ @ @ @ @ @ @ @ @ @ @ @ @ @ O @ @ @ @ @ @ @ @ 7 2 7 7 7 7 : 7 7 7 : 5 0 7 0 P _ +.(.g.7 q q 7 9 q 7 9 7 9 7 0 ' #.o.J.) h 9 0 7 : @ : : : : 7 : q q 7 : 7 9 7 , j V i...s.f.) ( | o.P 2 O @ 0 0 2 2 7 : 9 7 : , 9 2 @ * b f._ ( H.m.0 q q ( _ _ Y P P P P L 0 @ O O X 2 O - &.J   0 P ( @.0 2 7 2 @ @ @ 2 @ O @ : 2 O @ O % a M 4 O ",
"@ 5 q 0 0 q q q 0 q P ( ( P _ _ $.| ..b K A.Q.q.k : 7 7 L ( q ( d @ @ @ @ @ @ @ @ @ @ @ @ @ @ @ @ @ @ O @ @ @ @ @ @ @ @ : : 7 7 : : : 7 7 7 7 : 7 0 7 7 P P m.H.M 9 9 0 : P q 9 9 9 7 0 ( _ P L H.~.f.[ 9 9 , : : : : 7 7 7 : : , , b b i.!.~.T.%.( ( M q q 7 2 9 @ : 7 7 : : 7 : : : 9 0 @ X *  .E 2 P 7 i.V.0 q q ( _ _ _ P P P P P 0 2 @ O @ @ @ O 9 G O O : 0 M _ G 2 @ @ @ @ @ 2 @ @ O @ O O O $ D { R O ",
"2 0 : 7 0 0 0 0 q 7 0 0 q 0 P E B.s.| c , E /.u.l : 7 : 7 5 L ) , : X O @ @ @ @ @ @ @ @ @ @ @ @ @ @ @ @ @ @ @ @ @ @ @ @ @ : 7 7 7 @ @ 7 7 7 2 7 7 0 0 7 7 P 0 W H.b q 9 q : q 9 9 M 9 0 9 ( $.9 q I._.H.#.C.#.M 9 7 7 : * m g.g...s.) q M *.o.q 7 7 q q 7 9 9 7 @ : @ : @ @ @ O O * 9 2 7 @ @ : 0 q 7 5 X e.A.L q q P _ _ _ P P P P P 0 2 @ O @ @ @ O * 0 4   O @ 7 9  .P O @ 2 @ @ 2 @ O : b M ) 1 O X M K O ",
"0 N b w 7 : 7 7 7 0 7 0 q h 7 0 +.a.{ | V ( ~ f.0.- 7 7 : O X.S : 0 h X X @ O @ @ @ @ @ @ @ @ @ @ @ @ @ @ @ @ @ @ @ @ @ @ : : @ : @ @ : : : @ 2 7 0 7 0 0 0 o.N +.P.A @ 7 0 9 7 7 7 : : : : q | M ) $.' ' , O @ : N s.$.{ d.T.B.L 0 0 7 7 9 9 : : 7 9 7 , ..N : @ r w 0 0 @ @ @ : P 5 O X : 7 : 9 q 0 7 @ j V.Y q q q ( _ _ _ P P P P 0 2 @ @ @ @ @ O O @ O @ @ X O h r.!.v.2 @ @ 2 2 2 @ O 7 0 0 4 @ X : 7 2 ",
"U | ,.y 9 b 9 9 7 7 : 7 L 9 : 2 E N.f.B.i.V Y Y.u.v @ 0 9 : P b , 7 0 9 * X @ @ @ @ @ @ @ @ @ @ @ @ @ @ : 7 : : : 7 7 : 7 7 : 7 7 : : 7 7 7 7 7 7 7 0 q P b 0 f.q U.!.V S A i.i.S i.i.i.g.a.i.{ g.Q.Q.Q.Q.~.P.f.$.*.d.d.$.( P 0 0 0 0 7 7 9 9 9 7 7 9 9 : N ( 2 @ O w @ 7 @ : 7 7 7 : * : : 7 0 0 0 2 7 2 - #.Y q q q P _ _ _ P P P P 0 2 @ @ @ @ O @ O X 8 2 O @ O * N $.N.K @ 7 7 2 2 2 @ O O O O O < 9 L 1 ",
"( ( : @ 7 0 9 9 0 9 , : 7 0 0 0 0 Y X.J.g.e.M Z.Q.t.< 7 : @ 7 q b : 2 L N * X X O X @ @ @ @ @ @ @ @ 7 0 9 M 9 7 7 0 7 9 7 7 : : 7 7 7 7 7 7 7 7 : : 7 9 ( $.s.$.$.G.U.I.T.I._.~.K.T.H.d.T.I.G.) #.U.T.T.U.G.o.X.q 0 7 7 7 7 : : @ @ : @ X : : : @ : 7 9 9 0 7 7 7 : > ].1 X @ : @ * b M 0 7 7 7 7 9 0 9 7 - k.o.q q q q ( ( _ _ P P q 0 7 @ @ @ @ @ O O X w G O O @ X @ 0 q _ L 2 2 2 2 2 @ O @ O O + p b K 2 ",
"0 9 : : : 7 7 7 : 7 9 : 7 0 7 : 0 ( q ~ J.i.' K.T.r.c > : 8 , q M : : 5 P m 9 : : O X O O O O O : : @ @ @ @ @ @ @ @ 7 0 @ O @ @ @ O X X * b N M N ) ' &.o.J.~.N 0 P q 0 7 0 _ ( 0 0 0 : 7 : @ 0 q 0 0 0 2 @ @ @ @ O O O O O @ @ O @ 9 q q 0 7 @ @ @ @ @ @ 2 7 2 2 2 O ,.C.O : 2 O @ q q 0 7 0 9 9 M P 9 ( * j.A.q q q q ( _ ( P P P q 0 2 @ @ @ @ O O O O X 2 O O X @ O d ( 0 M L 1 O @ 7 2 1 @ @ @ + < M ! 0 ",
"7 7 9 9 7 : 2 : : : : @ 2 7 2 : 7 q 9 9 U @.(.k.p.V.0.@ Y q C 0 M , 2 @ 2 q * w [ B y y y y T [ =.y y ] r   O O @ 2 : O X X B [ [ ,.=.=.L.L.p.[ ] ] :.8 O 5 m._ : 0 P 7 7 @ : : : : : : : : @ @ 7 9 9 : 7 0 7   O O O X O X O O X X @ q q 7 @ O X X X O O @ @ O @ O @ X C.Y O O O @ @ 7 7 7 7 7 : q 0 9 #.2 Z V.L 0 0 0 q _ ( P P P L 0 2 @ @ O @ O O O O @ : O O X X @ @ 9 L 0 ( U 2 @ 7 L 1 @ O @ + ; M H , ",
"7 : 2 7 7 7 , : 2 9 , @ 2 : 7 L ..V > 0 q n.V.T.f.U.r.k 2 P V @ 7 : 2 : @ r 6X{.E.E.E.R.R.].[.E.R.R.R.R.].;X>.O , b b : $XwX.XW.[.E.E.R.R.R.R.E.E.E.E.}.0X8 7 L 9 7 2 7 2 9 7 : : 7 q 0 0 0 7 7 7 9 q q 0 7 ` 0   X X @ O @ O O @ : @ @ @ 7 @ @ @ @ @ @ @ @ @ @ @ @ O , 9 @.2 X @ 7 @ 2 : : : : 7 q 0 : ) L - *.U 7 0 7 q ( ( P P P 0 0 2 O @ O O O O O O @ 9 2   X O @ @ O @ 5 7 ) U 2 @ 5 2 O @ O O < n n.| ",
"@ @ @ @ 2 0 9 7 2 2 @ @ @ @ 2 K M.r.c : 0 Y | _ M.Y.P.9.> 0 , @ 0 b : 2 ] ;X  2 7 @ @ @ 7 7 X O X X 9 m b @ OXW.) ( @ #X3.  O O X @ : @ 2 &.A @ @ @ O O   uX8 0 0 7 : 2 0 q q 0 7 7 @ O @ 7 7 7 q q 9 0 q 7 2 7 : X X 2 2 7 7 : 9 0 @ 7 7 7 7 @ @ 7 @ @ @ @ @ @ 7 : @ , P 2 5 @ 7 7 7 @ 2 2 7 : 0 q 7 : 9 U * s.X.7 0 7 0 ( P Y P P 0 0 2 @ @ O @ O O O O O , 5 O O O o 7 @ O O 0 7 ( U 1 X 2 7 7 1 O + - X.F ",
"@ @ @ @ @ 2 @ @ @ @ @ @ X @ 2 2 L Y M b : U @.V q E A.e.- 7 * @ L j :   tX  7 7 7 : 7 ( 9 2 2 @ @ q ` ( q 2   =XO O y  XO @ @ @ 7 L 0 @ 2 ( 0 O X O @ : 0   0XO 7 7 @ @ 7 7 q 0 0 9 7 : @ O @ @ 7 q q 0 7 7 @ : : : O O @ : q q 7 @ @ 7 0 0 0 9 2 2 @ @ : @ @ @ @ @ 2 @ 2 O @ 7 : 2 2 : 2 7 7 7 0 0 7 7 7 0 @ r.B.0 0 7 0 q ( Y P P L 2 @ O @ O O @ X O @ @ @ @ O O O   * 0 2 @ O 7 N &.X.2 : L 5 2 @ X X O O ",
"@ @ @ @ : @ @ @ @ 2 7 0 : : @ 7 : 7 5 0 9 7 E #.N 7 ! $.V b , @ 0 n : 2.3.: 2 7 2 0 9 : @ 2 7 7 @ 2 @ 7 9 : 9 t {.O @XO 7 7 2 2 2 2 @ : @ @ O X @ : 7 7 7 : {.r : : @ @ 7 9 M 9 9 9 9 9 : 7 7 @ @ 7 0 7 7 0 7 : : : @ X O q q 7 0 P 7 2 7 7 7 7 2 2 @ @ : : @ @ @ @ @ @ 2 O : 7 : 7 7 7 7 : : 7 7 0 0 0 7 0 @ q.T.L 9 0 9 q ( _ P P 0 7 @ @ O O O O O O O O O @ @ O O     , L 1 O O : V f.m.G L 1 @ : : M 0 # ",
"O O 2 2 7 @ @ @ 2 2 7 0 7 2 0 7 @ 2 @ @ 2 : 0 P M 0 W J.} N , : 5 9 O ].t @ @ : 7 7 7 q b : : @ 0 9 0 7 : : 2 X XX  #X  @ @ @ @ @ : @ @ X O O : 7 7 7 7 7 0 3.3.q 0 7 0 ` ) ` P _ q 0 0 0 0 7 7 : 9 : @ @ 7 7 7 7 7 @ @ O @ 7 2 @ P q 2 @ @ @ @ @ @ 7 : : : @ @ @ @ @ @ 7 @ 9 7 : 7 7 7 7 7 7 : 7 7 7 0 7 7 2 c ~.W 7 0 9 9 ( _ P P 0 2 @ : X O @ @ O O O O O @ @ O O O   o q L 1 O , A %.N.+.G 5 O @ @ 2 2 + ",
"@ @ 2 0 : @ O @ @ @ @ @ @ 2 0 : : @ @ 2 : 2 7 P ( M q ! $.e.0 h , , X R.t 9 A 9 w 9 7 5 q : X X @ 2 @ 2 2 7 @ O  X  @X  : : : 7 M N 7 2 @ 7 0 7 7 7 7 7 7 7 3.3.P 7 O @ 2 7 7 0 P 0 7 7 7 7 7 @ 7 0 7 M 9 @ 7 7 7 7 7 7 @ O @ @ @ 2 7 7 7 @ : 7 7 0 7 : : : @ @ @ @ @ @ 7 7 7 7 @ @ 2 2 7 7 7 7 7 2 : 7 : 7 7 g k.@.7 0 9 9 ( _ P P 0 2 @ @ , ` 1 O O O O O O O @ @ X O     = ( L 7 2 2 0 ' %.~ 2 7 2 2 O 2 @ ",
"X @ @ 2 @ @ @ @ @ @ @ @ @ @ 7 @ 7 : 7 : 7 0 q P Y ( h L A.u.V N ( | j E.B _ A , : : @ @ 5 =.h.  @ @ @ @ 2 2 : O  X  #X  7 7 7 7 P N X :.[ @ 2 7 0 7 7 7 : : 3.1.0 0 X O 2 7 7 7 7 0 7 7 7 7 7 : 7 : @ q ) M : @ 2 7 7 7 : @ X 2 0     8 2 7 7 7 0 0 7 7 7 7 @ @ @ @ @ 9 9 0 7 2 @ @ 2 2 @ 7 7 7 7 7 : : 7 : 0 h u.Y.L 7 9 q P ( ( P 0 @ O @ @ 7 2 O @ O O O O @ @ @ @ O O X * f X.E 2 7 @ 7 ( s.H.L 1 2 2 2 O ",
"0 j , @ @ @ @ @ @ @ @ @ @ : @ @ 7 7 7 0 q 9 9 q P o.} ) A.Q.0.9 P _ q [.[ P N ) 9 7 9 M h [.CXX * @ @ @ @ : : O XX  *XO 2 @ @ 2 P `   fXyXO 7 7 7 : 7 7 : : 3.1.7 7 X O 7 7 7 7 7 0 0 7 7 7 7 0 7 7 7 @ O @ 7 : b , * 2 2 2 X X   mXhX  7 7 7 7 2 @ @ 2 @ @ @ @ X O @ : : 2 8 7 @ 2 2 2 @ 2 2 7 7 @ @ : : 2 : 7 e.Y.U 0 q q q ( _ P 5 @ O O O O @ O @ O X O O @ @ 2 @ O - j M 6 n +.Y 7 3 e 9 S g.J.U : @ X # ",
"G , * @ @ @ @ O O O O 2 7 7 : @ 7 7 7 7 7 7 7 0 _ M.H.| V.U.r.m M 9 X R.T M 0 2 @ 2 7 W l.E.VXM b : 7 A S N N 9 #X  #XO q : X 2 _ 2 O yX0XO @ @ @ 7 2 7 7 @ 2.1.@ 7 X O 7 7 7 7 7 0 0 7 @ O 0 @ O 7 7 7 : X @ O O 9 M : O : O d n 4.4.@ 7 O O @ 7 7 @ @ @ @ @ O O @ @ : 7 @ s ` 2 2 2 @ @ @ : 7 7 @ @ 7 2 @ : 7 h d.W 0 0 q q P Y L 5 O O O O O O O X X O O O O O @ @ @ , 0 4 O < { @.U 5 X 7 q ( *.V.X.) N m ",
"O O O @ @ @ @ @ O O O @ @ : @ 2 : : 7 @ @ 7 2 L P E X.@.d.+.U.a.n 9 X R.T 9 7 7 : @ @ 2 2 R.NXO ` q _ o.) q q O #X  #XO ) m X 2 2 @ O yX0XX @ @ @ : @ 2 7 : 3.1.@ @ O O @ : 7 7 7 7 7 : W.#XX 1.&X@ 9 9 q q @ uXBX;XO 0 iX  X dX_ 5.5.@   jXmXR.O : 0 7 @ @ @ O O @ @ : 7 @ s 3.5 @ @ @ @ @ 7 0 7 @ @ @ 2 @ @ 7 9 i.V.L q q q q P L 2 O O O O O O X 9 9 @ O @ O O @ 7 2 2 1 O     ; ' X.U 9 M ' Y P o.+.0 9 | ",
"O O @ O @ @ @ @ O O O @ 7 : @ 2 7 : @ 2 P q q q q 0 U M.g.{ /.j.h.h * R.[ 9 7 : 7 @ 2 @ O R.NX  7 7 2 2 2 2 @ O  X  @X  q , O 7 @ O O uX0XO @ @ @ @ @ @ @ @ 2.1.@ @ O O @ : 7 7 7 7 7 q 7 UX  UX;.7 7 0 0 q [ @Xy KX[.  ZX].gXiX  iXtX  ZX%X5. XO @ 2 w @ O O O @ @ @ : 9 7 s W.5 @ @ @ @ @ : 0 2 2 @ @ : 2 : 0 : e.V.U q q q q P 0 2 O O O O O O X X : 1 O X O : : 7 2 @ O       o B  .| @.~ K G 5 7 b ' U 1 ",
"O O @ O @ @ @ @ @ O O : : @ @ 0 9 q q 0 0 0 0 q q 0 W A.f.A A.Q.p.n : E.[ 7 7 7 : @ @ O O R.NX  7 : @ @ @ @ @ X |.  @X  0 @ 2 2 2 @   yX0XX 7 @ @ : @ @ : 7 5.1.@ @ @ @ 7 0 7 7 7 7 7 q q &XJXmX  [ &X@X-Xw 7     uX-X  > UXIX  @ uX0X  PXt     7 @ @ @ O X X @ @ @ : : 9 7 s W.G : @ @ @ : : 0 2 @ @ @ @ @ 2 : @ j B.W P q q P P 5 2 O O X X O O O O O O > , 2 , q 7 @ @ O O X O , w  .A.! G # : O * b ' ~ 5 ",
"O O @ O O @ O O O O @ 7 : : 7 7 7 0 7 2 0 0 0 q 0 0 U M.g.{ V.U.j.f X E.T 0 9 7 : @ O X O 2.BX  0 : @ @ @ @ O O |.  @X  : @ @ @ @ @ O uX&X    8 @ @ 7 0 0 0 3.1.@ @ @ @ 2 2 : : 7 7 7 q q   UXr q 3.uXtXiXr r PXSXIX#X@   VX;X  O yX0X  #XUXUX XO @ @ O O O @ @ @ @ @ @ : 0 : &.G @ @ @ 7 7 0 0 2 @ @ @ @ @ @ @ 2 * &.W P P q P n 7 X , @ O X O O X X O O X 9 L @ @ @ 9 @ O @ @ O @ 1 0 W H w e n 0 1 7 L K 5 ",
"O O O O O O O O O @ @ @ 7 7 @ @ @ @ @ : 7 0 : 7 0 : G V.g.*.i.M.f.g : ].] : : 7 7 : X X   IX XO 2 : O O O O O X |.  @X  : @ O @ @ @ - 0XUXPXCX  @ @ 2 2 2 2 2.1.@ @ X O @ @ @ @ 7 7 7 0 @ yXVXAX  0 O O O O kX@X  uX;X7 ;.KXUX    tX;XO     r UX  2 O O X @ @ @ @ @ @ @ 7 7 2 0 5 @ @ @ @ @ 7 7 2 @ @ @ @ @ : h ( * } +.P P P P A L.5 , L O O X X * : @ : 7 2 @ O O X 9 0 2 @ @ @ X O o 9 q C | ' W G O d 2 1 ",
"O O X @ O O @ O X @ 2 0 7 @ @ @ @ : : @ 2 9 , @ 7 7 G Y.f.N.N +.B.V : E.B @ @ @ : 7 : @ @ # O 7 7 @ @ O X O @ O  X  @XO ` : @ @ : 2 L.,       8 @ @ : : : @ 2.1.@ @ X @ @ @ @ @ 0 q 7 q : UX  KXR.@ 7 2 7 X uXhXe JX*X  KX2.0XlX  iXtX  [.;.{.HX  7 @ X @ @ @ @ @ @ @ 2 : 7 2 7 @ : 2 @ @ @ 2 2 @ @ @ @ @ @ 2 , &.1 e.G.| P P P 0 5 1 O 1 O X * , 7 2 @ : 2 1 O O O O * 7 2 @ O O X 1   ; m ' o.@.X.U , Z @.G ",
"O O @ @ @ @ O X O 2 7 : @ @ @ @ 7 : : : 7 9 7 7 7 : ! I.p.L P ' %.$.l ].t X @ @ O O 2 2 7 : @ @ 2 O O O X O @ O  X  @X  7 @ @ @ @ 2 5 @ @ @ @ @ @ @ @ @ @ @ 2.1.@ @ @ @ @ @ @ @ 0 7 7 7 [.E.O r ;X  @ 7 7 0 O hXCX:.R.8 tXO   iXO E.R.  %XNXzXO @ @ 0 7 @ @ @ @ @ @ @ @ 7 : @ : @ @ @ @ @ @ @ @ @ @ @ 2 2 @ @ @ q 1 l I.m._ ( ( L O O O O X X 7 7 @ @ @ @ @ O O X X O * h @ @ @ @ X O O X : L L _ U q N ) ! P ",
"O @ @ @ @ O O O @ 7 2 @ 2 : : 2 7 9 7 : 7 : 7 7 q M M.P.f 0 Y #.M Z.r.[.T : @ @ O X O @ 2 0 h , : X O O O @ @ @  X  &X  7 @ @ @ @ @ @ @ @ @ @ @ @ @ @ @ @ @ 4.:.@ 2 @ @ @ O @ 7 7 7 7 M @ O 2 @ O @ @ 7 q 7 2 O   @ @ : O 2 2 O 7 O @ : O     O O O O @ @ 7 7 @ @ @ @ @ 2 2 2 2 2 @ @ @ 2 @ @ @ @ @ @ 2 @ @ 2 X C 0 d d.@._ ( P 5 @ O X @ 2 2 @ @ 7 2 @ @ O X O X O O : j _ 2 , z M 1 O O O @ @ > 9 b ) %._ ( ",
"O O @ @ O X O 7 M : 2 @ 2 7 : 2 7 : 7 @ 2 2 @ 0 P N V.a.h P Y ) 9 ! f.f [.@ @ X X X O O @ @ 0 9 m * O O O @ @ 1.3.@ [.T @ O @ @ @ @ @ @ @ @ @ @ @ @ @ @ @ O &XO @ O O @ 2 @ 7 7 7 7 q ( @ @ @ @ @ @ @ @ 7 7 2 @ 7 7 7 @ @ 2 2 2 @ @ 2 : @ @ O O X X O @ @ @ @ @ @ @ @ @ @ @ @ 2 @ @ @ @ 7 2 @ @ @ @ @ @ @ O @ @ b +.@ $.V._ ( P 1 O @ @ @ O O O O O @ O @ O O O O O @ 2 - M 1 * V +.5 O O O @ @ * q ( ( _ _ _ ",
"O O O X X @ 7 w @ @ 7 : 2 @ @ @ 2 : 7 : : 2 @ 0 _ ' J.r.q 0 U A 9 ( E - ;XX : X X O O O O O @ 1 _ , O O @ @   yX  2 O tX  @ @ O @ O @ @ @ @ @ @ @ @ @ @ @ B &XO @ O X O @ 2 7 @ @ 7 q q @ @ @ @ @ 2 2 @ @ 7 2 @ 7 2 2 @ @ @ 2 2 @ @ 2 2 @ @ @ O X : : O O O @ @ 2 @ 2 7 7 @ @ 2 @ @ @ O : 7 @ @ @ @ O @ 2 O X @ @ 0 O m B.X.( L 7 : : 2 O X : @ 2 O @ @ 2 O O O O X O O @ n 5 @ , 5 7 7 O O O X X @ 0 q P L 5 ",
"O @ 2 7 q P q : O 2 7 : 7 @ @ @ 7 : 7 : : @ 7 0 P _ B.c 9 j K | M , R  .* yX2.                  @         t yXX @ @ 2 r tXr                             5.0X  @ @ O X X @ 7 @ @ @ @ 0 0 @ : : 2 O 7 @ @ @ @ @ 2 7 @ @ @ @ @ 2 @ @ @ 2 2 2 @ X O @ @ : @ O O O O O O @ 7 9 9 O @ @ O @ O O 2 @ @ @ 2 @ @ @ O @ @ @ 2 @ d H.@.( L 2 7 2 @ O O 2 2 @ O O @ @ O O O O O O X O - 0 O 7 5 O @ @ O   X - d , 0 1 3 < ",
"@ : @ 2 7 2 O O @ 2 7 7 : 2 @ @ 0 : 7 @ : @ : 7 N #.f.j @.c P ( 9 , L +.e.  R.%X%X*X%X%X&X&X&X&X*X&X&X%X&X X  , X O 2 7    X&X%X&X-X&X&X&X&X&X&X&X&X&X&X5.  @ @ @ X O O 2 @ O @ @ @ 9 9 @ @ 2 : C : 7 @ @ @ @ @ 2 @ @ @ @ @ @ @ @ @ @ @ O X : : X @ @ : 2 2 7 : X O O O @ M 9 2 @ @ @ @ @ @ @ @ O X X @ @ O @ @ @ @ 2 * s.N._ G @ @ O O O O @ @ O O X X O O X O O O O O O * V 5 @ @ O   - h , v w.*.@.} e.j d ",
"2 7 , b : X @ @ @ 7 7 9 : @ @ 2 0 : 7 : @ @ 2 o.g.G.a.V %.d M 0 P b , E ..z =   O                         2 7 9 , @ @ O @ X                             7 @ @ @ @ O O 7 @ @ @ : 9 : 9 0 @ @ @ 0 L.O 7 @ @ @ @ @ @ @ @ @ @ @ @ @ @ @ O X : : 7 2 ; - @ @ 2 @ 7 0 0 : : X X N P X M O @ @ O O @ O @ ; _ O @ @ @ @ @ @ 2 X e.N.Y G * 7 O O O O O @ @ O O X O O O O O O O X O X , 9 * h N : , h ` w.k.M.K q $.d.a.",
"5 q N , O O X @ @ 7 0 : @ @ @ 2 7 : 0 , 7 : U U.*.J.i.q ' 9 9 : U i.n 2 V.y.D ]. X{.}.}.}.}.}.{.+X X}. X[.r O 2 @ : : :   t {.}.}.}.}.}.{. X X}.}.{. XE.O O @ @ @ @ 9 7 : : 9 9 M q 9 7 @ @ @ 2 1 2 2 @ @ 7 @ @ 7 7 7 7 : 7 7 @ @ O O : : 7 7 @ C s.O 2 2 @ @ 2 2 7 q 9 : q 0 O M 1 @ @ O X O O O O G O @ @ @ @ : @ 7 X q.H.Y 5 X 2 O O O O O O O O X O O O O O O O X O O O * n w b T y 7 7 l u.T./.Y * * , { ",
"I N , O @ O O @ @ 2 2 @ @ @ @ @ 7 9 q b : 1 +.| W G.Z 0 ( 9 : : U o.9 : R qX,X;.> 8 8 8 8 8 > 8 w 8 8 > w  X=X  @ 2 q   ;X].8 8 8 8 8 8 8 8 8 8 8 8 8 ] ;Xh.O @ @ 2 7 7 0 0 0 7 7 7 : @ @ @ @ @ X @ @ @ @ 7 2 @ 2 2 2 7 7 7 7 @ @ : : 7 0 7 7 7 2 K @ @ @ 2 2 : @ @ 2 7 P ( 7 7 2 2 @ X O X O O X O O @ @ @ @ : : 7 9 : t.~.@.7 @ @ @ @ @ @ @ O X X X O X O     O X @ X X X @ : y C O.` ` L j #.n.+.W q @ X x ",
"P 0 X O O O @ @ @ @ @ @ @ @ @ 7 7 9 q , O X.s.) X.*.j q q : @ @ 0 L 9 @ OX).r.- 0 > X X @ O O O 9 * O O @ O e =X  @ O tXO @ : : X O @ @ @ @ O @ O : 7 @ O [.2.@ @ O O O @ @ @ 2 @ 2 : @ @ @ @ @ @ @ @ @ @ 2 @ @ 2 @ @ 2 @ @ @ O @ 7 7 0 7 7 9 9 9 : : @ @ : : : @ @ @ 7 7 2 2 7 0 : : @ @ @ : * @ O @ * , , , 9 9 7 q 9 q.~.M.2 : @ @ @ @ O O X O O % X X X X X X X @ : , 7 0 0 0 q R F 4 7 9 L 1 O 2 7 9 9 g ",
"2 : * X O 2 @ @ @ @ @ @ @ @ @ 7 0 b b 7 U J.s.A Y i.d P , X @ @ @ 5 q * =Xv.i.* 7 , O O X X     5 @ X O O 7 X [.r @ 4.2.O X @ , - : O @ @ O O @ @ @ O O @   ;X  @ O % $ O O @ X O O O O @ @ @ O @ @ @ @ @ @ @ @ @ : : @ @ O O : 7 7 7 2 7 7 0 7 0 7 : @ 7 9 7 7 7 : : 9 : : > w 7 0 9 9 9 9 9 9 0 @ @ : 7 0 @ @ 2 @ @ 5 - P.M.1 O @ O O O @ X O @ & D C 0 @ @ @ 2 2 2 2 1 7 7 0 9 0 5 O ; j _ ) 5 @ O : 9 b S ",
"K L * X @ @ 2 @ @ @ : @ @ @ @ 0 P N 9 5 m.N.f.9 V.i.9 7 , : : @ @ 2 U W.;.~ } f 7 : X * X @ c D a # O , < r > #  X  &X  > > 7 [ ;.b , : : n : 7 9 : : > : @ R.] @ > ,.s X @ ; < * D s e > < & < O : X @ @ @ @ @ : 9 7 @ O O : 7 7 2 7 7 2 2 7 : 7 7 @ O @ 7 2 7 2 : q q 9 b M _ 0 7 7 7 7 7 0 7 : @ @ @ 7 2 O @ O o o @ X A v.2 X @ X > : @ @ O @ : : Y E 1 @ @ @ @ @ O O : 7 7 0 M 2 O g @.@.X.U , 5 1 ; h Z ",
"0 7 X O @ @ @ @ 2 7 7 : @ 2 7 0 { N : U ' o.9 P B.e.9 ) , 9 * @ @ : G {.B E f.C @ 2 L N X n.K. .9 : 5 W ( : : X |.  %X  2 2 L X.0 0 q 9 0 0 2 0 7 @ @ 2 2 @ 2.1.2 5 W L @ @ O.' L N._ P q q ` ` 7 O > 9 7 7 9 q n n : X * : : 7 7 8 e e 8 7 8 s s s % O : @ a s a a <.D s > 0 0 2 @ : 8 < r 7 : : 0 0 9 9 7 @ X : , v i.0 - X.5 @ : 7 7 7 2 @ @ @ 2 7 2 2 : 2 @ O O O O : : 5 2 2 9 I f b ! 5 G 2 2 5 + f w.s.",
"0 b d * @ @ O @ 2 0 9 : @ @ 7 Y i.j 0 #... .@ X.g.q.q N 7 7 X @ 2 : 4 ).B ~ P.m @ @ @ O O 1 O 1 0 : O O 1 O 2 @ #XX @X  @ O O @ @ @ 2 O 0 7   : O @ @ @ @ @ 2.:.X O O O X @ G 5 @ 1 5 5 2 2 5 5 7 : 7 5 0 0 0 L L L 0 q q q q 0 7 q M ` ( q M =.=.=.=.q @ : [ &.&.$.P.T.%._ 0 7 2 @ 9 ( P P L 1 2 2 2 @ q q 9 9 7 @ 5 +.X.2 P 5 2 @ O : @ 2 @ @ @ @ @ @ @ 2 2 2 @ @ @ O h 0 1 O @ > j e.v.L 1 X X 1 O o 9.r.M.",
"5 P b h h , @ @ 2 0 7 : 7 : 0 +.i.V f.s.{ , ( A.j.v ' b 7 : @ @ @ @ 2 ).[ E f.h @ @ X X   R.-X  0 X X X X O O O +X, *X  X @ O @ @ @   lX    VXX @ @ @ @ @ O 2.:.X O O X O O O O @ @ : 7 : : @ : 0 7 2 2 @ @ @ @ 1 O 7 7 0 7 7 7 7 8 8 0 0 0 5 L U U E G 2 7 G K U E E E K G 2 2 @ @ 2 2 2 2 2 @ @ O O @ @ 2 @ 9 ` P : , q 7 2 5 @ X @ : , : @ O O @ @ O @ @ @ @ @ 2 @ * , 0 2 @ X = z N.c.0 2 X @ X * - Z m.E ",
"7 0 7 0 q , , , : 7 7 7 0 7 0 +.s.I.l.C M ( o.T.l.B ) , 9 : : : 7 : X E.] G i.j @ : X O O %XhX  2 X O O X O O X +XO #XX : : : O @ X   UX  iXuXO : : @ @ @ @ 2.:.O O O X X ; > X : : 9 q 0 7 7 @ 2 2 @ @ @ @ X X X , : 7 @ 7 7 7   GXzX  7 : : : @ @ @ O X @ X , 7 2 @ : : @ 2 : @ @ O O O @ @ O O O O @ @ 7 2 O 1 5 : m { q @ @ 2 @ O O @ 0 7 7 @ @ @ O O O O O O O @ , q 7 7 1 O d S c.5 9 0 1 X : : N Y R 1 ",
"2 7 0 0 0 q b h : : : : 7 0 0 U A._.a.j P _ +._.r.q 9 9 9 , @ : 7 9 X E.] L s.x : 9 > X O @XgX  2 X O O O O @ O +X  @X  7 9 , X O @   UX  UX  @ @ @ 7 7 : : 2.1.@ X O O 2 _ , , 9 9 0 0     @ O   8 @ @ @ O X       0 8   8 @   w O O 0 @     O 7 7 7 @ O O @ 9 2 2 @ : @ @ @ @ 2 @ @ O O O O O @ O O @ 2 2 @ O O X @ 2 P U 5 2 7 , * X X @ 7 2 7 : : : : O O O O O X : 2 7 @ O f x ~ K 2 * q G X * , P K 5 @ ",
"@ @ 2 @ 2 L N h M m 9 b 7 : 7 _ A.$.q 7 0 0 v.I.x q 7 0 , @ @ @ 0 9 X R.=._ s.Z 0 0 : X   @XgX  2 X O O X @ O O +X  @X  O 5 0 b : O   IXfX}.X O @ @ 7 7 9 7 2.:.O O X X 7 q 9 7 7 7 7 O 6X=XO 2.zX  @ @ O X ] PXUXAXO O JX  ] SX  tX@XO :.UXUX0X  : @ O O X : 2 @ @ 2 @ @ @ @ @ O O @ @ O : @ @ O O O @ @ @ O X O X @ 2 : 2 @ @ 2 b N N 9 @ 7 2 O : 7 7 7 @ O X @ X * 7 @ 2 O = 9.*.~ 5 @ @ q : e g M J 1 2 @ ",
"@ 2 : @ @ 1 2 2 0 q P M m m { %.| } j 2 9 5 ~ ..9 7 7 0 h X X @ 5 0 X E.C._ G.C @ @ 2 X   @XhX  2 X O O O @ X O  X  @X  O O 2 0 7 7   PXfX@XO @ @ @ @ @ 0 7 2.,.: * @ @ 7 : @ @ 2 7 7 @ 2.SX  uX1X        * 8 j   NX#X  gX&XAX5.O fX-X  IX8   8 : : @ @ X * 0 O @ @ @ 2 @ @ @ @ @ @ @ O O 7 7 2 @ O O O @ @ O X @ : 7 2 : @ @ O O O 2 0 P ( 0 2 O X @ 2 0 7 : X O X , 0 @ @ + g e.m._ G @ O , r c r.n.J @ @ @ ",
"@ 5 9 * @ @ @ 2 @ 2 0 #.d.$.' ( *.s.N  .- L &.N 0 0 7 ( j , X @ 2 0 @ E.^ G V.V : X @ X   @XhX  @ X O O O @ X O  X  @X  O @ @ @ 2 @   UX  UX  @ @ @ @ O @ @ 3.3.q : O O O @ @ : @ : : : O UX  GX-.].AXVXJX[ X L.5.BX#X: O IXBX  O fX-X  PX XB   8 : @ 2 : b @ @ O @ @ & w @ O O @ @ @ @ @ O 2 2 @ O O O O O O @ @ @ 2 @ @ @ O O O X X @ O 2 P q : @ @ O @ @ 7 7 : * * 9 7 O X Z n.K N 0 2 X : , 9.*.c.1 X X X ",
"@ 5 7 @ @ X : : b { X.W L 2 5 W s.Y N.e.: X.$.- 0 9 0 ` 9 X X O @ 2 O R.T 5 M.C * : @ @   %XhX  @ X O O O O O O  X  @X  @ : O @ @ 2 O UX  uXuXO @ @ O @ : 7 R.3.2 O X X O @ 7 7 @ @ : :   PXO UX  @ ] ] =.7  XIX0XHXXX@   JXiXO O fX-XO B BXIXgX  : @ : 9 0 O O O @ @ e ( 1 O O O @ O O O O @ @ @ O O O O O O X @ @ @ @ @ @ O O O O O O O X O 2 q q : O O O O O : h n 9 1 = l N ! 2 Z ( 1 X g j N R 1 X * : @ ",
"@ 1 2 O 0 V V ) ( 0 @ @ 2 @ 5 o.m W B.M q @.Z 7 q : P N X X X O @ @ O R.T 2 M.p.f : @ @ O R.;X  @ X O O O O X X XX  @X  8 @ O O @ : O lXO   VXX X @ : 7 9 q 3.1.@ O X X @ @ 7 @ @ @ : 7 O hX[.JX  @ : 7 0 O NXR.  gX#XO #XgXPX8 O fX-X@       UX  7 @ : ( 1 O O @ @ O 7 L O O O O O O O O O @ O O O @ X X X X @ @ @ @ @ @ @ O O @ O O O O X O @ @ 7 M 9 : X O O O : M _ r z e.~ 0 m e.' F X l _ G 1 X , 0 5 5 ",
"@ 7 , N G.s.b 7 @ @ @ @ 7 7 L P N X.q P Y H.9.2 0 7 Y j * X @ @ @ @ O R.T 5 Y.l.q.: : @ @     @ : * O X X X X @ XX  @X  2 O O O @ 7 7   2 2 O N h 9 9 7 7 2 2.:.X X O X @ : 2 @ @ : : 0 @ ].UXtXX : : 7 9 : &XKX0XIX*XO UXO [.KX  hXtX  zXuXBXhX  7 : 0 2 O O X @ @ @ 2 1 O @ O O O O O O O O O X O O   X X @ @ O @ @ @ @ @ O O : 2 X X X X @ @ @ @ O 7 9 9 @ O @ : : 0 C r.B.E _ ..f.N.G - c W L : O 2 J 4 : ",
"V s.s.| ( @ @ @ @ @ : : 7 7 7 L ) q 9 q +.H.g 9 j # _ V : @ X * - : : E.] 0 (.Q.e.: : : X @ X X 9 * O @ O O O 2 XX  @X  O * * X : : O @ @ @ 7 q ( q 9 0 @ @ 2.1.O O X X @ 7 @ @ @ : : 7 7   NX5.7 7 7 7 7 9 O 5.}.  w w t @ O :.8 w 8 : r {.R.  0 7 0 0 2 @ O O O @ @ @ O O @ O O O O @ O @ O O O O   ; * @ @ @ @ @ @ O @ : X X @ 2 O X * b 2 @ 2 @ O X @ 7 0 @ - 9 2 7 V B.b.G 1 q #.N.L m ' E 5 5 1 2 + p * ",
"f.+.X.9 : : : : 2 7 : 7 7 7 : L M 9 7 0 M.i.2 #.0.@ o.x , : 2 L q 7 : R.:.' Y.Q.m @ @ : : O O O q * @ X X * - n XX  &X  X } , 9 0 X X X @ : 7 7 7 2 0 : : : R.] O X O O 7 2 @ @ @ 7 7 X E.1XUX  7 7 7 7 7 7 9 7 7 7 7 7 7 7 7 7 7 7 7 : 7 @ @ 7 : : 0 2 @ @ @ X X @ @ @ O O @ O O O @ @ @ @ @ O O @ : 7 I 5 @ O : : @ @ @ : ( 2 @ 7 @ X X 2 5 @ O O X X O O 2 0 x M 7 d m R T 7 X , V } _ ( v.5 1 O   X O ; e.",
"0.K L 9 : : : : 7 7 7 7 7 7 7 0 9 9 0 L N.V G B.j ) } , : : : 2 @ @ @ @ -X_ V.a.f O @ @ @ X * X 9 d * h g V N $XB : 5.h. .q 0 9 - - * : @ : 9 7 2 @ @ 2 q X 1X  X X X O @ @ @ @ @ : : X 3.0XO 8 7 7 7 7 7 7 7 9 q 0 7 7 7 7 7 0 7 7 7 7 7 7 7 : , m 7 2 : : : n @ @ : @ O O @ @ @ O O @ O @ O O O O 2 2 1 2 @ O @ 7 7 @ @ 2 7 5 @ 7 7 7 X O 2 @ : @ @ @ X X X - A ) 0.w.$.V 9.i.m g q.r.d.W U @ O X d , @ O M ",
", 0 : * @ @ @ @ 7 : : : : 2 7 2 q , 7 _ #.- K | 0 X.A - @ @ : , : @ @ 2 OXR.~ g.f X X , h b 9 7 ) j b ( ' 7 t ;X  @   tX2 2 q q N A S h , M N , , d - : O {.h., * X O @ @ @ @ @ @ : : 9 0 : 7 : 7 7 7 7 7 7 7 9 q 0 7 7 7 7 7 0 7 7 7 : 7 7 : : M M @ 2 : 7 : Y 1 X 2 @ O X @ @ @ @ O O O O O O X O @ @ @ : @ O @ @ @ @ @ @ O @ X 7 2 2 * , : : 7 7 : : , , , V N } r.Q.T.k.k.Q.P.a.a.Q./.o.q q : * , 0 5 X O ",
"2 M i.v # : @ @ @ @ @ : 7 : : @ 9 , 9 *.q.D E m @ K q h g X 2 7 - * @ @ O OX6Xl.n 8 8 I w 8 8 8 ` w w 8 e {.-X  O X @   ;X{.t 8 8 8 w 8 8 8 w 8 w n w [ -X5.2 q , d * O @ @ @ O @ : 9 9 7 9 : 7 7 7 7 7 7 7 7 9 9 9 9 7 : 0 : 7 7 7 7 7 7 7 : , q 7 : : 2 7 7 2 O @ @ O O O @ @ X @ O X O O O X X @ @ @ @ @ @ @ @ @ @ @ @ @ @ @ O @ 0 @ d ) 5 2 : 3 + @ @ 2 , M L m a.Y.V.V.A.M.v.W @.m.A.+.0 7 r f : 1 O X X ",
"L M.f.g * @ @ : : : : @ 7 7 7 7 9 m o.T.u.< Y h > 7 q P b h - 0 V c g : P : Q <X$X X{.}. XXXXXOXOX X{.{.[.w   X X O O O   [ {. X{. X X{.{.{.{.}.}.}. XR.O @ : 0 b  .: @ @ @ @ @ : 9 9 9 7 7 7 7 7 7 7 7 7 7 7 9 9 9 9 9 9 q 7 7 7 9 7 7 7 7 - A q 2 7 @ @ 7 7 @ X @ @ @ O O O O O @ O X X X X O X @ @ O @ @ 2 @ @ @ @ O O @ + X @ X 2 # l U O @ ; p D - O @ , 9 q c d.M.W U 0 E 0 7 b P q ) N 9 1 m U 1 X O X ",
"M U U 7 * : 7 : 7 : : 7 0 9 q q ( A N.~.0.5 ) h : 0 9 0 0 { c P o.) h , 0 N +.i.0.  X X             .     O X O O O O # e o                       & $   : h 9 9 ) _ O O X X : : 9 9 9 9 , 9 9 7 : 7 : 7 7 : : 7 7 0 0 9 q 0 7 7 0 q 0 7 : : b ( 0 : : : : q 0 2 @ @ @ O O O O O O X X X X X X @ O O O O O @ @ O O @ @ > X X a < @ @ h h V U > : , ` _ @.5 X , : 9.i.V.E P 9 0 2 7 9 Z ( - V ( L 5 O F @ X X X ",
"0 @ , 7 9 , : : 7 0 q 0 0 0 7 0 _ } V.k.c U ) 9 9 b : : L &., 0 P { V h P b '.qX1X2X1X&X&X&X&X%X-X1X2X;X*X[.  : @ * > B - oX-X*X&X&X&X&X*X1X1X1X1X1X1X*Xh., q N ' 2 : @ : , 9 9 q 9 9 M M 9 7 9 9 9 7 7 9 ; 9 9 9 k D D 9 7 8 k k 7 7 7 : b ) 7 2 > & u u 6 # > @ @ X > X X O O O X X X X X X @ @ @ @ : > @ O O @ @ * 9 9 7 , ' U @ 7 ( ' K 1 5 1 4 4 5 5 - q h e.M.v.U S _ G @ O : Z *.A q F 1 O O O O O O X ",
", 5 0 9 P 9 - : 0 9 0 7 0 7 7 0 W ..U.a.- _ 9 7 P b : : ) m * 7 L L q b 7 pXW.H.i.' X           4 ~ 9 X   ] uXO 0 0 L Q uXI O O - - X O O 4 4 O F W ( 0 S.6X   .7 @ @ , : 7 0 0 0 9 q ) ( q 0 9 m b 9 0 q ( P q M o.d.P.N 9 M } P.0 7 0 : { | { , n n v v C D B 9 @ 9 V 9 n : : : : : 0 O X @ @ @ @ @ 7 7 5 @ O @ @ @ 2 1 1 1 1 5 2 X 7 q 1   O O X O X @ , q 9 W ! R 7 m ! 2 X X * l o.W K 1 O O O X X X O X ",
"7 7 U M b 0 7 : h p : 7 7 : 7 0 _ $.K.0.0  .- 2 q 9 : ( { j : 7 : b b : wX( *.I.!.b : , @ @ 2 2 L L ) : O @   tX  ,   uX  7 7 7 Y 0 2 2 @ X : N { P G 4 @ t <X7 O X * q 7 @ : : 7 9 9 q q 7 7 N | q 7 7 7 9 q b 9 P ~ ~ q 9 0 U ~ 0 7 7 , { L W 0 L U W M.v.` %.U @ 0 o.K E 5 2 2 2 2 1 @ @ @ O @ @ @ @ @ 2 @ O @ @ @ @ @ O X X O @ X : 9 2 O X O O X X X : 9 M P ` 0 2 5 5 @ O * d m K 5 1 O X X O @ O O X X ",
"7 , P P q , 7  .y.g : : 7 7 7 0 _ *.g.t.E m * 7 0 9 b q { 9 7 b A M q t OXX.%._.a.j j j , * * 2 2 N M X @ * h h.h.h  X] 2 @ @ 2 O @ X * , n N P 5 2 X @ @ b -XO : e.r.c g c d - , , > 9 7 7 , N ( 7 : 7 : , m S m m V m m b 0 7 7 7 7 7 : { : 7 : 2 7 2 2 M @.E 2 @ : E 2 @ O O O O O @ @ O O @ O @ @ @ @ @ : @ @ @ @ X X O X X O @ * , q 1 O X   O X O B g b ' | Y o.5 7 : , h : 9 N 5 2 O O X O O O @ O X X ",
"0 M b 7 0 q _ M.S l z s # 9 q M X.T.j.d _ , : : M N 9 N S , 9 P 0 : @ E.[ X.o.T.i.9 0 7 : j d * m A 7 : 9 b M 0 #X  %X  X @ @ @ X * , N q 7 2 2 @ * @ X b ' h.3.b Y.T.g.a.j.w.9.r.w.w.g d v D r e * @ : : h { ' b S i...A V m , 9 : : : , ) 7 7 9 , : @ 9 P U 0 @ : @ 0 @ 1 X X X O X @ @ @ O @ @ @ @ @ @ @ @ @ @ @ O @ @ O X O @ @ - N ( 1 X   < c - < 0.a.X.X.~ L L L 9 q q q G * b 5 @ @ O X O O O O @ : X ",
"q m 9 9 q L q b W f.w.w.s : ( ) X.(.q.w i.d : 7 { V N s.V : 7 7 : , : E.T ( ( J.q.> , 7 2 q Z A &., , , b 9 0 O  X  @X  O @ * - j m q 0 2 @ X * , : , 9 _ P 3.,.p._ n.M.A.T.Q.g.I.I.P.i.i.j.u.w.t.v k g k D h 8 f N | | { { N 7 , , , 7 : N 9 , - h j h 7 0 7 : 7 @ @ 7 7 X X O X * * X @ @ @ @ : * @ @ @ @ @ : @ O O @ @ X X X X * d N ( 2 X * * e.o.D w.K.! P Y x q 0 b M 0 5 2 * 0 1 @ @ O X X O O @ : : > ",
"L N P P , 7 L q ( M.H.r.c 0 ( ) N.Q.t.W i.* : ' s.N _ .., @ : : : 9 , E.[ { ..U.a.9 9 ,   { ' O O 0 b A N h - *  X  @X  * , m C 0 7 :   > O X 9 : 9 9 ( L 0 3.h.~.q _ ( @.A./.I.I.I.g...@.Y.(.I.I.s.e.r.u.u.w.q.x.x.<.<.n b 9 9 : , , 9 , { b x 0.e.e.N , 2 : 7 2 , : @ : O X * @ d h , : @ * : , j h * : , d , , X * X * * * - - d Z { ` 5 , , : 7 E 0.k.A.| b S { W , b P 0 1 @ f 0 @ O @ @ O X O O @ @ @ h ",
"0 9 P L : : 9 L q o.Z.*.g q P ' Y.k.v m.m ,  .o.P 7 ' N * * - h m N m .X=.&.| J.a.j @ 3.GX* O kX X: q 0 0 9 ) j XX  @XX M q +.N @ : O PXHXUXuXO 7 7 M 0 7 9 3.^.B.q m S ( _ +.n.A.T.Q.g.q.h.3.L.W.3.S.W.U.(.P.Q.Q.k.j.u.y.0.j g d {.E.X - N h A } s...{ m : n 9 @ @ @ @ O : X d Z : N m b * m q , V V b , h V b q 7 : @ : : : : 7 , { ) Y 5 * * * * * w.U.V.s.%.M ~ L q P U q 7 X f M X O O @ O O O O @ @ O g ",
"7 , 0 7 7 7 , 9 L q _ M q b S X.(.l.m ' b ( b : , b i.9.c Z V { | ( _ W.[ Y ' Y.j.0.x h.GX    hXXX7 : 2 7 1 L 2 XX  #XO 0 7 U 7 : X 0X0X    UXO : ) q : : 7 h.'.{ b ..$.M M M M P @.A.m.L.P.g.I.P.f.i.f.*.%.m.V.U.Y.Y.(.(.H.N e.9.VXpXk x.t.x.t.<.,.n Y P : Y P : * , , X @ @ * V.O 7 q q @ 2 G @ q P 0 @ @ 8 > @ : X * * - - g 9.0.r.r.e.A 9.w.r.Z z i.M.Y ( W Y 0 @ 7 0 0 q Y G * #.K X @ O X X O X X O O d ",
"9 9 , ; : 7 0 9 7 0 P N ( m.e.f.~.e.{ S j { j Z m s.f.{ ' 9 s 8 0 9 9 W.[ ' { U.Q.a.m :.FX  X jXXXO @ @ @ @ @ O  X  #X  X 7 7 7 7 7 pX-X@   IX# 9 ` : : 7 : ^.'._ #.V._ ( q N b b N ( [ W.Q m.%.~.I.%.@.X._ 9 8 L.2 _ @.L W 1 I Y._ 9 g.s.l.l.r.u.u.q.Z h , : 0 , : * , : @ @ @ 1 O @ : # * X X * * k D f d l q.9.9.j h h e.r.r.a.g.I.Q.U.m.o.G.M.~ ( H.~ c e.L 7 5 2 7 : 7 2 5 0 7 5 G : 7 @ X O X X X O X - ",
"0 0 b h , ; r 2 , b P q U n.N.T.P.} $.i.i.} ) M Y %.} M b N b 9 b ( N ^.=._ f._.~.s.9 ,.GX  O hX XO @ @ @ @ @ X  X  @X  @ * @ 2 5 O fX-XX   IX8 ) 0 : @ 0 , '.W.L W Y ( ) N P P ( ) N 4.W.PXSXUXwXm...} m c h.PXBXUX` X UX# XXGX  nX6X4 wXLXGXbXY.T.P.g.x Z j , - f D D * X X - k - * - c 9.l - - g 9.0.e.x d V A 9 M 0 9 P W E #.K.v.m.Z.U 0 U ! 5 l d.E e.H.v.1 O @ 7 7 5 @ @ X 2 @ @ X 2 2 O O O O O O X d ",
"0 P ( N N m ; w L 9 b M 0 _ n.A.s...f.*.' N M M ) ..} q _ X.9 M M q _ ).i.p.(.U.+.( : ;.GX  O hX XX @ X 2 X @ X  X  @X  X : : @ @ O iX-XX   IX` 0 7 : @ : Z >XC.7 ) 0 P U P 9 q P _ ( L.` O O UXO K O 4 , j.w.-   gX&X= ;XhXUX: X hX-X  UX- - m } f.s.| e.Z V d 0.0.w.u.e.- - l 0.V , * m m 9 : 2 7 : 7 7 2 2 @ 2 2 7 0 7 M 0 : z g.W V X.L 0 2 2 O 9 N._ b b.R O X @ : 0 1 @ @ @ @ O O X O 2 X X O O   . o * ",
"0 0 P X._ ( , 0 7 q N b M _ P @.X.m.$.N M N S ..d.d.) 9 q q q q b $.m ^.!.I.N.N M M * ] FX    gX}.X @ @ X < X X  X  @X  @ @ 7 : : O uX&XO   IX2 0 : : : , ~.^.3.N %.q 9 9 q q 0 q M ' I._   AX[.d  XUXIXUXD.V.qXcXKX,Xy.z LXpXj 0.xX1X9.DXVXpXr.a.k.a.x S A M , b N q ( q : : 2 2 2 7 : @ 2 2 2 : : : @ 2 7 7 : 7 : : 0 : 7 P > 9.A.Y i.E G @ @ @ , m _ L 5 F O X X @ : 2 1 O * , @ O @ X O @ O O O X   & c g ",
"9 q q 9 9 0 0 7 7 P P P N m P ) ( ' _ M _ o.o.%.%.| 9 M M q 9 ( o.{ k.qXL.U ( b q N d   UXXX{.UX8 @ @ @ b , @ O  X  @X  @ 9 : 7 7 @ 2.PXR.-XPX  0 7 9 : | _.W.3.g.( 9 q 0 q 9 7 7 q _ Y.0 h.DXX $.h       2 fXmXO.mXqXT.G.UXVXO %.mXwXM.m.5XnXJX5 m.X.0 7 7 : 7 7 7 7 7 : 2 7 @ 2 7 2 2 @ : : 7 2 2 @ @ : : : : 7 7 : 9 b 0 L f r.M.0 $.E 2 @ : : : q L 1 2 2 X X X @ 7 2 @ X d b 1 O O O O @ O O O O   < 9.m ",
"q 9 q b , , : 7 0 0 7 L ' N { ) ) { ) M P Y _ ....A ( ) M M ( ( s.!.T.).[ 7 ) , m g.- @ > yXiXB O @ @ @ U : @ X  X  @X  @ P : @ : : O 4.fXyXO 7 7 0 9 : d.T.R.L.K.0 q 7 : 7 7 : 7 0 P m.  UX: 9 5 Y P h A X NXE.  mXOXF jX#XGX3.2 hX-X1   O : UX  M 7 : @ 2 @ 2 @ : : : @ @ @ @ @ O @ @ @ 2 @ @ @ @ @ @ @ @ @ : : 7 7 , f.Y 5 g k.v., ( K O * , : 2 1 1 O X @ X X X @ : n @ X - P 4 O X O X O O O O O O = 9.M ",
"M q M N m b , 7 : : 7 L ' P ) P +.X._ M q q ' | #.) ( ( N q Z g._.V.7 E.B $.A e.I.P : @ @     @ @ @ @ 2 2 @ @ X  X  @X  @ @ 2 : : @ 7 * b X 7 7 7 7 7 : T.@.3.W.o.9 0 7 7 7 7 @ 7 7 P P ].PXIXUX0X: | { W @ 3.UXKXBXXXw IX  ] PX  gX-X  AXKXUX X@ 0 7 : : @ @ @ @ @ @ @ @ @ @ @ @ @ @ @ @ @ @ @ @ @ @ @ @ @ @ : : : : 0 v.v.> z f.c.* q 2 , , 7 : 2 O O O O O X : O @ 2 0 K O , 5 1 X X O X 1 O O   O   * g 5 ",
"N q _ ) m h d , : : 7 P q q 9 0 P q P ( q P o.' ' q N N C e.Q.J.Y 9 , [.=._ %.V.P @ @ @ @ X @ @ @ @ @ @ @ X O O  X  %X  @ @ : @ @ @ * A 0 @ 7 7 : : @ ) (.q 3.^.0 0 7 7 : 7 @ @ : 7 0 0 X       @ U W o.N Z q 7 O   X 9   0 @   I     ,   @ @ 5 7 7 : : @ @ @ @ @ @ @ @ @ @ @ @ @ @ @ @ @ @ @ @ @ @ @ @ @ @ @ @ : : 7 0 0 0 - r.B.G h q : , 7 5 : @ O X X O @ O 2 1 O 1 1 1 O : 5 O O O O X 2 *       . - - 2 ",
"r q ' ' N b j , , : 9 N b b : 9 9 q P q q _ ' _ b ( ) e.k._.N.0 , , b 3.W.@.U 0 , : @ @ @ @ @ @ @ @ @ @ O O @ t [.  @XO @ @ : @ @ * C M @ @ 7 : @ 7 @ H.m.9 OX=.9 7 9 : : : @ @ : : 0 : 7 @ @ 7 0 @ 2 G G @.' ( 7 @ 7 0 : @ @ : 7 0 0 7 7 9 M 2 : : : @ @ @ @ @ @ @ @ @ @ @ @ @ @ @ @ @ @ @ @ @ @ @ @ @ @ @ @ @ 7 7 q 7 9 : d u.Z.2 b P O 7 G @ 1 O O O O O O O O @ @ O O O X : 1 O X X O X 2 9 0 O . o - : @ ",
"q.D t M N M m h h 9 ( A m : 0 M 9 9 q b M Y ( ) ( N i.!.(._ 9 - V b 9 { wX  : 9 : @ @ @ @ @ @ @ @ @ @ @ @ @   -XO @ t }.O @ @ : X N ' @ @ : : : : : N Y.L   uX@ 9 7 q 0 0 7 @ @ : 7 7 0 : 7 2 @ @ @ @ X @ G G P 7 @ 2 8 @ : * : 7 7 7 7 7 0 ) , @ : : @ 2 @ @ @ @ @ @ @ @ @ @ @ @ @ @ @ @ @ @ @ @ @ @ @ @ @ @ : : : L 7 7 7 d g.v.@ : U O 1 1   O O X X X   O O   X X @ O X , 9 , h X O X X O @ 5 @ . = - 2 O ",
"y.w.<.;.b ) ) ) b M ' | b : P 0 9 q P N b ( ' ) S k.(.V.q 7 h i.| i.o.E ] ;X  : : @ @ @ X X @ @ @ @ @ @ O   {.h.X @ O  X4.  , : , ' 2 @ @ : 7 : 7 : g.%.  uXI ( 0 7 0 7 0 0 @ @ 7 9 9 0 2 : @ @ @ @ @ X X X : 8 a u X D * 7 0 2 : : 7 @ @ 2 ) : 2 : : @ @ @ @ @ @ @ @ @ @ @ @ @ @ @ @ @ @ @ @ @ @ @ @ @ @ @ @ @ : : 7 7 7 e l N.K - 5 7 : O X O O   O O O     X X X @ O @ X , 0 0 C 0 O O X X * ,   & d , 2 @ ",
"P.u.y.0.x.B ) ) q ( _ { 9 q q 9 M M ( M A ) ) i.!.Y.Y q - V #.#.f.' 2 7 @ y 0X{.E.].].].E.E.E.E.E.E.E.R.[.;X3.  @ @ :   R.;X[..X.XE.].].E.E.E.E.E.^.<X$X0X8 q q 0 0 q 9 9 0 : : 7 q 0 7 @ @ @ O X X O @ o * : w v v , o.0 2 2 2 : : : : @ X b 9 * @ : @ @ @ @ @ @ @ @ @ @ @ @ @ @ @ @ @ @ @ @ @ @ @ @ @ @ @ @ @ 7 7 0 7 : < 0.+.5 : 5 : 5 O * 1 O O O X O O     & ; X X O X h 5 1 2 K @ O O : d j O k 9.h 2 @ ",
"A.Y.k.y.w.t.8.D N N ' N : q , q ( M M $.{ Z g.(.m.0 : j i.A ..B.U 7 : 7 : :   w ] ] ] ] B B B B B B B ] e O 5 X @ @ @ X @   =.=.] ] ] ] ] ] [ [ [ L.'.8 X ) q 0 7 0 q q q 0 7 : : D : 7 * , : X = < * X j d 2 P @.n.2 R 0 @ @ @ : : : @ @ @ , { @ : : @ @ @ @ @ @ @ @ @ 2 @ @ @ @ @ @ @ @ @ @ @ @ @ @ @ @ @ @ : 7 7 0 9 8 k a.v.- 9 5 2 1 X 7 F O O   O X     X * 0.C O o < , 5 O O O X O O @ , m 7 g 9.q 2 @ ",
"$.M./.T.j.y.y.t.N } i., 9 M N ( b N %.| a.~.K.L 9 - A s.| d.+.5 7 : 7 : : @ : : : @ @ @ @ @ @ @ O @ @ @ @ O X @ @ @ * n b 0 0 7 @ 7 : : 7 7 0 9 9 _.B.0 ..| q 7 : 7 P 2 2 7 7 : 7 C , , 7 h C > 9 q @ O U K X 2 K F @ @ 7 @ @ @ @ @ @ @ @ X 7 U 5 * : @ 2 @ @ @ @ @ @ @ 2 2 @ @ @ @ @ @ @ @ @ @ @ @ @ @ @ @ @ @ 7 : 0 9 r t.d.c.b _ 5 1 O X 1 1 O O X O O       2 P n.5 X g e.5 X O X O X X @ , 9 2 d V 0 @ @ ",
"V ) N.Z./.~.u.r.s.i.j 7 ( ( q M ( (  .Q.(.N.9 : h $.| d.G.L 2 : : 7 @ @ @ @ : : : @ O @ X X @ @ O O O @ @ @ @ @ X * N ( 2 @ @ : : : 7 7 : 7 9 7 | (.P q B.P 0 0 9 0 7 s < 2 @ 7 0 N.0 q : P +.5 5 1 @ O @ @ @ @ X X O X @ @ @ @ @ @ @ @ @ X , q O : : @ @ @ @ @ @ @ @ @ 2 2 @ @ @ @ @ @ @ @ @ @ @ @ @ : @ @ @ : 7 0 q ( B y.U.G , U 5 O X O 2 O   O O X O       O O 4 5 X d _ R + O X @ O X * - , 8 d : 1 @ @ ",
"@.{ i.@.Z./.K.g.j.r.Z ,.q 9 M N C z.~.A._ m - m ' $.H.+.0 7 : : : : 7 @ X @ : : * X O @ @ @ @ @ O O @ X @ @ X - , 7 5 2 @ @ : : @ : 7 @ @ 7 q - I.J.q M #.b 9 9 0 7 7 { M @ @ 2 0 U 7 0 : G G 7 @ O O O @ @ X @ @ @ X @ @ @ @ @ @ @ @ O @ O , ( O : : @ @ 2 @ @ @ @ @ @ @ 2 @ 2 @ @ @ @ @ @ @ @ @ @ 7 7 : : 2 7 7 0 9 q v u./.q j G 2 O X @ O O     X X O O O     X O O @ : 0 L * j X X O X * l j k l 7 @ @ @ ",
"X.%.| M o.*.m.Z.I.r.y.0.h ( | e.k.T.+.q { x } } f.G.L 7 : : : : : 7 @ & # @ @ > > X O O O @ X @ X O @ @ @ * h B a 3 @ @ @ @ : : : : : w > : 7 Z ~.+.b d.o.M M q 0 7 0 ! G @ O @ @ 7 7 : : 7 2 7 @ @ @ @ @ @ X @ @ O @ @ @ @ @ @ @ @ @ @ @ O : ( @ : : @ @ 2 @ @ @ @ @ @ 2 2 @ 2 @ @ @ @ @ @ @ @ @ 7 7 7 7 7 : 7 7 9 0 7 q.k.Z.m | 5 @ X X @ X X O O X X O         X X X O : 1 7 2 m Y O X @ - 9.e.0.9.0 @ @ @ ",
"W | Z A | V e.%.A.A.P.e.e.| g.!.U.) 9 M p...d.P.f.} : 7 : , : 7 : , d ; : @ , f ; @ : : : , : @ : : X * h b M x k * , : : : : 7 : : M b 9 , b Q.I.( _ N.U P P q 0 : 7 7 : @ @ X p 8 0 7 : 7 : 2 @ O X : @ X X @ O @ O O @ @ @ @ @ @ O @ @ X * N @ : : 2 @ @ @ @ @ @ @ @ 2 2 @ 2 @ @ @ @ @ @ @ @ @ 2 7 7 : : : : 7 9 9 * w.Q.v.m n.5 X X X O X X O O   O O X       X O X @ : 1 O O O K 1 O @ * l ..e.e.5 @ @ @ ",
"E W A i.*.+.) ..' n.v.n.$.P.(.M.Y q b f.#.B.J.v.N., 7 7 7 7 7 7 7 0 P 0 @ 2 0 q : @ @ @ 0 0 @ @ @ : , 9 q G U Y 0 7 7 : : 7 7 : 7 0 L L 0 9 N _.%.q _ U 7 q q 7 7 : : : 2 : : X 8.X : 0 : q 7 2 @ O @ , @ X X @ @ @ O O O @ @ @ : @ @ @ O * j M @ @ : 2 @ 2 @ @ @ @ @ @ @ @ @ 2 @ @ @ @ @ @ @ @ @ @ 7 7 : : : : 7 9 , d w.~.E q E @ X @ X X O X X X O O   X       X O X , : 2 O O X O O O @ X d A e.{ 4 O O @ ",
"7 E v.o.M ' +.Y V Z A ! b.v.Y 0 , M o.d.#.~ 5 L U : 7 : @ 2 2 2 0 0 2 2 @ 2 5 2 @ O X O 5 2 @ X - b 0 2 1 2 G 5 2 @ @ O @ @ 2 : : 7 7 7 0 : f.T.( q ( 7 0 9 0 7 : : : @ @ @ 0 ; h.- 0 , : { M @ @ O 2 2 @ @ @ X @ X @ O X @ @ O 7 @ @ @ O O Y M @ @ : @ @ @ @ @ @ @ @ @ @ @ 2 @ @ @ @ @ @ @ @ @ @ 2 : : : : : : 9 9 b f w.T.Y b 5 X X @ > X X X X X O O X   O     X X X - 0 @ O O O X O X @ O * j e.M 1 O @ @ ",
": M { U E M b o.N.) V V 0 L 7 j i.' f.$.0 , : : : @ : @ : @ @ 2 7 @ @ @ @ @ @ : @ X @ O O @ * C b 5 @ @ O @ @ 7 , @ @ @ @ : : : : : : 9 0 b !.d.N { ) 0 9 q 7 7 : : : 7 @ @ 7 +.I.A : 9 0 n.L O O O @ O O @ O @ @ @ @ @ X O @ O 7 2 @ @ O @ 0 M 0 @ @ @ @ @ @ @ @ @ @ @ @ 2 2 @ @ @ @ @ @ @ @ @ @ 7 : : : : 7 7 9 9 q v u./.P q 5 X X @ @ n X O O     O X   O O   X O X , 5 @ X O O O X O O & g - h 0 2 X @ @ ",
"2 ) h : P U W | i.&._ : g g n N.Y m.@.2 9 j : @ * @ : : : @ @ 2 2 @ @ @ @ @ @ : : @ @ X * : q 0 @ @ @ X O @ @ 0 : X @ @ @ : : 7 7 : : 0 7 | _.' M o.0 7 9 0 7 : : : : 7 @ @ @ X.M.U , 9 7 G 2 O @ O O O X X O @ @ @ @ @ X O @ O 2 @ @ O O @ 7 N 0 @ @ @ @ 2 2 2 @ @ @ @ @ @ @ @ @ @ @ @ @ @ @ @ @ @ : : @ 7 7 7 9 9 7 v k.A.q P 2 @ O X X 5 K O   O   X   O         O X @ 5 @ * - * X X X . p z c x 7 @ O @ O ",
"P N , 9 0 0 W m._ N S ` | e.o._ U _ 7 7 q h @ * : @ @ : : @ @ @ @ @ @ @ @ @ @ : @ O X f j 2 1 @ @ X X X O @ @ 5 7 @ O @ @ > : : 7 : 7 7 @ J.V.( M _ 2 0 0 7 @ @ @ 7 @ @ @ @ @ U U : M 7 : @ X X @ @ O O X X X X @ @ @ @ X O @ O @ O @ @ X @ 2 b 0 @ @ @ 2 2 2 @ @ @ @ @ @ @ @ @ @ @ @ @ @ @ @ @ @ @ @ @ : 7 7 7 7 9 @ 0.T.v.A U @ O O O O   1 O         O O O     O X - : 1 O @ : q @ O O . k 9.i.Z 0 O @ @ @ ",
"| , 0 5 7 , P ) R W N o.V.K _ q P 9 7 7 M b * 2 : X @ 2 : @ @ , * @ @ @ X @ @ X * * 9 P 2 X : X @ O X X X O O 1 0 : @ @ , m : : : : 2 7 7 Y._ N | q : 0 0 : @ @ @ @ @ @ @ @ @ 7 7 7 0 9 : 2 @ O @ @ @ X O : , X X @ O O X @ O O O @ @ @ O @ : n 0 @ @ @ @ @ @ @ @ @ @ @ @ @ @ @ @ @ @ @ @ @ @ @ @ @ @ @ @ @ 7 7 7 9 > w.Y.! m U O X X X       O       X X O O     O X d 9 O X O 1 1 1 O   & g e.%.S 5 O O O @ ",
"q @ @ : 0 5 P h 7 K ! E 1 2 7 0 M : 2 G L 9 : @ @ X @ @ @ @ @ 7 * @ X @ @ O O d V 0 5 1 X : : @ O O @ X O O O @ 5 : @ X ( { , 7 7 : 7 : { G.N | %.7 9 7 : : @ @ @ @ @ @ : : O 7 9 7 0 9 , 2 X X @ : @ X X 2 0 X X @ O O @ @ O O O O @ @ X @ 8 m 9 @ @ 2 @ @ @ @ 2 2 2 @ @ @ @ @ @ @ @ @ 2 2 @ 2 2 2 @ @ @ @ 7 7 7 q 9 r.A.R q K X X X O     O       X X O O O     O X h P 1 X O O O O O O & g S o.N 5 O @ O @ ",
"7 * 2 2 & 6 q , X 6 3 O @ @ 2 q 9 @ @ 2 5 7 @ @ : : : X X O 2 @ @ X @ @ X * 9 ' q @ O X O L @ @ @ @ O O O @ @ @ 2 7 : @ ! L 0 , : 7 : , Q.s.i.$.' , 7 7 : @ 7 @ @ @ : 7 7 2 @ 7 7 : 9 h q.7 O X @ @ @ @ X 2 5 X X @ O O 2 2 O O @ O @ @ * s a n q @ : 2 @ @ @ @ 2 2 2 @ @ @ @ @ @ @ @ @ 2 2 2 2 2 @ @ : : @ 7 7 7 0 h j.A.0 0 4 X X X O O O       O   O O O O     O X , L 1 X X O O O O o < l ) _ q 1 O @ @ @ ",
"@ > # - k > 9 h f a & @ @ & 6 s # @ @ @ 2 : @ @ 7 7 : : X X @ @ @ @ X X j b G G @ X O @ @ X @ @ @ @ O O @ @ @ @ 2 7 @ @ 2 7 0 , 7 9 : f.~.*...d.A b 9 7 O   8 : @ : : 2 2 @ @ 7 2 7 q P @.7 @ @ @ @ @ @ @ X * @ @ @ @ O @ O X O @ :     > B D n N , 2 2 @ @ @ @ 2 2 2 @ @ @ @ @ @ @ @ 2 2 2 2 @ @ @ @ 7 7 @ : 7 9 0 g k.M.h q O X O   X O O   O O O O O O O         X : 2 O X O O O O   o k 9.o.N 9 2 O @ @ @ ",
"> s 8 ( 0 7 N N A - : : - ; n 7.u O @ O 2 : @ @ 2 2 @ : : : @ X O X g C X r O 8   r > @     O :   : @   X O @ X 8 O > O w O @ @ X q O T.%.=...H._ N b * ;XaX  w 2.O 7 2 @ @ @ : : @ # ] O w   #   8   X   X O 8   w # O   #     y   =XgX  ' ..$.N 9 @ 2 @ @ @ @ @ @ @ @ @ @ @ @ @ @ @ @ 2 @ @ @ @ @ @ 7 : : 7 7 7 8 v g.v.h U 1 X O O O O O O O O   O O O   O       * : 1 X O @ * X X X < z 9.#.Z , @ @ O @ @ ",
"N 0 G 5 2 5 ( E K 7 2 0 L | e.v 7.+ @ @ : : @ @ @ @ 2 2 0 : , * g V ( O uXkXkX  gXhXiX  5.UX#   LX    hXBXBX  @ O PX  UX  UXlX@XAX8 +XwXdXjXMX2 ( U _   JX*   PXB     X : O   8 : 2.KXfXlX  KXgXBX  hX2.uXAXCXX lXgX;X;XPXAX8 PXgX{.  VXe _ n.@.) 7 @ @ @ @ @ @ @ @ @ @ @ @ @ 2 @ @ @ @ @ @ @ @ @ 2 : 7 : : 7 7 7 > w.I.U 9 K O X O O O O   X O   O O X O O     X X - 7 @ O O @ : L O X - z e...0.b O @ @ @ @ ",
"5 @ O X : 0 0 2 @ : 2 5 K M.%.z 7.u @ @ 7 : @ @ @ @ 2 2 7 7 7 b N L 1   PX      KX    O hXtX|.  HX    zX#   8 * O GX*X[.O SX    {.&XVX0 PX  *.N C q L @ AXO  XIXT {.AX{.  @XNXO O hX=.  JX  HX  SX> fX>.gX]     HX      kX8 [.%X  O O kX] Y U P ( 7 @ @ 2 @ @ 2 @ @ 2 2 @ @ @ 2 @ @ 2 @ 2 2 @ @ @ 2 2 7 7 7 7 7 9 ; r.Y.L 7 2 X O X O O O   O O O O O X O O O o O X d 5 O O O O O F 1 o - 9.i.| 0.q @ O @ O @ ",
"@ @ O 2 : 2 , : @ @ @ @ 0 ~ v.V D u @ @ 7 : @ @ 2 @ 2 7 m 0 G P 5 @ X   kXZX X  KX  O   KX# lX  HX    iXlXfX  c * CXAX  O IXjXE.  BXxX@ mXAX$XP P 9 7 O AXO # hX  KX  PX  IXO : O gX3.  PX  HX-XAX  iX>.tXBXhX  KX  O   zXr # UXlX8   kX] L 0 , q : @ @ 2 @ 2 2 2 2 2 @ @ @ @ 2 @ @ 2 2 @ @ @ @ @ 2 @ : 7 : 0 : 0 D a.A.q * 1 O $ % % . O O X   X X X X X X O X @ * f 5 O O X O O O & p < z #._ Z 0 @ @ O @ @ ",
": @ @ 5 @ 2 9 @ @ @ @ @ P @ R m.g # O 2 : : @ @ @ @ 2 L q : M , O @ O >   X FX# KX  O O UX=XKX  HX    lX-.> 5 &.  BXBX> X GXX 9 : hX$X' : ( JXw q 0 : O AX  8 zX  HX  HX  HX  : X hX3.- PX  HXO zXB iX>.fX4.>   HX  O   zXt >   2.HX  lX[ q q b 9 : : @ 2 @ 2 @ 2 2 2 2 @ @ @ @ @ 2 2 2 @ @ : @ @ @ : 7 7 : 0 B : v k.M.V b 6 u 7.7.a = X X X X X @ O X : @ O O O @ M 5 O O   O O + & k k V X.0 h 5 O @ O @ @ ",
": @ @ @ @ 5 , @ @ X 2 7 7 X G ! 9 o & @ 7 : @ @ @ @ 2 L 7 @ C * @ X O O ;.O AXO PXX r ].iXe KXO KXe > mX4.;.2 G O PXT BXO KXe [ , xXW.N W.7 HXw 7 7 7 O ZX  8 BX  KX  PX  LX  : , uX#XA UX  KX: SXB hX2.gX[.-.  IXO t   BXB w -.-.AX  jX[ 0 0 Z q : : @ 2 @ 2 @ @ @ @ @ @ @ @ @ @ @ 2 2 7 @ : @ @ 7 7 : 7 : 7 e.{ 9.Q.M.Z #.- ; f z Z m : @ @ @ O O O O @ 2 O O O * 0 1 O   + %   X * b S { E 7 : 2 O @ O @ @ ",
": @ @ @ 2 0 : @ @ @ 2 9 @ O 1 G 7 - i 3 7 @ @ @ @ @ 2 7 2 0 n X @ O O   =XcX}.  ] NXiX2.y O ].w &XfX X2.fXhX8 2   &X  ;XX 0XfX0XV >X&.9 wXmX{.@ 0 7 7   KX2.@  XX h.BX5.  #X; : M @ gXCX'.X -XhXR.@ gX  3.fXhXt ;.mXuX  }.8 8 gXcXO w UX  r 8 } 7 : : @ @ @ 2 @ @ @ @ : @ 2 @ @ @ @ 2 2 2 @ @ @ @ 7 7 : : 9 b _ n.e.~.@.S +.9 0 P W v.c.K @ O @ X X X O O 1 O O   d : 6 &   o < * X * m i.o.R , - 2 @ @ @ @ @ ",
": @ O @ O 2 , @ @ @ q , O @ @ @ 5 g a u @ : @ @ @ @ 7 : 7 0 9 @ @ @ @ @ O   X @ X       X @   @ O O X X X X : : : X 0 @ 9 : 9 h Q.P.{ | &.O , 9 0 7 7 8 O  XX @ 0 q   @ 7 7 n q P ) N P._.q , 7 : 7 O 9 , X X @ @   O : O @ @ O   O [.B { B h $.7 7 : : 2 2 2 2 @ @ @ @ @ @ @ @ @ @ @ 2 2 2 2 2 @ @ 7 : : q ( X.I e.Y.~ $.! G 5 G F J 4 O O O O O @ O O O + . . . = e & = - X : q 5 X N e.o.5 f , 2 O @ @ @ @ ",
": @ @ X h 0 b , 7 7 q @ O @ : 2 K ) k i : : @ @ @ : 7 : 7 q : @ @ @ O O @ X X @ @ X X X X @ @ @ @ @ @ @ : : 7 : : : 7 9 9 M N s._.d.| *.( N M q 7 7 7 7 : @ , : 0 L 9 7 7 P _ 9 M ) ..~.T.b N q 0 0 7 7 7 9 : : @ @ @ @ @ @ @ @ @ 7 , { #.) ) _ @ 7 : 2 @ 2 2 2 2 @ @ @ @ @ 2 @ @ @ @ @ @ @ @ @ : : 7 : 7 7 K W D r.Z.P %.K 1 1 O     O         O 1 1 @ O . % % o X 7 9 h q 1 O F G , j ) W 5 d 9 @ @ @ @ @ @ ",
"@ @ O M C b , : 2 q : @ @ : 2 @ R X.z s @ @ @ @ : : 7 7 7 q , @ @ @ O O X X @ @ @ O X @ @ @ : : : : : : : 7 0 : 7 : 7 q q N N Q.~.*.' %.) ) P q : 7 7 7 7 : 9 7 7 7 0 7 7 0 q 9 N { s.~.H.S { 0 7 7 7 7 7 0 7 : @ @ @ : @ @ @ @ @ 7 9 X.n.Y ' ` @ : 7 2 @ 2 2 2 @ @ @ @ @ @ 2 @ @ @ @ @ @ @ @ @ : 7 7 7 7 0 : 5 D j.M.: _ G X X X O O $ i + o #   O O X X   X - - * 2 2 G J F O X * g 9.| K 7 d 7 @ @ @ @ @ @ ",
"@ @ G ! 1 M , @ 2 9 X O 5 5 @ @ G v.M > & O @ @ @ 2 7 : 7 b , @ @ X O X O , * @ @ @ @ @ @ @ : : : : : : : 7 0 : 7 7 9 0 M N { _.K.#.#.o.X.Y q 0 7 7 7 : 9 9 9 7 7 0 0 7 7 0 q q N | g._.d.g.| 9 9 : 7 : 9 0 7 : : : @ : @ : @ @ , h Z T G t ) _ @ 7 7 @ @ 2 2 2 2 @ @ @ @ 2 @ 2 @ @ : : @ @ 2 7 7 7 7 7 7 9 0 , 0.Q.n.b L 5 O X X X X X k , * * X O   O O O   5 G 5 4 1 1 1 O X X * l e.o.G * g 2 @ @ @ @ @ @ ",
"@ O 2 1 5 9 : @ 0 @ O @ 2 @ @ @ 2 R L , p O O @ : : 7 : 9 N X @ @ @ X X 2 7 @ X @ @ @ @ @ @ : : : : : : : 0 0 : 7 7 9 9 A M P.~.*.| &._ P 0 9 9 9 0 : 7 0 L 0 7 7 7 0 7 7 9 q q ) | P._.d.I.' 9 0 7 : 0 0 9 7 7 : , @ 2 @ : : : , C p.B : D m q : 7 2 7 : 2 2 2 @ @ @ 2 2 2 2 2 @ : : : @ 2 2 @ 7 7 7 7 0 7 0 w q.(.v.Z Y : @ @ @ X O O 9 _ 5 2 2 O O O O O O O 2 @ O   O O   X * - z ..W G - g 2 @ @ @ @ @ @ ",
"@ @ @ O 5 9 @ @ 7 O @ @ @ @ @ @ @ 5 K h * O @ 2 7 : 7 7 ) M @ @ @ @ X X 2 @ O @ @ O @ @ @ @ @ : : : : : : 0 7 : 7 : , ( ) N ~.I.| #._ q 9 9 9 9 9 7 : 0 0 0 7 : : 7 7 7 7 9 q q ) $.~._.d.U._ 9 9 7 : 0 7 9 9 : 2 j g 2 : : : 9 9 i.Q...q C { 7 7 7 2 @ 7 7 7 7 @ @ @ @ 2 2 2 @ 7 7 @ @ @ @ 7 : 7 7 7 7 9 9 0 k r.Y.Y i.U 7 @ @ @ O @ X @ R G 1 O O   O         * , O O O     X - g Z o.U 1 - d 1 @ @ @ @ @ @ ",
"* @ O @ 5 , O 0 @ O @ @ O @ @ @ @ 2 R 0 * O @ 2 2 7 7 7 .., @ @ @ X @ X X X O @ X X @ @ @ @ : : : : : : 7 0 7 : 7 9 9 _ P f._.%.' #.q 9 9 9 9 9 9 7 7 7 7 7 7 7 7 7 7 7 7 9 M q ) $.~._.$.H.P 9 B : 0 : 7 9 9 : @ ( ( , : : , 7 9 s.~.$.P | +.7 : 7 7 @ : 7 7 7 7 7 2 @ : @ @ @ 7 7 @ 7 7 7 7 7 7 7 7 7 9 P 0 f j.A.( $.U 2 @ @ @ @ O X X @ O     O   O         * : O   O O X * d c } +.G O d d 2 @ @ @ @ @ @ ",
", : X O 2 : 7 8 X O O O O O @ @ @ @ 5 2 : @ @ 2 2 : 7 Y { : @ @ @ @ @ X X X @ @ @ X @ @ @ : : : : : 7 7 7 9 9 , 9 9 q t C Q.T.' ' #.b 9 9 b A 9 9 9 7 7 7 7 7 7 7 7 7 7 9 M M q ) s.~._.$.P.n b r.- 9 9 0 0 0 : : G 5 , : : : 0 q d._.L.q o.X.: 7 7 7 2 7 7 7 7 2 7 7 : : : 2 2 7 2 7 7 : 7 7 7 : 7 7 7 0 ( 0 f g.A.9 o.G @ O > @ O X O X O O   O   O O     O   X 1 O O O X X d z Z ' U 2 # d b @ @ @ @ @ @ @ ",
"h d : O 1 : 9 @ O O O O O O @ @ @ X @ 2 @ @ @ 2 2 7 7 U M : @ @ @ @ @ X X X @ @ @ X @ @ : : : : : : O             X - c e.I.f.* { ' M 9 q q | , q 9 9 7 7 9 7 9 7 9 7 9 7 ( M M ' f._.~.$.P.i.( V.9 9 b 7 7 7 7 : 7 : 0 7 0 0 0 0 *.T.Q.Z ( _ 7 7 7 7 7 7 7 7 7 2 7 7 7 7 7 2 @ 2 2 7 7 : 7 7 2 7 7 : 9 9 9 P z P.v.m W 5 @ O @ @ O O X   ;   O O O O O O   O   X 1 O O O X * j 0.} _ L @ > g , 2 O @ @ @ @ @ ",
"0 9 * @ : x , X @ O O O O @ @ @ @ X @ 2 @ @ @ @ 2 7 7 _ , : @ @ @ @ X X X @ @ : : @ : : - - : :   3.-X*X*X*X*X*X*X1X1XqXqXqX1X1XwX3.: M q P W 0 9 9 0 7 9 9 9 7 9 9 7 9 9 P M M ) f.~.~.s.T.@.P ~ 0 q q 7 : , , 7 7 : 5 7 7 7 0 b #.U._.g.b ` 7 7 7 7 7 7 7 7 7 2 7 7 2 7 2 2 2 @ @ : @ 7 7 7 7 7 : M 9 b M ' 0.I.v.N E @ X O O O O O X O g z   O O     O     X : 1 O   X X * h { @.+.q @ * 9., 2 @ @ @ @ @ @ ",
"7 : , : ) Z X X O O @ O @ @ @ @ @ 7 2 2 : X * & @ 7 0 N , @ @ @ @ @ @ X @ @ @ : @ @ : : 9 h ,   -Xh.  X @ : , ; D e.P.A.%.T.a.i.M .X#X, 9 0 9 9 9 9 7 7 9 9 9 7 9 9 7 9 9 q q N | P.~.~.g.J.W q 0 q 0 0 7 7 9 7 7 7 7 7 7 @ 7 : e...B.U.Q.V ( 7 7 7 7 7 7 7 7 7 2 7 2 2 @ @ @ 2 2 @ : @ 7 7 7 7 7 , _ q M B x a.Y.X.( G O O O X X O X O O   N.4   O O           @ O     X * h b Y E U 0 2 X c 9 @ @ @ @ @ O @ ",
": : 9 0 o.- X O O O O O O O O @ 2 @ @ @ : @ ; @ 2 7 q N : : @ @ X @ @ @ @ @ @ @ @ @ : 7 L 0 , E.2., , , b N ,.x.r.T.A.X.I.Y.Q.L.( 9 {.,.9 9 9 0 9 9 7 7 M 9 9 0 9 9 9 9 9 M q ) | Q.~.~.P.G.b 9 q 9 7 : 7 0 0 0 : 9 : : 7 : : 7 *.$.*.K.T.a.q 7 7 7 7 7 7 7 7 7 2 7 @ @ : : : 2 2 @ : : 7 7 7 7 7 9 _ P T h.e.V.Z.#.M 5 X X X X X O O     O F F O   O O   O     X O   = - d x M P L 0 7 O X d 5 2 O @ @ @ O @ ",
"@ 2 @ U L @ X O O O O O O O @ @ 2 @ @ 2 @ 7 , : @ 0 M b : : @ @ @ X X @ @ @ @ : : : : : 7 7   -XX b q N )  .l.j.T.M.( #.B.V.~.z.n N X -XX 9 9 9 9 9 7 9 ( 9 9 9 q q 9 9 q M M ) $.~._.~.I.d.M q q 9 0 7 7 0 7 7 7 0 : 2 : : 7 7 X.@.$.H.V.Q.M 0 9 7 7 7 7 7 7 7 2 2 7 @ : : 7 : 7 7 7 7 7 7 9 , 9 ( ) P <.y.k.M.+.} { 2 @ X X X X   X O O   O O O X X         X O O X d 0.z x ) ( b b 7 O = d 2 @ @ @ @ @ @ @ ",
"X @ 7 1 2 @ O O O O O O @ @ @ @ @ @ 2 2 : G 7 @ @ 0 _ , : : * @ @ X X @ X @ @ : : : : * : 7 > #X9 N ( ( p.j.~./.X.N S $.i.d.(.l.<.M : *XX 9 9 , b 9 7 q Y q 9 9 9 q 9 9 q M M ) $.~._.~.I.*.( q 9 9 0 0 7 7 : : 7 0 @ 7 @ @ : : P Y $.J.+.T.i.: 7 7 7 7 7 7 7 7 7 7 7 7 7 7 7 : 7 7 9 0 9 , b M M Y _ I w.u.Y.n.S i.m.2 X @ X X X X X X           X O O O     X O O X * Z $.| ' A Z Z m : f g @ @ @ @ @ @ @ @ ",
"* , @ O O @ @ O O @ @ @ 2 @ @ @ @ @ 2 7 : 2 2 @ : 0 _ , : @ : @ X @ @ @ @ @ : : : : : , 9 9 q #XP M [ e.k.T.A._ m S #.s.g.*.(.Q.z.m 9 *X* 9 9 q ( 9 9 q P q 9 9 9 0 q q q M q ( $.~._.~.I.%.P 0 9 7 9 7 7 7 : : 7 7 : : : 7 : : M M $.%.Y B.k.d 0 7 7 7 7 7 7 7 2 7 7 7 7 7 7 7 7 : M 9 b N ( P U P -.v y.~.A.+.S d.n.5 X O X O O O X - * X O   X X X O O O O X O   X * q v.Y Y A S e.} , l j 2 @ O @ @ @ @ @ ",
"b X O O O @ @ X O @ @ @ @ X , @ @ @ @ q 2 X 2 @ : L M : = < @ O @ @ @ X @ @ @ @ : @ , 9 q q 0 .Xf t.q.k./.M._ x i...G.N.J.s.Y.~.z.n 9 $X* 9 9 9 Y 9 , 0 7 9 0 9 9 0 9 9 9 q q ( s.~.(.T.I.0 q b n 0 9 0 : 7 7 7 7 7 : , , 7 : 7 M b #.$.( ' _.A 7 7 7 7 7 7 7 7 7 7 7 7 7 7 7 7 7 7 _ 5 2 ` U G 5 ; h.w.g.Y.V.` P M.~ 2 >   X O O X X X @ * X   * X O O O   O X O   * - , L P q ( ) #.o.L d j 2 @ @ @ @ @ @ @ ",
": O X O O @ : X O @ O O O : : @ @ @ 7 9 @ O @ : 7 M N - q.- O @ X @ * , * @ : : : : , 9 q 9 * %Xt.r.P.Z.~ N e.$.N.N B.W B.i.J._.l.,., *X, b 9 9 9 9 7 7 7 0 9 9 9 9 0 0 0 q q ( d.~.T.I.G.zX8 M ) : 0 7 : : : 7 7 2 : : 9 7 : : q 0 } f.N _ A.B.7 7 7 7 7 7 7 : 7 7 7 7 : 7 7 0 7 0 G OX0X4 5 : g z w.j.A.A.v.! L W L 7 f g   & X O   X 9 X 2 O   O O O         O * - 9 q q h b M ( _ U G * 7 @ O @ @ @ @ @ @ ",
"O X O O O @ , X O O O O @ 2 @ O @ @ 7 : O @ @ : 7  ., | c * O @ @ : @ 7 * @ : : , : 9 9 h , D ,Xj.T.M.Y m i.s.%.o.mX5 ( m.f.G.(.k.p., *X: M 9 9 9 9 9 7 7 7 9 9 q 9 0 9 b 9 q M H._.~.I.f.DX; Y X.: : 7 7 7 7 @ @ : @ 7 2 7 7 7 7 0 { B.| q K V.7 7 @ 7 7 7 7 7 @ 7 7 7 7 7 7 2 2 0 1 ;XgX  , g z e.j.(.Z.+.W G 0 q 9 9 - C X f * O     * @ 1 O   O O O       X O o , P L q N M P ( ( q 1 - : @ @ @ @ @ @ @ @ ",
"X O O O O @ : X O O X O @ @ O O @ @ 7 : X @ @ 2 0  .y v.: @ @ @ @ : 7 7 : : : : : : , h ; v r.qX/.m.b V i.*.*.X.Q UXX q n.H.f./.~.r., *X2 M 9 9 9 9 9 9 , 7 9 q q 9 0 b V q q M P._.~.I.I. .b q 7 2. X  0 8 O  X4.@ r   R.w   ].[.  | Y L..Xw W }   {.4.O 0   5.{.O 0 0 7 0   5.].2 8 X , l v ,.3.l.P.A.Q #X1.O : b 0 M , ! 2 * q O     1 J O       O   O     O O X 7 L L 0 P ! U P P 0 2 - : @ @ @ @ @ @ @ @ ",
"* O X X @ 1 @ @ X O X O X : @ O @ 2 7 * O @ @ 7 U V s H 2 X @ @ @ : : : : : : : : 9 , D q.j.~.5XW j V | o.*.C.W.h.UX:.E.@.U.g.A._.z.D $X@ q 9 9 7 7 q 9 : 7 7 0 0 q 9 P M -.7 M Q.~.T.I._ UX@ O UXlXjXHX    UXtXlXO hXHXVX  BXlXlXAXO ).CXfXUX8 ) HXhXCXE.  hXCXfXPX  q 7 O tXSXkXgX  0XcXX sXCXmXUX~ C.UX0XIX[.: j , 0 q 5 1 O J O O O   O O   X X X O       O X * 7 L 0 0 U K L 0 Y L 2 * 2 @ @ @ @ O O @ @ ",
"X O X @ @ @ O X X O O O X > X O : 2 7 X O @ @ : _ V f 6 2 X @ @ : : * : : : 7 : , , k q.k./.v.#Xj i.#.*.o.! &XPXKXIXKXPXW.A.g.B.(.k.D $X@ q 9 9 9 0 P 0 7 7 9 7 0 0 9 U L 8.: N ~.I.T.J.E UXO O UX    UX  h.BX    O gX@X  O UX    UXO 0 O   NXR.O.PX    @   UXO   PX8 9 1   PXO     , -XhXL F   cX5XR 0XuX  OXhXO h M 5 5 2 X O O O             O O O O O     O   : 0 0 0 0 0 0 0 9 0 I 2 , 2 @ O @ @ O O @ @ ",
"X @ , , O O @ * X O X O @ X O @ : 2 : @ O @ @ 7 %.( h & # @ X X : : : : , : , d , l u.Q.A.~ 9 $Xe.o.o.o.W P :   X UX    0 V.g.*.Y.Q.q.#X: q 9 9 9 9 L 7 : 7 7 9 7 0 0 9 q p.: | (.I.Q.B.5 UXX O UXO O UX  ].ZXX *   gX=XO X UX&XBXBXO @ jXCXUX5.1 PXAXfXO   IX;XjXJX  5 2   aXIXcXB @ 6XhX1 2 ,.LX4 4 6XVX0XUX5.1 , ( 5 @ @ O O O O O       X X   O O O       O X : 0 7 5 0 5 5 0 q 7 5 2 : @ @ O @ @ @ @ @ @ ",
": 5 P * X O @ @ X X X O @ @ O @ @ @ : X O @ : 0 ' E h < i X X : : : : , @ * n h z j.T.Z.U n h $Xo.X.~ Y q q q P w UXO q M n.H.i.U.~.r.;X: M 9 9 9 9 0 : , 7 9 9 : : s : N f.9 $.T.T.~.s.: UXX O UXO O UX  R.ZXX 9 O gX=XX X UXR.1.  O VX0XO ZXh.@ G :.lXfX  UX[.5.  2 @ X ,   B {.IX  -XgXu   PXC.! O 1XnX).8 O O X L 2 : O O O O O O O     O X O           X O * - 7 2 5 5 5 4 5 0 0 5 2 : @ @ @ @ @ @ @ @ @ ",
"@ J 4 O O O @ O : X O X @ X O @ @ 2 , * X @ : 0 b U q k a X @ : : : : , , , j w.a.A.v.9 l V _ $X_ P L 9 b q q q q w q q M X.U.a.J._.r.2X* b b b 9 9 , , 9 9 9 9 b h c b ' B.M f.~.~.~.i.l UX@ X UX  O UXO 1.JX  O O gX=XX   UX    e   AXR.  HX5.X O O  XzX  IX8   e X * d h :   O UX  =XhXk ,XjX@ O O @XhX  # 8 X O 1 @ @ O O O O O   O       O O           X   * , 7 2 5 2 2 @ @ 2 2 8 * : @ @ @ @ @ @ @ @ @ ",
"- : * X @ X @ : * * O X : X O @ : : b * O @ : M 9 7 U x ; o @ 7 7 : , * < m r.g.M.E , j e.A ' OX5 7 7 q b 9 q 9 0 q q q q _ J.g.G._.g.,Xg e.S m b b h 9 9 9 9 9 9 m i.q _ B.( P.~.~.(.f.A HX, - JX  O HXO   lXUXIXO uX@XX O XXUXIXiX  3.UXPXiXE.X LXIXLXO @ 5.UXIXNX  f b O nXIXUX].  XXaXl VXGXPXIXX   CXIXPX-.X X @ O @ O O O O O O O         O   .     X X O   : L 2 2 2 @ O O O : g l @ 2 @ @ @ @ @ @ @ @ ",
"- * * * - - - : d d - : : @ @ : , 0 : X X @ 7 M , 7 ! M - p @ 7 : , : D t.r.Y.v.7 d 0.o.#...U #X@ 7 0 0 0 : 0 0 0 9 q q ( ( A.P.G.(.I.<XZ e.e.S V A m b 9 9 9 -.7 E ~ 9 _ @.( T.~.T.T.I.m.O _ ) * C ,   8 >       8     @ @ O       7 9       : m   O O @ O o       8 L K U O     X * O d j.N.O O   8 2       X O X O O O X O O             $ % % % % .     O   * @ 5 2 2 2 O O X O X d j @ 2 O 2 @ @ @ @ @ @ ",
"2 2 X + 2 7 : 0 b d d h * * : 0 , 9 , , @ : 9 A , : U L d < : 9 , = D y.j.A.! 7 g e.) P o.W   *X  7 7 7 0 7 7 > 7 7 0 q P ( n.U.f.U.I.qX$.@.$.i.} A m h b b 9 n h ( P 9 I ^ q T._.U.T.P._ P U W { S m , - 7 @ O @ @ @ @ O @ @ @ @ @ @ M @ X - M N 5 4 X.x - d j 9 2 2 5 5 @ X X @ @ o ; 0.U.b.G : : O O X @ : , O X O O X O O     .   O O . u u $ o * * X   O O X 1 1 O O O O O O O O * 7 1 2 O @ @ @ @ @ @ @ ",
"O O , , @ 1 2 5 G 5 5 : : @ 2 0 , b j , : @ ( S - 7 : L b - 8 7 ; q.u.~.V.P - x | ~ P W U , :  Xt 7 0 7 : , e., : 7 0 0 P N X.A.f.J.'.'.L._ W ' &.' { b b 9 b S V z x b A C N T._.B.K.Q.S V b q W ~ P h l d - : X @ O @ @ @ @ @ @ @ @ M : * 7 G X.m O G a.l 9 U K 1 @ O @ X X X * X < l } b.R : d 5 2 O X X 2 0 O   X O X O O   . $   O     X d d - * : X X O O O 1 O O O O O O O   X * @ @ @ O @ O @ @ @ @ @ ",
"  * q.* O 2 @ 1 1 7 5 2 @ @ @ 5 0 q b : : 2 o.Z , : : 0 0 , p k 0.j.(.M.N l x ' ! 0 0 0 7 9 7   yXB X @ : , } X : @ : 7 M q P M.| ).wXg.z.n P W @.) } V N q ( @.N { A Z e.} S T.Y.%.N.~...N j m ( L L P ( b x g - * X X @ X @ @ @ @ @ P 9 @ G 5 0 i.X 1 f.a.G K 5 @ @ O : * X : : - 9.w.N.X.2 , 0 F O   O   3 1 O   X O X X X X X X X   O   X 7 G G F F 1 : O     O O O O O O O O   * * O O O @ O @ @ @ O O @ ",
"O K 2 O O @ O O @ * @ @ @ O @ 1 1 P b : 2 5 ~ V , , 7 7 q , D w.Q.A.v.P Z e.#.Y 0 7 7 7 : 7 : ,   XX*XXX#X$XOXXXXXXXXX#X$X#X$X5XwX'.J.~.j.C h ( X.X.| { A m | +.{ ' } i.B.W $.Y.B.$.N.Y.s.U _ N M , 9 q L P ) M - - * * X O O X : @ @ L 9 h : X 2 @., X X.!.9 @ @ * @ O @ 2 @ : 7 d y.s.%.( 2 0 K 1 $ % o . & X X X X X O   O O O O 2 O O   O 4 J F 1 O O @ O O     O O   O O O   o * : @ @ @ @ O @ @ @ O O O ",
"@ J O   O O O O 2 , , : @ X O @ 2 P b @ : 7 E N , , , : e Z r.K.b.I , V $.%.) h 0 : : 7 7 : : : : X   > 8 w 8 > > 8 8 8 w 8 8 I #.| U.~.k.i.9 ( _ _ W X.' S e.e.S ) $.B.+.P H.n.*.g...N.g.0 P U X.9 h V b q W E L q d l g * = # @ @ @ 5 5 9 d : O K M O 4 Y.e.X O : O X O @ @ X 8 z a.Z._ ! X 5 4 O X - - * * , * X X X O O O O O O 1 O O O     O         X O       O O O O O O   o * @ @ @ @ @ @ @ @ @ @ @ @ ",
"X O O O O O O O 1 : , , X X O O 2 ) h O 7 7 U M , : , f q.P.A.! b g h #.d.' ) b * : : 7 2 : 7 : : X O [ v [ [ ] ] ] ] ] [ [ [ =.U A J.(.Q.e.b ( ( ) P Y _ *.s.i...#.*.v.U M G.Y *.P...o.Q.b 0 L Y L P Y 9 q N q P P N V j g z g , O @ @ 1 5 q - : 2 ( : X @.k.- @ : @ X @ * * O g z M.m.U ( : 1 O   X , , @ X 1 1 O O O O O O O O O O O O   O             X O         O O O O O   * * O @ @ @ @ @ @ @ @ @ @ @ ",
"X     O O O   O 1 7 7 , X @ @ , q ) , 2 0 7 0 q b > c y.g.A.U 7 0.Z } s.#.) N q , , * : @ @ : 7   -X@X{.^..X^.E.[.E.E.E.E.E.W.W.6X1X_ T.~.a.m ( q ( b M _ *.N.B.#.s.@.P M M %.P m.T.s._ T.m 7 0 q 0 L U L q N j Z e.{ o.' x 0.0.g * : > X 2 5 0 , & 6 8 a 5 ~.Z X : @ @ * - , * 9.| %.$.q h 5 O O O @ 0 G 4 1 1 @ O O O O                       O         @ O     O O O O O       * : @ O @ @ @ @ @ @ @ @ @ @ ",
"X   X X   O X X 2 2 0 , O O , 9 P M @ 5 7 7 q q j 9.j.U.v.U , e.s.V f.%._ N b 9 , : : * * : :   iXO 2 U U N m j h * : @ : 7 0 q 0 O.uXB.~.a.N ( P P ) ) ' %.%.*.m.#.( j z } X.9 W A.s.) U.i.: 9 9 9 7 q q P X._ } r.} P { i.s.s.M j l g - X @ O 2 a p 8 p , J.g.X 7 : @ : , w d ) v.W @.q G F O O O X 1 1 O   O O O                   O   X *   O O       X O   O O O O O O     X * @ @ O O @ @ @ @ @ @ @ @ @ ",
"X X f X O * * @ 1 1 0 X , : 0 5 P : O 2 @ 9 7 b r.k.A.X.b , m d.s.#.@.( N M 0 , 0 : - g * : * &X8 @ 5 G 5 0 q Y q 7 : @ : 7 0 9 P $.h.4XT.P.} Y M P ' ) #.o.s.s.f.@.P ) i.' | m q m.H.{ G.g., b q , b q 0 L Y U @.N.o.q A } *.n.E ( Z 9.z d - X @ h g g x j W T.j X 2 X * y n Z ! R K G U 4 O   O   O O O O     O O o   O X   O       O   * X O             @     O   O O   X X * * O O @ @ @ @ @ @ @ @ @ @ O ",
"O 7 , O @ 2 O 1 1 O 7 , : 5 1 2 q O O @ 7 , g f.I.Z._ l x j o.@.#.~ P 9 } 9 7 : 7 : q , , :   &XO @ @ 2 2 0 0 U 0 : : : : , , 9 P $.A wXN.P.r.) ( Y +.' $...f.g.f.' ( #.Z.X.#.Z m ' H.i.f.g.m ( 0 q q P 0 0 P P Y ~ W q ( #.m.W P P #.$.) l z l d b P L +.W G M.g.* @ : * j 0.o.c.1 5 6 J O X O O   O O O O   o O   * *   X               O O O O           O X   X X O O X X X - : O O @ @ @ @ @ @ @ @ @ @ O ",
"1 G O O F 1 O X X : 0 7 1 O O 7 : X X @ 0 z r.J.N...V V A e.$.+.P 0 9 q ) X ; : : = Q 7 X e u |.  : @ @ @ 2 7 0 7 @ @ @ : : 7 q P M.+.qX%.I.g.) P P Y ' s.f.g.I.V._ N f.~ Y X.' { { B.f.s.H.A q 0 0 q q 7 9 N m 0 G 5 0 Y X.W P N N W n.E _ { Z 9.e.&.G E U 0 K Y.b : : 7 0.i.M.5 O X p > O O   O   X O O O   X X O * h   X X O     X X   O O O O           O X X X O O X X X o * @ @ O @ @ @ @ @ @ @ @ @ @ O ",
"O O   O O O X * : 2 1 O X X @ b X X : 7 L g.I.#.i.r.} | i.a.e.e.V g 9.i.N l 0.g g 9.9.l l c c .XX , * * X : : - < p < X : : 0 P q n.U <X@.U.P.i.9 9 9 { $.H.Q.K.G.Y o.N.L 0 _ W ' i.N.J.f.I.i.0 0 0 0 0 7 9 N N 0 @ 2 2 q P P M ( ( P _ q L E X.} e.w.l 7 0 9 : v.#.: 7 , S M.~ 7 * X 7 h O O     X X O O O   # O   O G 1 X O O     X @ O   O O             X @ 1 O 2 O X : X * * @ @ @ @ @ @ @ @ @ @ @ O O O ",
"X     O   - d , 1 O O X X O 9 , X * : : v.A.+.U @.{ { ' V.N.V V b m e.Z g 0.9.g 0.w.w.9.w.y.w..X, , g g d g g 0.w.w.l , , 9 b V V } } qXo.U.H.r.m b b i.*.K.T.B.B.0 X.! L 0 M q ' i.o.m.H.Q.j.0   w 5 5 0 0 L L 0 @ @ 2 7 0 7 M P U P q b , 5 P X.M.@.M , 9 9 g q &.< 7 - ' M.J M g O @ U O   O   X O O       < @     O O O O O     O O O               O   - : 1 O @ O * * 2 * : 2 @ O @ @ @ @ @ @ @ @ O O O ",
"* O O X - 9 0 @ O O X O X O b : 2 7 0 5 c.@.L E ! #.o.R v.! R K K ! ! U E v.U U v.m._ _ %.f.A XX@ : , , , h h r.u.w.l , 9 , j e.} i.r.qX..P.J.a.V m N s.s.U.V.%.~ 0 U 0 e 7 U 0 ' G.) o.m.Y.P.O ZX  @ 2 2 2 2 1 1 2 O O 5 5 5 0 G 5 5 G ~ 5 2 7 q W ! R G 7 M m b i.q.g h o.( 4 9 Y 1 O G e UX>   O O O       o @ O   O     O O       O O                   * h 1 X o O * > 8 * @ @ @ O @ @ @ @ @ @ @ @ O O O ",
"* X - * 5 5 O O   O O   O 7 m O 5 5 5 1 U x * , ' o.K 2 2 7 2 @ @ 5 G 5 5 J 1 G R R R R c.c.U #XO 5 G G G G R v.Z.n.7 2 2 7 Y +.X.B.*.qX$.f.J.g.e.m { $.H.Z.v.v.L 0 G 3 a 6 G 0 o.n.N ) X.b.c.# IX  @ O   O 2 @ @     O O O O O 5 O   O L 5 O O @ q 5 5 O O 0 { M i.r.z Y ( E : 2 F     0 O XX                  O O                                         X b 1 X & ; - e , * @ @ O @ @ @ @ @ O @ @ @ O O O ",
"- - , 1 1 O   O O   X O 2 9 : O 1 2 O O W S , P ! L * @ 2 @ X O 2 X @ 2 @ X O X X X O X @ 1 w  X  O O O @ 2 5 J R K O @ : 9 Y U _ N.n.qX+.B.J.P.a.v =.f.V.v.Y _ b 5 7 - D a 1 9 ) ~ ~ _ N [ nXuXKX  O 5.ZXgX  @   kXNX2.8 ;.=X;X  tXZX=X  O &XNXkX5 2   iXBX#X( @ 5XGXdX5 L K @ O }.VXiXO O ;X  y gXiX0X>.  # cXNXr     X         O                           9 @   ; g - 9 g : @ O @ @ @ @ @ @ @ O @ @ O @ @ ",
", 5 1 O O O     O O O O 1 q X O O X X , ~ e.V L G 7 * X @ @ X X @ X @ 2 @ X X X X X X X X 2 K }.  O X O X X O 5.4.4.4.h.- h b 9 ( X.W 5XY %.G.~.g.x.p.I.m.P m e.b 7 : 9 Z D % L Y M W E , UX5..XPX  r UXe uXlX  SX}.>.t e UX0Xe ;XlX8 KX5.  =X] yXVX  hXiX2.#X2 .XGXv.AX-X5 , @ >.PX] %XO O UX  # }.>.UX>.  UX5.5.UX    X O       O O                         : @ % = l b h z 7 1 O @ @ O @ @ @ @ O @ @ @ @ O ",
"1 1 O   X     O O O O O q 7 O O O O O N +.r.c * 2 7 * X @ @ X X O X O 1 O X X X X X X X X 2 2 }.  X X X X X   SXGXGXGXCX  q q 0 W L ' -X( o.H.T.P.r.k.J.| M A  .0 : 7 U @.v p G E L 0 U O.PX  =.PX  S.zX  2.SX  UX#     e PX    NXh.  kX|.X     ;.GX  SXh.  O 5 dX1XO wXfXO 7 1 }.vX    O   UX  O   |.lX  O UX    UX    O 1 O     O O                         * @ < d j ` d j 2 @ O @ @ O @ @ @ @ @ @ @ @ @ @ ",
"O     X *   O O O O O : M @ O @ X X 5 A W a.t.= @ 7 , X @ @ @ X X X O 2 O X X X X X X O X X O }.  X X * * * >         O L U 0 0 0 9 M $XN | J.A.T.Q.~.@.' N @.~ q 0 7 U v.{ f 2 7 0 0 0 C.PX  v.PX  R.IXVXIX;.  UX# X X e IX    gXHXHXSX    BXKXHXBX  3.UXUXuXO wXPXSXPXK 1 K 1   SXUXZX    UX  O   UX  O O UXBXUX=X  O O 1 O     O                           * , * 9.m P z : 5 @ @ @ @ O @ @ @ @ @ @ O @ O O ",
"  O O 2 O O O X X X @ q b O X O X @ K P E g.t.= : 7 , : @ : X X X X X O X X X X X X X   X X @ }.  * - , * @ @ @ : 7 2 2 5 5 7 7 7 P 0 $X) o.N.V.T._.Y.W | _ E 0 q 0 5 @ E ~ b O : 7 7 2 I PX  H PX  R.cX    d X UXO O O e IX    NXS.    O 4.AX  y GX  1 O 1 UXO uXwX1 O m 1 4 1 @     VX[.  UX    gX=X  O O UX.     X     O                 O X       O         b , x ' q z 7 @ @ @ @ @ @ @ @ @ @ @ @ @ @ @ @ ",
"O   9 @ O X # X X @ 1 ( :   X O O @ G 9 @.Q.w.* 2 0 , : : : O X X X X X X X O X X X O   O X *  XX , : @ @ @ 2 @ 2 2 2 @ @ 2 @ 7 @ U 5 5X( @.%.*.T.(.n.A i.Y 0 0 0 5 2 2 7 E H u 2 7 : 2 O UXy XXPX  r IXt ].{.O HX+X] ;.e IX    tXhXr =Xe r PX8 iXAX  E.1.1.UX  [.GX^ #XW.O O O t [.e PX>.  UX  -.UX2.}.]   UX5.,.%X  O         O   O           O     O       . B , q ! 5 , 5 @ O 2 O @ O @ @ @ @ @ @ O O @ @ ",
"O X c   X * X @ @ O 2 M   O X X @ 2 5 j B.Q.r.- : 0 7 : @ @ X X X X X X X O O X X X X X X d > }.O 1 O @ @ @ 2 2 @ O O O O @ @ 2 e t X -Xq o.*.f.U.T.` i.N.L 7 5 5 @ O @ 2 G 2 7.O 2 : : X ].ZX;XE.O   [.ZXjX^ J O zXVX2.# ;X  X   iXVXtX    %XAX[.].  ].NXBXt O   6XZXsXR 1 O O e jXAX}.O O tX  :.;XiXaX5.  r BXBXS.  O O O   O O   O O       O O O           * l e.7 L 7 2 2 O @ @ @ @ @ @ @ @ @ O O O @ @ @ ",
"O E     O O @ O O O 0 7   O O O @ @ 5 N M.T.Z - @ 7 7 , : : * X : X X O O X X X * X * X @ q X  XO O O @ @ @ 1 X O X X O O O @ * x V , 1X5 +.d.f.I.J.Z J.! 0 7 @ @ O O O @ @ - 9.X : @ : , &   O 2 2 O @     1 1       O O O @ @       X @ @ O   O O O O     O O O O     4 O X   O O     @ O   O O         X O $ 1 1   O                         O         * * * 9.e.L , d @ @ @ @ @ @ @ @ @ @ @ @ @ O O @ @ @ ",
"1 R O O 1 O O O   O q X   O O O O O K Y c.V.A * @ : : x : : * O : X X X * - * X X O @ O 1 G   =X  O O O O O X O O O X * X @ * 9 m { O wX5 ~ V.P.T.v.a.M.G 2 @ @ O X O O 2 @ q i.O @ @ 2 7 ; O O 2 2 O 2 2 X X   O @ @ O   O 1 1 O   X 1 1 O O O O O O O O O O O O   O       X     O O O @ X   O O O O @   X O < 0 O   O O                                 f * - Z *.! - - @ @ O @ @ @ @ O O @ @ @ @ @ O O O O ",
"O     O O O     O 2 :     O     O O G 5 R n.A * @ @ P m : 7 * # @ * * * - * X X O 1 O O O O O >.].  O O O O X O X X X , : @ : U v.G -X=.0 ' V.U.M.W T.U 2 @ @ @ O O O O 2 O J W & @ @ 2 2 M X O 2 @ X 2 @ O X O O O O O X   O O O O O 1 1 O O O O   O O O O   O O O O O   O O O         : O O       X O O O O * M O   O   O                               X L * N n.R h 7 2 O O @ @ @ @ O @ @ @ @ @ O O O O O ",
"  X   O         O 0 X   O O   O O X 1 : M @.S X @ 2 U b : 9 * > : * X @ @ @ O O O O O O         [.}.                        O 1 H 6XW.0 , } N.A.W _ A.e + @ O O X O X X @ X 4 R p X : @ 2 L O O @ @ X @   O X O O O O   O O       O O O   O O O O O O   O   O O     X O O   O O O       @ 1 O   X X * O O 1 O O G O                                       O R 1 0 c.G h 7 2 O O O O @ O @ @ @ @ @ @ O @ @ O @ ",
"X   O O         O 7   O O O   O @ O O b N m.Z o O 2 L 0 9 , , * 7 @ O O O O   X   O       O       y %X%X%X%X%X%X%X&X&X=X=X=X=X&X#Xw { 1 N $.+.v.q o.! > # O O O X X X X @ X O @ h o @ @ 2 G o O X 8 @ O O O O O O O O O O O     O O O O O O O   X   O X O O       X X O       O O       2 O O O X X : O O       F 1                                     $ u % $ 6 / 2 : @ @ @ O @ @ @ @ @ @ @ @ @ @ @ @ @ @ @ ",
"O             X 7 O   O   O   O 2 O 1 P q n.c = @ @ 5 q 9 7 9 e 2 O O O     O O                 O O         * *   O O O         X A ( : | +.~ U M P 5 h : X O O X X O O : X   @ b X * @ O : *   O 2 2 @ O O O O O   X   O O O     O . . O O O   X   X X O         O O O                 O O O O O @ 2 O         @ O   O                           . .   % D k k i k d X @ @ @ @ @ @ @ @ @ @ @ @ @ @ O O O @ @ ",
"O O       X * - :     O   O   O O O 4 K n n.e.* @ @ 2 0 0 0 9 s O X X O O     O             O O         O   P 2 5 1 1 O X O @ 2 9 ..0 b ' U L 0 L 0 5 L X O O O X X O X 8 X X 1 P - l X X : , O O 5 1 O O O O O O   X X             o o O   O O O X X O O O   O O O O             O     O O     O 1 5 O       X O O O O                           . X   = l 9.z l z l * @ @ @ @ @ @ @ @ @ @ @ @ @ @ @ O @ O @ ",
"  O     * - * 2 O O         O O   X 5 0 V n.w.* @ @ @ G 7 0 q - X X X O O                   O O O O O     O J 4 1 O O X @ O X : M .., | U 0 0 7 0 7 2 K 2 O O O O O X O 7 O   O L , V X O 5 7 X X 7 O O O   O O O X @ X   X   O O O - g     O O O O O O O O       O O         O O O O   O O     X X q 1 O       O O O         . . .               X c $ < g Z S 0.z b 2 @ @ O @ @ O @ @ @ @ @ @ @ @ O O @ @ @ ",
"O   X - - : 1 O         O     O X X @ U M n.r.* * @ @ 5 2 7 P , X X O O O O               O       O     O O O O O O X @ O O O @ P A V _ 5 2 0 9 7 @ 2 1 @ O O O O O X @ 0 O O O G U U @ O 5 2 O * > X O X   O O O O @ O O O     O   - j   O   O O O O O O O O             O O O   O O   O     o X   9 O O O   O O O   O O O     X X X X         % $ ; = - z | Y ( q L 5 @ @ @ @ @ O @ O @ @ @ @ @ @ O O @ @ @ ",
"  X d , 1 O       O   O O     X : O O R 9 n.e.k X @ @ 2 2 0 L , X X X X O O             O O O O       O O     O X X O @ O O @ @ P S A 0 , 7 q 0 2 : O @ O + O O O X X @ 5 O   O 5 L G O O @ @ O @ 2 O O @ O O O O O @ @ O O O   O   1 !       O O O O O   O O         O O O O O       o . O   X @ O J 1 O +   O O       X X   O O O O O O   O $ i & = V l l N 0 5 5 1 @ @ @ @ @ @ @ @ @ @ @ @ O @ @ @ @ O O @ ",
"* : 7 O O O             X X X : @ 1 1 K q ~ 0.D X O @ 2 7 q 0 : X X X X O O                 O O               O   O @ O O O X @ ) ..Y 9 x : 0 2 @ @ O O O u % O O X O @ 2 O O O X : @ O X X @ . 1 2 O : @ X   O O O O @ X O O       O J   O     O O O     O O     X O O O O O         < o       : + O O   O X X X X X X X X O O O O O O O $ $ $ f 9.z z d 9 0 1 2 @ @ O @ @ @ @ @ @ @ @ @ @ @ O @ @ @ @ O @ @ ",
": 5 1   O       * X   X * X @ 5 O @ X G 9 X.u.q.X @ @ 7 2 7 0 , : X X X X O                 O             O O   O O O O O O O : #._ G P M 2 0 @ 2 @ O O O < % O O @ * @ @ X   O X 2 @ O O O @ & O O @ 7 : @     O O O : X                 O     O   O     O O   O O O O O O O         > >       1 O X O X X X X O O O O O O O O O O O   . $ $ - 9.9.z h 0 5 5 2 @ O @ @ @ @ @ @ @ @ @ @ @ @ @ @ @ @ O @ O O @ ",
", - o X   O   d d X O @ @ O 4 O X X @ K 9 %.j.9.X @ @ : 2 9 b , , * X X X O O               O                   O O O O O O @ 0 ~ 5 0 U G 2 1 @ @ O O O O f <   O O : X - - O O X @ @ X O O @ > O X @ 0 2 @   O   O   : :                   X X   O O O O O O O O O O       O       O & w     O O X X   X O O 7 O 1 O O O O O       . $ o * d d d M L 5 5 2 @ O O @ @ @ O O @ O @ @ @ O @ @ @ @ @ @ O O O O @ ",
"g d d X     O n X O O 4 1 X X O O X @ 5 0 A.k.v X @ @ : 2 q b : , * * X X O O O O   O O     O   O O               O O   O X : 5 U 7 2 5 2 2 @ @ @ O @ O 1 ( * O O 1 2 @ , O   X f @ @ @ O X 2 8 O X @ 7 7 @     O O   2 2             O   O   :       O O O O O O O O O         O     u T O       O O O O O O 2 O O O O O         . $ & = - g - 7 G G 1 @ O O @ @ @ @ @ @ @ O O O O @ @ @ @ O @ @ O O O @ @ @ ",
"h d g X O   J 5 O O O O O O O O O X @ 5 0 Z.k.v o @ @ : 1 0 9 9 : : * X X   O O O   O                     O O     O O   O O 7 2 2 : @ @ 2 @ @ @ O O O O 1 E : O O O 1 2 G 1   X h X @ O O O 1 0 X @ 2 2 7 @ X   O O   1 2 O           O O O O 2 O   O O O O O O O O O   O   X X O O   p ] O       O O O O O O 1 O     O O . . X o & = d l - : 2 5 1 @ @ O O O @ @ @ @ O O @ @ @ O O @ @ @ @ O O @ O O O @ @ @ ",
"2 m d   O O F O   O     O O O O O X O 2 q M.g.v o @ @ @ @ 5 q : 2 7 X X X X                                 O     O   O O O 5 2 @ @ @ @ @ @ O O @ @ @ O O J 2 O   O 1 O 6 O O 2 L O @ O O X 1 5 @ @ 2 7 7 2 @         O O O   O       O O O O 2 @ O O O O O     O           * *       p n 1 O       O   O   . O O . $ . O X * * < < d l l , 1 2 @ @ O @ @ @ @ @ @ @ @ @ O @ @ @ O O @ @ @ O O O @ @ O O @ @ O ",
"G (   O     X O O X O   O O X X O X X 1 N m.g.q.o X @ @ @ 5 0 : 8 2 @ X X X                                   O O         O 1 O 2 2 @ O @ @ O X , X O O O 1 1     O O @ f X O 1 5 @ @ O O X O 2 @ @ 2 2 0 2 @     O O O O O O O       O O O O O O   O O O X X X X   X X   O : @ O     p O.1       . . . O % % O   . o X X X - * - z l d 9 7 @ O @ @ @ @ @ O O @ @ @ @ @ @ @ @ @ O @ @ @ @ O O O @ @ @ O @ @ O ",
"L 2   O         X O   O O O O X X X X 5 ) @.g.0.* @ : @ X 2 5 , 8 @ @ X X O O O O                             X O     X f X X O O @ , @ O O O X @ X O O O O O $ .   O X f X O O O O @ O O O O @ 2 : @ 2 0 : @ X   O O   O   O   O   O O O   O O O O O O O X O O O O X X O O 1 F       & @.4 . . $ u u u . . k     X - * X o , - d l g 7 5 1 @ @ O @ @ @ @ @ @ @ @ @ @ O @ @ @ @ @ @ @ @ O O @ @ @ @ O O O O @ ",
"0 O O O   O O X *   O O O O O X X X X 4 ' %.P.9.d # @ @ X @ 5 9 : @ @ X X X O                 O   X X *   O O O O O X * - * X O X @ : O O O O O 2 X O O O O O o . O   2 K @   O O O @ O X X X @ 2 2 2 2 5 q @ @   O O O O X - X   O O O     X   O   O O O O O O O O O O O     @ $ u u i [ a u $ . = < = X X 9.* X X * X + X g j - , 0 5 2 @ @ @ O @ @ @ @ @ @ @ @ @ @ O @ @ @ @ @ @ @ @ O O @ @ @ @ O O O O @ ",
"@ O O O O O   , X     O O O O   O O X 4 X.@.Y.l c o @ @ X @ 5 0 9 @ @ X X     X         O       X X X X   O   O O   X 2 5 2 O O O 1 2 O X     O O         O O * u     4 R O   O X O @ X X X X O a O O 2 5 L 7 @ X O X O   O * X O O O     X - X O O O O O O O O O O O O . u i i 7.7.i 7.1.> = - d g g - * X 9 7 X $ 3 e @ * g d : 5 1 1 @ @ @ @ O @ @ @ @ @ @ @ @ @ O O @ @ @ @ @ @ @ @ O O @ @ @ @ @ O @ @ @ ",
"O O O O O O O @   O   O O O O O O O X 5 Y +.M.q.v o X @ O O 5 7 : @ @ @ # hX;X  [.  r 2.  }.jX5.  {.  1.-.  [.    O O {.1 O 4.e    X  [.  }.tX}.  8 ;XuXy O   [.u . 1.^   ;XhX-.O ].  E.X iX@X0X$ fXiXO 2 L 2 2 O X X X   O 2 O O   O O O   , X O O       O   o   O $ + $ i i p k g g D } h d * , , q 5 2 X 0 G % u > , d * * 7 1 O @ @ O @ O O @ @ @ O O @ @ @ @ @ O O @ @ @ O O @ @ @ O O @ @ @ @ @ O @ @ @ ",
"      O O   1 O     O O O O O X X X X 5 Y  .*.j.z < @ @ O O 1 0 , : @   KXr 2.  PX  ].iX>.NX# HX# KX  hXgX  KX  O O # ZX  X aX5.  IX  PX  IXt gXXX[.gX4.# O   JXo . tX}.%X0Xy e r AX  CXy 4.LXw BX5.2.2 2 5 2 @ @ X X O O O 1 O O   O O O O G 1   O O O   O   u $ O & o X f z 9.x l g c i.0 0 4 K E ! J F X 2 6 u k z d - @ @ @ @ O O @ @ O O O O O O O O O O @ @ @ @ O O O O O O O @ O @ @ @ @ @ @ @ O @ @ @ ",
"X         O O X     O X O X X X O @ @ 2 ) m H.k.9.; @ : X @ 2 5 , , @   IXO     HX  5.tX].;X  hXT kXe iXgXe hX    O tX5.* X uX4.  KX  HX  KX  2.uX].;X# O     AX*   ;X].iX4.    r mX  zXy O GX  JX;.  2 2 7 2 2 @ @ O O O O O O O O O O O O F 1   O O     O   s o X d * * d x V P U R Q A.J R F 0 P 0 O O . u = z 9.z - 2 2 @ @ O @ @ @ @ @ O O O O @ @ O O O @ @ @ O O O O O O O O O O @ O @ @ @ @ @ O @ @ @ ",
"    X X   O O     O O O O O X X O X @ 1 o.( T.P.9.* : @ X O @ 5 b j * X 4.ZXHX  SXgXZX=X].1X  kX-.=X<.iXgX2.=X  O   GX  8 O ;XVXgXSX  JX  KX  4.iX4.KXNXX     ZX2   ;X].iX;.uXtX# UXgXUXe O HXO 3.ZXPXO 7 7 7 2 @ @ O O X X X O O O O O     + + O         X   , - X h , @ G ! c.c.R R / M.G 2 - * * X   . # - l z l b 5 2 @ @ @ @ @ @ @ O @ @ @ @ @ @ @ @ O @ @ @ O O O @ O @ @ @ @ @ @ O O O O @ @ O O O O @ ",
"    X       O O O O O O O O O O O X O 5 _ W /.P.0.X @ @ X O @ 2 M j * 8     gXt HX  4.yX].=X  gX-.4.hX-X;XhX4.O O 5.tXx G O uX:.  KX  HX  KX  >.iX].&X  X     AX1   0X].iX>.  CX8 zX  lX-.O HXO | * |.#X@ 7 2 2 2 @ O O X X O O O O .   . $ % &   X O   X X X : : O G F 1 J R R F 1 + 7.C.0 * * X @ + +   * l z h q 5 @ 2 @ @ @ @ @ @ @ O @ @ @ @ @ @ @ @ @ @ @ @ O O O @ @ @ @ @ @ @ @ O O O O @ @ O O O O O ",
"O X X   O O           O O O O O X X @ G P E Z.g.z * @ X X O O 5 P b ,   iX1XPX  IX  ].aX# IX=XPX  X UX;.:.UXO     HXO C O   gXR.  IX  IX  PXgXPX-.].PXlXh.    AXgXtX;X|.>.HXtXmXe AX  CX<.O KX  wXuXUX8 2 5 5 2 2 @ X O X X O O O . .   o o * - X O O O O X @ 5 R 1 4 F 2   O O     X D  .: @ O + u % * * * d , 7 1 2 @ @ @ @ @ @ @ @ @ O @ @ @ @ @ @ O O O @ @ @ @ O O O O O O O O @ O O @ @ @ @ @ @ O @ O O ",
"X 1     O             O O O O X X O @ G L L N.k.0.= X * X X @ 5 U , : : X >.  > O X     X   2.  O 8 >     # X   O X 5 K O O O X @ O K O # O e X     # 8 O   O   e e .   o > :.  @ X 8 O 7.6 O 0 E E.# 2 2 2 2 2 @ @ @ O O O O   O X X   X * * , X O O O O X X 1 4 O   O + +   X * * X D e.1 @ 1 % p - g - * 7 2 2 @ @ O @ @ @ @ @ @ @ @ O O @ @ @ @ @ O O O @ @ @ @ O @ O @ @ O O O O O @ @ @ @ @ @ O O @ @ @ ",
"O O X X X       O O O   O O X X O X @ 2 0 q A.Q.Z k O : X X O 2 L 9 : @ 2 O X X X X               R R 1   X X O O   F F     O X O O O O O O O @ X O O O O O O O O . %   c -   O O @ : : D & 2 5 ! F.% 2 @ 2 2 7 2 @ @ O O O     X X * X O 2 @ G O O O X X @ O O O   O O O * - - - X O D f.O $ $ * z z - : @ 2 2 @ @ @ O @ @ @ @ @ @ @ @ @ @ @ @ @ @ @ @ O O @ @ @ @ @ @ @ @ @ @ @ O @ @ @ @ @ @ O O O O @ @ @ ",
"X O X X X       O O   X O O O X O X @ 2 : V A.I.e.- @ X X X O 2 0 6 : @ X X X X X X           O   F 1     O O O   O O O     O O O O   O O O O @ X X X O O O O O O o %   x * O O O @ 7 7 e.- 2 1 U 4.u 6 6 @ : 2 2 @ 2 O X O       O @ O 1 4 5 F O O X X O 2 1 O     O   X f d * : O 1 s m.1 & - d l g 7 1 @ @ @ @ @ @ @ @ @ @ @ @ @ @ @ @ @ @ @ @ @ @ @ O O @ @ @ @ @ @ @ @ @ @ @ @ @ @ @ @ @ @ @ O O O @ @ @ ",
"O O O O         O     X X   X   X X X O q S n.g.e.- @ X O X O @ > 6 - X X X * X X                         O O     O O       O O O O O O   O O O X X O     O     O * =   E O O O O @ 1 2 N.9 2 2 7  .< r > @ 7 2 2 @ 2 X X X O O O O 1 O O 1 O O X X   O O @ O O O   X * * - : O O + + p @.O g g - , 0 1 @ @ O @ @ @ @ @ @ @ @ @ @ @ @ @ @ O @ @ @ O O @ @ @ O O @ @ @ @ @ O @ @ @ @ @ @ @ @ @ @ @ O O O @ O O ",
"O O O O   O   X X       O   X X X X X @ W A +.P.q.* : * X X X @ h 6 , * @ X : X X X o           O         O O           X   X O O X O O   O O O O O O O     O O   5 *   R 1   O O + 3 5 v.0 2 @ 5 %.b h , @ 2 2 2 2 2 @ X O O O O O O O O O O X O * * X O X X   . X = = + + 6 u u u % ; ' , g d : 2 1 @ O O O @ @ @ @ @ @ @ @ @ O O @ O @ O @ @ O O O O @ O O O @ @ @ @ @ @ O O @ @ @ @ @ @ @ @ @ O @ @ O O O ",
"O X O     O   X X O X O   X X X X X X 5 ! A %.P.h.= * : X @ > 1 9 a 8 - : @ * : * - f   X   X           O O O   O O   O O   O O   X X X O   O O O O O O     O O   5 :   1 u .   X o e 1 R 5 2 1 5 v.T h 7 2 5 2 2 2 2 @ X X         O X     X X X , d X X o o $ u p p p u 6 a p < < - l A , * 7 2 2 @ O O @ @ @ @ @ O @ @ @ @ @ O O @ @ @ @ @ @ @ @ @ @ @ @ O O @ @ @ @ O O O O O O O O @ O @ @ @ @ @ @ O O O ",
"X X         O X X O O X X X X X X X X 2 E ) m.Q.t.= , * X - - G , s : m : @ * : * g d   X O     O O O   O O O O O O O O O O O O X X X X X O O O O O       O   O O 4 2   $ i .   X d c X F 1 O 1 4 ! ^ K G 5 2 2 7 2 2 : X X         X X X X X X O @ 7 % % i u < k k g c l g 9.9.9.z d l N 2 2 1 @ @ O @ @ @ @ @ @ @ @ @ @ @ @ @ @ @ @ @ @ @ @ @ @ @ @ @ @ @ @ O O @ @ @ O O O O O O O O O O @ @ @ @ @ @ O O O ",
"X O         O O X O O O O X X X X O @ @ R _ M.k.t.< : * : g - G m f 7 j - @ : : : ) *   X O O O O O O         O       O O O O O X X X O . $ O O               O   2 @   * d X X X d Z X O O O O O 5 X.J F @ @ 2 2 2 2 : : X X X X   X X X O + $ % 6 / 7.i 8.c z 9.w.0.w.9.z 0.w.9.l d 9 0 2 @ @ @ @ @ @ @ @ @ @ @ @ @ @ @ @ @ @ @ @ @ @ @ @ @ @ @ @ @ @ @ O O @ @ @ @ O O O @ @ @ O O O O O O @ O O O O @ @ @ ",
"X O   O     O O   X   O @ O X X X O @ @ L ( M.Q.t.< * : : ` O 5 ) , 5 m , @ 7 2 0 ! O X O O O O             O         O     O O O O X O u 7.. O X X         X     @ @   - - X O 1 U ~ O X @ O O O 1 ( O O 1 O @ 2 2 @ : , * X X X X X % & O & a p k c w.w.w.w.9.9.w.9.e.r.9.0.e.N q 0 2 5 @ @ @ @ @ @ O O @ @ @ @ @ @ @ @ @ @ @ @ @ @ @ @ @ @ @ @ @ @ @ @ @ O O O O O O O O @ @ O O O O O O O O O @ O O @ @ @ ",
"O     O % u u o     O O O O X X X @ @ @ 0 N M.Q.w.f ; 7 0 K X K ~ : 5 M , @ @ @ 5 G X X   O O O   X O     .   O           O O O O O X   < p . O X X   X X X X   O @ O   5 L O O 1 R R O X O O   O 2 I   O O O O @ 2 @ : h = u % = * o < ; * z w.w.w.w.w.w.w.w.Z | $.#.#.s.S { _ L 5 2 @ @ @ @ @ @ @ @ @ @ @ @ @ @ @ @ @ @ @ @ @ @ @ @ @ @ @ @ @ @ @ @ @ @ @ @ @ @ @ @ @ @ @ @ O O O O @ O O O @ @ @ O O @ @ @ ",
"O X X o u i u $ X O   o O X X X O O @ @ 0 M M.~.w.c ; : 0 1 X K ! @ 5 L , : @ @ X O X   O   O O O O . . . $ .           O O X X X X O * 0.d X X : X   X X   O   O @ O O F R O O O 2 5 O O O O   O 8 I   O O O O 1 @ @ : 8 7.a k d - g w.w.d 9.w.w.w.w.r.r.f.B.X.W m.| { { N q L 5 2 @ @ @ @ @ @ @ @ @ @ @ @ @ @ @ @ @ @ @ @ @ @ @ @ @ @ @ @ @ @ @ @ O @ O @ O @ @ @ @ @ @ @ O O @ O O O O O O @ @ @ O @ O @ O ",
"  X X - d d * X X X X o O X X X X X O 2 K 0 M.T.e.9.< @ X X X 1 1 @ 2 5 , -   t 2.:.:.>.>.:.:.:.:.;.,.;.>.>.>.;.:.;.;.;.:.:.:.:.:.:.:.,.h.,.:.:.1.:.>.r   O O O O 2 O   O O O   O @ @ O X   O O   a 6   X     X X @ @ 6 7.D w.w.w.g z w.w.l 9.r.r.i.%.A.M.M.M.) N V j , 0 0 1 2 @ @ @ @ @ @ @ @ @ @ @ @ @ @ @ @ @ @ @ @ @ @ @ @ @ @ @ @ @ @ @ @ @ @ @ @ @ @ @ @ @ @ @ @ @ @ @ @ @ @ O O O O @ @ @ @ @ @ O O O ",
"O O X - g d * X X X X *   X X O X X X @ 5 , B.A.i.0.& @ X O X @ O O X 5 , ,.;XE.4.4.4.5.4.4.4.4.4.4.h.4.h.4.4.4.4.4.4.4.4.4.4.4.4.4.5.S.).S.5.5.S.4.4.].0Xe O   O @ O       O   X O X O X X     O s r   X X X X X X * D q.w.y.w.0.x j e.s.m ' V.V.M.! v.! _ S z - d , 7 2 2 @ @ @ @ @ @ @ @ @ @ @ @ @ @ @ @ @ @ @ @ @ @ @ @ @ @ @ @ @ @ @ @ @ @ @ @ @ @ O @ @ O @ O @ @ O @ @ @ @ @ O O O O @ @ @ @ O O O O O ",
"1 1 5 G G 2 O X X X X X X X X X X X X X 1 V d.n.g.0.* O X : X X O O @ 2 1.&X  @ X X X X X       O 2 * X 7 X X O O O   X O O   O 1 O O G E 4 O O O O O O   1X> X O O X     O O   X O X O @ X       b q   X X X X * = p 0.y.y.g.i.d.N ) N.N.) ( v.+.W I L 9 l z j 7 5 5 2 @ @ @ @ @ @ @ @ @ @ @ @ @ @ @ @ @ @ @ @ @ O @ @ O @ @ @ @ @ @ @ @ O @ @ @ @ O O O O O O O O O O O O @ @ @ @ @ @ @ @ O @ @ O O O O O @ ",
"O 1 F R R 4 1 1 O 1 2 O O O O X X X X O 2 ..e.o.k.w.* : * * X X @ O @   0X  : @ @ @ 2 @ O O O   O J F 1 G 2 O O O O   X O O   O   O X @ 1 O O O O O O       ;X  O X *   O O O O X O X O > O   O X m q   X X X X * D c w.u.I.Z.M.B.) ( ' ..A q L L M c d - h 9 7 2 @ @ @ @ O @ @ @ @ @ @ @ @ @ @ @ @ @ @ @ @ @ @ @ @ @ @ @ @ @ O O @ @ @ @ O O O @ @ O O O O O O O O O O O O @ @ @ @ @ @ @ @ O @ @ O @ O O O O ",
"O O O O O O O O O 1 O O O X O O O O X O G @.0.#.Q.9.- : 7 @ X X @ @ @ 2.S.7 : @ @ @ 2 @ O O   O O F 1 1 4 O O O O     @             X O O     O O O       X ].e O @ X O O   O O X O X   >   O   O E G   X X X X p D w.a.T.Z.c.Y ) N 9 M A m b h b g l - : 7 5 1 @ @ @ @ @ @ @ @ @ @ @ @ @ @ @ @ @ @ @ @ @ @ @ @ @ @ @ @ @ @ @ O O @ @ @ @ @ @ @ @ @ @ O @ @ @ @ @ @ @ @ @ @ O O O O @ @ @ @ O O @ O O O O O O ",
"  X O   X O       O O O O   O O X O O O K m.e.V.Q.D < 2 2 2 O X O @ O ].T 2 , * O @ X X       O O O   O O O         O 1     O X O X X O O X   O O       X O 1.>.O 5 1   O   O O O O X   e       O R F X X X X * D w.w.A.Z.v.7 N 0 H w q N V z l d d 9 2 2 2 @ @ @ @ @ @ @ @ O @ @ @ @ @ @ @ @ @ @ @ @ @ @ @ @ @ @ @ @ @ @ @ @ @ O @ @ @ @ @ @ @ @ O O O @ @ @ @ @ @ @ @ O O O O O O O @ @ @ @ O @ O O @ @ O O ",
"X - O O O   O O     O     X O X X X O X G n.e.A.P.8.a : @ X X X X X O R.T O d - O X X X O   O   O   O O   O         O O     O X O O O O X X   O X X X X O O 1.:.O 4 1         X X O O O e     O O 5 2 X X * - d w.y.J.Z.%.h g h 6 s k h A Z l h : 7 2 2 @ @ @ @ @ @ @ @ @ @ @ @ @ @ @ @ @ @ @ @ @ @ @ @ @ @ @ @ @ @ @ @ O @ @ @ O @ @ @ @ @ @ O O O O O O O @ @ @ @ O O O O O O O O @ @ @ @ O O O O @ @ O O O ",
"* X O O X             O * X X X X X X X 5 v.e.Z.g.q.p @ @ X X X X X X R.r : h - X X       X     X X     O                       O O     O O     X X O O O O 1.:.  O O         O X X X X : O     X @     , d ; g w.g.A.#.e.g d B ; c 9.l m m b q O 8   2 @ @ @ @   O @ @ @ @   8 @ @ @ @ @ @ @ @ @ @ @ @ @ @ @ @ @ @ @ @ @ @ @ O @ O @ @ @ @ O O O O O O O O O @ O O O O O O O O O O @ @ @ @ O O O @ @ @ O @ O ",
"1   O O O X         X X f X O X X X X X 5 ~ e.n.k.w.l X * * X X X @ X h.B b 0 * X O R.BX%X  tXkXr   2.tX    [.BX|.r gXkXr [.gX[.  O [.XXO # iXgXO @ O O O   >.:.  o           O O X X O 8   X X X    XtXo D d z g.A.*.V } n n } 9.w.z h 9 0 7 O iXX AX8 @ @ @ # UX] O @ @ O HX  @ @ @ @ @ @ @ @ @ @ @ @ @ @ @ @ @ @ @ @ @ @ @ @ @ @ @ @ @ @ @ O O O O O O O O O O O O O O O O O O O @ @ O O O O O O O O @ @ @ ",
"F   O O O             X X O   O X X X X 1 v.A %.~.w.z X : * X X X O X h.B 9 G @ X O KX  y O JXX IX  kXHXO O HX  # @X1Xt   AXr ZXy   VXAX  -.zX-.HX  O O     >.:.X X           O O X X 6 a         X &XfX  d x V A.~ - 7 | m x 0.z g N 0 O 7 @ # IX  PX8   O @ O ].O @ O   O UX  @ O     @ @ @ @ @ @ @ @ @ @ @ @ @ @ @ @ @ @ @ @ @ @ O O @ @ @ @ O O O @ O O O O O O O O O O O O O O @ @ O O O O @ O O O @ @ @ ",
"O     O O O O         4 O O O O X O O O 2 c.) m.(.a.l @ @ : X X O O X R.T 1 4 @ - # PX#   O AX  JX  HX%X5.y zX    |.;Xr   VX# kX-.O NXgXe -.gX  PX      O   1.:.X X           O O O X u a   NXAX@XX &XgXlXcXd $.Y lXJX0Xg l.1Xd h.fXO r tX  O iX=X  PX{.AX[.O   iXO O ] BXgXPX  O }.HXNXO @ @ @ @ @ @ @ @ @ @ @ @ @ @ @ @ O @ O @ O O @ @ @ O O O O @ @ @ @ O O @ @ @ @ O @ O O @ @ @ @ @ O @ O @ @ O @ O @ @ ",
"    O X O         O O 1 O   O O O X X X @ R ) n./.a.z X @ @ X X X X O ]./ O O * d X h.NXNX  IXhXgXe kX>.iXt zX    ].SXhX  cX6XGX# ].;X|.|.t UXKX5.      O   >.:.O O           . O O O p & BX%X] E.X oXKXv cXfX7 lXwX0 SX.Xf UX  sXUX#  XzX    UX    HX0Xy UX#   UXO   UXt 4.IX  r UX# =XBX  @ @ @ @ @ @ @ @ @ @ @ @ @ @ @ @ @ O @ O @ @ @ @ @ O O O @ @ @ @ @ @ @ @ @ @ @ @ O O O @ @ @ @ @ @ @ @ @ @ O O O @ ",
"  X   O O O X o     X       O X O X X X X K ) #.A.j.z * 2 X X X X O O ].a   O 2 g d     KX  SX    [.AXgXZXe lX    %X}.    ZXO [.=XtXNXlXaXB iX;X].O         >.:.1 3           $ . X X D o KX>.    > =XhXd $XmX* DXW.: fX0XO UXO SXuX>.gX@XO 5.NX    PX8   KXy   UXO 8 IX  # UX  R.BX  5.AX  @ @ @ @ @ @ @ @ @ @ @ @ @ @ @ O @ O O @ O @ @ @ O O O O @ @ @ @ @ @ @ @ O O @ @ @ @ @ O O O O O @ @ @ @ O O @ @ O ",
"X X     O   d *   O     O   O X O X X X O G ) e.A.g.l * @ @ X X X X X [.y O X 5 m X NXhXhX  HX    BXe   HX  AXgX;X5.KXBX:.lXkXPX  KX    KXe lX  KX          >.:.O 6   X       ; X O O B n 4.IXUXiX  *XcX7 5XcX* GXE.O gX0X  GX8 PXR.@XSX]   AX:.@   PXr   KXt   UXO e IX  # UX  5.UXAXPXy O @ @ @ @ @ @ @ @ @ @ @ @ @ @ @ O @ @ @ @ @ @ @ @ O O O O @ @ @ @ @ @ O O O O @ @ @ @ @ @ O O O O @ @ @ @ O O @ O O ",
"X   O   O X j X       O O     O O X X X X F o.e.Z.H.D u O O X X X X X .Xw O X 4 P h   e   @   X X     X   #   r       O O   O   #   X X   O   O   X         >.-.X =   @     X 0.* O X ' {     . UX* ,XcXq $XcXX DX4.O fX;X  fX@XBXr fXPXO O UX  @   PXr   KXt   UXO 8 IX  # UX  5.BX    O @ @ @ @ @ @ @ @ @ @ @ @ @ @ @ @ @ @ @ O @ O @ @ @ O O @ @ @ @ O @ O O O O O O O O @ @ @ @ @ @ O O O @ O O O O @ @ O ",
"X O     O K @ O             O   X X X X X G m.e.b.d.x.p O O X X X X 5 E.r X O 2 K , - X X X X       X           X                       O     O O           >.;.X *   O O     j * O - #.q oX].XXLX- 1XmX- -XmX  iXgX] KX2.O ].IX0X  PXKX  gX;XO @   IXy   PXy   UXO   UX2.;XIX  8 UX>.|. XO O O @ @ @ @ @ @ @ @ @ @ @ @ @ @ @ @ O @ O O O @ O O O @ @ @ O O O O O O O O O O O @ @ @ @ @ O O @ @ O O O O @ @ O ",
"X O   O O R O X X O   O X X X X X X X X X 5 n.Z +.g.t.p X X X X X X J E.r   X @ F : d X X X X X   X           X O O                           O O           >.:.O @ O O     O v.@ * d ' 5 }.cXhXz m L.^., =.E.1   0XmX[.O @ O ;X8 O  XR.  &XO @ @ O @X2 O  X8 O %XO O >.cX|.2.O O 2.zXuX8 O @ O @ @ @ @ @ @ @ @ @ @ @ @ @ @ @ @ @ @ @ O O O O @ O O @ @ @ @ O O O O O O O O O O O O O O @ @ @ @ O O O O O O O ",
"X X X O O 4 O X X O O X X X X X X X X X X 5 v.Z ' g.y.k X * X X X X F E.B + X X 1 0 d * X X X X   O O     . X X O O           X         X X X   O           4.-.1 2   O     O R @ - , E / v 9.g A P q 0 0 2 @ 2 7 O O O 2 @ @ O @ @ O O @ O @ @ @ @ O @ @ O @ @ O @ @ O   O O @ @ O   O @ @ @ O @ @ @ @ @ @ @ @ @ @ @ @ @ @ @ O @ @ @ O O O O @ O O @ O @ @ O O O O O O O O O O O O O O @ @ @ O O O @ @ O @ O ",
"X X X O X   O X X X O O X X X X X X X X X 2 v.V X.~.y.D o * * X X X @ > }.$ X X @ 5 h - o X X X X X O     o X X O             X   X   X X X *               %X  3 +     .   X - - - 5 T c w.9.M Y 0 7 7 2 @ @ @ @ @ @ @ @ @ @ @ @ @ @ @ @ @ @ @ @ @ @ @ @ @ @ @ @ @ @ @ @ @ @ @ @ @ @ @ @ @ @ O @ @ @ @ @ @ @ @ @ @ @ @ @ @ @ @ @ @ @ O O O @ @ O O O O @ @ O O O O @ @ @ @ O @ O O O O @ @ O O O O O O O O O ",
"X X O O   X @ X X X O O O X X X X X X O X @ ! ) m.T.a.t.o @ * X X X @   *X& O O X 4 : , * X X X X X     X X O O   X X       X X X X X X O X X O O         -.|.  6 .   . o X - d - 8 a k 0.9.) L 0 @ @ 2 @ @ @ @ @ @ @ @ @ @ @ @ @ @ @ @ @ @ @ @ @ @ @ @ @ @ @ @ @ @ @ @ @ @ @ @ @ @ @ @ @ @ @ O @ @ @ @ @ @ @ @ @ @ @ @ @ @ @ @ @ @ O @ O O @ @ O O O O @ @ O O O O @ @ @ @ @ @ O O O @ @ @ O O O O @ @ O O O ",
"* * X X O @ X X X X O O O X X X X X X O X @ E { N./.j.q.= @ * X X X @ @   tX4.        *           X                                       O             R.=X    > o   o - d d , : p D z 0.' G 2 @ @ @ @ @ @ @ @ @ @ @ @ @ @ @ @ @ @ @ @ @ @ @ @ @ @ @ @ @ @ @ @ @ @ @ @ @ @ @ @ @ @ @ @ @ @ O O @ @ @ @ @ @ @ @ @ @ @ @ @ @ @ @ @ @ @ O O O @ @ O O O O @ @ O @ O @ @ @ @ @ @ @ @ O O O O O O O O O O O @ @ @ ",
"- * * * X X O O O X X O O X X X X X X O @ @ L S %./.j.w.* @ * X @ X X @ f X 2.%X%X&X&X*X*X&X%X%X*X&X%X%X&X%X%X%X%X&X%X%X%X%X%X%X%X%X%X%X#X&X@X@X@X%X%X@X-.  X X , o o = ; < e e p k 9.9.) K 2 @ @ @ @ @ @ @ @ @ @ @ @ @ @ @ @ @ @ @ @ @ @ @ @ @ @ @ @ @ @ @ @ @ @ @ @ @ @ @ @ @ @ @ @ @ @ @ @ @ @ @ @ @ @ @ @ @ @ @ @ @ @ @ @ @ @ @ O O O O @ @ O O O O @ @ @ @ O O @ @ @ @ @ @ @ O O O @ O O O @ O O O @ @ @ ",
"* * - * O @ X O O X X O X X X X X X X X @ @ G | | A.k.0.* : * X X @ X 1 b * X       O @ X X   O 1     O O         O                     . . . . . . $ % u i $ = h - < p p < e < - 9.9.b G 2 @ @ @ @ @ @ @ @ @ @ @ @ @ @ @ @ @ @ @ @ @ @ @ @ @ @ @ @ @ @ @ @ @ @ @ @ @ @ @ @ @ @ @ @ @ @ @ @ @ @ @ @ @ @ @ @ @ @ @ @ @ @ @ @ @ @ @ @ @ O O O O @ O @ O O @ @ O @ O @ @ @ @ @ O O @ O O O @ O O @ @ @ O O O O @ ",
"2 @ , X @ : * X O X X O X X X X X X X X @ @ U +.N Y.Q.c = @ : @ X O X G L X X O O O 5 G , , @ 5 R O   O 1 O O X X X         . % u u u i i i & u a u a i p p * - b g g z 0.z l g l 9.V 0 7 : @ @ @ @ @ @ @ @ @ @ @ @ @ @ @ @ @ @ @ @ @ @ @ @ @ @ @ @ @ O @ @ @ @ @ @ @ @ @ @ @ @ @ @ @ @ @ @ @ @ @ @ @ @ @ @ @ @ @ @ @ @ @ @ @ @ @ @ @ @ O O O O @ @ O O O @ O O O @ @ @ O O O O @ O O O @ @ O @ @ O O O O O O ",
"4 1 2   X - - O @ @ X O X O X O X X X O X : L ~ A A.Q.D p @ : @ @ O X G G O O O O O 1 G h , @ 2 5 X X O O     X X X X . % u i i i p p D D c l z 9.z 0.9.0.9.l l V g z 9.9.9.z g g A L 7 2 @ @ @ @ @ @ @ @ @ @ @ @ @ @ @ @ @ @ @ @ @ @ @ O @ @ @ @ @ @ @ @ @ @ @ @ @ @ @ @ @ @ @ @ @ @ @ @ @ @ @ @ @ @ @ @ @ @ @ @ @ @ @ @ @ O O O @ @ @ @ @ @ O @ @ @ @ O O O O O O @ @ @ @ O O @ @ O O O O @ @ @ O O O O O O ",
"2 5 2 O O : X X - : X X   O O X X X X @ * : 0 E S Z.P.t.p @ @ : X X X 2 2 @ X X X X O 5 9 h : @ : X X   X X X X o & & u i p v w.w.w.w.w.w.w.9.w.w.w.w.w.w.0.g j b h x x Z x h , 0 P 7 7 : @ @ @ @ @ @ @ @ @ @ @ @ @ @ @ @ @ @ @ @ @ @ @ @ @ @ @ @ @ @ @ @ @ @ @ @ @ @ @ @ @ @ @ @ @ @ @ @ @ @ @ @ @ @ @ @ @ @ @ @ @ @ @ @ @ O O @ @ @ @ @ @ @ O @ @ @ @ O O O O O O @ O @ @ O O @ @ O O O O @ @ @ O O O O O O ",
"X : * , 2 1 O * , O * * X X X X X X X O @ @ 7 W S M.g.y.f : : * X X X * X X X X X X X 2 L h , X * * X X X X X = p i p f 9.w.y.y.w.w.w.w.w.e.9.w.0.9.r.Z e.V 9 q 0 q ( P Y U 5 5 0 7 7 7 @ @ @ @ @ @ @ @ @ @ @ @ @ @ @ @ @ @ @ @ @ @ @ @ @ @ @ @ @ @ @ @ @ @ @ @ @ @ @ @ @ @ @ @ @ @ @ @ @ @ @ @ @ @ @ @ @ @ @ @ @ O @ @ @ @ @ O @ @ @ @ @ @ O O O O O O @ @ @ @ O O O O @ @ O O @ @ @ O O O O @ O O O O O O O ",
"X * - - 7 2 O 2 @ O * * * d - X * X X O @ @ : E S %.g.w.k X : * @ X X X X @ X X X X X @ G h g * * * * * o < o < v 9.0.w.w.w.w.r.r.e.e.a.f.@.o.*.m.n.M.v.v.E L L 7 9 L L L 5 2 2 : : 7 7 @ @ @ @ @ @ @ @ @ @ @ @ @ @ @ @ @ @ @ @ @ @ @ @ @ @ @ @ @ @ @ @ @ @ @ @ @ @ @ @ @ @ @ @ @ @ @ @ @ @ @ @ @ @ @ @ @ @ @ @ @ O @ @ @ @ @ O @ @ @ @ @ @ O O O @ O O O O @ @ O O O O @ @ O O @ @ @ @ O O O @ O O O O O O O ",
"@ 2 : - * * 7 0 * @ : * - g * * - - X @ @ @ : E S #.T.w.8.X : X @ X X 2 @ X # # X X X @ 5 9 l - o % % o = < d 9.w.w.w.0.e.i.G.A.M.v.b.b.b.R v.v.v.! ! E K G : 7 , 7 7 7 2 @ 2 @ @ @ : : @ @ @ @ @ @ @ @ @ @ @ @ @ @ @ @ @ @ @ @ @ @ @ @ @ @ @ @ @ @ @ @ @ @ @ @ @ @ @ @ @ @ @ @ @ @ @ @ @ @ @ @ @ @ @ @ @ @ @ @ @ @ @ @ @ @ O O @ @ @ @ @ @ O O O O O O O O @ @ O O O O @ @ O O @ @ @ O O O @ @ O O @ O O O O ",
"O 5 5 @ X * * * * 0 : , , , @ - d - - - , * : E | @.(.r.8.o @ X @ @ @ @ O @ & $ X X X @ 2 q g < 7.7.p * z 9.9.w.w.w.e.@.v.Z.b.b.c.! v.Q U 0 M M 9 9 7 : , : : : : 7 @ @ @ @ @ @ @ @ @ @ 2 @ @ @ @ @ @ @ @ @ @ @ @ @ @ @ @ @ @ @ @ @ @ @ @ @ @ @ @ @ @ @ @ @ @ @ @ @ @ @ @ @ @ @ @ @ @ @ @ @ @ @ @ @ @ @ @ @ @ @ @ @ @ @ @ @ @ @ @ @ @ @ @ O @ O O O @ O O O @ @ O O O O @ @ O O @ @ @ O O O O @ @ O O O O O O ",
"O 2 5 7 : : * * - , , 9 Y 2 @ , , - - - - - , U o.o./.u.0.& @ X X X @ @ O X * o O X O O & / a D D 0.0.l w.9.z i.f.B.M.c.v.+.Y q 9 h h g g d d h d - , * : : : : @ @ @ @ @ @ @ @ @ @ 7 2 2 @ @ @ @ @ @ @ @ @ @ @ @ @ @ @ @ @ @ @ @ @ @ @ @ @ @ @ @ @ @ @ @ @ @ @ @ @ @ @ @ @ @ @ @ @ @ @ @ @ @ @ @ @ @ @ @ @ @ @ @ @ @ @ @ @ @ @ @ @ @ @ @ @ O O @ @ @ @ O O O O O O @ O @ @ O O @ @ O O O O O @ @ @ O O O @ O ",
"O : : : : 7 7 7 , , , b q 2 0 L 0 @ * , - - , L ' ..Y.j.w.< X * * X @ @ @ X h X X & 6 u a s D w.y.w.w.z e.N W v.b.v.W G b g g l l d g g d - , , , : : : : 2 @ @ @ @ @ @ @ @ @ @ @ @ 7 2 2 @ @ @ @ @ @ @ @ @ @ @ @ @ @ @ @ @ @ @ @ @ @ @ @ @ @ @ @ @ @ @ @ @ @ @ @ @ @ @ @ @ @ @ @ @ @ @ @ @ @ @ @ @ @ @ @ @ @ @ @ @ @ @ @ @ @ @ @ @ @ @ @ @ O O @ @ @ @ @ @ O O O O @ @ @ @ O O @ @ O O O O @ @ @ @ O O @ O O ",
": : : : : 7 7 5 7 7 9 9 * * 9 0 0 2 2 2 7 : @ 0 ) e.U.Q.w.g , * * : : @ X @ - & i i < l 9.0.w.y.w.w.Z X.n.! c.v.E P - - g j d d d , , 9 , 7 0 0 7 7 @ @ @ @ @ @ @ @ @ @ @ @ @ @ @ 7 7 2 2 @ @ @ @ @ @ @ @ @ @ @ @ @ @ @ @ @ @ @ @ @ @ @ @ @ @ @ @ @ @ @ @ @ @ @ @ @ @ @ @ @ @ @ @ @ @ @ @ @ @ @ @ @ @ @ @ @ @ @ @ @ @ @ @ @ @ @ @ @ @ @ @ @ @ @ @ @ @ @ @ @ @ O O @ @ @ O O O O @ O O O O O O @ O O O O @ O O ",
"@ 1 1 2 @ @ 2 1 2 7 9 9 : * - : , , 7 0 7 @ @ 5 _ e.A.Q.w.g , : * * o & u 6 > p k l 9.w.w.0.r.a.H.M.E c.! w 9 h l P * g V ) 9 9 0 0 0 0 0 7 7 7 2 2 @ @ 2 @ @ @ @ @ @ @ @ @ @ @ @ @ 2 @ @ @ @ @ @ @ @ @ @ @ @ @ @ @ @ @ @ @ @ @ @ @ @ @ @ @ @ @ @ @ @ @ @ @ @ @ @ @ @ @ @ @ @ @ @ @ @ @ @ @ @ @ @ @ @ @ @ @ @ @ @ @ @ @ @ @ @ @ @ @ @ @ @ @ @ @ @ @ @ @ @ @ O @ @ @ @ @ @ @ O O O O O O O O @ @ O O O O O O O ",
"4 4 1 1 1 1 1 @ @ 2 7 7 @ : : * * * * , d d , q +.i.Z.I.0.- * * - = u i p 8 - l w.9.9.w.0.{ V.Z.b.v.L 5 , g g g g 9 , x Z b 0 0 7 7 7 7 7 7 2 7 @ @ @ @ @ @ @ @ @ @ @ @ @ @ @ @ @ 2 2 @ @ @ @ @ @ @ @ @ @ @ @ @ @ @ @ @ @ @ @ @ @ @ @ @ @ @ @ @ @ @ @ @ @ @ @ @ @ @ @ @ @ @ @ @ @ @ @ @ @ @ @ @ @ @ @ @ @ @ @ @ @ @ @ @ O @ @ @ @ @ @ @ @ @ @ @ @ @ @ @ @ @ @ @ @ @ @ @ @ @ @ @ O O O O O O O O O @ O O O @ O ",
"6 O O O O O O O @ 1 5 @ @ 9 2 @ @ X * - d d d b %.i.M.H.e.; = - - < D c 9.g g 9.0.l A @.v.c.c.c.Y h - * g g d g h b 9 m m : 7 7 7 7 @ : @ @ @ @ @ @ @ @ @ @ @ @ @ @ @ @ @ @ @ @ @ 2 2 @ @ @ @ @ @ @ @ @ @ @ @ @ @ @ @ @ @ @ @ @ @ @ @ @ @ @ @ @ @ @ @ @ @ @ @ @ @ @ @ @ @ @ @ @ @ @ @ @ @ @ @ @ @ @ @ @ @ @ @ @ @ @ @ @ @ @ @ @ @ @ @ @ @ @ @ @ @ @ @ @ @ @ @ @ @ @ @ @ @ @ @ @ @ O O O O O O O @ @ O O O @ @ ",
"& o $ $ % o   $ # @ O # , : @ 1 2 6 u > - - < k { V O.d.e.p < - d 9.w.w.9.* - S ( G R c.R E Q 8 d g k   X - j m : 7 X @ 0 @ X O 7 : 7 : @ @ @ @ @ @ @ @ @ @ @ @ @ @ @ @ @ @ @ @ @ @ @ @ @ @ @ @ @ @ @ @ @ @ @ @ @ @ @ @ @ @ @ @ @ @ @ @ @ @ @ @ @ @ @ @ @ @ @ @ @ @ @ @ @ @ @ @ @ @ @ @ @ @ @ @ @ @ @ O @ @ @ @ @ @ @ @ @ @ @ @ @ @ @ @ @ @ @ @ @ @ @ @ @ @ @ @ @ @ @ @ @ @ O O O O O O O @ @ O @ @ @ @ @ @ @ ",
"- * = = & o o u o X o & , > X X # a a 6 r < D D =.x =.$.9.l g g z w.w.9.n NXsXF 5XfXyXO XX- g ,XpX1XX -XVXh.cX1XiXw iXjX8  XfXtX  7 7 7 @ @ @ @ 2 @ @ @ @ @ @ @ @ @ @ @ @ @ @ @ @ @ @ @ @ @ @ @ @ @ @ @ @ @ @ @ @ @ @ @ @ @ @ @ @ @ @ @ @ @ @ @ @ @ @ @ @ @ @ @ @ @ @ @ @ @ @ @ @ @ @ @ @ @ @ O @ @ @ O O @ @ @ @ @ @ @ @ @ @ @ @ @ @ @ @ @ @ @ @ @ @ @ @ @ @ @ @ @ @ @ @ @ @ @ O O O O O O @ @ @ @ @ @ @ @ O ",
"g l g g g d d l - - g d , - - - - l l m j x Z e...Z e.$.0.9.z g z e.i.@ LX8 1.O PXe B B VX- d PXn q.h.zX9 j B KX8 0X&X;.  KX8 %XiXX @ : @ @ @ @ @ @ @ 2 2 @ @ 2 @ @ @ @ @ @ @ 2 @ @ 2 2 2 @ @ @ @ @ @ @ @ @ @ @ @ @ @ @ @ @ @ @ @ @ @ @ @ @ @ @ @ @ @ @ @ @ @ @ @ @ @ @ @ @ @ @ @ @ @ @ @ @ @ @ @ @ @ @ @ @ @ @ @ @ @ @ @ @ @ @ @ @ @ @ @ @ @ @ @ @ @ @ @ @ @ @ @ @ @ @ @ @ @ @ @ @ O O O @ @ @ O O O O O @ O ",
"g l g z l l z z d d l d g d d d l 9.z l z 9.9.e.S e.e.$.0.z h q ( o.X.O IXw     JX= > w cXX * KX, e..X1X- 9 O HX  ;X@Xe   FXO y mXO @ @ @ @ @ @ 2 2 2 @ @ @ 2 2 @ @ @ @ @ @ @ 2 @ @ 2 2 2 @ @ @ @ @ @ @ @ @ @ @ @ @ @ @ @ @ @ @ @ @ @ @ @ @ @ @ @ @ @ @ @ @ @ @ @ @ @ @ @ @ @ @ @ @ @ @ @ @ @ @ @ @ @ @ @ @ @ @ @ @ @ @ @ @ @ @ @ @ @ @ @ @ @ @ @ @ @ @ @ @ @ @ @ @ @ @ @ @ @ @ @ @ @ @ @ @ @ @ O O O O O O O ",
"h h d g d g l d - h g d d - - - g l g d d x x V M A m o.( q 0 G E Y 9 - ,.cXLX  FXpX=Xr mXO   KXfX$X[.0X@ 5 O HX  @XAXhX  SXO ] mXO @ @ @ @ @ 2 @ 2 2 @ @ @ @ @ 2 @ @ @ @ 2 @ 2 @ @ 2 2 2 @ @ @ @ @ @ @ @ @ @ @ @ @ @ @ @ @ @ @ @ @ @ 2 @ @ @ @ @ @ @ @ @ @ @ @ @ @ @ @ @ @ @ @ @ @ @ @ @ @ @ @ @ @ @ @ @ @ @ @ @ @ @ @ @ @ @ @ @ @ @ @ @ @ @ @ @ @ @ @ @ @ @ @ @ @ @ @ @ @ @ @ @ @ @ @ @ @ O O O @ O O O O O ",
"q 9 q 9 9 M M 9 9 9 9 9 9 0 9 9 P q q 0 q P P P P Y P Y U L 0 0 0 0 9 9     fXt JX    B lXO   KX  O  X-XO O O HX  1XR.    HX  8 mXO @ @ @ 2 2 @ 2 @ @ 2 @ @ @ @ 2 2 @ @ 2 2 @ 2 @ @ @ 2 2 2 @ @ @ @ @ @ @ @ @ @ @ @ @ @ @ @ @ @ @ @ @ @ @ @ @ @ @ @ @ @ @ @ @ @ @ @ @ @ @ @ @ @ @ @ @ @ @ @ @ @ @ @ @ @ @ @ @ @ @ @ @ @ @ @ @ @ @ @ @ @ @ O @ @ @ @ @ @ @ @ @ @ @ @ @ @ @ @ @ @ @ @ @ @ @ @ O O O O O O O O O ",
"9 9 q q q q q q q q q 9 9 9 9 q 0 0 0 0 0 0 0 0 0 0 q 0 7 7 7 7 7 7 7   gXiXKX  JXhXmX# UXBXt KXhXkXX IXgX XO KX  &XHXCXr ZXzXPX4.@ : 7 @ @ @ @ @ @ 2 @ @ @ @ 2 2 @ @ @ @ 2 @ @ @ 2 2 2 2 2 @ @ @ @ @ @ @ @ @ @ @ @ @ @ @ @ @ @ @ @ @ @ @ @ @ @ @ @ @ @ @ @ @ @ @ @ @ @ @ @ @ @ @ @ @ @ @ @ @ @ @ @ @ @ @ @ @ @ @ @ @ @ @ @ @ @ @ @ @ @ @ @ @ @ @ @ @ @ @ @ @ @ @ @ @ @ @ @ @ @ @ @ @ @ @ @ O O O @ @ @ O O O ",
"9 9 9 9 b 9 9 9 9 9 9 9 9 9 9 9 9 0 0 7 7 7 0 7 0 7 9 7 : : : : : 7 : 8   ]   w   O O 8 O O @   # # 8   y O 8   0 O O O @   O O @ : : 7 @ @ @ @ @ @ @ @ @ @ @ @ 2 2 @ @ @ @ @ @ @ 2 2 2 2 2 @ @ @ @ @ @ @ @ @ @ @ @ @ @ @ @ @ @ @ @ @ @ @ @ @ @ @ @ @ @ @ @ @ @ @ @ @ @ @ @ @ @ @ @ @ @ @ @ @ @ @ @ @ @ @ @ @ @ @ @ @ @ @ @ @ @ @ @ @ @ @ @ @ @ @ @ @ @ @ @ @ @ @ @ @ @ @ @ @ @ @ @ @ @ @ @ @ @ O @ @ @ O O O ",
"M q b b b b b b b 9 9 9 9 9 9 9 9 9 9 7 7 7 7 7 7 7 9 7 : 7 @ @ 7 7 7 @ 2 @ 2 2 2 2 @ @ 2 2 : : : : @ @ @ @ @ @ @ 2 @ @ @ @ : 7 : 7 7 7 2 @ @ @ @ 2 @ @ @ @ @ 2 2 @ @ @ @ @ @ @ 2 2 2 2 2 @ @ @ @ @ @ @ @ @ @ @ @ @ @ @ @ @ @ @ @ @ @ @ @ @ @ @ @ @ @ 2 @ @ 2 @ @ @ @ @ @ @ @ @ @ @ @ @ @ @ @ @ @ @ @ @ @ @ @ 2 2 @ 2 @ @ @ @ @ @ @ @ @ @ @ @ @ @ @ @ @ @ @ @ @ @ @ @ @ @ @ @ @ @ @ @ @ @ @ @ @ @ @ @ @ O O O ",
"M M M M M M M M M M q q M 9 b b 9 9 9 7 7 7 7 0 7 0 0 7 7 7 2 2 @ @ : @ 2 @ 2 2 @ @ @ @ @ 2 : 2 7 7 2 @ @ @ @ @ 2 @ @ @ @ @ 7 7 : 7 7 7 @ @ @ @ 2 2 2 2 2 @ @ @ @ @ @ 2 @ @ @ @ 2 @ 2 2 2 2 @ @ 2 2 2 @ @ @ @ @ @ @ @ @ @ @ @ @ @ @ 2 2 @ @ @ @ @ @ 2 @ @ @ 2 2 @ @ @ @ @ @ @ @ @ @ @ @ 2 @ @ @ @ @ @ @ @ @ @ @ 2 @ 2 2 @ @ @ @ @ @ @ @ @ @ @ @ @ @ @ @ @ @ @ @ @ @ @ @ @ @ @ @ @ @ @ @ @ @ @ @ @ @ @ @ O O O ",
"N M N N N N N N M M M M M M M M b 9 9 9 7 7 7 0 7 7 9 7 : : @ @ @ @ @ @ @ @ @ 2 @ @ @ : @ 2 : 7 @ @ 2 @ @ @ @ @ 2 @ @ 2 @ 2 7 : @ 7 @ @ @ @ @ @ @ 2 2 @ 2 @ @ @ 2 2 2 2 2 @ @ @ 2 2 7 2 2 @ @ @ @ @ 2 2 @ @ @ @ @ @ @ @ 2 2 @ @ @ @ 2 2 @ @ @ @ 2 2 @ @ @ @ 2 2 @ @ @ @ @ @ @ @ @ @ @ @ 2 2 2 @ @ @ @ @ @ @ @ @ @ @ @ @ @ @ @ @ @ @ @ @ @ @ @ @ @ @ @ @ @ @ @ @ @ @ @ @ @ @ @ @ @ @ @ @ @ @ @ @ @ @ @ @ O O O ",
") ) ) N ) ( ( ( P q q q M M M M b 9 9 9 7 7 0 0 0 7 7 7 : 7 2 @ @ : @ @ @ @ @ 7 : @ @ @ @ @ : : @ @ @ @ @ @ 2 2 2 @ @ @ @ : 7 : @ @ @ @ 2 @ @ 2 2 2 2 @ @ 2 2 @ 2 @ 2 2 2 2 2 2 @ 2 7 : 2 2 @ @ @ @ 2 @ @ 2 @ @ @ @ 2 @ @ 2 2 @ @ @ @ @ 2 @ @ @ 2 @ @ @ @ : @ @ @ @ @ 7 @ @ @ @ @ @ @ @ @ 2 2 2 @ @ @ @ @ @ @ @ @ @ 2 @ @ @ @ @ @ @ @ @ @ @ @ @ @ @ @ @ @ @ @ @ @ @ @ @ @ @ @ 2 @ @ @ @ @ @ @ @ O @ @ @ O O O ",
") ) ) ) ( ( ( P P P P P P M M M M 9 9 9 7 7 7 7 7 7 7 7 : 7 2 2 @ : @ @ : @ @ : @ @ @ @ @ 2 @ @ @ @ 7 @ @ @ 2 2 @ @ @ 2 2 2 @ @ @ @ @ @ 2 @ @ 2 2 2 2 @ @ 2 2 @ @ @ @ @ 2 @ @ 2 2 2 7 2 @ 2 @ @ @ @ 2 @ 2 2 @ @ @ @ @ @ @ @ @ @ @ @ @ 2 @ @ @ 2 2 @ @ @ @ @ @ @ 7 : @ @ @ @ : @ @ @ @ @ @ 2 @ @ 2 2 2 @ @ @ @ @ @ @ 2 @ @ @ @ @ @ @ @ @ @ @ @ @ @ @ @ @ @ @ @ @ @ @ @ @ @ @ @ @ O @ @ @ @ @ @ @ @ @ @ @ @ O O ",
"' ' ) ( ( ( P P P P P P P P P M q q 9 9 7 7 7 7 7 7 7 7 : @ 2 2 @ 7 2 @ : @ : : @ @ @ @ 2 2 7 @ 7 @ 7 @ @ @ 2 2 @ 2 2 2 2 2 2 7 @ : @ @ 2 @ @ 2 2 2 2 2 2 2 2 2 2 2 2 2 2 2 @ @ 2 7 7 2 7 @ @ 2 2 2 2 @ @ @ @ @ @ 2 2 7 @ @ @ @ : : @ 2 @ @ 2 2 2 7 7 7 @ : : @ 7 7 7 : @ @ @ @ @ @ @ 2 : 2 2 @ @ @ @ @ @ @ @ @ @ @ @ 2 2 @ @ @ @ @ 2 2 @ 2 @ @ @ @ @ @ @ @ @ @ @ @ @ @ @ @ @ @ @ @ @ @ @ @ @ @ @ @ @ @ @ @ @ ",
"_ ( ( ( P P P P P P P P P P P P P q q 9 7 7 7 7 7 7 7 7 7 7 7 @ : 7 7 2 2 7 : @ @ @ @ @ 2 2 @ @ 7 : 2 @ @ @ 2 @ @ @ @ @ 2 2 @ 7 7 7 7 7 2 @ @ 2 2 2 2 2 2 @ @ : @ @ @ @ @ @ : 7 7 7 7 7 7 2 @ @ @ @ @ 2 @ @ @ @ : 7 7 : @ @ @ @ 7 7 7 7 @ @ 2 2 2 @ 7 7 : : @ 2 7 7 7 7 : 7 : : : @ : : : 7 2 @ 2 2 2 @ @ @ 2 @ @ : 2 2 2 @ @ @ 2 2 2 2 2 2 @ @ @ @ 2 @ @ @ @ @ @ @ @ @ @ @ @ @ @ @ @ @ @ @ @ @ @ @ @ @ @ @ @ ",
"_ ( ( ( P P q q q q q q q P P P P q q 9 7 7 7 7 7 7 7 7 7 7 : 7 7 7 7 7 2 7 7 2 7 2 2 @ : 2 @ @ 7 @ 2 2 2 2 @ : : @ 2 2 2 2 7 7 7 7 7 7 2 @ 2 2 7 : : : @ @ @ 7 2 2 : 7 7 7 7 7 7 7 7 7 7 7 : @ : 2 @ 2 @ @ @ : 7 7 7 7 : : : @ 7 7 7 7 7 7 7 7 7 7 7 7 : : : 2 7 7 7 7 7 7 7 7 7 7 2 : 7 : : : 7 7 7 : : @ 2 2 : @ 2 @ @ @ @ @ 2 2 2 2 @ @ 2 2 2 2 2 2 2 2 2 @ @ @ 2 @ @ @ @ @ @ @ @ @ @ @ @ @ @ @ @ @ O @ @ ",
"( ( M q q q q q q q q q q q P P q q q 0 0 0 7 7 7 7 7 7 7 7 7 : 7 7 7 7 7 2 : 7 7 2 2 @ : @ @ @ 7 @ @ 2 2 @ @ @ : 7 2 2 2 2 7 : 7 7 7 7 7 2 7 7 : @ 2 @ @ 7 : 7 7 7 7 7 : : 7 7 7 7 7 7 7 7 : : 7 7 7 @ : : : : : : 7 : : 7 7 7 7 7 : : : : : 7 7 7 7 : : : 7 7 : : : : 7 7 7 7 7 7 @ @ @ 7 : 2 : : 7 @ @ @ 2 2 @ : @ 2 2 @ @ @ @ 2 @ @ @ @ 2 2 2 2 @ 2 2 @ @ @ @ @ @ @ @ 2 @ @ @ @ @ @ @ @ @ @ @ @ @ @ @ @ @ ",
"M M M M q q q q 9 9 q q q q q q q q q 0 0 0 7 7 7 7 7 7 7 : : 7 7 7 7 7 : 7 7 7 : : @ 2 @ @ : : 7 2 @ 2 @ @ 7 @ : 7 2 2 2 2 7 7 : 7 7 7 2 2 : @ 2 7 7 2 7 : : 7 7 7 7 7 : : 7 7 7 7 7 7 7 : : : 7 7 7 7 : : : : : 7 : : 7 7 7 7 7 7 : : : 7 7 7 7 7 7 7 7 7 7 7 7 : 7 7 7 7 7 7 7 7 7 7 @ : 7 : : 7 2 @ @ @ @ @ @ : @ 7 2 @ @ @ 2 2 2 2 2 2 2 2 2 2 2 2 2 @ @ @ @ @ @ @ @ @ @ @ @ @ @ @ @ @ @ @ @ @ @ O @ @ @ ",
"M M M M q q q q q q 9 9 q q q q q q q 9 7 7 7 7 7 9 9 7 7 : 7 7 7 : 7 7 : 7 : : 7 2 2 7 7 : 7 7 7 : 2 2 : 7 7 : 7 7 2 2 7 7 7 7 7 : : : : 7 @ @ : : 2 2 7 7 : : : 7 7 7 : : 7 7 7 7 7 7 7 7 7 7 7 7 7 7 7 7 : 7 : 7 7 7 7 7 7 7 7 7 7 7 7 7 7 7 7 7 7 7 7 7 7 7 7 7 7 7 7 7 7 7 7 7 7 7 7 7 7 7 7 7 2 2 @ @ @ @ @ 7 7 7 @ @ @ @ 2 2 2 2 @ @ 2 2 2 2 2 2 @ @ @ @ @ 2 2 @ 2 @ @ @ @ @ @ @ @ @ @ @ @ @ @ @ @ @ @ ",
"M M M M M q q q 9 9 q q q q q 9 q q 9 9 9 9 9 9 9 9 9 7 7 7 7 7 7 7 7 7 : : : 7 7 7 7 7 7 : 7 7 : : 7 7 7 7 7 : 7 7 7 7 7 7 7 7 7 7 : : : : : 7 7 : 7 7 7 7 7 7 : 7 7 7 : 7 7 7 7 7 7 7 7 7 7 7 7 7 7 7 7 7 7 7 7 7 7 7 7 7 7 7 7 7 7 7 7 7 7 7 7 7 7 7 7 7 7 7 7 7 7 7 7 7 7 7 7 7 7 7 7 7 2 7 7 7 2 2 2 2 2 @ @ : 7 7 7 2 @ @ @ @ @ 2 @ @ 2 2 2 2 2 @ @ @ @ @ @ @ 2 2 2 2 2 2 @ @ @ @ @ @ @ @ @ @ @ @ @ @ @ ",
"M M M M q q q q q q q q q q q q q q 9 9 9 9 9 9 9 9 9 9 7 7 7 7 7 7 7 7 7 7 : 7 7 7 7 : 7 7 7 7 7 7 7 7 7 7 7 7 7 7 7 7 7 7 7 7 7 7 7 7 7 7 7 7 7 7 7 7 7 7 7 7 7 7 7 7 7 7 7 7 7 7 7 7 7 7 7 7 7 7 7 7 7 7 7 7 7 7 7 7 7 7 7 7 7 7 7 7 7 7 7 7 7 7 7 7 7 7 7 7 7 7 7 7 7 7 7 7 7 7 7 7 7 7 7 : @ 2 2 2 2 7 @ 2 2 7 7 7 @ @ @ @ : : : 2 @ @ 2 2 2 2 7 : : 2 2 @ @ @ 2 2 2 2 2 2 2 @ @ @ @ @ @ @ @ @ @ @ @ @ @ ",
"M M M M M q q q q q q q q q q q q q q 9 9 9 9 9 9 9 9 9 9 9 7 9 7 7 7 9 7 9 9 7 7 7 : : : : 7 7 7 7 7 7 7 7 7 7 7 7 7 7 7 7 7 7 7 7 7 7 7 7 7 7 7 7 7 7 7 7 7 7 7 7 7 7 7 7 7 7 7 0 9 7 7 7 7 7 7 7 7 7 7 7 7 7 7 7 7 7 7 7 7 7 7 7 7 7 7 7 0 7 7 7 7 7 7 7 7 7 7 7 7 7 7 7 7 7 7 7 7 7 7 7 7 7 2 : @ 2 7 7 7 : 7 7 7 7 2 @ 2 2 7 : : 7 : : 2 2 2 2 : : 7 2 2 2 2 2 2 2 2 2 2 2 2 @ @ @ @ @ @ @ @ @ @ @ @ @ @ ",
"N M N M M M q q q q q q q q q q q q q q 9 9 9 9 9 q q 9 9 9 9 9 7 9 9 9 9 9 9 9 9 9 7 7 7 7 7 7 7 7 7 7 7 7 7 7 7 7 7 7 7 7 7 7 7 7 7 7 7 7 7 7 7 7 7 7 7 7 7 7 7 7 7 7 7 7 0 0 9 9 9 9 9 0 7 7 7 7 7 7 7 7 7 7 7 7 7 7 7 7 7 7 7 7 7 7 0 0 7 7 7 7 0 0 7 7 7 7 0 0 0 0 7 7 7 7 7 7 7 7 7 7 7 7 7 : 7 7 : 7 : @ : 7 7 7 2 @ 7 7 7 7 7 7 : 7 2 2 2 2 2 7 7 2 2 2 @ @ @ 2 2 @ 2 2 2 2 @ @ @ @ @ @ @ @ @ @ @ @ @ ",
"( N N N N N M M M M q M q q q q q q q q q q q 9 q q q 9 9 9 9 9 9 9 9 9 9 9 9 9 9 9 7 9 9 9 9 9 9 7 0 7 7 7 7 7 7 7 7 7 7 7 7 7 7 7 7 7 7 7 7 7 7 7 7 7 7 7 0 7 7 7 9 9 9 9 9 9 9 9 9 9 0 9 0 9 7 7 7 7 7 7 7 7 7 7 7 7 7 7 0 7 7 7 7 0 0 0 7 7 7 7 0 0 7 7 7 7 0 7 7 0 7 7 7 7 7 7 7 7 7 7 : : 7 7 7 7 7 7 @ @ : 7 2 7 @ 2 2 7 7 7 7 7 2 2 2 2 2 2 2 2 2 2 2 2 @ @ @ 2 2 2 2 2 @ 2 @ @ 2 @ @ @ @ @ @ @ @ @ @ ",
") ) N N N N N M M M q q q q M q M q q q q q 9 q q M q 9 9 9 9 9 9 9 9 9 9 9 9 9 9 9 9 9 9 9 9 9 9 9 7 7 0 0 7 7 7 7 7 7 7 0 7 7 7 7 7 7 7 7 7 7 7 7 7 0 0 7 0 0 9 9 0 9 9 9 9 9 9 9 9 9 9 9 9 9 9 0 7 0 0 0 0 7 7 7 7 0 7 9 0 0 0 7 7 7 0 7 0 0 7 7 7 7 7 7 0 0 0 0 7 7 7 7 7 7 7 7 7 7 7 7 7 7 7 7 7 7 7 : : : 7 7 7 2 2 @ : 7 2 2 : 7 7 7 2 2 2 2 2 7 2 2 2 @ @ @ : @ @ 2 2 2 2 @ @ @ @ @ @ @ @ @ @ @ @ @ @ ",
") ) ) N N N N N N M M M M q M M M M M q q q M q q M M 9 9 q 9 q 9 q q q q q q 9 9 9 9 9 9 9 9 9 9 0 9 7 0 0 7 7 7 7 7 7 0 7 7 0 0 7 7 7 7 7 7 0 9 7 0 0 0 7 9 9 9 9 9 9 9 9 9 9 q q q q 9 9 9 9 9 9 7 0 0 0 7 7 7 7 0 0 9 9 9 0 0 0 0 7 7 7 0 0 0 9 0 0 0 7 0 0 0 0 7 0 7 7 0 0 7 7 7 7 7 7 7 7 7 7 7 7 7 7 7 7 7 7 7 7 : 2 7 7 2 2 7 2 2 7 2 2 2 2 2 2 7 7 2 : @ @ : @ @ 2 2 2 2 @ @ @ @ @ @ @ @ @ @ @ @ @ @ ",
"{ { ) ) ) ) N ) N N M M N N N M M M M M M M M q M M M M M M M q q M M M q q q q q q 9 9 9 9 9 9 9 9 9 9 9 0 7 0 7 7 7 7 7 7 7 7 0 7 9 7 0 9 9 9 9 9 7 7 9 9 9 9 9 9 9 q q q q q q q q q q q 9 9 9 9 9 9 0 0 0 0 7 7 7 9 9 9 9 9 9 9 0 0 7 7 9 9 9 9 0 0 0 0 0 0 0 9 0 0 0 0 0 0 0 7 7 7 7 7 7 7 7 7 7 7 7 7 7 7 7 7 : 7 : 7 7 7 2 2 2 7 2 7 2 2 2 2 2 7 7 2 2 2 2 7 7 @ 2 2 2 2 @ 2 @ @ @ @ @ @ @ @ O @ @ @ @ ",
"{ { { { { { A ) ) ( ( ( N N N N N M M M M N N M M M N M M N M M M M M M M M M M M M q q q q 9 q 9 9 9 9 9 9 9 9 7 7 7 7 7 7 9 0 9 9 0 9 7 9 9 9 9 9 9 9 9 9 9 9 9 9 q q q q q q q q q q q 9 9 9 9 9 9 9 9 9 0 0 9 9 9 9 9 9 9 9 9 9 0 0 0 0 9 9 9 9 0 0 0 0 0 0 0 0 0 0 0 0 0 0 0 7 7 0 7 7 7 7 7 7 7 7 7 7 7 7 7 7 7 : : : : 7 : 2 2 7 2 7 7 2 2 2 2 7 7 2 2 2 7 7 7 7 2 2 2 @ 2 2 @ @ @ @ @ @ @ @ @ @ @ @ @ ",
"....{ { { { { { ) ) ) ) N ) N N N N N N N N N M M N N N N M N M M M M M M M M M M M M 9 b 9 M M M 9 b 9 9 9 9 9 0 0 0 0 7 9 9 9 9 9 9 9 9 9 9 9 9 9 9 9 9 9 9 9 q q q q q q q q M M M q q q 9 q 9 9 9 9 9 9 9 9 9 9 9 9 9 9 9 9 9 9 9 q 0 9 9 9 9 9 0 0 0 9 9 9 0 0 0 0 0 0 0 0 0 0 7 0 0 7 7 7 7 7 7 7 7 7 : : 7 7 : : 7 : 7 : : 7 2 2 2 : 7 : 2 2 7 7 7 7 7 7 2 2 : 2 7 2 2 @ @ @ @ @ @ @ @ @ @ @ @ @ @ @ @ ",
"$.........{ { { ) ) ) ) ) ) ) N ) N N N N N N N N N N N N N N N N N M M N N N N N M M M b M M N M b b b 9 9 9 9 9 9 9 9 9 9 9 9 q 9 9 9 9 9 9 9 9 9 9 9 q q q q q q q M q q q q M M M q q q q q 9 9 9 9 9 9 9 9 9 9 9 9 9 9 9 9 9 9 9 9 q 9 9 9 9 9 0 0 0 9 9 0 0 0 0 0 9 0 0 0 0 7 0 0 7 7 7 7 7 7 7 7 7 7 7 7 7 7 7 7 7 7 7 7 7 7 2 2 7 7 : 7 7 2 7 7 7 7 7 7 2 7 7 2 2 2 2 2 2 2 @ @ @ @ @ @ @ @ @ @ @ @ @ ",
"#.....| | | | | | { { { { ) ) ) { A A A A A { N N ) { ) ) N N M N N N N N N N N M M M M M M N N N m m b b b b b 9 9 9 9 b 9 9 9 9 9 9 9 9 9 9 9 9 9 9 M M q q q q M M M M M M M N M M M M M q q q q 9 q q 9 9 q q 9 9 9 9 9 9 9 9 9 9 9 9 9 q q q 9 9 9 9 9 9 9 9 q 9 9 0 0 0 9 0 7 7 7 0 7 7 0 7 7 7 7 7 7 7 7 7 7 7 7 7 7 7 7 7 7 7 7 7 7 7 7 7 7 2 7 7 7 7 7 7 7 7 2 2 2 2 2 2 2 @ @ @ @ @ @ @ @ @ @ @ @ @ ",
"%.#.#.#.#.#.| | | ' ' | | | { { { { { { { { { ) ) ) { ) ) ) ) M ( ) ( ( ( N N ) N M N N N N ) N N A N M b b b b 9 9 9 9 b b 9 b 9 9 b M M M M M b b M M M M M M M N N N N N N N N N N N M M M q M q 9 q q q M M q 9 9 9 q 9 9 9 9 b 9 9 9 q 9 q 9 9 9 9 9 9 9 9 9 q 9 9 9 9 9 9 9 0 7 7 9 7 0 0 7 7 7 7 7 7 7 7 7 7 7 7 7 7 7 7 7 7 7 7 7 7 7 7 7 7 7 7 7 7 7 7 7 7 7 2 2 2 2 2 2 2 @ @ @ @ @ @ @ @ @ @ @ @ @ ",
"#.#.#.#.#.#.' ' | ' ' o.o.| | | ..| | | { | { ) ) ) ) ' ' ' ( ( ( ( _ _ ( ( ( ) ( P P ( ( ( ( ) ) { ) ( M M M b 9 9 9 b b b b b b b M M M M M M M N N N M M M M M N N N N N N N N ) N N N N M M M M q q M M M M M 9 9 9 M M b b M b b q q 9 q q q q 9 9 q q 9 9 q q q 9 q 9 9 9 9 9 9 9 9 9 9 9 0 0 0 0 7 7 7 7 7 7 7 7 7 7 7 9 7 7 7 7 7 7 7 7 7 7 7 7 7 7 7 7 7 7 7 7 2 2 2 2 @ @ @ @ @ @ @ @ @ @ @ @ @ @ @ ",
"#.#.#.#.#.o.' ' ' _ _ o.o.o.| #.#.#.| | | | ' ' ' ' ' ) ' ' ( ( ( ( ( _ _ _ _ _ P P P P ( _ _ ( ( ' ' ( M M M q 9 9 9 M M M M M b b M M M M M M N N N N N M M M N N N ) { { ) ) ) ) ) N ) N N M M M M M M M N N M M q M M M M m b N b b b b M 9 q 9 9 q q q q q q q q 9 9 9 9 9 9 9 9 9 9 9 9 9 9 9 9 9 9 9 0 0 0 9 9 9 9 9 9 9 9 7 7 7 7 7 7 7 7 7 7 0 7 7 7 7 9 7 7 7 2 2 2 2 @ @ @ @ @ @ @ @ @ @ @ @ @ @ @ ",
"#.#.#.| ' ' ' ' ' _ _ o.o.o.o.#.o.o.#.#.| ' ' ' ' ' ' ) ' ( ( P ( ( P ( P P Y P P P P P P Y _ _ Y X.Y P q q q q q q q q q q q q q q M ( M M N N N ) N ) ) N N N N ) ) ) { { { { { ) ) N ) ) ) N M M M M N N M N M q q M N N N N N N N b b M M M M M 9 q q q q q 9 q M b q q q q q q 9 9 9 q 9 9 9 9 9 9 9 9 9 7 0 9 9 9 9 9 9 9 9 9 9 9 9 7 7 7 9 9 0 0 7 7 7 9 9 9 7 7 2 2 2 2 @ @ @ @ @ @ 2 2 @ @ @ 2 2 @ @ ",
"o.o.o.' ' ' ' ' ' _ _ _ o._ ' o.o.o.o.' ' ' ' ) ) ' ) ( ( ( ( ( ( ( P P P P P P P P P P P P P P Y _ P q 0 q 0 0 0 0 0 0 q q q q q P P ( ( ( ( ( ) ) ) ) ( ( ( ( ) ) ) ) { { | | { { { ) ) ) ( ( ( ( ( M M M M N M q q q N ) N N N N N N N N M M M M M 9 q b q q M M M b M M M q q q q q q q q 9 9 9 9 9 9 9 9 9 9 0 0 0 0 9 9 9 9 9 9 9 9 9 0 9 9 9 9 0 7 9 9 9 9 9 7 7 2 2 2 @ @ @ @ @ @ @ 2 @ @ @ @ 2 2 @ @ ",
"X.X.X.' ' ' ' ' _ ( _ _ _ _ _ o.o.o.' ' ' ) ) ) ) ) ) ( ( ( ( P P q q q q q P q q 0 q q q q P q P P q 9 9 0 0 0 0 0 0 0 0 q q q q P P P P P P ( ( ( ( ( ( ( ( _ ' ' ' | | | | ' ' | { ) ) ) ( ( ( ( ( ( ( ( ( ( q q q P ( ( ( ) ) ) ) ) N N N M M M M M M M M M M M N M M M M M q q q q q q q q q q q q 0 q 9 0 0 0 0 0 0 0 9 9 q 0 0 q 0 q 9 9 9 9 9 0 9 9 0 9 9 9 9 7 2 2 2 @ @ @ @ @ 2 2 2 @ @ @ @ @ @ @ @ ",
"Y Y _ _ _ _ ' ( ( ( ( ( ( ( ( _ ' ' ' ' _ ) ) ) ) ) ( ( ( ( q M q q q q q q q q q q q q q 0 q q q q q 9 9 9 9 7 0 0 0 0 0 0 0 q q q P P P q q P ( ( ( ( P P ( ( _ ' ' o.o.' ' ' | | { ' ' ) ( ( ( ( ( P P P P P q q q q P _ _ _ _ _ _ ( ( N N N N M M M M N N M M N N N N N N M q q q q q q q q q q q q 0 0 0 0 0 0 0 0 0 0 0 0 0 0 0 0 0 0 0 9 9 9 0 0 9 9 9 9 9 9 9 7 2 2 @ @ @ @ @ 2 @ @ 2 @ 2 @ @ @ @ @ @ ",
"Y Y Y Y Y Y _ ( ( ( ( ( _ ( _ _ ' ' ' ' ( ( ) ( ) ) ( ( ( M M q q q q q q q q q q q q 0 q q q q q q q 9 9 9 9 7 0 0 0 0 0 0 0 0 q q q q q q q q q P P P q q q P ( _ _ ' ' ' ' ' | | { ' ) ( ( ( q q P P P P P P q q q q P P Y Y Y Y Y P ( ( ( M ( ( M M M N ) N N N N ( ( N N M q q q q q q q q q 0 0 0 0 0 0 0 0 0 0 0 0 0 0 0 0 0 0 0 0 0 0 0 0 0 0 0 0 9 9 9 q q 0 2 2 2 @ @ @ @ 2 2 2 @ @ @ 2 @ 2 @ @ @ @ ",
"P P P Y Y Y Y Y P ( ( ( ( ( ( _ ( ) ) ) ( ( ) ) ) ( ( N N M q q q q q q q q q q q q 0 0 9 q q q q q q 0 9 0 7 0 0 0 9 9 0 0 0 9 0 0 q q q q q q q q P q q q P P P _ _ _ ' ' ' ' | ..{ { { N N M q q P P P P P P q q q q q P P P P P P P P P P P P P M q M ( ) ( ( ( ( ( ) ( N N M q q q q q q q q 0 0 0 0 0 0 0 0 0 0 0 0 0 0 0 0 0 0 0 0 0 0 0 0 0 0 0 9 9 9 9 q q 0 2 2 @ @ @ @ 2 2 2 2 2 @ @ 2 @ @ @ @ @ @ ",
"q q L P P P P P P P P P P ( ( ( ( ) ) ) ( ) ) ) ) ) ( N M M M q q q q q q q q q q q 0 9 9 q q q q q q 0 0 0 0 0 0 9 9 9 9 0 0 0 0 q q q q q q q q q q q q q q P ( ( ( ( ' ' ' ' | ....} { { N M q q q q q q q q q q 0 0 q q q q q P P P P P P P P P P P q M ( ( ( ( ( ( ) ) ( ( M M M q q q q q q q 0 0 0 0 9 0 0 0 0 0 0 0 0 0 7 7 7 7 0 0 7 7 7 7 0 0 9 9 q q q 0 5 2 @ : @ @ @ @ 2 2 2 2 2 @ 2 @ @ @ 2 @ @ ",
"q 0 0 0 0 q P P P P P P P P Y ( ( ) ) ) ) ) ) ) ) ) ) ( M M ( q q q q q q q 0 9 9 9 0 9 9 q q 9 9 9 9 9 0 0 0 9 0 0 9 9 9 9 0 0 q 9 9 9 9 9 q q q q q q q q q M ( ( ( ) ) ' ' | ..s.......{ ) N M M q q q q q q q 0 0 0 0 0 q q 0 q 0 q q P P P P P P P q q M M M ( ( ( ) ) ) ( M M M M q q q q 9 q q 0 0 0 9 9 0 0 0 0 7 7 7 7 7 7 7 7 7 7 7 7 7 7 0 0 0 0 9 q 0 5 5 2 : : : 2 @ 2 2 2 2 2 2 2 2 @ 2 @ 2 @ @ ",
"0 0 0 0 0 0 0 0 0 0 L P P P P P _ ' ) ) ) { { | ) ) ) ) M N ( q q q q q q q q q 0 9 9 9 q 9 q q q 9 9 0 9 9 0 9 0 9 9 9 9 9 0 0 9 0 9 q 9 9 q q q q q q q M M M M N ( ) ) ) ' | ..$.$.....{ { ) ( N M M q q q q q 0 0 0 0 0 0 0 0 0 q q 0 q 0 q q q q q q q q q q ( ( ( ) ) ( ( ( M M M q q q q 9 9 q 9 0 0 9 9 9 0 0 0 0 0 7 0 7 7 7 7 7 7 0 0 0 0 0 0 0 9 9 0 5 5 5 : , : : 7 : 2 2 2 2 2 2 2 2 @ @ 2 2 @ @ ",
"0 0 0 0 0 0 0 0 0 0 0 0 P P P Y Y _ _ ' ' ' { { { ) ) ) N N N M M M M M M q q q 9 9 0 q q q q q q q 9 9 9 9 9 0 0 0 0 9 9 9 9 0 0 0 9 9 q q q q 9 9 q 9 M M M q M N ) ) ) ' ' ' #.$.$.$...| { ) ) ) N M M q q q q q 0 0 0 0 0 0 0 0 0 q 0 0 0 0 0 q 0 q q q q q q ( ( ( ( ) ) ( ( M M M q q q q 9 9 9 0 0 0 9 9 9 9 9 0 0 0 7 7 0 0 7 7 7 7 0 7 0 0 0 0 0 q 9 0 5 5 7 , , : : : : 2 2 2 2 2 2 @ 2 @ @ 2 2 @ @ ",
"0 0 0 0 0 0 0 0 0 0 0 0 0 0 P P Y _ _ _ _ ' | | { ' ) ) N N N N M M M N M M q 9 9 9 9 q q q q q q q 9 9 9 0 0 9 9 9 9 9 9 9 9 9 9 0 9 9 9 q q q 9 M M M N M M q q M ( ) ' _ _ X.o.%.%.#.#.| ' ) { { N N M M q q q q q q 0 0 0 0 0 0 0 0 0 q q q q 0 0 q q q q q q M M ( ( ( ( ( ( ( ( ( q q q q 9 q 9 0 7 7 9 9 q 9 9 0 7 0 7 7 0 0 7 7 0 7 0 0 0 0 0 0 9 0 0 5 5 7 , , , 9 7 7 2 2 2 2 2 2 2 @ 2 2 @ @ @ @ @ ",
"0 0 0 0 0 0 0 0 0 0 0 0 0 0 0 q P Y Y _ _ _ ' | { { { ) ) A N N N N N N M M M 9 9 9 9 q q M b M M q 9 9 9 0 0 9 9 9 9 9 9 9 9 9 9 9 9 9 9 9 M b M M b N N N M P P P ( _ _ X.W W X.o.@.%.#.o.' ) { { { N N M M q q q q q 9 9 0 0 0 0 0 0 0 9 9 9 9 0 q q q q q q q q q ( ( ( ( ( ( ( q P q q 9 q q q q 0 7 0 9 9 9 q 9 0 0 0 7 7 0 0 0 0 0 0 0 0 7 0 0 0 9 7 2 5 2 7 , , 9 q 0 7 2 2 2 2 2 2 2 @ 2 2 @ @ @ @ @ ",
"0 0 0 0 0 0 0 0 0 0 0 0 0 0 0 0 q P P Y _ X._ ' ' ' { { { { N N N N N N M M M M b 9 9 9 M M M b b M 9 9 9 9 9 9 9 9 9 9 9 9 9 9 9 9 9 9 b b M M M M N N N N ( P P P ( _ _ Y Y Y Y X.+.o.@.o._ ' | | { ) N N N M M q q q 9 9 0 0 0 0 0 0 0 0 9 9 9 9 9 9 9 q q q q q q q ( ( ( ( ( P q P q q q q 0 q q 0 0 0 q q q q 9 9 0 0 0 0 9 9 9 9 7 0 7 0 7 7 0 0 0 0 5 1 7 , , 9 q 9 0 7 2 7 2 2 2 2 2 2 2 2 @ @ @ @ 2 ",
"0 0 0 7 0 0 0 0 0 0 0 0 0 0 0 0 0 q P P Y _ _ ' ' ' ' | | | ) N ) N N N N M M M M M M M M N m m m m b 9 9 9 b 9 b b 9 9 9 9 9 9 9 b b b b b M N N N N ) ( ( P P P P P P P P P P P _ X.X.+._ _ _ ' | ' ) ) N N M M M M q 9 9 9 0 0 0 0 0 0 0 9 9 9 9 9 9 9 q q q q q q q q P P P P P P P q q 0 0 0 0 0 0 0 0 0 q q q q 0 0 0 0 0 9 9 9 9 0 0 7 0 0 7 7 0 0 5 5 2 7 , , 9 q q 0 7 7 2 2 2 2 2 2 2 2 2 @ @ @ @ @ ",
"0 0 7 7 0 0 0 0 0 0 0 0 0 0 0 0 0 q q P P Y _ _ _ ' ' | $.| ) ( ( ( ( ( ( M M M M M M M N N N N N m b b b M b b b b b 9 9 9 b b b b b b b M N N N ) ( ( P P P P q P P P P q q q q P Y Y X.Y Y _ _ o.' ' ) ) N N N M M M 9 9 9 0 0 0 7 7 0 0 9 9 9 9 9 9 q q q q q q q q q P q q P q q P q q 0 0 0 0 0 0 0 0 0 0 0 0 0 0 0 0 0 0 0 0 9 0 0 0 0 0 0 0 0 0 5 5 2 : : , 9 q q q 0 0 7 2 2 @ 2 2 2 2 2 2 2 @ @ @ @ ",
"7 7 7 7 0 0 7 7 7 0 7 0 0 0 0 0 0 q q q P P Y _ _ ' ' | $.' ( _ _ _ _ ( ( ( P P q q M N N ( ( ( ) N M M M M M M M M M b b b M M N N N N N N M ( ( ( P P P P q q q q q q q 0 0 q q q P P Y Y P _ _ X._ _ ' ) ) N N N M M b 9 9 9 0 0 7 7 0 9 9 9 9 9 9 9 q q q q q q q q q q q q q q q q q q 0 0 0 0 0 0 7 0 0 0 0 0 0 0 0 7 0 0 0 0 0 0 0 0 0 7 7 0 0 0 5 5 @ : , 9 q q q q 0 7 7 7 2 @ @ 2 @ @ 2 2 @ @ @ @ @ ",
"7 7 7 7 7 7 7 7 7 7 7 7 0 0 0 0 0 0 q q q P P ( _ _ ' | $.) P Y Y Y Y P P P P P P q P P ( P P P ( ( M M M M M N N M M M M M M N N N N ) ( M P ( ( Y P P P q q q q 0 q 0 0 0 0 q q q q P ( P P P Y Y _ _ _ ' ) ) ) N N N M b 9 9 9 9 9 9 9 9 9 9 9 b b M q q q q 0 q q q q q q 0 0 0 q q q 0 0 0 7 0 0 7 7 7 0 0 0 0 7 7 7 7 7 7 7 7 7 7 7 0 7 7 7 0 0 5 5 1 : : : 0 q q q q 0 7 2 7 2 2 2 @ @ @ @ @ @ @ @ @ @ ",
"7 7 7 7 7 7 7 7 7 7 7 7 7 0 0 0 0 0 q q q P P ( _ _ ' | ..( P P P P P P P P P P P P P P P Y P P P P P q q q q q M N M M M M N N ( N N ( ( P P P P P P q q 0 0 0 0 q 0 0 0 0 0 q q q q P P q q P P P P Y _ _ _ ( ) ) ) N N M M 9 9 9 9 9 9 9 9 9 q q q q q q q q 0 0 0 q q 0 0 0 0 0 q q q 0 0 0 7 0 7 7 7 7 7 7 0 7 7 7 7 7 7 7 7 7 7 7 7 7 0 0 7 0 0 5 1 2 : : 7 0 0 0 q q 0 0 7 7 2 2 2 @ @ 2 2 @ @ @ @ @ @ ",
"7 7 7 7 7 7 7 7 7 7 7 7 7 7 0 0 0 0 q q q q P ( ( _ ' #.| ( P P P P P q q q q q 0 0 P P P P P P P P P P q q 0 P P q q q q M ( ( ( ( ( P P P P P P P q 0 0 0 0 0 0 0 0 0 0 0 0 q q q q P P q q q q P P P Y _ _ _ ' ' ) ) N N M q 9 9 9 9 9 9 9 q q q q q q q 0 0 0 0 0 0 0 q q 0 0 0 0 q q 0 7 7 7 7 7 7 7 7 7 7 7 7 7 7 7 2 7 7 7 7 0 0 7 7 7 7 7 2 5 1 @ : : 7 7 0 0 0 0 0 0 0 7 7 2 2 2 2 @ @ 2 @ @ @ @ @ @ ",
"7 7 7 7 7 7 7 7 7 7 7 7 7 7 0 0 0 0 q q q q q ( ( _ ' $.| ( q q q q q q 0 0 0 0 0 0 0 0 0 q P P P P 0 q q q q P P P P q q q P P P P P P P L 0 q 0 0 0 0 0 0 0 0 0 0 0 0 0 0 0 q q q q q P q q q q q q P P Y Y Y ( _ ) ) N N M 9 9 9 9 9 9 9 q q q q q q 0 0 0 0 0 7 0 0 0 0 q q 0 0 0 q 0 0 0 0 7 7 7 7 7 7 7 7 7 7 7 7 7 2 7 7 2 7 7 7 7 7 7 2 2 1 1 2 @ : : 7 0 0 0 0 0 0 0 0 7 7 2 2 2 2 @ @ @ @ @ @ @ @ @ ",
"7 7 7 7 7 7 7 7 7 7 7 7 7 0 0 0 0 0 0 q q q q ( ( ' ' $.{ M q q q q q q 0 0 0 0 0 0 0 0 0 0 0 0 0 0 0 0 0 0 0 L L L 0 L L q P P P P L L P q 0 0 0 0 0 0 0 0 0 0 0 0 0 0 0 0 0 0 q q q q q q 0 0 0 q 0 0 L P P P Y _ ( ( ) N M q 9 9 9 9 9 q q q q q 0 0 0 0 0 0 0 7 0 0 0 0 9 q 9 0 0 q 0 0 0 0 7 7 7 7 7 7 7 7 7 7 2 2 7 7 7 7 2 2 2 7 7 7 2 2 1 2 2 2 : : 7 7 7 7 7 0 0 0 0 0 7 7 7 2 2 2 2 @ @ 2 @ @ 2 @ @ ",
"7 7 7 7 7 7 7 7 7 7 7 7 7 0 0 0 0 0 0 q q q q q ( ) ' $.) M q q 0 q q q 0 0 0 0 0 0 0 0 0 0 0 0 0 0 0 0 0 0 0 0 0 0 0 0 0 P P P 0 0 0 0 0 0 0 0 0 0 0 0 0 0 0 0 0 0 0 0 0 0 0 0 q q q q q q 0 0 q q q 0 0 q q q P Y P ( ( ( ( q 9 9 9 9 q 0 0 0 0 0 0 0 0 0 7 0 0 0 0 0 0 9 q 9 9 0 0 0 0 0 0 0 7 7 7 7 7 7 7 7 7 2 2 2 2 7 7 2 2 7 2 2 7 7 2 2 1 2 2 @ : : 7 7 7 7 7 0 0 0 0 0 7 7 7 7 2 2 @ @ @ 2 @ @ @ @ @ ",
"7 7 7 7 7 7 7 7 7 7 7 7 7 7 7 0 0 0 0 q q q q P ( ' ' $.) q q q 0 q q q 0 0 0 0 0 0 0 0 0 0 0 0 0 0 0 0 0 0 0 0 0 0 0 0 0 0 0 0 0 0 0 0 0 0 0 0 0 0 0 0 0 0 0 0 0 0 0 0 0 0 0 0 0 q q q q 0 0 0 9 9 q 0 0 0 0 q q P P P P ( P q 0 0 0 0 0 0 0 0 0 0 0 0 0 0 0 0 0 0 0 0 0 0 9 9 0 0 0 0 0 0 0 7 7 7 7 7 7 7 7 7 2 7 7 7 7 7 2 2 2 2 2 2 7 2 2 2 2 2 @ : : 7 7 0 7 7 7 7 0 0 0 0 0 7 2 2 2 @ @ @ 2 2 @ @ @ @ @ ",
"7 7 7 7 7 7 7 7 7 7 7 7 7 0 0 0 0 0 0 0 q q q P ( _ ' $.) q q q q q 9 0 0 0 0 0 0 0 0 0 0 0 0 0 0 0 0 7 7 7 7 0 0 0 7 7 0 0 0 0 0 0 0 0 7 0 0 0 0 0 0 0 0 0 0 0 0 0 0 0 0 0 0 0 0 9 q q q 0 0 0 0 0 0 0 0 0 0 0 q P P P P P q q 0 0 0 0 0 0 0 0 0 0 0 0 0 0 0 0 0 7 7 0 0 0 9 0 0 0 0 0 0 0 7 7 7 7 7 7 7 7 2 2 2 2 2 2 7 7 2 2 2 2 2 2 7 2 1 2 @ @ @ : : 7 7 7 7 7 7 7 7 7 0 7 7 7 2 2 2 2 @ @ 2 2 @ @ @ @ @ ",
"7 7 7 7 7 7 7 7 7 7 7 7 7 7 7 7 0 0 0 0 q q q q ( ( o.$.( q q q q 0 0 0 0 0 0 0 0 0 0 0 0 0 0 0 0 0 7 7 7 7 7 7 7 7 7 7 7 7 0 0 7 7 0 0 0 0 0 0 7 0 0 0 0 7 0 0 0 0 0 0 0 0 0 0 0 9 q q q 0 0 0 0 q 0 0 0 0 0 0 0 0 0 P P P q 0 0 0 0 0 0 0 0 0 0 0 0 7 7 7 0 7 7 7 7 0 0 0 0 0 0 0 0 0 0 0 7 7 7 7 7 7 7 7 7 2 7 7 2 2 2 7 2 2 2 7 2 2 2 2 2 @ @ @ @ : 7 7 7 7 7 7 7 7 7 0 7 7 7 7 2 2 2 2 2 2 2 2 2 @ @ @ @ ",
"7 7 7 7 7 7 7 7 7 7 7 7 7 7 7 7 0 0 0 0 q q q q ( ( o.#.( q q q 0 q 0 0 0 0 0 0 0 0 0 0 0 0 0 0 0 0 7 7 7 7 7 7 7 7 7 7 7 7 0 0 7 0 0 7 7 7 0 0 7 7 0 0 0 0 0 0 0 0 0 0 0 7 0 0 9 9 9 q 0 0 0 0 0 9 0 0 0 0 0 0 0 0 0 0 q q 0 0 0 0 0 0 0 0 7 0 0 0 0 7 7 7 7 7 7 7 7 0 0 0 0 0 0 0 0 0 0 7 7 7 7 7 7 7 7 7 2 2 7 7 7 2 2 2 7 7 7 7 2 2 2 2 2 @ @ @ @ 7 7 7 7 7 7 7 7 7 7 0 7 7 7 7 7 2 2 2 2 2 2 2 @ @ @ @ @ ",
"7 7 7 7 7 7 2 7 7 7 7 7 7 7 7 7 0 0 0 0 q q q q ( _ #.#.( q q q q 9 0 0 0 0 0 0 0 7 7 7 7 0 0 7 7 0 7 7 7 7 7 7 7 7 7 7 7 7 7 7 7 7 7 0 7 0 0 0 7 7 7 7 0 0 0 0 0 7 7 0 7 7 0 0 0 9 9 q 0 0 0 0 0 0 9 0 0 0 0 0 0 0 0 0 0 0 0 0 0 0 0 0 0 0 0 7 7 7 0 0 7 7 7 7 7 7 0 0 0 0 0 0 0 0 0 0 0 0 7 7 2 2 2 7 7 7 7 7 2 7 2 2 2 2 7 7 7 7 2 2 2 2 @ @ @ @ : @ 7 7 7 7 7 7 7 7 7 7 0 0 0 7 7 2 2 2 2 2 @ 2 2 @ @ @ @ ",
"2 7 2 2 7 7 2 2 2 7 7 7 7 7 7 0 0 0 0 0 q q q q ( ' #.| ( q q q 9 9 0 0 0 0 0 0 7 7 7 7 7 7 0 7 7 7 7 7 7 7 7 7 7 7 7 7 7 7 7 7 7 7 7 7 0 0 7 0 7 7 7 7 7 0 0 0 0 0 7 7 7 7 7 0 0 0 9 9 0 0 0 7 0 9 q 9 0 0 0 0 0 0 0 0 0 0 0 0 0 0 0 0 7 7 7 7 7 7 7 7 7 7 7 7 7 7 7 7 0 0 0 0 0 0 7 7 0 7 7 7 7 7 7 7 7 7 7 7 7 7 2 2 2 2 7 2 2 2 2 2 2 2 @ @ @ @ @ 7 7 7 7 7 7 7 7 7 7 0 0 0 0 7 7 7 2 2 2 2 2 2 2 2 2 @ @ ",
"7 2 2 2 7 2 2 7 7 7 7 2 7 7 7 7 7 0 0 0 0 q q q ( ' #.| M q q 9 9 9 0 0 0 0 0 0 0 7 7 7 7 7 7 7 7 7 7 7 7 7 7 2 7 7 7 7 7 7 7 7 7 7 7 7 7 7 7 7 7 0 7 7 7 7 7 0 0 7 7 7 7 7 7 7 0 0 0 0 0 0 0 0 0 0 9 0 0 0 0 0 0 0 0 0 7 7 7 0 7 7 0 0 0 0 7 7 7 7 7 7 7 7 7 7 7 0 7 7 0 0 0 0 0 0 7 7 7 7 7 7 2 7 7 2 7 7 7 7 7 7 7 2 @ @ 2 2 2 2 2 2 2 @ @ @ @ @ 2 7 7 7 7 7 7 7 7 7 7 0 7 7 7 7 7 2 2 2 @ 2 2 @ @ @ @ @ @ ",
"7 2 7 7 2 2 2 7 7 7 7 2 7 2 2 7 0 0 0 0 0 0 q q ( ' #.{ M q q q 9 0 0 0 0 0 0 0 0 7 7 7 7 7 7 7 7 7 7 7 7 7 7 2 2 7 7 7 7 7 7 7 7 7 7 7 7 7 7 7 7 7 7 7 7 7 0 0 0 0 7 7 7 0 0 0 0 9 9 0 0 0 0 9 9 0 0 9 9 0 0 0 0 0 0 0 0 7 0 7 7 7 7 7 0 0 0 7 7 7 0 7 7 7 7 7 0 0 0 0 0 0 0 7 7 7 0 7 7 7 7 7 2 2 7 7 7 7 2 7 7 7 7 7 @ : 7 7 2 2 2 1 2 @ @ @ @ 7 2 7 7 7 7 7 7 7 7 0 7 0 0 0 0 7 7 7 2 2 2 @ @ 2 2 2 2 2 @ "
};
