/* XPM */
static char *b6e6c1f7621048eb9ab7f63db8651680ez6EltfiCCaFCiB9[] = {
/* columns rows colors chars-per-pixel */
"266 800 255 2 ",
"   c #000304",
".  c #0B0202",
"X  c #000A05",
"o  c #0B0B03",
"O  c #000509",
"+  c #0B040B",
"@  c #000B0C",
"#  c #0B0C0C",
"$  c #130202",
"%  c #1B0202",
"&  c #130B03",
"*  c #170909",
"=  c #011304",
"-  c #011B03",
";  c #0B1805",
":  c #00120D",
">  c #0B120C",
",  c #011B0C",
"<  c #161607",
"1  c #000413",
"2  c #000D12",
"3  c #0B0B14",
"4  c #00041B",
"5  c #000C1B",
"6  c #150915",
"7  c #001313",
"8  c #0C1313",
"9  c #001A14",
"0  c #00141A",
"q  c #001B1B",
"w  c #0B1918",
"e  c #121314",
"r  c #161717",
"t  c #151A1A",
"y  c #1A1C1C",
"u  c #230202",
"i  c #280705",
"p  c #360403",
"a  c #261706",
"s  c #2D1212",
"d  c #012303",
"f  c #0B2707",
"g  c #012B03",
"h  c #02230C",
"j  c #022B0C",
"k  c #152707",
"l  c #023402",
"z  c #023B02",
"x  c #02330C",
"c  c #073909",
"v  c #153706",
"b  c #012314",
"n  c #0B2717",
"m  c #022B14",
"M  c #01231B",
"N  c #012B1C",
"B  c #172619",
"V  c #023314",
"C  c #0B3717",
"Z  c #023B14",
"A  c #02331C",
"S  c #023B1C",
"D  c #153817",
"F  c #2C2D0F",
"G  c #000323",
"H  c #000C23",
"J  c #0B0F27",
"K  c #00032C",
"L  c #000C2B",
"P  c #160F2A",
"I  c #001423",
"U  c #001C23",
"Y  c #0B1A25",
"T  c #00142B",
"R  c #001C2B",
"E  c #171B23",
"W  c #000333",
"Q  c #000C33",
"!  c #01083B",
"~  c #011433",
"^  c #011C33",
"/  c #0B1B34",
"(  c #01143B",
")  c #011C3B",
"_  c #2C1427",
"`  c #012323",
"'  c #012B23",
"]  c #01232B",
"[  c #012B2B",
"{  c #0A2828",
"}  c #1C2323",
"|  c #192827",
" . c #013324",
".. c #023B23",
"X. c #01332C",
"o. c #0A3728",
"O. c #023B2C",
"+. c #173728",
"@. c #012433",
"#. c #012C33",
"$. c #0A2B34",
"%. c #01243B",
"&. c #012C3B",
"*. c #023334",
"=. c #023B34",
"-. c #02343B",
";. c #0A3738",
":. c #023B3C",
">. c #173136",
",. c #232B2B",
"<. c #252828",
"1. c #2D2F2F",
"2. c #25332B",
"3. c #2B3535",
"4. c #323434",
"5. c #363B3B",
"6. c #460C08",
"7. c #462F19",
"8. c #024302",
"9. c #024B02",
"0. c #05470A",
"q. c #025302",
"w. c #035906",
"e. c #044618",
"r. c #154D10",
"t. c #045718",
"y. c #2E4C10",
"u. c #036211",
"i. c #044628",
"p. c #055728",
"a. c #16502E",
"s. c #024334",
"d. c #02433C",
"f. c #054A38",
"g. c #045738",
"h. c #2F4B34",
"j. c #036329",
"k. c #18612C",
"l. c #046339",
"z. c #2C632A",
"x. c #494E26",
"c. c #010945",
"v. c #011946",
"b. c #011853",
"n. c #012443",
"m. c #012C43",
"M. c #02254A",
"N. c #012C4B",
"B. c #013343",
"V. c #023C43",
"C. c #02334B",
"Z. c #043B4A",
"A. c #173246",
"S. c #012954",
"D. c #023855",
"F. c #343B44",
"G. c #023B62",
"H. c #024344",
"J. c #034B43",
"K. c #03444B",
"L. c #034B4C",
"P. c #0A4848",
"I. c #055846",
"U. c #02534B",
"Y. c #15504D",
"T. c #034856",
"R. c #035B53",
"E. c #055658",
"W. c #394545",
"Q. c #314F4E",
"!. c #056448",
"~. c #14664F",
"^. c #056558",
"/. c #064A63",
"(. c #065963",
"). c #046566",
"_. c #066B74",
"`. c #156B73",
"'. c #05737B",
"]. c #316761",
"[. c #464949",
"{. c #4A5150",
"}. c #4B5555",
"|. c #555959",
" X c #526658",
".X c #69645C",
"XX c #525B66",
"oX c #5C6363",
"OX c #5B6868",
"+X c #58706E",
"@X c #676A6A",
"#X c #766C6D",
"$X c #69736D",
"%X c #6C6D72",
"&X c #6D7372",
"*X c #6A7777",
"=X c #727474",
"-X c #747B7B",
";X c #787A7B",
":X c #8A7475",
">X c #588D6C",
",X c #6D8D75",
"<X c #76827C",
"1X c #8A8B7B",
"2X c #067A84",
"3X c #5A7385",
"4X c #6C7A87",
"5X c #777D83",
"6X c #048892",
"7X c #208892",
"8X c #039AA5",
"9X c #05A9B3",
"0X c #7B8383",
"qX c #788686",
"wX c #6C9C96",
"eX c #749190",
"rX c #03B7C3",
"tX c #07DDE9",
"yX c #868989",
"uX c #89928E",
"iX c #8B9494",
"pX c #969999",
"aX c #93A49B",
"sX c #A2A19A",
"dX c #969CA3",
"fX c #9CA3A4",
"gX c #93B1AF",
"hX c #A3A7A7",
"jX c #AAADAD",
"kX c #AAB0AF",
"lX c #ACB4B4",
"zX c #B6B8B9",
"xX c #C1BEBC",
"cX c #92C4BA",
"vX c #B5C2BB",
"bX c #98B8C0",
"nX c #B8BCC3",
"mX c #AAC8C8",
"MX c #BDC3C3",
"NX c #C4C7C7",
"BX c #CACCCC",
"VX c #CCD0D0",
"CX c #CCD3D3",
"ZX c #D3D5D5",
"AX c #D5D9D9",
"SX c #DBDCDC",
"DX c #DBE1DE",
"FX c #DEE1E2",
"GX c #E3E4E4",
"HX c #E6E9E8",
"JX c #EBECEC",
"KX c #EEF0F0",
"LX c #F3F4F4",
"PX c #F6F8F8",
"IX c #FEFEFE",
/* pixels */
"O O O O O O O O O O O O O O O O O O O O O O O O O O O O O O O O O O O O O O O O O O O O O O O O O O O O O O O O O O O O O O O O O O O O O O O O O O O O O O O O O O O O O O O O O O O O O O O O O O O O O O O O O O O O O O O O O O O O O O O O O O O O O O O O O O O O O O O O O O O O O O O O O O O O O O O O O O O O O O O O O O O O O O O O O O O O O O O O O O   O O O   O O O O O O O O O O O O O O O O O O O O O O O O O O O O O O O O O O O O O O O O O O O O O O O O O O O O O O O O O O O O O O O O O O O O O O O O O O O O O O O O O O O ",
"O O O O O O O O O O O O O O O O O O O O O O O O O O O O O O O O O O O O O O O O O O O O O O O O O O O O O O O O O O O O O O O O O O O O O O O O O O O O O O O O O O O O O O O O O O O O O O O O O O O O O O O O O O O O O O O O O O O O O O O O O O O O O O O O O O O O O O O O O O O O O O O O O O O O O O O O O O O O O O O O O O O O O O O O O O O O O O O O O O O O O O O O O O O O O O O O O O O O O O O O O O O O O O O O O O O O O O O O O O O O O O O O O O O O O O O O O O O O O O O O O O O O O O O O O O O O O O O O O O O O O O O O O O ",
"O O O O O O O O O O O O O O O O O O O O O O O O O O O O O O O O O O O O O O O O O O O O O O O O O O O O O O O O O O O O O O O O O O O O O O O O O O O O O O O O O O O O O O O O O O O O O O O O O O O O O O O O O O O O O O O O O O O O O O O O O O O O O O O O O O O O O O O O O O O O O O O O O O O O O O O O O O O O O O O O O O O O O O O O O O O O O O O O O O O O O O   O O O O O O O O O O O O O O O O O O O O O O O O O O O O O O O O O O O O O     O O O O O O O O O O O O O O O O O O O O O O O O O O O O O O O O O O O O O O O O O O O O ",
"O O O O O O O O O O O O O O O O O O O O O O O O O O O O O O O O O O O O O O O O O O O O O O O O O O O O O O O O O O O O O O O O O O O O O O O O O O O O O O O O O O O O O O O O O O O O O O O O O O O O O O O O O O O O O O O O O O O O O O O O O O O O O O O O O O O O O O O O O O O O O O O O O O O O O O O O O O O O O O O O O O O O O O O O O O O O O O O O O O O O O O O O O O O O O O O O O O O O O O O O O O O O O O O O O O O O O O O O O O O O O O O O O O O O O O O O O O O O O O O O O O O O O O O O O O O O O O O O O O O O O O O O O O ",
"O O O O O O O O O O O O O O O O O O O O O O O O O O O O O O O O O O O O O O O O O O O O O O O O O O O O O O O O O O O O O O O O O O O O O O O O O O O O O O O O O O O O O O O O O O O O O O O O O O O O O O O O O O O O O O O O O O O O O O O O O O O O O O O O O O O O O O O O O O O O O O O O O O O O O O O O O O O O O O O O O O O O O O O O O O O O O O O O O O O O O O O O O O O O O O O O O O O O O O O O O O O O O O O O O O O O O O O O O O O O O O O O O O O O O O O O O O O O O O O O O O O O O O O O O O O O O O O O O O O O O O O   O   ",
"O O O O O O O O O O O O O O O O O O O O O O O O O O O O O O O O O O O O O O O O O O O O O O O O O O O O O O O O O O O O O O O O O O O O O O O O O O O O O O O O O O O O O O O O O O O O O O O O O O O O O O O O O O O O O O O O O O O O O O O O O O O O O O O O O O O O O O O O O O O O O O O O O O O O O O O O O O O O O O O O O O O O O O O O O O O O O O O O O O O O O O O O O O O O O O O O O O O O O O O O   O O O O O O O O O O O O O O O O O O O O O O O O O O O O O O O O O O O O O O O O O O O O O O O O O O O O O O O O O O O O O O   O O ",
"O O O O O O O O O O O O O O O O O O O O O O O O O O O O O O O O O O O O O O O O O O O O O O O O O O O O O O O O O O O O O O O O O O O O O O O O O O O O O O O O O O O O O O O O O O O O O O O O O O O O O O O O O O O O O O O O O O O O O O O O O O O O O O O O O O O O O O O O O O O O O O O O O O O O O O O O O O O O O O O O O O O O O O O O O O O O O O O O O O O O O O O O O O O O O O O O O O O O O O O O O O O O O O O O O O O O O O O O O O O   O O O O O O O O O O O O O O O O O O O O O O O O O O O O O O O O O     O O O     O O   O O O ",
"O O O O O O O O O O O O O O O O O O O O O O O O O O O O O O O O O O O O O O O O O O O O O O O O O O O O O O O O O O O O O O O O O O O O O O O O O O O O O O O O O O O O O O O O O O O O O O O O O O O O O O O O O O O O O O O O O O O O O O O O O O O O O O O O O O O O O O O O O O O O O O O O O O O O O O O O O O O O O O O O O O O O O O O O O O O O O O O O O O O O O O O O O O O O O O O O O O O O O O O O O O O O O O O O O O O O O O O O O O O O O O O O O O O O O O O O O O O O O O O O O O O O O O O O O O O O O O O O O O     O O O O O O ",
"O O O O O O O O O O O O O O O O O O O O O O O O O O O O O O O O O O O O O O O O O O O O O O O O O O O O O O O O O O O O O O O O O O O O O O O O O O O O O O O O O O O O O O O O O O O O O O O O O O O O O O O O O O O O O O O O O O O O O O O O O O O O O O O O O O O O O O O O O O O O O O O O O O O O O O O O O O O O O O O O O O O O O O O O O O O O O O O O O O O O O O O O O O O O O O O O O O O O O O O O O O O O O O O O O O O O O O O O O O O O O O O O O O O O O O O O O O O O O O O O O O O O O O O O O O O O O O O O O O O O O O O O O O ",
"O O O O O O O O O O O O O O O O O O O O O O O O O O O O O O O O O O O O O O O O O O O O O O O O O O O O O O O O O O O O O O O O O O O O O O O O O O O O O O O O O O O O O O O O O O O O O O O O O O O O O O O O O O O O O O O O O O O O O O O O O O O O O O O O O O O O O O O O O O O O O O O O O O O O O O O O O O O O O O O O O O O O O O O O O O O O O O O O O O O O O O O O O O O O O O O O O O O O O O O O O O O O O O O O O O O O O O O O O O O O O O O O O O O O O O O O O O O O O O O O O O O O O O O O O O O O O O O O O O O O O O O O O O ",
"O O O O O O O O O O O O O O O O O O O O O O O O O O O O O O O O O O O O O O O O O O O O O O O O O O O O O O O O O O O O O O O O O O O O O O O O O O O O O O O O O O O O O O O O O O O O O O O O O O O O O O O O O O O O O O O O O O O O O O O O O O O O O O O O O O O O O O O O O O O O O O O O O O O O O O O O O O O O O O O O O O O O O O O O O O O O O O O O O O O O O O O O O O O O O O O O O O O O O O O O O O O O O O O O O O O O O O O O O O O O O O O O O O O O O O O O O O O O O O O O O O O O O O     O O O O O O   O O O O O O O O O O O ",
"O O O O O O O O O O O O O O O O O O O O O O O O O O O O O O O O O O O O O O O O O O O O O O O O O O O O O O O O O O O O O O O O O O O O O O O O O O O O O O O O O O O O O O O O O O O O O O O O O O O O O O O O O O O O O O O O O O O O O O O O O O O O O O O O O O O O O O O O O O O O O O O O O O O O O O O O O O O O O O O O O O O O O O O O O O O O O O O O O O O O O O O O O O O O O O O O O O O O O O O O O O O O O O O O O O O O O O O O O O O O O O O O O O O O O O O O O O O O O O O O O O O O O O     O O O O O O O O O O O O O O O O O O ",
"O O O O O O O O O O O O O O O O O O O O O O O O O O O O O O O O O O O O O O O O O O O O O O O O O O O O O O O O O O O O O O O O O O O O O O O O O O O O O O O O O O O O O O O O O O O O O O O O O O O O O O O O O O O O O O O O O O O O O O O O O O O O O O O O O O O O O O O O O O O O O O O O O O O O O O O O O O O O O O O O O O O O O O O O O O O O O O O O O O O O O O O O O O O O O O O O O O O O O O O O O O O O O O O O O O O O O O O O O O O O O O O O O O O O O O O O O O O O O O O O O O O O O O O O O O O O O O O O O O O O O O O O O O ",
"O O O O O O O O O O O O O O O O O O O O O O O O O O O O O O O O O O O O O O O O O O O O O O O O O O O O O O O O O O O O O O O O O O O O O O O O O O O O O O O O O O O O O O O O O O O O O O O O O O O O O O O O O O O O O O O O O O O O O O O O O O O O O O O O O O O O O O O O O O O O O O O O O O O O O O O O O O O O O O O O O O O O O O O O O O O O O O O O O O O O O O O O O O O O O O O O O O O O O O O O O O O O O O O O O O O O O O O O O O O O O O O O O O O O O O O O O O O O O O O O O O O O O O O O O O O O O O O O O O O O O O O O O O ",
"O O O O O O O O O O O O O O O O O O O O O O O O O O O O O O O O O O O O O O O O O O O O O O O O O O O O O O O O O O O O O O O O O O O O O O O O O O O O O O O O O O O O O O O O O O O O O O O O O O O O O O O O O O O O O O O O O O O O O O O O O O O O O O O O O O O O O O O O O O O O O O O O O O O O O O O O O O O O O O O O O O O O O O O O O O O O O O O O O O O O O O O O O O O O O O O O O O O O O O O O O O O O O O O O O O O O O O O O O O O O O O O O O O O O O O O O O O O O O O O O O O O O O O O O O O O O O O   O O   O O O O O O O O ",
"O O O O O O O O O O O O O O O O O O O O O O O O O O O O O O O O O O O O O O O O O O O O O O O O O O O O O O O O O O O O O O O O O O O O O O O O O O O O O O O O O O O O O O O O O O O O O O O O O O O O O O O O O O O O O O O O O O O O O O O O O O O O O O O O O O O O O O O O O O O O O O O O O O O O O O O O O O O O O O O O O O O O O O O O O O O O O O O O O O O O O O O O O O O O O O O O O O O O O O O O O O O O O O O O O O O O O O O O O O O O O O O O O O O O O O O O O O O O O O O O O O O O O O O O O O O O O O O O O O O O O O O O O O ",
"O O O O O O O O O O O O O O O O O O O O O O O O O O O O O O O O O O O O O O O O O O O O O O O O O O O O O O O O O O O O O O O O O O O O O O O O O O O O O O O O O O O O O O O O O O O O O O O O O O O O O O O O O O O O O O O O O O O O O O O O O O O O O O O O O O O O O O O O O O O O O O O O O O O O O O O O O O O O O O O O O O O O O O O O O O O O O O O O O O O O O O O O O O O O O O O O O O O O O O O O O O O O O O O O O O O O O O O O O O O O O O O O O O O O O O O O O O O O O O O O O O O O O O O O O O O   O O O O     O O O O O O O O ",
"O O O O O O O O O O O O O O O O O O O O O O O O O O O O O O O O O O O O O O O O O O O O O O O O O O O O O O O O O O O O O O O O O O O O O O O O O O O O O O O O O O O O O O O O O O O O O O O O O O O O O O O O O O O O O O O O O O O O O O O O O O O O O O O O O O O O O O O O O O O O O O O O O O O O O O O O O O O O O O O O O O O O O O O O O O O O O O O O O O O O O O O O O O O O O O O O O O O O O O O O O O O O O O O O O O O O O O O O O O O O O O O O O O O O O O O O O O O O O O O O O O   O O O O   O O O   O O O O O   O O O O O O O O ",
"O O O O O O O O O O O O O O O O O O O O O O O O O O O O O O O O O O O O O O O O O O O O O O O O O O O O O O O O O O O O O O O O O O O O O O O O O O O O O O O O O O O O O O O O O O O O O O O O O O O O O O O O O O O O O O O O O O O O O O O O O O O O O O O O O O O O O O O O O O O O O O O O O O O O O O O O O O O O O O O O O O O O O O O O O O O O O O O O O O O O O O O O O O O O O O O O O O O O O O O O O O O O O O O O O O O O O O O O O O O O O O O O O O O O O O O O O O O O O O O O O O O O O O     O O O O   O O O O     O O O O O O O ",
"O O O O O O O O O O O O O O O O O O O O O O O O O O O O O O O O O O O O O O O O O O O O O O O O O O O O O O O O O O O O O O O O O O O O O O O O O O O O O O O O O O O O O O O O O O O O O O O O O O O O O O O O O O O O O O O O O O O O O O O O O O O O O O O O O O O O O O O O O O O O O O O O O O O O O O O O O O O O O O O O O O O O O O O O O O O O O O O O O O O O O O O O O O O O O O O O O O O O O O O O O O O O O O O O O O O O O O O O O O O O O O O O O O O O O O O O O O O O O O O O O O O O O O   O O O O O O O O O O O O O O O O O O O ",
"O O O O O O O O O O O O O O O O O O O O O O O O O O O O O O O O O O O O O O O O O O O O O O O O O O O O O O O O O O O O O O O O O O O O O O O O O O O O O O O O O O O O O O O O O O O O O O O O O O O O O O O O O O O O O O O O O O O O O O O O O O O O O O O O O O O O O O O O O O O O O O O O O O O O O O O O O O O O O O O O O O O O O O O O O O O O O O O O O O O O O O O O O O O O O O O O O O O O O O O O O O O O O O O O O O O O O O O O O O O O O O O O O O O O O O O O O O O O O O O O O O O O O O O O O O O O O O O O O O O O O O O O O O ",
"O O O O O O O O O O O O O O O O O O O O O O O O O O O O O O O O O O O O O O O O O O O O O O O O O O O O O O O O O O O O O O O O O O O O O O O O O O O O O O O O O O O O O O O O O O O O O O O O O O O O O O O O O O O O O O O O O O O O O O O O O O O O O O O O O O O O O O O O O O O O O O O O O O O O O O O O O O O O O O O O O O O O O O O O O O O O O O O O O O O O O O O O O O O O O O O O O O O O O O O O O O O O O O O O O O O O O O O O O O O O O O O O O O O O O O O O O O O O O O O O O O   O O O O O O O O O O O O O O O O O O O O O O O ",
"O O O O O O O O O O O O O O O O O O O O O O O O O O O O O O O O O O O O O O O O O O O O O O O O O O O O O O O O O O O O O O O O O O O O O O O O O O O O O O O O O O O O O O O O O O O O O O O O O O O O O O O O O O O O O O O O O O O O O O O O O O O O O O O O O O O O O O O O O O O O O O O O O O O O O O O O O O O O O O O O O O O O O O O O O O O O O O O O O O O O O O O O O O O O O O O O O O O O O O O O O O O O O O O O O O O O O O O O O O O O O O O O O O O O O O O O O O O O O O O O O O   O O O O O O O O O O O O O O O O O O O O O O O ",
"O O O O O O O O O O O O O O O O O O O O O O O O O O O O O O O O O O O O O O O O O O O O O O O O O O O O O O O O O O O O O O O O O O O O O O O O O O O O O O O O O O O O O O O O O O O O O O O O O O O O O O O O O O O O O O O O O O O O O O O O O O O O O O O O O O O O O O O O O O O O O O O O O O O O O O O O O O O O O O O O O O O O O O O O O O O O O O O O O O O O O O O O O O O O O O O O O O O O O O O O O O O O O O O O O O O O O O O O O O O O O O O O O O O O O O O O O O O O O O O O O O   O O O O     O     O O O O O O O O O O   O O O ",
"O O O O O O O O O O O O O O O O O O O O O O O O O O O O O O O O O O O O O O O O O O O O O O O O O O O O O O O O O O O O O O O O O O O O O O O O O O O O O O O O O O O O O O O O O O O O O O O O O O O O O O O O O O O O O O O O O O O O O O O O O O O O O O O O O O O O O O O O O O O O O O O O O O O O O O O O O O O O O O O O O O O O O O O O O O O O O O O O O O O O O O O O O O O O O O O O O O O O O O O O O O O O O O O O O O O O O O O O O O O O O O O O O O O O O O O O O O O O O O O O O O O O O O O O O   O O O O O O O O O O O O O O O O ",
"O O O O O O O O O O O O O O O O O O O O O O O O O O O O O O O O O O O O O O O O O O O O O O O O O O O O O O O O O O O O O O O O O O O O O O O O O O O O O O O O O O O O O O O O O O O O O O O O O O O O O O O O O O O O O O O O O O O O O O O O O O O O O O O O O O O O O O O O O O O O O O O O O O O O O O O O O O O O O O O O O O O O O O O O O O O O O O O O O O O O O O O O O O O O O O O O O O O O O O O O O O O O O O O O O O O O O O O O O O O O O O O O O O O O O O O O O O O O O O O O O O O O O O O O O O O O O O O O O O O O O O O O O O ",
"O O O O O O O O O O O O O O O O O O O O O O O O O O O O O O O O O O O O O O O O O O O O O O O O O O O O O O O O O O O O O O O O O O O O O O O O O O O O O O O O O O O O O O O O O O O O O O O O O O O O O O O O O O O O O O O O O O O O O O O O O O O O O O O O O O O O O O O O O O O O O O O O O O O O O O O O O O O O O O O O O O O O O O O O O O O O O O O O O O O O O O O O O O O O O O O O O O O O O O O O O O O O O O O O O O O O O O O O O O O O O O O O O O O O O O O O O O O O O O O O O O O O   O O O O O O O O O O O O O O O O O O O O O ",
"O O O O O O O O O O O O O O O O O O O O O O O O O O O O O O O O O O O O O O O O O O O O O O O O O O O O O O O O O O O O O O O O O O O O O O O O O O O O O O O O O O O O O O O O O O O O O O O O O O O O O O O O O O O O O O O O O O O O O O O O O O O O O O O O O O O O O O O O O O O O O O O O O O O O O O O O O O O O O O O O O O O O O O O O O O O O O O O O O O O O O O O O O O O O O O O O O O O O O O O O O O O O O O O O O O O O O O O O O O O O O O O O O O O O O O O O O O O O O O O O O O O O O O O O O O O O O O O O O O O O O O O O O O ",
"O O O O O O O O O O O O O O O O O O O O O O O O O O O O O O O O O O O O O O O O O O O O O O O O O O O O O O O O O O O O O O O O O O O O O O O O O O O O O O O O O O O O O O O O O O O O O O O O O O O O O O O O O O O O O O O O O O O O O O O O O O O O O O O O O O O O O O O O O O O O O O O O O O O O O O O O O O O O O O O O O O O O O O O O O O O O O O O O O O O O O O O O O O O O O O O O O O O O O O O O O O O O O O O O O O O O O O O O O O O O O O O O O O O O O O O O O O O O O O O O O O O O O O O O O O O O O O O O O O O O O O O O O O ",
"O O O O O O O O O O O O O O O O O O O O O O O O O O O O O O O O O O O O O O O O O O O O O O O O O O O O O O O O O O O O O O O O O O O O O O O O O O O O O O O O O O O O O O O O O O O O O O O O O O O O O O O O O O O O O O O O O O O O O O O O O O O O O O O O O O O O O O O O O O O O O O O O O O O O O O O O O O O O O O O O O O O O O O O O O O O O O O O O O O O O O O O O O O O O O O O O O O O O O O O O O O O O O O O O O O O O O O O O O O O O O O O O O O O O O O O O O O O O O O O O O O O O O O O O O O O O O O O O O O O O O O O O O O ",
"O O O O O O O O O O O O O O O O O O O O O O O O O O O O O O O O O O O O O O O O O O O O O O O O O O O O O O O O O O O O O O O O O O O O O O O O O O O O O O O O O O O O O O O O O O O O O O O O O O O O O O O O O O O O O O O O O O O O O O O O O O O O O O O O O O O O O O O O O O O O O O O O O O O O O O O O O O O O O O O O O O O O O O O O O O O O O O O O O O O O O O O O O O O O O O O O O O O O O O O O O O O O O O O O O O O O O O O O O O O O O O O O O O O O O O O O O O O O O O O O O O O O O O   O O O O O O O O O O O O O O O O O O O ",
"O O O O O O O O O O O O O O O O O O O O O O O O O O O O O O O O O O O O O O O O O O O O O O O O O O O O O O O O O O O O O O O O O O O O O O O O O O O O O O O O O O O O O O O O O O O O O O O O O O O O O O O O O O O O O O O O O O O O O O O O O O O O O O O O O O O O O O O O O O O O O O O O O O O O O O O O O O O O O O O O O O O O O O O O O O O O O O O O O O O O O O O O O O O O O O O O O O O O O O O O O O O O O O O O O O O O O O O O O O O O O O O O O O O O O O O O O O O O O O O O O O O O O O O O O O O O O O O O O O O O O O O O O O ",
"O O O O O O O O O O O O O O O O O O O O O O O O O O O O O O O O O O O O O O O O O O O O O O O O O O O O O O O O O O O O O O O O O O O O O O O O O O O O O O O O O O O O O O O O O O O O O O O O O O O O O O O O O O O O O O O O O O O O O O O O O O O O O O O O O O O O O O O O O O O O O O O O O O O O O O O O O O O O O O O O O O O O O O O O O O O O O O O O O O O O O O O O O O O O O O O O O O O O O O O O O O O O O O O O O O O O O O O O O O O O O O O O O O O O O O O O O O O O O O O O O O O O O O O O O O O O O O O O O O O O O O O O O O ",
"O O O O O O O O O O O O O O O O O O O O O O O O O O O O O O O O O O O O O O O O O O O O O O O O O O O O O O O O O O O O O O O O O O O O O O O O O O O O O O O O O O O O O O O O O O O O O O O O O O O O O O O O O O O O O O O O O O O O O O O O O O O O O O O O O O O O O O O O O O O O O O O O O O O O O O O O O O O O O O O O O O O O O O O O O O O O O O O O O O O O O O O O O O O O O O O O O O O O O O O O O O O O O O O O O O O O O O O O O O O O O O O O O O O O O O O O O O O O O O O O O O O O O O O O O O O O O O O O O O O O O O O O O O ",
"O O O O O O O O O O O O O O O O O O O O O O O O O O O O O O O O O O O O O O O O O O O O O O O O O O O O O O O O O O O O O O O O O O O O O O O O O O O O O O O O O O O O O O O O O O O O O O O O O O O O O O O O O O O O O O O O O O O O O O O O O O O O O O O O O O O O O O O O O O O O O O O O O O O O O O O O O O O O O O O O O O O O O O O O O O O O O O O O O O O O O O O O O O O O O O O O O O O O O O O O O O O O O O O O O O O O O O O O O O O O O O O O O O O O O O O O O O O O O O O O O O O O O O O O O O O O O O O O O O O O O O O O O O ",
"O O O O O O O O O O O O O O O O O O O O O O O O O O O O O O O O O O O O O O O O O O O O O O O O O O O O O O O O O O O O O O O O O O O O O O O O O O O O O O O O O O O O O O O O O O O O O O O O O O O O O O O O O O O O O O O O O O O O O O O O O O O O O O O O O O O O O O O O O O O O O O O O O O O O O O O O O O O O O O O O O O O O O O O O O O O O O O O O O O O O O O O O O O O O O O O O O O O O O O O O O O O O O O O O O O O O O O O O O O O O O O O O O O O O O O O O O O O O O O O O O O O O O O O O O O O O O O O O O O O O O O O O O O ",
"O O O O O O O O O O O O O O O O O O O O O O O O O O O O O O O O O O O O O O O O O O O O O O O O O O O O O O O O O O O O O O O O @                     @ O O O O O O O O O @   O O O O O O O O O O O O O O O O O O O O O O O O O O O O O O O O O O O O O O O O O O O O O O O O O O O O O O O O O O O O O O O O O O O O O O O O O O O O O O O O O O O O O O O O O O O O O O O O O O O O O O O O O O O O O O O O O O O O O O O O O O O O O O O O O O O O O O O O O O O O O O O O O O O O O O O O O O O O O O O O O O O O O O O O O O O O O O O O O O O ",
"O O O O O O O O O O O O O O O O O O O O O O O O O O O O O O O O O O O O O O O O O O O O O O O O O O O O O O O O O O O O O O O O   2XtXtXtXtXtXtXtXtXtX  O O O O O O O O O   '.K.V.H.V.V.P.V.;.K.P.  O O O O O O O O O O O O O O O O O O O O O O O O O O O O O O O O O O O O O O O O O O O O O O O O O O O O O O O O O O O O O O O O O O O O O O O O O O O O O O O O O O O O O O O O O O O O O O O O O O O O O O O O O O O O O O O O O O O O O O O O O O O O O O O O O O O O O O O O O O O O O O O O O O O O O O O O O O O O O O O O O O O O O O O O ",
"O O O O O O O O O O O O O O O O O O O O O O O O O O O O O O O O O O O O O O O O O O O O O O O O O O O O O O O O O O O O O O O   >.tX# { { { { { { E '.9X  O O O O O O O   2X#.Y.E.$.P.E.2 (._.{ (.@ O O O O O O O O O O O O O O O O O O O O O O O O O O O O O O O O O O O O O O O O O O O O O O O O O O O O O O O O O O O O O O O O O O O O O O O O O O O O O O O O O O O O O O O O O O O O O O O O O O O O O O O O O O O O O O O O O O O O O O O O O O O O O O O O O O O O O O O O O O O O O O O O O O O O O O O O O O O O O O O O O O O O O O O O ",
"O O O O O O O O O O O O O O O O O O O O O O O O O O O O O O O O O O O O O O O O O O O O O O O O O O O O O O O O O O O O     U >.@   7 O @ 2 2 2 @ @   7 8 V.    O O O   2X;.  `.`.;.(.`.} `.7X$.7X@ O O O O O O O O O O O O O O O O O O O O O O O O O O O O O O O O O O O O O O O O O O O O O O O O O O O O O O O O O O O O O O O O O O O O O O O O O O O O O O O O O O O O O O O O O O O O O O O O O O O O O O O O O O O O O O O O O O O O O O O O O O O O O O O O O O O O O O O O O O O O O O O O O O O O O O O O O O O O O O O O O O O O O O O O ",
"O O O O O O O O O O O O O O O O O O O O O O O O O O O O O O O O O O O O O O O O O O O O O O O O O O O O O O O O O O   2 (.).(.Z.*.-.*.{ w q q q Y $.-.;.$.E.).`.#.    _.;.  O 0 ` ` U Y U 7 0 @ @ O O O O O O O O O O O O O O O O O O O O O O O O O O O O O O O O O O O O O O O O O O O O O O O O O O O O O O O O O O O O O O O O O O O O O O O O O O O O O O O O O O O O O O O O O O O O O O O O O O O O O O O O O O O O O O O O O O O O O O O O O O O O O O O O O O O O O O O O O O O O O O O O O O O O O O O O O O O O O O O O O O O O O O O O O ",
"O O O O O O O O O O O O O O O O O O O O O O O O O O O O O O O O O O O O O O O O O O O O O O O O O O O O O O O O   U '.).-.` ] @   0 Y V.P.L.K.T.P.{ 0   O U ] { E.'.T.  O O   7X9X9X9X7X_.T.E.{ -.O O O O O O O O O O O O O O O O O O O O O O O O O O O O O O O O O O O O O O O O O O O O O O O O O O O O O O O O O O O O O O O O O O O O O O O O O O O O O O O O O O O O O O O O O O O O O O O O O O O O O O O O O O O O O O O O O O O O O O O O O O O O O O O O O O O O O O O O O O O O O O O O O O O O O O O O O O O O O O O O O O O O O O O O O ",
"O O O O O O O O O O O O O O O O O O O O O O O O O O O O O O O O O O O O O O O O O O O O O O O O O O O O O O O @ 2X(.] #.@ O -.E.E.P.[ 7 @ @ @ 7 0 #.T.(.).K.0   [ ] K.2X$.  O $.$.$.{ w w @ 2 7 7 O O O O O O O O O O O O O O O O O O O O O O O O O O O O O O O O O O O O O O O O O O O O O O O O O O O O O O O O O O O O O O O O O O O O O O O O O O O O O O O O O O O O O O O O O O O O O O O O O O O O O O O O O O O O O O O O O O O O O O O O O O O O O O O O O O O O O O O O O O O O O O O O O O O O O O O O O O O O O O O O O O O O O O O O O ",
"O O O O O O O O O O O O O O O O O O O O O O O O O O O O O O O O O O O O O O O O O O O O O O O O O O O O O   T.'.] -.O 7 ).(.` O   @ O   O O 2 O q 7 #.7 w { (._.#.  ] ] T.2X  O O O O O O O O O O O O O O O O O O O O O O O O O O O O O O O O O O O O O O O O O O O O O O O O O O O O O O O O O O O O O O O O O O O O O O O O O O O O O O O O O O O O O O O O O O O O O O O O O O O O O O O O O O O O O O O O O O O O O O O O O O O O O O O O O O O O O O O O O O O O O O O O O O O O O O O O O O O O O O O O O O O O O O O O O O O O O O O O O O O ",
"O O O O O O O O O O O O O O O O O O O O O O O O O O O O O O O O O O O O O O O O O O O O O O O O O O   O   6XV.*.7 @ _.T.O   O   O   0 0 q q U ` ] *.w U { { :.3 P.2X#.  -.` 6X` O O   O O O O O O O O O O O O O O O O O O O O O O O O O O O O O O O O O O O O O O O O O O O O O O O O O O O O O O O O O O O O O O O O O O O O O O O O O O O O O O O O O O O O O O O O O O O O O O O O O O O O O O O O O O O O O O O O O O O O O O O O O O O O O O O O O O O O O O O O O O O O O O O O O O O O O O O O O O O O O O O O O O O O O O O O O O O O   O O ",
"O O O O O O O O O O O O O O O O O O O O O O O O O O O O O O O O O O O O O O O O O O O O O O O O O U ] @ 6XU #.  E.).    q   @ 7 U q 0 0 0 0 q ` ] { *.V.{ { { { *.# E.2X@ 0 [ (.K.  K.  O O O O O O O O O O O O O O O O O O O O O O O O O O O O O O O O O O O O O O O O O O O O O O O O O O O O O O O O O O O O O O O O O O O O O O O O O O O O O O O O O O O O O O O O O O O O O O O O O O O O O O O O O O O O O O O O O O O O O O O O O O O O O O O O O O O O O O O O O O O O O O O O O O O O O O O O O O O O O O O O O O O O O O O O O O O O O O ",
"O O O O O O O O O O O O O O O O O O O O O O O O O O O O O O O O O O O O O O O O O O O O O O O O   6X2 6XU 0 *.9X0   0   @ 0 0 0 0 0 2 2 7 q U ` ` ] *.-.-.] { { { $.{ 3 6X'.  #.T.K.'.w   O O O O O O O O O O O O O O O O O O O O O O O O O O O O O O O O O O O O O O O O O O O O O O O O O O O O O O O O O O O O O O O O O O O O O O O O O O O O O O O O O O O O O O O O O O O O O O O O O O O O O O O O O O O O O O O O O O O O O O O O O O O O O O O O O O O O O O O O O O O O O O O O O O O O O O O O O O O O O O O O O O O O O O O O O O O O O ",
"O O O O O O O O O O O O O O O O O O O O O O O O O O O O O O O O O O O O O O O O O O O O O O O O O @ 6X` 2 E.6X  0   @ U q q 0 7 ` [ -.-.#.#.#.-.K.T.P.P.;.Y { { { { { V.8 T.8X  -.K.K.  O O O O O O O O O O O O O O O O O O O O O O O O O O O O O O O O O O O O O O O O O O O O O O O O O O O O O O O O O O O O O O O O O O O O O O O O O O O O O O O O O O O O O O O O O O O O O O O O O O O O O O O O O O O O O O O O O O O O O O O O O O O O O O O O O O O O O O O O O O O O O O O O O O O O O O O O O O O O O O O O O O O O O O O O O O   O O O ",
"O O O O O O O O O O O O O O O O O O O O O O O O O O O O O O O O O O O O O O O O O O O O O O O O   6X` 2 _.).  0   U U q 0 0 *.-.*.q 7 0 q U ` [ [ #.;.K.E.:.#.Y { { $.{ $.-.;.8XO -.T.V.O O O O O O O O O O O O O O O O O O O O O O O O O O O O O O O O O O O O O O O O O O O O O O O O O O O O O O O O O O O O O O O O O O O O O O O O O O O O O O O O O O O O O O O O O O O O O O O O O O O O O O O O O O O O O O O O O O O O O O O O O O O O O O O O O O O O O O O O O O O O O O O O O O O O O O O O O O O O O O O O O O O O O O O O O O   O O O ",
"O O O O O O O O O O O O O O O O O O O O O O O O O O O O O O O O O O O O O O O O O O O O O O O   6Xw 7 (._.    O ` U U 7 :.:.q 0 q U U U q ` ] [ *.:.V.P.V.{ ;.P.{ { $.$.$.{ -.;.8X  #._.q O O O O O O O O O O O O O O O O O O O O O O O O O O O O O O O O O O O O O O O O O O O O O O O O O O O O O O O O O O O O O O O O O O O O O O O O O O O O O O O O O O O O O O O O O O O O O O O O O O O O O O O O O O O O O O O O O O O O O O O O O O O O O O O O O O O O O O O O O O O O O O O O O O O O O O O O O O O O O O O O O O O O O O O O O   O O O ",
"O O O O O O O O O O O O O O O O O O O O O O O O O O O O O O O O O O O O O O O O O O O O O O   ).#.] Z.'.  O O q 7 @ 7 -.7 @ 7 7 7 @ @ 7 U ` [ #.#.{ { ;.:.$.{ ` H.P.{ $.$.;.:.#.V.6XO ] 6X  O O O O O O O O O O O O O O O O O O O O O O O O O O O O O O O O O O O O O O O O O O O O O O O O O O O O O O O O O O O O O O O O O O O O O O O O O O O O O O O O O O O O O O O O O O O O O O O O O O O O O O O O O O O O O O O O O O O O O O O O O O O O O O O O O O O O O O O O O O O O O O O O O O O O O O O O O O O O O O O O O O O O O O O O   O O O ",
"O O O O O O O O O O O O O O O O O O O O O O O O O O O O O O O O O O O O O O O O O O O O O O ` ).-.2 8X  O O q 0 @ ] *.@ 0 0 0 @ ` *.#.#.` U ] #.V.L.T.P.;.Y { { { $.E.{ ;.*.-.*.-.).E.q ] '.  O O O O O O O O O O O O O O O O O O O O O O O O O O O O O O O O O O O O O O O O O O O O O O O O O O O O O O O O O O O O O O O O O O O O O O O O O O O O O O O O O O O O O O O O O O O O O O O O O O O O O O O O O O O O O O O O O O O O O O O O O O O O O O O O O O O O O O O O O O O O O O O O O O O O O O O O O O O O O O O O O O O O O O O   O O O ",
"O O O O O O O O O O O O O O O O O O O O O O O O O O O O O O O O O O O O O O O O O O O O O   2X] O '.@ O   ] U 0 -.[ 0 U ` 7 *.V.[ 0 q q U ] ` *.-.:.:.P.E.V.{ { -.$.] E.{ ;.-.H.*.` 8XO -.(.U O O O O O O O O O O O O O O O O O O O O O O O O O O O O O O O O O O O O O O O O O O O O O O O O O O O O O O O O O O O O O O O O O O O O O O O O O O O O O O O O O O O O O O O O O O O O O O O O O O O O O O O O O O O O   O O O O O O O O O O O O O O O O O O O O O O O O O O O O O O O O O O O O O O O O O O O O O O O O O O O O O O O O O O O O O O ",
"O O O O O O O O O O O O O O O O O O O O O O O O O O O O O O O O O O O O O O O O O O O O O K.K.#.` H.O   ` q 0 *.] 0 U U 0 H.] 7 U U U q ` O O @ V.H.V.P.Y { P.;.] ;.;.{ E.$.*.E.:.P.*._.O ` 2X  O O O O O O O O O O O O O O O O O O O O O O O O O O O O O O O O O O O O O O O O O O O O O O O O O O O O O O O O O O O O O O O O O O O O O O O O O O O O O O O O O O O O O O O O O O O O O O O O O O O O O O O O O O O O O O O O O O O O O O O O O O O O O O O O O O O O O O O O O O O O O O O O O O O O O O O O O O O O O O O O O O O O O O O O O O ",
"O O O O O O O O O O O O O O O O O O O O O O O O O O O O O O O O O O O O O O O O O O O O   '.]   _.  O 2 0 0 ` [ 7 0 7 0 V.@ 0 0 0 @ 0 [ U q ` { *.$.*.V.{ { { V.P.{ *.;.$.E.;.L.T.-.K.'.0 *.E.$.O O O O O O O O O O O O O O O O O O O O O O O O O O O O O O O O O O O O O O O O O O O O O O O O O O O O O O O O O O O O O O O O O O O O O O O O O O O O O O O O O O O O O O O O O O O O O O O O O O O O O O O O O O O O O O O O O O O O O O O O O O O O O O O O O O O O O O O O O O O O O O O O O O O O O O O O O O O O O O O O O O O O O O O O O O ",
"O O O O O O O O O O O O O O O O O O O O O O O O O O O O O O O O O O O O O O O O O O O O V.T.] :.] O O q 0 7 :.@ 0 7 U -.@ 0 0 @ ` -.[ @     O 7 ` ;.P.K.` { $.$.;.E.$.;.:.T.E.T.T.L.K.#.'.O ` '.  O O O O O O O O O O O O O O O O O O O O O O O O O O O O O O O O O O O O O O O O O O O O O O O O O O O O O O O O O O O O O O O O O O O O O O O O O O O O O O O O O O O O O O O O O O O O O O O O O O O O O O O O O O O O O O O O O O O O O O O O O O O O O O O O O O O O O O O O O O O O O O O O O O O O O O O O O O O O O O O O O O O O O O O O O ",
"O O O O O O O O O O O O O O O O O O O O O O O O O O O O O O O O O O O O O O O O O O @   2XY   _.  O   0 2 :.2 q 0 0 :.@ 0 0 @ H.[ O         @ 0 { { Y { L.;.{ ;.*.;.E.;.E.L._.T.E.E.V.T.2X7 #._.7 O O O O O O O O O O O O O O O O O O O O O O O O O O O O O O O O O O O O O O O O O O O O O O O O O O O O O O O O O O O O O O O O O O O O O O O O O O O O O O O O O O O O O O O O O O O O O O O O O O O O O O O O O O O O O O O O O O O O O O O O O O O O O O O O O O O O O O O O O O O O O O O O O O O O O O O O O O O O O O O O O O O O O O O O O ",
"O O O O O O O O O O O O O O O O O O O O O O O O O O O O O O O O O O O O O O O O O O   8X).#.` :.      0 ` #.q q 7 H.2 q q 0 T.@             O 7 ` { { { { P.P.#.*.P.(.(.E.E.T._.E.(.E.K.V._.@ w tX  O O O O O O O O O O O O O O O O O O O O O O O O O O O O O O O O O O O O O O O O O O O O O O O O O O O O O O O O O O O O O O O O O O O O O O O O O O O O O O O O O O O O O O O O O O O O O O O O O O O O O O O O O O O O O O O O O O O O O O O O O O O O O O O O O O O O O O O O O O O O O O O O O O O O O O O O O O O O O O O O O O O O O O O O ",
"O O O O O O O O O O O O O O O O O O O O O O O O O O O O O O O O O O O O O O O O O O   rXw 7 E.O @   @ q :.7 q 0 -.q U U 0 :.        O U ` q ` -.V.;.Y $.{ *.V.H.T.T.L._.T.E.E._.(.(.).K.E.6X  w rX7 O O O O O O O O O O O O O O O O O O O O O O O O O O O O O O O O O O O O O O O O O O O O O O O O O O O O O O O O O O O O O O O O O O O O O O O O O O O O O O O O O O O O O O O O O O O O O O O O O O O O O O O O O O O O O O O O O O O O O O O O O O O O O O O O O O O O O O O O O O O O O O O O O O O O O O O O O O O O O O O O O O O O O O O O ",
"O O O O O O O O O O O O O O O O O O O O O O O O O O O O O O O O O O O O O O O O O O   _.w   (.      q 0 #.0 0 7 *.7 0 @ V.        ` ` O     @ q ` ;.T.{ $.*.#.).T.T.E.E._.E.(.E._.(.).E.L.'.] #.(.U O O O O O O O O O O O O       O O O O O O       O O O O O O O       O O O O O O     O O O O O     O O O O       O O O O O     O O O O O O       O O O O O O O O O O       O O O O O   O O O O   O O O O   O O O O O     O O O O O O O     O O O O O O O O O O O O O O O O O O O O O O O O O O O O O O O O O O O O O O O O O O O O O O O O O O O ",
"O O O O O O O O O O O O O O O O O O O O O O O O O O O O O O O O O O O O O O O O O O   Y #.q *.7   0 7 [ 0 0 7 #.7 0 0 [ 0       *.@         2 ` { { ` E.*.-.:.V._.K.E.T._.E.(.E._.E.(.(.(.(.E.7 V.2 O O O O O O O O O O O   @XpX=XO O O O O + &XpX%X  O O O 3 #   &XpX4.  O O O <.<.<.<.O O O e   yX;X  O @   F.iXuX1.  O O O E y O O O O O   oXpX&XO O O O O O O O O   }.pX;X8   O O O 1.O O O e <.O O O r y   O O } <.<.<.  O O O @   5.pXuX<.  O O O O O O O O O O O O O O O O O O O O O O O O O O O O O O O O O O O O O O O O O O O O O O O O O ",
"O O O O O O O O O O O O O O O O O O O O O O O O O O O O O O O O O O O O O O O O O O O @ ] V.q   @ 0 @ *.@ 0 @ *.@ 0 @ -.@     [ O           O w { { $.` (.-.V.T.(.).E.(.)._.).)._._.'._.E.L.'.O $.  O O O O O O O O O O   SXLXfXZXIX8 O O 8 IXGXhXGXIX# O   5.NXZXSXhXIX|.  O   IXIXIXIX  O # JXjXBXGXZX    hXIXjXlXIX;X  O   ZXlX  O O O   GXLXpXSXIXO O O O O O O   BXLXfXBXIXy O   <.IX# O   uXLX  O   nXBX  O   HXIXPXIXIX<.O O   pXIXhXzXIX{.  O O O O O O O O O O O O O O O O O O O O O O O O O O O O O O O O O O O O O O O O O O O O O O O O ",
"O O O O O O O O O O O O O O O O O O O O O O O O O O O O O O O O O O O O O O O O O O O ` 7 Y.  @ q U q -.q U ] #.U U #.] ` @ 2 0         U E._.E.{ { $.P.*.(.T.).E.'.(._._.2X_._.'.2X_.'.(._.6X  ;.  O O O O O O O O O   [.IX      GXpX    pXSX      HXyX  O } IX0X    ;XHX  O   IX1.    O O + LXnX  e IXO # IX1.    [.IX+ O   BXfX  O O   {.IX      HX0X  O O O O   <.IX#     NXzX    <.IX# O   ;XGX  O   lXzX  O   GXoX    pXLX  O O IX4.    ;XJX  O O O O O O O O O O O O O O O O O O O O O O O O O O O O O O O O O O O O O O O O O O O O O O O O ",
"O O O O O O O O O O O O O O O O O O O O O O O O O O O O O O O O O O O O O O O O O O O { O E.    U U ] #.U q *.` U 0 -.0 ` 7 `         [ ).:.T.2X6X{ :.:.P.E.(._._.'._._._.2X_.2X_.6X'.'._.(.6X@ #.  O O O O O O O O O   {.LX  O   BXlX    hXNX  O   BXpX  O <.IXO O   @XJX  O   IX5.O O O O + IXF.  y IX# e IXE     <.IXO O   BXfX  O O   }.LX  O   SXiX  O O O O   1.IX+ O   jXBX    <.IX# O   ;XGX  O   kXzX  O   GX=X    5.IX  O # IX<.O   {.LX  O O O O O O O O O O O O O O O O O O O O O O O O O O O O O O O O O O O O O O O O O O O O O O O O ",
"O O O O O O O O O O O O O O O O O O O O O O O O O O O O O O O O O O O O O O O O O O   ;.  P.O   0 7 ` q 7 2 #.2 7 @ #.2 7 0 0       O E.[ '.6X).).'.V.T.T.E._.)._.'.'._._.2X_._._.6X_.'._._.6X7 ;.  O O O O O O O O O   {.LX  O   hXyX    hXNX  O   BXpX  O <.IX8 O   @XJX  O   IXF.O O O O O IX4.  O O O e IX<.  O 1.IXO O   BXhX  O O O # IX%X    0X{.  O O O O   1.IX+ O O     O   <.IX# O   ;XGX  O   lXzX  O   GX=X    [.IX  O O IX<.    }.LX  O O O O O O O O O O O O O O O O O O O O O O O O O O O O O O O O O O O O O O O O O O O O O O O O ",
"O O O O O O O O O O O O O O O O O O O O O O O O O O O O O O O O O O O O O O O O O O   ;.  Y.  O 0 7 ] 0 0 @ [ @ 0 7 ] 7 7 U 0       #.0 _.@ #.K.E.8XE.(.).(.'.'.'.'.2X'.'.6X'.'.'.6X'.2X'._.6XE $.O O O O O O O O O O   {.LX  O @     @   hXNX  O   BXpX    <.IX8 O   @XJX  O   IXF.O O O O O IX4.  O O O e IX<.O O 1.IXO O   BXhX  O O O   5.IX@X      O O O O O   1.IX+         O   <.IX# O   ;XGX  O   kXzX  O   GX=X    [.IX  O O IX5.r r oXLX  O O O O O O O O O O O O O O O O O O O O O O O O O O O O O O O O O O O O O O O O O O O O O O O O ",
"O O O O O O O O O O O O O O O O O O O O O O O O O O O O O O O O O O O O O O O O O O   ;.  Y.0   ` q *.U U 0 *.0 U U *.q q #.#.O     ` ] ` 2 _.rX8X9X6X'.'._.6X6X6X6X6X6X6X6X6X6X2X6X2X6X2X'.8X{ $.@ O O O O O O O O O   {.LX  O O O O O   hXNX  O   BXpX  O <.IX8 O   @XJX  O   IX5.O O O O + IX4.  O O O e IX<.O O 1.IXO O   BXfX  O O O O   5.IX&X  @ O O O O O   1.IX  oXpXyX|.    <.IX# O   ;XGX  O   lXzX  O   GX=X    [.IX  O O IXIXIXIXIXGX  O O O O O O   O O O O O O O O O O O O O O O O O O O O O O O O O O O O O O O O O O O O O O O O O ",
"O O O O O O O O O O O O O O O O O O O O O O O O O O O O O O O O O O O O O O O O O O   ;.  Y.    U q #.q q 0 *.7 q 0 #.0 q [ U   O q -.] E.[ q #.'.tXrX6X6X6X6X2X6X6X6X6X6X6X6X6X6X6X6X6X2X'.8XY $.O O O O O O O O O O   {.LX  O O O O O   hXNX  O   BXpX  O <.IX8 O   @XJX  O   IX5.O     O O IX4.  O O O e IX<.O O 1.IXO O   BXfX  O O O       5.IXyX  O O O O O   1.IXO =XjXJXNX    <.IX# O   ;XGX  O   lXzX  O   GX=X    [.IX  O O IX<.        O O O O O O O O O O O O O O O O O O O O O O O O O O O O O O O O O O O O O O O O O O O O O O O O O ",
"O O O O O O O O O O O O O O O O O O O O O O O O O O O O O O O O O O O O O O O O O O   ;.  P.    U q [ ` U 0 -.0 q 0 *.0 U 0 7 @ [ q q -.:.L.:.V.0 O q '.9XrX9X6X6X6X6X8X6X8X6X9X2X8X6X6X2X6X8X0 ;.O O O O O O O O O O   {.LX  O @     @   hXNX  O   BXpX    <.IX8 O   @XJX  O   IX5.  zX=X  + IX4.  O O O 8 IX} O   1.IXO O   BXfX  O O   r |.    5.IXF.  O O O O   1.IX+     hXMX    <.IX# O   ;XGX  O   lXzX  O   GX=X    [.IX  O # IX1.  O     O O O O O O O O O O O O O O O O O O O O O O O O O O O O O O O O O O O O O O O O O O O O O O O O O ",
"O O O O O O O O O O O O O O O O O O O O O O O O O O O O O O O O O O O O O O O O O O O $.O E.    0 0 U ` 0 7 [ 0 0 2 #.@ 0   ` 2 7 0 7 2 ` 0 q 0 0         :.6XrX9X8X6X8X8X8X6X6X6X8X6X6X6X2X9XO *.  O O O O O O O O O   {.LX  O   MXhX    hXNX  O   BXpX    <.IX8 O   @XJX  O   IX5.  SXpX  + IX4.  O O O e IX}     ,.IXO O   BXfX  O O   |.IX  O   lXNX  O O O O   1.IX+ O   hXnX    <.IX# O   %XGX  O   lXzX  O   GX=X    5.IXO O # IX<.    {.GX  O O O O O O O O O O O O O O O O O O O O O O O O O O O O O O O O O O O O   O O O O O O O O O O O ",
"O O O O O O O O O O O O O O O O O O O O O O O O O O O O O O O O O O O O O O O O O O O ] @ E.  O 7 0 0 #.7 0 ` ` 0 0 [ q 7   0 ` 0 7       O               ]   @ T.9XrX9X8X9X8X8X8X8X9X6X6X6X9X  -.  O O O O O O O O O   [.IX  O   BXjX    fXZX  O   ZXiX    <.IX8 O   @XJX  O   IX4.  VXpX  + IX4.  O O O # IXr     1.IX+ O   BXiX        }.PX      hXBX  O O O O   1.IX      JXzX    <.IX+ O   BXAX  O   lXzX  O   GXoX    =XLX  O O IX<.    |.LX  O O O O O O O O O O O O O O O O O O O O O O   O O O O O O O O O O O O O O O O O O O O O O O O O ",
"O O O O O O O O O O O O O O O O O O O O O O O O O O O O O O O O O O O O O O O O O O O 2 ] V.0   7 U 7 -.0 q 0 -.0 q 0 :.@     K.7 U                     [ O ` ` q U 0 ).9XtX9X9X9X9X8X8X6X6X6X  ;.  O O O O O O O O O O + IXNX|.pXIX<.  O <.IXjX|.jXIXy O   <.IXe     =XLX  O   SXSX|.IX5.O + IX5.  O O O   BXKXoX@XLXzX      ZXLXBXZXNX  # IXNX|.yXIXW.  O O O O O   IXzX}.JXzXSX  O   LXNX{.SXzXLX  O   zXBX  O   HXHXBXSXIX|.  O   NXLXoX%XIXyX  O O O O O O O O O O O O O O O O O O O O O O O O O O O O O O O O O O O O O O O O O O O O O O   O ",
"O O O O O O O O O O O O O O O O O O O O O O O O O O O O O O O O O O O O O O O O O O   w $.` { 0 O U 0 -.0 q 0 -.0 q 0 :.O     0 K.7 q 0 U U U `       ` @ 0 U   [   ` @ 0 ] 2XrXrX9X9X8X8X8X_.2 ;.O O O O O O O O O O O O > jXZXzX<.  O O   <.zXZXlXy   O O # ;XO O   <.@X  O O   hXAX}.  O   =Xr O O O O o   <XVXBX=X  o     [.@X%X@X@X    e jXZXNX5.      O O O O O 8 zXZX|.  {.  O O # zXAX=X  [.  O   [.[.  O   }.@X%X%Xy   O O O   ;XZXBX@X  O O O O O O O O O O O O O O O O O O O O O O O O O O O O O O O O O O O O O O O O O O O O O O O O O ",
"O O O O O O O O O O O O O O O O O O O O O O O O O O O O O O O O O O O O O O O O O O   (.w O E.    ` q ` *.q q U -.q ` O #.    ` 0 V.#.0 0 q q O   @ #.@       0 7   7 U -.0 @ O E.6XrXrX8XrX{ [ E.U O O O O O O O O O O O O         O O O O         O O O         O O     @ O O X       X O O     O O O     O                           X             X           O O         @   O O O O       O   O O O     O O O         O O O O O O         O O O O O O O O O O O O O O O O O O O O O O O O O O O O O O O O O O O O O O O O O O O O O O O O O O ",
"O O O O O O O O O O O O O O O O O O O O O O O O O O O O O O O O O O O O O O O O O O   rXw @ (.  7 7 0 @ -.@ 0 @ -.@ 0   @ ] @ 0 0 @ U #.*.*.2 q ` q         @ ]       *.@ 0 7 [ 0   7 K.8XrX  U 9X7 O O O O O O O O O O O O O O O O O   O O O O O O O O O                 O O                                                                       O                   O O O O O O O O O O O O O O O O O O O O O O O O O O O O O O O O O O O O O O O O O O O O O O O O O O O O O O O O O O O O O O O O O O O O O O O O O O O O O O O O O O O O   O ",
"O O O O O O O O O O O O O O O O O O O O O O O O O O O O O O O O O O O O O O O O O O   9XE.#.#.#.  O 0 7 ` ` 7 0 @ :.@     @ -.O 0 7 0 @ @ @ O O           7 ]     @ ` ` 7 7 @ -.@ 0 7     E.@ 8 tX  O O O O O O O O O O O O O                     O O O                 X X X                       X X                                           O O                     O O O O O O O O O O O O O O O O O O O O O O O O O O O O O O O O O O O O O O O O O O O O O O O O O O O O O O O O O O O O O O O O O O O O O O O O O O O O O O O O O O O O O ",
"O O O O O O O O O O O O O O O O O O O O O O O O O O O O O O O O O O O O O O O O O O @   2XY   _.    q q 7 Z.7 U q ` -.      7 H.` 7 U U U O             ] 0       O ] @ U 0 -.U U ` O @ *.] #.(.] O O O O O O O O O O O O                         X @                   X X X                   X X X X                                         O O O                     O O O O O O O O O O O O O O O O O O O O O O O O O O O O O O O O O O O O O O O O O O O O O O O O O O O O O O O O O O O O O O O O O O O O O O O O O O O O O O O O O O O O O ",
"O O O O O O O O O O O O O O O O O O O O O O O O O O O O O O O O O O O O O O O O O O O O T.K.` P.q   @ ` U U V.0 q 0 #.0     0 7 *.V.[ q q O   @ q [ [ [ @       O [ 0 q U q :.0 q 0     '.  ] `.  O O O O O O     O O O                           X @ O                   X                                                         . .           O O                       X       O O O O O O O O O O O O O O O O O O O O O O O O O O O O O O O O O O O O O O O O O O O O O O O O O O O O O O O O O O O O O O O O O O O O O O O O O O O O O O O O ",
"O O O O O O O O O O O O O O O O O O O O O O O O O O O O O O O O O O O O O O O O O O O O O `.[   _.    0 q 0 #.] 0 U   0 ]   7 q 0 7 ` #.:.#.7 V.-.` U 0 U 0 0 @ [   U q @ H.2 U @   2 *.[ [ P.V.O O O             X X                             X @ O                 . $ .             .   . . . . . .       . .                 . .           X O                     X X             O O O O O O O O O O O O O O O O O O O O O O O O O O O O O O O O O O O O O O O O O O O O O O O O O O O O O O O O O O O O O O O O O O O O O O O O O O O O O ",
"O O O O O O O O O O O O O O O O O O O O O O O O O O O O O O O O O O O O O O O O O O O O O (.:.] -.#.@   O 2 @ -.2 7     @ *.0 @ 7 7 0 2 @ @ 7 @ @ 7 7 7 7 @ [ *.2 0 0 O :.@ 0 0 O 7   '.  ` 2X  O                 X : O O                         . 8 O O               . % $           . . . . . . . $ .                                                                           X X X   X O       O O O O O O O O O O O O O O O O O O O O O O O O O O O O O O O O O O O O O O O O O O O O O O O O O O O O O O O O O O O O O O O O O O O O O O O ",
"O O O O O O O O O O O O O O O O O O O O O O O O O O O O O O O O O O O O O O O O O O O O O   2X]   2X  @   O U 7 Z.@         #.-.q 7 @ q q q q q q 0 7 7 #.:.q 0 q q @ H.0 q q 7   @ ).7 -.T.*.O O O O O   O       X w 4 4 1 O O                   . 8 1 O       O O O   . $ .                 . .   . .                                                                             X X X X X             O O O O O O O O O O O O O O O O O O O O O O O O O O O O O O O O O O O O O O O O O O O O O O O O O O O O O O O O O O O O O O O O O O O O O ",
"O O O O O O O O O O O O O O O O O O O O O O O O O O O O O O O O O O O O O O O O O O O O O O -.T.-.0 6X  @   @ @   ] 7         q [ V.` [ q 0 0 q U *.*.*.` 7 q q 0 7 K.0 q q U   @ ] 2X7 ` 2X  O O O 1 O O O       O 0 4 4 4 O O                     7 2 O       O O O           O O   O O                                                       . .     O O         O     .         . o   X =                 O O O O O O O O O O O O O O O O O O O O O O O O O O O O O O O O O O O O O O O O O O O O O O O O O O O O O O O O O O O O O O O O O O O ",
"O O O O O O O O O O O O O O O O O O O O O O O O O O O O O O O O O O O O O O O O O O O O O O   2X] U ).E.  O         0 [       U 0 0 @ [ #.#.#.#.[ U 0 0 q q q 7 [ Z.7 q q q   O @ 9X  [ '.O O 1 1 4 4 O O         O 2 5 4 1 O O                     : 0 O       O O O       O O O O O 1 O O O                                                   + .   O O O O     O O O             $ $   = =                   O O O O O O O O O O O O O O O O O O O O O O O O O O O O O O O O O O O O O O O O O O O O O O O O O O O O O O O O O O O O O O O O O O ",
"O O O O O O O O O O O O O O O O O O O O O O O O O O O O O O O O O O O O O O O O O O O O O O O   6XU @ 6X-.@           O [ q   0 0 q @ q 0 0 0 0 0 0 0 0 0 @ ` -.` 2 0 0 0   0 O 9X@ #.L.#.O O @ O O @ O O   O O O O 7 7 @ @ X                       X h           O           O 4 4 O 1 4 1 O                           O O O     O O   O     O + +   4 K G O         O +           $ $ . . X                     O 1 O O O O O O O O O O O O O O O O O O O O O O O O O O O O O O O O O O O O O O O O O O O O O O O O O O O O O O O O O O O O O O O ",
"O O O O O O O O O O O O O O O O O O O O O O O O O O O O O O O O O O O O O O O O O O O O O O O O 7 2X#.  6X:.O 0           @ ` *.U 7   7 0 0 0 0 0 2 @ 7 [ -.[ @ 0 0 q @   2 O 9X0 *.-.(.    O @ @ @ 2 2 O O O O O O 0 q 9 9 : X                     = j           X         O O 4 G O O O O O           O O O           O O O O O O O       O O 1   O K W K O       O 1 O           . . . $ .               X     O O O O       O O O O O O O O O O O O O O O O O O O O O O O O O O O O O O O O O O O O O O O O O O O O O O O O O O O O O O O O O O ",
"O O O O O O O O O O O O O O O O O O O O O O O O O O O O O O O O O O O O O O O O O O O O O O O O O U '.#.O 2X(.  @             0 [ *.` 0 ` U U ` [ -.[ [ 0 @ 0 0 0 0   0   0 9X2 $.{ _.      @ 7 7 @ 0 5 2 O O O O O 7 9 9 , :                       X =           X       O O   4 L O @ @ @ O       O O O O O O O O O O O O O O O O O       O O 1   O H L H O       O 1 O                 $ $                   X = X X       X X O   O O O O O O O O O O O O O O O O O O O O O O O O O O O O O O O O O O O O O O O O O O O O O O O O O O O O O O O ",
"O O O O O O O O O O O O O O O O O O O O O O O O O O O O O O O O O O O O O O O O O O O O O O O O   _.] '.[ @ E.8XO   O           7     O 7 ] ` ` q 0 0 q q q ` ` @   X   E.8X  *.#.).H.q     @ # @ @ 0 5 O O O O     # < < < o                       . <           .             @ Y   : , @ O O O     O O O O           O O O     O O O       @ O   O 9 , 7         O @                   . $           . . .   X = = X       X @ @       @ @ O   O O O O O O O O O O O O O O O O O O O O O O O O O O O O O O O O O O O O O O O O O O O O O O O O O ",
"O O O O O O O O O O O O O O O O O O O O O O O O O O O O O O O O O O O O O O O O O O O O O O O O O K.#.U 6XU ` @ '.H.    0               0 q q q q q ` ` ` 7 X O @   0 '.X.+ [ V._.  2X      + e e # e e O     X     & i i i & .                     . u           . .           = n   X X X O O O       O                 X       X O O       @ X   = c g -       O O X                                 . . . . X = = X       X @ @ O   X = X           O O O O O O O O O O O O O O O O O O O O O O O O O O O O O O O O O O O O O O O O O O O O O O ",
"O O O O O O O O O O O O O O O O O O O O O O O O O O O O O O O O O O O O O O O O O O O O O O O O O     O @ 6X] :.O [ _.#.  O q       O q 0 0 0 0 0 q @ X     @   7 ).E.  $.w '.-.  O   O     . * * & * < o     X     & a a u %                         $           .             = x   & o                                 O O     X O     O O 7 X   - c g -       O @ =                                       . & & o X       X @ @ O   X - X               O O O O O O O O O O O O O O O O O O O O O O O O O O O O O O O O O O O O O O O O O O O O ",
"O O O O O O O O O O O O O O O O O O O O O O O O O O O O O O O O O O O O O O O O O O O @ 7   O O O O O O O   _.(.] #.  #._.K.@   @   O   O   O       0   O O #.(.E.+ 7 $.;.6X2                 & & o ; ; X     X     . < & & .                                               O O = h   $ $ $                               O       O           X     = d f =       O X   O                                     $ u u $       . o X       = =                   O   O O     O O O O O O O O O O O O O O O O O O O O O O O O O O O O O O O O O O O O O ",
"O O O O O O O O O O O O O O O O O O O O O O O O O O O O O O O O O O O O O O O O O O   -.2X8X2 O O O O O O O   ] 2XL.` {   0 L.E.P.#.7 O     O     X ` :.E.E.$.  0 { #._.E..   O               . & o & < &           . % % % .                                           O O O O = -   $ $ .                                                         . o o     O 1 1                                           . % u %       . X = X     X X                                 O O O O O O O O O O O O O O O O O O O O O O O O O O O O O O O O O O O O ",
"O O O O O O O O O O O O O O O O O O O O O O O O O O O O O O O O O O O O O O O O O O   ` (.8X6X          O O O O   P.'.E.{ &.R     [ ;.T.T.P.P.T.E.P.{ 7   @ ` { V._._.O       O O             . & . & i % .     O   . $ % $ .                                         O O O O O X =   . .                     O                                     . $ $   O 4 G 4 O O O O O     O O                           . $ .     O + o o       .         O O                         O O O O O O O O O O O O O O O O O O O O O O O O O O O O O O O O O O O ",
"O O O O O O O O O O O O O O O O O O O O O O O O O O O O O O O O O O O O O O O O O O O 7 ).rXrXO E._.(.2X0 O O O 6X    [ _.`./.C.;.[ { 0 @ @ O @ 2 w { ;.*.H.(.`.T.O     X   O 4 4   O         . % $ $ u % + O O O     . $ .                                       O O O O O O   X X     .                     O O                                     .       4 G 4 4 G 4 4 4 4 1 4 O               O O O     O 1 +       4 4 $ o       .       O O O O O O   O               O O O O O O O O O O O O O O O O O O O O O O O O O O O O O O O O O O O ",
"O O O O O O O O O O O O O O O O O O O O O O O O O O O O O O O O O O O O O O O O O O   8XrXtXE.2 _.`._.2XU O O 8X  O       @ /.T.  . w 7 0 0 0 0 7 2 +   2 (.7   O             4 4   O         + * $ $ % $   O O O                                               O O O                                         1 O                                             1 5 2 1 4 4 G W K G G O O             O O O     O 4 O       4 3 % $                 O O O O O O O O               O O O O O O O O O O O O O O O O O O O O O O O O O O O O O O O O O O ",
"O O O O O O O O O O O O O O O O O O O O O O O O O O O O O O O O O O O O O O O O O O   K.6XV.  @ :.P.Y.E.0 O 8X  X O       @ ] 5 >.rX+ # # # + + # 8 H.9X    O O @       O     4 5             O + . . . . O O O O                                               O O O                                         O                                               @ : X O O 4 G W W W K 4 O O           O O O     O 2       O I   % $                 O   O O 1 O O O               O O O O O O O O O O O O O O O O O O O O O O O O O O O O O O O O O O ",
"O O O O O O O O O O O O O O O O O O O O O O O O O O O O O O O O O O O O O O O O O O O &.V.K.E.E.L.L.U.U.P.6X  X           . V S   9XtXtXtXtXtXtXtXtXtX@     O O :           O X 9               O       O O O   O   O           O                 O               O                                           X                                               - - X   X X 7 I L K Q 4 4 O O         O       O @ @       @ n   . .                     O O O O O                   X X       O O O O O O O O O O O O O O O O O O O O O O O O O O O O ",
"O O O O O O O O O O O O O O O O O O O O O O O O O O O O O O O O O O O O O O O O O O O @ 2 2 2 2 7 : : b 7   , X       O     c 0.,   O   O O O O O O   O   O O O 7 O O O O O O O w O O O O       @           X   O       O O O           O O O O O                                                             X                                               = = X X X = h , , 0 5 4 4 4 O O O     @ O     O @ X       , b                     X       @ O O O O O O           X X X           O O O O O O O O O O O O O O O O O O O O O O O O O O ",
"O O O O O O O O O O O O O O O O O O O O O O O O O O O O O O O O O O O O O O O O O O   O X             - X   X =   O         d 0.j   O O X O O O O 4 O O O O O 1 2 O O O O 1 O O 0 G G 4 4 1 O O @         O O   1 O O O   O         O                                                                                                                         * %   X X = d g g d , O 1 1 O O O O O @         >         f -                           X X X @ O O O             X X X   O           O O O O O O O O O O O O O O O O O O O O O O O O ",
"O O O O O O O O O O O O O O O O O O O O O O O O O O O O O O O O O O O O O O O O         X X           X @     o   O O     O = c g     O X       O O O O O O O O O O   O O 1 1 O 7 K K G G 4 1 O O O O       O O G K K 4 O 1 1 O O O O                                                                             O                                           $ % .   . & ; - d d - X X O O O O O O O       O X         d X                     .     X X X X           O O       X   O O O           O O O O O O O O O O O O O O O O O O O O O O O ",
"O O O O O O O O O O O O O O O O O O O O O O O O O O O O O O O O O O O O O             X X X O O O 1 4 4 5 1 O + O O 1 4 1 O   k f X O 4 O     O O X     O O O O O       O O O O @ 5 5 4 4 1 O O O O O O O   O O K W W G 4 G K K K 4 4 O O O O                           O                                         O O             O O                         . $ .   . u i i < ; = = X     O O O O O O O 1 O         X -                       .   . .   X         O O 1 O O       O O O O               O O O O O O O O O O O O O O O O O O O O O ",
"O O O O O O O O O O O O O O O O O O O O O O O O O O O O O O O O O O O O                 + o O 4 G G K G G 4 O O O O 1 K K O O o f X 4 W 4     O O : X     O X X X       O O X   X , : : : X O O O O O O     O O H L H 4 1 K W W W W W G 4 4 4 O O                     O 1                                         4 O           O 4 O                                 . % p p p i & X X X X O   O O O 1 4 G 4         = =   O                       $ $ . X       O O 1 4 O O     O O 1 O                 O O O O O O O O O O O O O O O O O O O O O ",
"O O O O O O O O O O O O O O O O O O O O O O O O O O O O O O O O O O O O               O + * 6 G K G G G 4 1 O O O O O G ! 4   X < o 1 W G     O O O X   O O O @ X O     O @ @ X X 9 b , , = X     O O O         , 9 9 2 O 5 H L L W W G 4 G K 4 O O O O               O 4                                       O K 1           O G O                                   $ u i p i u $ .     O O O @ O O 4 K 4 O       o     O                       . $ .         O 1 G G   O     4 2 @           O O     O O O O O O O O O O O O O O O O O O O O O ",
"O O O O O O O O O O O O O O O O O O O O O O O O O O O O O O   O O O O                 O + 6 + 1 T 5 7 7 0 7 @ O O O @ 2 T 0 O O % % 4 I 0         o $     O     O     O O @ @ O O 7 0 0 7 > X     O O           - g d - X = , 9 9 q I 5 O 4 G 1 O O O O O O O O O       O                                       O H O           O 2                                     . $ $ % % % $ $ .     O   @ O O 2 4 O O                                       .             O 2 2   O O O 2 @ @       O O O O   O O   O O O O   O O O O O O O O O O O O O O ",
"O O O O O O O O O O O O O O O O O O O O O O O O O O O   X X   O @ O @ X                   + O @ M b 7 9 M q 7 O O O O @ n j O O $ $ 4 9 V         . &         + +     O O O + + O 6 _ 6 6 * .       X           = d d - X - g g g h h , X @ 7 O   O O O O O O O 1 4 O   >                                       O 9             X >                                           . . . . $ . .       O O @ : = O       O                                               = , X   O O @ @ o X     O O O O     X     X X O O O O O O O O O O O O O O O O O ",
"O O O O O O O O O O O O O O O O O O O O O O O   O O     X > X O 2 O O X   O             O @ 7 X V A M M ` q 0 2 O   O 2 j 0.X O O O 4 q c X     O   .           +       O O + + O + s u % % $                   & i a < X = ; - d d g d X = h =               O 4 G 4 O =                                         k             X =                                                               + O = , -                   O                                   X - -     O O @ X *     O O O O O     X     = =     O       O O O O O O O O O O O ",
"O O O O O O O O O O O O O O O O O O O O O O     O O O O O X @ O @ @   X X               O @ , X , V 9 w y E t 3 1 O O O , c , O O   2 T C =   O                             X     X > & . & .                   % p p u . u i i i a < ; X X - =                 O 4 4 O =     O O                                 f             X =                                                             . + O o ; =               O O O O                                 X = =       X > o o   O O O O @           X ; X             O O O O O O O O O O O ",
"O O O O O O O O O O O O O O O O O O O O O       O O 1 1 O X @ O @ X X X X           O O   + = o   d < s s _ P 3 1 O O O : , = O O   @ T M X O O                           O X X   X - X X X                     $ u u % . % i p p p p i $ . & .                 X @ O   X   O O O 1 O                             =             X X                                                               X   & i .             O O 4 4 4 O                                 o .     X = X .     O O O O X           o X O               O O O O O O O O O O ",
"O O O O O O O O O O O O O O O O O O O         O O O 1 1 O O X X X X X   X O O       O O O   * * . ; y i s E J I 2 O O O X e # O O   O q b +                                 O       ; o .                         $ $ $   . % u u u p p $ $ i %     O   O       X = =       O   O G 4 O O O                       o             +                                                                 X X % i $               O 4 W K O                                 .       X X . .     O O O @       O   . . + 1 O             O O O O O O O O O O ",
"O O O O O O O O O O O O O O O O   O O           O O @ @ O O O @ @ @ X   O 1 O O     O O O   $ * + X E 6 E I U U 2 O O O O # # @ O     , j                                   4 G   . u % $ $ .                       .       . $ $ % % % . . % $   O 1   O 4 O   X = = O O O     O 1 1 O O O O                                                                 O O                                     & % .               O 5 G G 1 4 O O             O O O                 . .       O 1 1 O +     O O   + 4 1 + O O O           O 1 O O O O O O O ",
"O O O O O O O O O O O O O O O O O O O O O O       O X , = X O X @ o .   O 4 4 O O   O O O O   + O O w 3 P E w 9 : @ O O + + # X X O   = j X                                 K ! O   % $ $ .                                   . . . + 4 O   $ .   4 4   4 W O   . $ o O K O       X @ O O O O                                                                 O 4                                 . . .     O O           4 I 0 4 1 G 4 O O           O 4 O                 . .       1 4 O   .     O 1 1 4 G 4 O O O O O O     O 1 1 O O O O O O O ",
"O O O O O O O O O O O O @ O O O O O O O O       O   X = = X     + . . .   1 4 O O O O O O O O + + + 2 8 e e 8 ; ; X O O O # o X X @   X g X                                 4 c.1   . .                                             O 4 O         4 4   4 G O   . % $   W O       = =     O             O O O                                                 O 1                               . . .         O         O 5 q h X O 4 1 O O O O       O 1                   .         O 4 O   O     O 1 O 5 I 2 O O O O 4 O O   @ @ @ O O O     O O ",
"O O O O O O O O O O O   = = X O   O O O O   O O O     o & & O   . . .     O 2 O O O O O O 1 O + + O X : ; ; ; ; ; o O O O + X X X X     ; X                                   { :                                                     @ O         O @   2 M       $ $   q O       X X                 O O O O O O O                                           O O                                                       O : - - X X @ O O 4 4 O       2 O                         O O : X           O O   q 0 2 O @ O 1 4 1 O   = = = X         O O ",
"O O O O O O O O O O O   X f = = X   O @ @ O O O       $ u % +     . + O   O 7 @ O O O O O O O O O X   , = ; < < & &   O     X     X     o .                                   0.l     O                                               >           @ o   7 x             C X       & .                 O O O O 1 4 4 O O O                                     X                                                         X ; < o X = =   O 4 4 O     O ,                         O O @ =   + O       X   - h X 2 2 X O 2 O O O X - - = X       O   O ",
"O O O O O O O O O O O     - - = >   O @ @ O O         . % $ +     +     O O @ 7 O O O O O O O O O O O X ; & & u u & .       X           . $             O                     0.c                   O O                               7           X = O 9 D             C X       % $                   O O O 1 4 4 1 4 G O O                                 >                                                         = & u *   X =   X @ O O O   X ;                           O X =     O     O X X - - & O 2 O 2 7 X     > = = = X             ",
"O O O O O O O O O O O     X = X X O O O o       O     + . + 3         O O O   @ O O O O O O O O O O O   & & u u % $ .                     .                                   d f             O                                       2 O       O O =   : f X           -         $ .                   X X   O 2 O 1 G K G O O O O                           X                                                         o & u $ $ & X   = = X   O   X             O               X X   O O     O       ; = o = @ O 7 :     o & . X                 ",
"O O O O O   O     O @   O   > X X O O O & o       O   1 O + O O O   O O O O   O X O O O O O X O O   O   . $ % $ $ .                                                           o <                                                     @ O               > &             o         .                       X   X , X   4 G 4 O O 4 4 O O                                                                                 . . $ . $ % .   o = X         O 4 1 O                   X       O O           & & o X @ 1 2 8 o     o . . .                 ",
"O O O O           O @ X O O + +   @ O   . .     O O O 4 1 O   @ O   O O O     O @ O O O O O O O O         +         #     O     #         O O         #                     + + u   O           O +           +         o                               ; &             o                               O     X , = X , 9 X   O 4 4 4 O O           O O                                                                         . $ . . o           O O G W G 4       O                       O     + % % . = @ 2 3 6 . O 1 O     O 1 +     O       ",
"4 O 1 4 O   O O   O 2 @ O O O O O O O     . .   O   1 4 4 O O X O O O O O O O O O O O O O O O O + BXJXNX+   |.GXGXAX  ;XlX  r lX  {.GXGXZXr   5.GXGXHX  @XGXHX|.        <.ZX  4 + FXe   4.LXLXNX    pXGXHXjX    iXGXGXlX              X   O O O     O   X X                                         O O + +   O #   X , d X   O O O 1 O O O         O 1 O     O O                                                                     . $ .           O K c.c.K 1                     O       O     1 6 $ O X @ @ e * + O 4 1     O 4 3 .   O     O ",
"5 O @ 5 O   O O   O O 2 + O O O O O O O     .   O   1 4 2 2 1 O O O O O O O O O O O O O O O O O # LX  @XZX  hX%X# #   hXIXe <.GX  iX;X+ [.JX  &XpX+ #   jX@XO KX<.      4.IXF.4 oXIXy   IX#   sXyX  LXE + jXuX  FXF.3 # +                 O 1 O   O O       O                                         1 O     $ % . O 8 ; X O   X X O O     O O O O 4 G O     O O                             O                                   O   . $ .       O   @ T c.c.c.K 4 O                 O           O 4 1   O O @ > * . O O 4 O     O 4 O .   O   O O ",
", = O 7 :   O O O O O 3 + + @ O O           +     O O O @ : 1 O O O O O O O O O O O O     O O O # LX  8 PX  hX@X      NXhXyXy GX  uX;X    IX  %XuX      hX%X  hX@X      {.zXNX  SXBX1.+ IX    }.nX  KXy   5.NX  SXA.O                     O 1     O                                                   1 O     . $ . $ i i +     X X X           O   G G O O   O O                                                                                   O , ` -.) W W K 4 O                       O O O O O     O @ > .   O w @ O O   : X       O O O @ ",
"g g X = f X O X O O O @ > O @ O   O           O O O O @ , : @ O O O O O O O O O O O           O # LX  [.SX  uXZXpX@X  BX<.LX# GX  uX;X  + IX  |.GXiX=X  jX|.  GX4.      |.;XGXX VXpX5.+ IX    |.MX  KXy   [.NX  BXzXjX5.                    O                                                         O O       .   . u u .     .   X               b @                                                                                             X , e.t.m 0 Q ! W 4 O           O O     O 1 1 X O O O O o o o     X w   1 1 = f       O O O @ = ",
"g l - X j - O O @ O O O 9 @ O X           O O O O O O X : X 2 1 O O O O O   O O       O O     O # IXJXIXo   pXhX[.4.  NX<.ZX<.GX  uX;X  + IX  @XzXW.5.  yXLXIXpX        @XyX=XDX|.lX[.# IX    |.vX  JXy   [.NX  ZX,X X}                     X                                                         X               & $ .     $ .                 j =       O                             O                                                       & f 0.q.l h 0 K K G O                 O O 4 2 X   O O + $ & .     ; X O G 4 9 -           X = = ",
"= f ; . = d   O X @ O O 7 2 O X         O O O O O O O O 2 2 O 2 O O O O O O O O       O O       # LX  LXe   hX@X      NX[.{.zXZX  uX;X    IX  &XiX      jX{.<.SX        =XpX# LX= jX{.+ PX    {.lX  KXy   5.NX  SXh.=                       X                                                         X               .         $ $ .               f =     O O                       O O O O                                                       % a 0.l g x h 9 5 4 O O O O             O 1 O X O O     $ $ .   X X   1 4 5 2 O         X X =   ",
"  & * $ . > X   O @ @ O @ @ X     O         O O O O O O 1 5 O @ @ O O O O O O O       O         # LX  @XzX  hXpX<.4.  VX[.  IXBX  iXhX1.;XSX  =XzX<.5.  lX=X  PXy       yXuX    X zXoX  IX4.# NX@X  LX[.1.ZX%X  FX X4.1.                                                                                            . .           .                 =       O O O O                   O O O                                                       . % a F a ; d j j ,     O G 4 O     O     @ X     O     . . +     =   O @ @ O 1 O O       X = X   ",
"  $ % $   + > O O @ 2 O O X X X   O     O O O   O O O O O 2 @ @ X       O O         O O     O O O iX    hX  [.zXzXNX+ =X<.  @X=X  5.zXzXsX    1.zXzXBX# |.5.  {.{.      {.{.  X o |.5.  y ZXGXiX    =XzXzX%X    @XzXxXjX                                                                                              .                                       O 4 O     O O                                                                       . & i p p p a ; d =     1 K G O         X -             .             @ 7 : @ O 1 O     O   X     ",
"    . + O   # O 1 O @ O O 4 5 X O       O O O O O O O O O @ = @ @   O O     O   O O O O O O O       O     O         O     +     +                                     O     O   o     O           >                     O                                                                                                                                     O 1 O     O O               1 O                                                       & u u u p p a < X     O 5 4 O       4 : =                           o > @ @ 1 4 O O O +         ",
"  O     O O O 4 4 1 O X O W W O     O O O O O O O O O O   X ; X G O   O     O O O O O O O O O O           O O O                                     O O   O O         O O     O O                                                                 O O                                                                                               O O       O O   O                   O K 1                           O                         O + $ $ $ i _ p u   O   , : O O O   O W 4                           . & o 2 @ 1 4 O O           O ",
"O O O O O 4 4 4 4 1   X X G ! 1 O   O O   O O   O O 1 O     = X G 1     O   O O O O O O O O               O O O                                       O   O 4 O     O O O     1 O                                   O                             1 O                                                                                               1 O       X X   O                   O K 4             O           O O                         O 1   . $ + P i %       , -         1 Q 1                           & $ * @ O 2 O O     O   O O O ",
"O O O 1 4 G G 4 0 7 X   X O ] 7     O             O O O     X O 4 2     O O O O O O O O O O               O O O                                       O   O 4 O       O       O O                                   O                             O O                                                                                               O O                               +   5 O                           O                         O O O   + X 3 $ .     o ; X         b 0 O                           . + # X @ >           O O O + ",
"O O O 1 G K L 2 : - =   O   d r.X       O         O X X   O       n X O   O O O O O O O O O                                                 O O     O     O X O       O         X                                                                 O O                                                                                               @         .               O         X f                                                       O       O , X         % u .       = r.@ O                         . + O   O X X           O O O . ",
"O 4 4 4 4 H R : X - - X O   X 0.-   O             O O X           , :     O O O O O O O O                                                     O             X X                 X                                                                 X X                                                                                               X         $ .               O       = d                                                             O O 9   O       u u .   O   - c   O   O                 O     O O   X X     O     O O O O + ",
"O 4 G 4 O 7 b j = = ;         d f   O             O   O     O O O @ q O O O O O O     O                                                       O   O     O   O X O                                                                                   X                                                                                 O O           X         .                 O O O   = =                                                               @ :   O       $ $         ; =   O   O                                           O O O     ",
"O 4 H H @ X g c - X & $ .       a   O             O     O O O O   O 0 O O O O O                               O                               O         O     O                                                                                             O                                                                       O O O O                                       O O O 3                                                                 X                       . & X O O   O                                             X O   O ",
"O 4 5 q 7 X d d ; $ $ $     O   $ $       O   O   O   O O     O   O 2 @   O O O                                                                     O                                                                                                                                                                             O O O                                             1 K K O                                                             o X   O             O     . %                       O O     O O           O O   O   X O G G ",
"O 1 @ , , X X ; & % .         O     O O   O O O   O O O O     O O O O 7 O   O O                           O O                           O       O O                                 O O                 O O                                             O O                                                   O               O O O O O                 O               O O O   O   O K G O                                     O O         O O         X   O 1           O O       $                       O O       O O   O   O 4 O     .   1 W K ",
"O @ @ = = X   & % $ O O O O     O   O O O O O O O O O O O   O G 4 O   7 O O O O                     O   O 4 1                           O       4 O             O O O             O 4 4 O O             O O O                                           1 4 O                             O O O O           O 1           O O O O O O O         O     O G O             O K 4 O 4 O X 7 2 O   O             O O               O 4 G         O O             1 4         O 1 O                         O O O O O     O 1         4 G O     . O 5 Q O ",
"O O X X & & . . . . O O O O O     O 1 1 O O O   O O O O O O O G G O O 2 2 O O O                     O   O 4 4 O                         O     O 4 4             O 1 O           O   K K O O O           O 4 O                                           4 W O                           O   O 4             1 G         O O O     O O         O O     1 K O           O 1 G 4 O 4 1 - j X   O 1 O O         O O               O 4 4         O O             4 1 O       O O O O                     O O 4 1 O       O O     O O 7 @           n ,   ",
"O X   X & u $       O O O         O O 1 O O O O O O O O 1 O O 1 5   O O 7 O 1 1 O O                     O O 1                         4.@X%X@X%X%X%X@X@X@X@X@X@X%X%X%X@X%X|.<.  O   4 I   O O             5 O                                           1 G O                           O   O 1             O 4     O O O O O       O         O       O I               @ 5 O   2 O ; - X   O O O O         O                 O 1 O         O               7             O                         O O 4 4 O       ,       O 7 h           f f     ",
"O       $ u $             X   O O O O @ O O O O O O O O 4 4 O O , = O O @ O 4 4 1 O O O                 O   ; X                   y pX{.y e e e e r e e e e e e e r e e e y @XpX#   @ C                   : X                                             b                                 O O             X ;     O O O           +         O       , f               - h   X >   u u       O O O O O                         =                         X -           o                           O @ 1 1 O O   X X       1 b -         = j =     ",
"O       . $ +   O O   O O @ O O O O 1 2 @ O O O O O O O O O O O = f   O X X O O O O O O                     - X                 1.uX              ; X             = =           kXe X 0.X   X             X X                                             f X                                 X             ; = O O   O                               f -             X - d   X X . i u       X     O O O                     X =                         = =           X                           X X X O O O O X         @ X           - =       ",
"X       O O O O O O O 1 4 4 1 O O O O O @ O O O O O O O O @ @ O X =   O X =   X X X                           X               + pX                =               X =         O   fX  v =                 X X                                             ;                                                 = X   O                                   ; X               = =   o     % $       X       O O O                     X                         X                                         X = X   O 1 1 O       = X     O     X ;   O     ",
"- X O O O O O O O O 1 G K K G 4 1 O O @ @ @ O O O O O O O 2 2 @ O X           X X X X                 O     O   O O           =Xr                                           O     5.[.< .         O                                                   O   o                                                   O                                       .                 .           .         X     O O O                     .                                                                   . + X X   O 4 4 O       =         O   X           ",
"- X   O O O O 1 1 1 4 G K K 5 4 1 O 1 @ @ O 1 O O O O 4 4 G 5 @                                           O O O 4 4 1 O       ;X                                                    <X  .                                                                 +                                                 O O                                                                             . $                                                                             O                     + $ .   O 2 @ O O O     X                     O O ",
"w 6 + 4 O O 4 1 4 4 4 4 5 0 9 7 @ O O 2 2 @ O O O 1 4 4 4 4 2 O               . $ $ .                         O 1 1 1 O O   + %X                                                    ;X                                                                                                                                O                 O                                                   . .               O O O O                                                       O O                   + + .   4 I X O O                               O ",
"s P 1 G 4 O 1 1 2 2 2 @ : h j h : @ O G G 1 O @ 2 4 4 4 2 @ @ X O O             . . .                           O @ O O   O + %X1 G 4 O O               O                           =X            O O                                                                         O                   O                 O 1               O 1                                                                       1 4 O                                                       O O                   O O . O L H X                                   O ",
"s P 4 4 4 O O @ @ @ @ @ : - - ; > 1 1 G Q 4 1 2 2 1 4 2 : = = = O O O                                           X = = X     + %X4 W K 4 1 O                                         =X          O O O                                                                           O                 O                 4 4               1 4                                                     O                 O 4 O                                                       O O                 O O     O w @         O                         O   ",
"i 6 : O 2 @ O @ : : @ @ O # a s i + O 2 I 2 2 2 2 2 @ @ = = X o   O O                                             X = X     + %X  H H 4 O O O O         1.e O                       =X        O O O O                                                 +     +         +     +                 O                     1 O               O O                                                     O                 @ O                                                         O                   O O     , ; .   O     O                     O O O   ",
"i . f X = : O @ @ @ O @ + + u i i + 1 O h n 2 2 2 @ @ X X X o $ .   X                                             . & .     + %X  d h = X     O O O   E IXLXO O                     =X                                                                  =X%X            GXpX                    NXe                 X X               ; X     O                                                                 , X                                                       o                     X     X f X   .                             O O     ",
"i . , = X @ @ O O + + # + + + * 6 + O @ = n : @ @ @ X X   . . $ +   O O                   O O                 O   . $ $     + %X  - d - X           y IXPXIXLXO O 4 O     O         =X              X                                                   zXjX          + GXfX                  + IXy                 f X               =                                                                         ;                                       O                                             o o         O O         O             O       ",
"% $ X X O O @ O O O + + O O + O + O O @ @ @ > @ @ X X X   . . + O     O                                             . .     + %X  & < & X         y IXiXzX0XBXLXO 4 1 O O O O   O   ;X                                                                  lXjX      +   #     +                 + IXy                 =           O             +                                                               +             O                                                                                                                       ",
"% $ O O + O O O O O O O O O @ @ O O O 2 2 O @ X X X X           O O O O O               O                                   + %X  % p p $       y IXjX  SXsX  SXLX@ O   O O O O O 1 5X  O O O O O                                         O             lXpXpXFXiX      hX[.    # BXLXSXpX#   + IX[.ZXSX5.            {.1.{.JXy   yXJXJXpX  +   yXJXGXpX                                                                                    O                                                     O                                                 ",
"u + O O O O O O O O O O O O @ 2 1 1 @ @ @ @ X X X O O +     O O O O O O O O                                                 + %X    % p $       IXlX    AXpX    SXSX            1 4 5X    O O O O                                                       hXIX|.5.LX;X    HX=X    GXhXy 5.IX[.  + PXGX4.@XIX#           |.IXSX[.  @XIX<.<.LX%X  @XPX4.F.uX                                                                          O   O                   O       O                               O O           O 1       O O                       ",
"% + 4 1 O O O O O O O O O O O 2 1 1 2 @ @ X X   O O O O O O O O O O O O O O               O O O               O             + %X      . .     O #   +   AXpX  &   o o   O       O O qX    O O O O O O   O O                                     O O     jXzX    hXzX    GX%X  + IXy   + IX5.  + IX<.    IX4.          |.LX      BXyX    zXjX  NXiX        O O O                   O                   O     O 4     O   1 O       O O G 4                 4 O   4 4 O                             O O O O   O   4 4       O O       O               ",
"% O 4 G 4 O O O O O O O O O @ @ O O @ @ O O     O O O O O O O O O O O O O O               4 4 O   O       O O O       O     + %X              O O O     ZXpX. u . . .     O       X <X        O O O O O O   O                                 O 1 O O   jXzX    kXzX    GX%X  + IX<.  o IX5.  + IX1.    IX4.          |.LX      BXuX  # LXyX  hXJX<.y     O 4 4                 O 4 O               O O O   O W 4   O 4 K 4 O       1 c.W O             O G 4 O G G                               O O O O   O O G 4       1 O                       ",
"$ O 4 H 2 O O O @ O O O O O O O O O @ X X   O O O O O O O O O O O O O O O O O         O   1 ! 4             O O       O O O O 4XO         O   1 G O     ZXpX  $ . $ $ .             <X    O O     O O   O O O O O     O O             O         G G O   jXzX    lXnXO   GX%X  # IX<.  + IX5.  + IX1.    IX4.          |.LX      xXIXIXIXjX  1 O BXPXIXZX  1 K 1             O   O G O               O O O   O ! O     1 K 4         O ! c.G             O 4 O   0 O O                             @   O       X >                                   ",
"$ O 1 2 7 @ O O @ O @ O O O O O @ @ @ X     O O O O O O O O O O O O O O O O O           O O 5 @           O O O       O O   + %X          O   O 5 O     FXhX        .         O     1X    O O           O O O O O O O O                         4 4     jXzX    lXzX    GX%X  + IX<.  + IX5.  + IX1.    IX4.          |.LX      VXuX      O O O     r IX<.  9                   X 2                 O O     X 0       X 9 O O     O = ` W K O           : =   = ,                               >             , X       o                           ",
"+ O O @ 7 : @ @ @ @ O O O O O O @ @ X X     O O O O O O O O O O O O O O O O O O             = f           O   o         O   + &X          O     7 =     |.5.                  O     :X$ .   O             O O O 1 G K G O                     O X ,     jXzX    lXvX    GX%X    IX4.  <.IX5.  + IX1.    IX4.          |.LX      zXpX        >         IX<.X C                   - =                 O       - =       = d         O j g 0 G 1       O   f =   - X                               =   X       X =                                     ",
"+ O O O @ 7 @ O O O @ O @ @ @ @ @ O O       O O O O O O O O O O O O O O O O O O O         O X f X                       O   + %X    O           X f         O                 O     :X            O O         X O 4 W W 1   O                 O = f     NXZX    NXVX    LXyX    @XIXLXKXIX5.  + IX5.  + IX5.          @XIX      1.IXlXlXLX5.  pXZXhXGXGX  = f   O               , X                 X       f =       = X         o d d j @ O           =     o                                             o                                       ",
"+ O O O O @ @ O O O @ O @ @ O @ O   O O     O O O   O O O O O O O O O O O O O O O             X                 O       O   + %X                  ;                                 =X                        X X X 7 7 O O O O                 X ;     } <.    } <.    1.e   O   # e   IX5.    5.#     5.#           e 4.    O   } yX;Xy     # {.yX@X    o X                   o                           o         @ O     O   o i ; d X                   .   O                                                                                 ",
"+ O O O @ O O O O O O O O @ O O     O O O   O O O     O O O O O O O O O O O O O O       O       .               O           + =X              O                                     =X  O                     O   X d j X   O O                                     .           +     + IX4.                                                              &                     .                     O     .               O   X $ p p o     O   O O +     .                                                           O                           ",
"O O O O O O O O O O O @ O   X         O O O O O O O O O O O O O O O O O O O O O O O     O                       O             0X                      O       O             O   O + ;X                  O   O . .   ; - X                 O                                     yXIXHXIXSX        O                                                                                         O                       X               u p u       O                     O     O   O O         O O           O     O   O 4 1       O                 O ",
"O O O O O O O O O O @ @ 1 O         O O O O O O O O O O O O O O O O O O O O O O O O O O                                       |.1.                    O     O                     |.1.                  O         . u i .                             O O O                   +   + <.y                                                                                           O           O 1 1 O O             O O             $ u $                         4 O     O 4 G W O         1 4                 O   4 G O                       O 1 ",
"O O O O O 1 1 O O O @ X 1 O       O O O O O O O O O O O O O O O O O O O O O O O O O O O O                                       hX  O         O       O O O           O O     O # pX                    O O 4 O O O % p %                           O O O O                             O               O O                                               4 O                   O 4 O         O W K G 4           O 1 O                                         O G O     O 4 Q ! O         4 1           O         Y 4                         O 1 ",
"O O O O O O 2 O O O @   1 O     O O O O O O O O O O O O O O O O O O O O O O O O O O O O O                                     O # lXe                 O 4 O             O     <.jX  +             O       O W 4 4 K O $ .               O O O       O O O O                           O O               4 4                                             O G 4                   O 4 O         O ( 4 G 1             1 O                                         O 1       X   o.1         X @                 O   g C                           X @ ",
"O O O O O @ @ @ X O O   O @       O O O O O O O O O O O O O O O O O O O O O O O O O O O O                     O       O             yX;X{.[.[.[.[.[.[.[.{.[.[.[.[.[.[.[.[.}.5X@X  O                       O L 4 4 G 1                     O 4 1     O O O                               O               1 O                                               7 O                   O 2 O         = +.  :               O O                                       O X       X ; h c           >                       c d                           X = ",
"O O O O O @ @ @ X         X >   O O O O O O O O O O O O O O O O O O O O O O O O O O O O O O                           O           O     1.5.5.5.5.5.5.5.h.5.5.5.5.5.5.5.5.<.    O                     O     n @ @ X X                     O W K O                                       O               , X   O                                           f                     X =           g 0.X f             X ;                                           X     O X = c d     O     X                     X v   O                       . X X ",
"O O O O O O @ X       O     o     O O O O O O O O O O O O O O   O O O O O O O O O O O O O O                                                         O   = ;   O                                             d - = f =                       0 K 4 O                                     O           O   ;                                               X ;             O       X =           D - X =             o                                       O     O         X ;                                   & .                           $ $ o ",
"O O O O O O X       O O       O   O O O O O O O O O O O O O O O O O O O O O O O O O O O O O                                       O     <.4.1.1.1.1.1.1.4.4.4.1.1.1.4.4.4.<.                            O   = = X = X                       d q K 4 O                                                   X                                                 X                                   <                                                           O O O           o                                     $                             . . + ",
"O O O O O O O         O O       O O O   O O O O O O   O O O O O O O O O O O O O O O O O O O O                                   O   ;X;X|.{.{.{.{.{.{.{.{.{.{.{.{.{.{.{.{.|.yX@X  +                         . .                             = f I G O                                                       O                                                               O O             . i                                                             O O                                           O       O           O O                 + ",
"O O O O O O O     O O O O O O   O O O O O O O O O O   O O O   O O O O O O O O O O O O O O O O O                               O # jXe                                         1.jX  O                       . .                             % < , H O                                                                                                                                                                                                                         O O                       O K G O               1 1               O + ",
"O O O O O O O   O O O O O O O O O O O O O O O O O O O O O O   O O O O O O O O O O O O O O O O O                                 jX                                          O O e yX                                                  O     % i ; 9 O O                                         O                                                                         O O                                                                                               O G 4                       4 c.W O               4 4           O O O O ",
"O O O O   O O   O O O O O O O O O O O O O O O O O O O 1 1 O O O O O O O O O O O O O O O O O O O O                             |.1.                                      O O O O   |.1.            O O O                                   O   i i - @ O                                       O O             O     O O O O                   O                         O W W O                                                                                             O ! G                       ^ b.4               O 4 O           O O O O ",
"O O O         O O O O O O O O O O O O O O   O O O O O 1 4 O O O O O O O O   O O   O 1 G O   O G O                             yX                              O O   O O         O + =X  O O     O G 4       O O                         O     . i _ @ O                                     O 4             O O     O G W 4   O O O O O     O 1 O                     O 4 c.W O O O O                         O O O                                               O O       : ` O                     - p.o.                n             O O O O @ ",
"O             O O O O O O O O O O O O O     O O O O O O O O O O O O O O O O O O O O O 2 @   O 5 1 O                           %X            O   O             O O O                 ;X    O     O 4 4                     O O O O               + _ +   O                                   O 4             O       O O 2 1   O O O O O       O O                       @ s.2 O O   O                       O O O O O O                               O O O O   O O O O     0.=                       z w.-               X ;     O O O O O O O O O ",
"            O O O O O O O O O     O O     O O     X     X =   O O O O O O O O O O O O @ =     > ;           O O O O O       + %X            O O O O                 O               =X    O O   O : ,   O O O                                   O > &   O O                                   >                       = -   O   O O           X                         d r.X O O O O                       O O O O                                   O O O     O O 1 O   X c                       X v f                 o       O O O O O O O O @ ",
"        O O O O O O O O O O     O O O     O O O O O       ;   O O O   O O O O O O O     = X   X ; X             O O         + %X              O O                                   ;X  O O       = f                                           X j         O                                 ;                     X = - X O     O           X                         g z   X                                                                                 O @ O O   o X                       % p                         O   O O O O O O O X ",
"    O O O O O O O O O O O O     O O O   O O O O O     O     O O   O O O O O O O O O             X   O O                     + %X                        4.<.                        =X            X ;                                           X -         O                                 X                       X X                                               a a                                                                                     X X   O   .       O                 % %               O O       O   O O O O O O O X ",
"    O   O O O O O O O           O O O O O O O O O O O O     O   O O O O O O O O O   O O     O       O O                     + %X                        GXjX                        =X              o   O                                   O O   .     4.5.                            O                                                                               u %   .                                                                                   X     O     O O                                     O O           O 1 1 1 O O O O ",
"O O O O     O O O O                         O   O O O O O O O O O O O O O O O O O                   O                       + %X                        ZXpX                    O   =X              +                                                   zXBX  O                                                                                                                                                                                               . $       O O O                                                       @ 2 4 4 1 O O # ",
"    O O     O O O O             O O O O O O O O O O O O O O O O O O O O O O O O                     O O       O             + %X      O           O     AXpX                        =X                                                                  jXzX                                                                        O         O                                                           O                               O O               O . .       O O O                                                     O @ 2 4 4 1 O + + ",
"            O O O O       O O O O O O O O   O O O O O O O O O O O O O O O O                         O O O O O O           O + %X    O O O O   O     +   AXpX  +     +           O   ;X          O O O                                                   jXzX  +   5.hXiXy     5.<.    5.5.    <.F.          4.  y uX+   5.pXyXy   +   F.pX;Xy O G 4             1 O   O                                 O O               O O         O   O 4 O             O   .       O O                                                       X @ 2 2 5 5 4 1 + ",
"            O O       O O O O O O O O O O O O O O O O O O O O O O O O O O             O             O O   O O O O         O + %X      O 1 O O   PX;X    AXpX    zXZX        O O O   ;X          O G G O     O O                                         jXzX    %XIXyXhXIXy   pXSX    IXIX    ZXnX          lXZXIXjX  @XIXyXzXIXe   @XIXhXNXZX  W K   O         4 4                                     O O               O O             @ 4               O           X                                                         @ @ 2 2 5 5 5 2 1 ",
"    O       O O     O O O   O O O O O O O O O O O O O O O O O O O O O X O             O O   O O         O O O O O         O O %X      O O O     5.IX=X  SXpX  zXIXy             O   ;X          O 4 K O                                                 jXzX    HX[.    NXpX  5.PX  e HXJXr   LX}.          iXSX      HX{.    JXoX  GX|.      @ ] 5             7 O                                     O O                               ,                           .                                                         O @ @ @ 7 5 5 5 5 1 ",
"O O O     O O O O O   O O     O O O O   O O O O O O     O O O O O O O X               O O O O O     O         O O           O %X        @         4.IX|.zX=XhXIXe                   ;X            : n                                                   jXzX    LX|.    NXjX  # IX# W.zXsX{.# IXB           pXZX      LX4.    IX{.  HXuX      , r.=       O     f X                                     O                                 ;                           .     O O O                                               O O @ @ 7 7 2 5 5 4 ",
"      O O O O O O O     O       O O O O O O O O O O     O O O O O O O                 O     O O       O         X           o &X          O     O   4.IXLXLXIXe                     =X            - c =                                                 jXzX    LX|.    NXjX    PX<.uX;X@XhXy IXo           pXZX      LXSXBXIXAX    {.IXIXLX|.X r.X   O       X ;                                                                       X                                 O   O O         O                                   O O O # @ : 7 0 5 5 5 ",
"      O O O O O         O O O O O O O O O O O O     O O O   O O O O           O O   O               O O O O O O             + %X                  O   5.IXIXe   O       O           =X            X ; X       O                                         jXzX    LX|.    NXjX    SX{.NX[.4.ZX5.GX            pXZX      LX%X1.r         + y yXIX+ &             . .                                                         O                                                     O O                                           O O O O X : 7 0 0 5 5 ",
"O O O O       O O O O O   O O O O O O O   O O O     O O     O O O O         O O O   O                     O O O             + %X                    O   {.<.  O                     ;X              . .     O O                                         jXzX    LX[.    xXpX    pXpXGXr # KXyXjX            pXZX      LX[.        O       o IX< $             . .                                                                                                                 O                                     O     O O 4 1 2 @ 7 0 0 5 5 ",
"      O     O O O             O       O O O O O O O O   O O O O O O                 O                       O   O O O       + %X                      O     O                       =X                        O                                         zXNX    hXSX1.[.IX5.    [.LXIX    LXLXoX            pXSX      jXSX4.[.xXr   0X|.1.jXJX                                                                              O                                         O O 1 O   O O O           O O O O O   O O 4 4 4 4 G 4 1 1 G W K 5 @ 7 I L H 5 ",
"O     O O O O O O O   O 4 1 O O O O O O O O O O O O O O O O O O   O       O       O O O O O O     O   O O   O O O O O       + %X            O             O O O   O                 =X  O               O O   O                                         @X%X  O   pXGXGX|.  O O 8 jX;X    &XjXr             }.;X    O   pXGXSX=X    @XBXHXNX#                                                           O O O O O O O   O 1 1 O                   O O O       O     O 4 W W 4 O 4 G 1 O     O O O O O O O O O 4 K W W W W K 4 4 L Q L 2 @ 7 I H 0 0 ",
"1 O O O O O O 1 4 1 O 4 W K 4 O O O O O O O O O O O 1 4 4 4 O     O   O O O O O O O O O O O O O O O O O O O O O O O O O O   + %X  O O O O O           O O O O O O O O O O O O O O   ;X  O O       O   O O O O O O O O O                 O O O         O     O   O         O O 4 4     + O     O O O       O       O O O         O           O O O       O   O O O O O   O O O O O O               O O O O 4 4 4 G G O O 4 G 4 O     O O O O       O O O O     O O O O G b.W 4 1 L K O O O   O O O O O O O O O 2 0 I 0 0 0 2 @ - n q 2 @ : 9 7 7 0 9 ",
"O O O O   O O 4 4 O O 4 Q Q 5 O O O O O O O O O O O 4 G K G O O O O O O O O O O O O O O O O O O O O O   O 4 G 4 O   O K 4 O   ;X  O O 1 4 4 O O O O O O O 1 G W 4 O O 4 W K K W K O 5XO 4 1 O O O 1 4 G K W W W W W K 4 1 O           O 4 G 4 O O O O O O 1 O O O       O O O G c.G G K G 1 4 4 G G 4 O   O O O O O 4 4 4 4 1 O O O   O O O 1 O O O O   O O O 1 1 O O O O O O O O O O O O     O   O O O O 4 4 4 K G O O 4 4 4 O     O           O O O         O   O X =.;.2 O : 9 @ O O O           X       = d j d d g - X = g x - @ @ : , : 7 0 w ",
"- X O O O O O O @ @ X O @ n j = O O O O O O O O O O O @ 2 7 X O O   O O O   O O O O O O O O O O O O O   O 1 4 5 O   O G H O   ;Xe O O O 4 1 O O O O O O O 1 G Q K 1 O 4 ! W K ! W F.XX4 4 1 O O 1 4 4 G W ! ! c.! ! W G 4 O   O O   O O 4 K G 1   O O O 1 4 1 O       O O O O 0 b.K G Q 4 O 4 4 K 4 4 O O O O O O O 1 4 4 O O O O O O     O O O             O @ O O O O O O O   O                   O     : O , 9 X   X - , X       O                               g t.l = X - d             X           o ; ; ; ; < - X X & s < X O * * > : 8 r s ",
"; X     O O O   X = X     j l -   O   O O O O   O O   = - d - X     O O O   O O X X   O   X X     O O       = - X O   X n     # uX  O   > >   X X   O O O   = b j = O   n C h n   kX  = : X X O O X X : b m V A V A m , X               X 9 , X         X X X           O O   , p.` 0 b = X : - , , X     O       X = = = = X             O X                 = X       X X                         O   X = X d -     X - = X                                 O     F v =   & < X O               .     . u p p u p p % . $ p p $ O 1 6 * # @ 8 e 6 ",
"s % .     O O O O + $ + O X < a $     O O O O O O O O O X & & .                   X               O         = ; o O   X h X     5.yX    X ; X X X     O O X = g g = @ X d 0.- X vXB - = = = X X X X = - g l l z z l g - =               = - - X         X X X             X   - w.j R b = X = - - = X             X o = = X                                   o                         O                   % i &     % u $                                 O 4 O % 6.u $ $ u i .                       . % u u % u % .   + * + O 1 4 O @ @ @ 7 7 0 ",
"s i .       O       $ + O   % p i   O O O O O O         + % i u               O   O           +   O   O O O   * %     O   X       <.pX[.e # # # # # # # # # # < a < # # # B  XsX< & & & $ . .       . . & a a a a a a & $                 & & .     O O   . .                 o F ; / _ & . & % % & .             . & % & . .             . .               . $         .             O O O               . i p $     u i .                                 4 1   % i $ . . $ .                           . . . . .     O O O O O 2 2 @ @ 2 2 7 7 0 ",
"J 3 O                     O   . $   O O   O O           O . $ %               O O       O       O O O O O O   $ % +   O   .     O     4.@X=X&X%X=X#X%X%X=X=X%X#X:X:X#X#X#X.X4.. p p p u $ $ $     . $ % p p 6.6.6.6.p p u .             . u p $           $ $               . % 6.u w _ $   % u u % .           . . $ $ $ . .             .   O             . .         .           O   O O             O . . .       .                                     X                                 O                         O O O O @ @ @ @ @ 2 @ : 7 0 ",
"I I 5 O     O O   O O   O O   O O   O O O O O       O         .                 O   O O   O         O O   O O         O O   O O                                 . .         . $ % $ $ . .   +         . $ % % u u u % $ .                 . $             .                   . i % j ,     .   . .                               O           O                                     O   O                                                                   X                     O O O   O   O                         O O O O @ @ @ O O @ 2 2 7 0 ",
"I I I 2       O O O O O O O   O O O   O O O   O   O O O O O         O O O       O O O O   O O O           O O     O O O O   O O O                           O                               O                                         O               O                   O       $ a ;                     O                                                                               O   O   O O 1 O O 4                                               O O               4 W O 1 O O O O O O                   O O O O O @ @ O @ @ @ @ @ 7 7 ",
"I I I I O O     O O O O O O O   1 G O O O       O O O O             O O O O   O O 4 O   O       O 1 O O   O O     O O O   O O O O O     O         O O O                 O O         O O O O O O               O             O O                     O   O         O               . p u     O       O O                     O O             O 4 O                             O O         1 G O   O   4 W O 1 K O                                           O 4 4             O ~ W   1 O O O   O 4 O           O     O @ @ O @ @ O O O @ @ @ @ @ 7 ",
"I I I T 0 O     O O O O O O O   O K 1   O O       O O             O O O O O O   O ! 4 O O O     O G O O O       O O O O   O O O O O O   O O       O 4 O O             O O O         O O O O W O                             O W 4                 O K O   O     O O             O   i u             O 1 O                 O G G         O   O W 4                                         4 W O   O   K K O O G O                                           X 3 O       O     = o.O X @         O G 4           O   O @ @ @ O O @ O O O @ @ @ @ @ 7 ",
"I I I I T 5 O     O O O O O O   O @ n X O         O O               O O O O       T M     O O   O 4 2 O           O O O   O   O O O O   O O     O O 4 O   O         O O O O         O O O O ! 4                             O c.G                 O Q O       O O O                 . .             O O               O   O 5 4             O Y O                                         V q         o.9   - @ O                                           ; X               0.l   ;         X , 4 G O             O O @ 2 @ O O O O O @ @ @ @ @ 7 ",
"U U U I T T 2 O O O   O O     O O   f ;                     O O     O O O O       X C =     O     O , X     O O   O @ O O O   O O O O O O O     O O O @   O       O O   X X           O @   o.j                         O     a.b         O         n X O   O   O O         O O               O O   X X             O   O   f X             - C                                         X r.X     O X r.X   f X                                             X       O       . k X             o - : 4 4 O           O O @ 2 O O O O O O @ @ @ @ @ 7 ",
"U T I U U T U O O       O     O O     =     O O               O   O O O O O O   O   h f         O   ; >   O O   O   X O O O O O O O O O           O   ;     O           X =       O   X ;   c r.                      O     X 0.c       O O O       D =     O   X O                           O O   X X                     f X             - f                                       O X k       O o k     =     O                                                         & $             . & = = 1 G 4 O         O O @ @ @ @ O 1 O O @ O X @ @ 7 ",
"U T T T R R U 0 O       O O O O O         O O O O O     O O O     O O O O O     O     o       O O     O   O O   O     O     O O O O O O               X                   X     O O O   X   - k                               f f                   ;                                                                       <               o o                                       O   .         u $   .       O       O O                             O                 .               $ % & = X G K O       O O @ @ 2 @ O @ O O 1 @ @ @ @ @ 2 ",
"U U I T T R U U 2       O O O               O O O O     O O O     O O O O O   O O     +     O           O O     O O         O O O O O O                                         O O O O O     i                               % i                   .                                             O                         .               .                                         O       O     .                       O                                                               . $ % X = 0 G 4 O     O @ @ @ O O O @ @ O G 4 @ 1 G 5 7 ",
"U T U U T R U U T 1 O O O O           O   O O O O         O O O   O O O O O   O O   O O     O O     O   O O     O O O       O O O O O O O O                                   O O O O         .                               . .                                                                 O   O                       O     O                                                             X                         O                               O                                 . $ . = h 2 1 O   O O 2 1 4 4 4 2 2 2 G ! G 1 2 L H 7 ",
"R R R U T T R R R U O O O O O         O O O O O O O       O O O O O O O O O   O     O     O O           O     O O   O O O O O O O O O O O O                                       O                                           O                                                                     O O                       O     O         O                                                 O     O O                                         O O O O O O                                   . % < - X O O   1 4 G G K K H 5 2 @ ] T 1 @ , 0 2 : ",
"T ^ R U U T R R R R I O O O   O O   O 1 1 O 4 K O   O O   O O K O     O       O             O O O       O     O O             O O   O   O   O O                                         O   O   O           O O               O                     O O   O                                     O O   O                 O O                   O O                     O O                       O   O 4 G                                         O O G 4 4                                       % i o X   O O 5 L H 5 0 0 5 2 X h C @ @ : n : X n ",
"T R ] U U U R R U R R 5 O     O O     1 4 O 4 ! 4     1 O O 4 c.K     O                     O 1 O O O O         O O           O 4 O O         4 O                               O O         O     O         O O                           O O O     O O                       O O O             O O   O O             O 1 O O                 O O         O O         O O                     O     O 4 4                 O O O                   O O 5 @ O                                       $ u .   O O O q U q 9 n b : @ X f - @ @ : : @ @ = ",
"U U { U U R R R R R R q @     O       O 2 @   : h     O       U a.        O         O         O O O   O         O O         O O G O   O       4 1                                   O                       O                           O O O O O O O O                   O   O 4 O             O O O O O O           O 1 O         O         O       O O O O O       O                           O   b O               O O O       O               = = -                                         . .   O O   , ' M q : , @ @ O # > X O @ @ @ @ 2 @ ",
"U U ` ] R R R R U U q 9 =                 =   X r.d     X     X w.g     O       O O O O       O > X   O         O O O           7 ,           O X                                                           O O                             @ O O   O                           X               O O   O O O       O     X                     O       O O O O         X                         O O = v   O                                     O   = X X                                               O O X q ] 0 2 @ @ @ O @ + O O O O @ O O O @ ",
"R R U ] R U U U q q , ; < .             O       = <   O         - k   O         O O O O         X =                             X f             ;                                                           O O                             X O     o X                         =   O           o       O O O     O     X                     X     O O O O                                       O X =                                         O       O                                 O O O         O   5 v.T 7 2 @ O O @ @ X O O @ @ @ @ @ @ @ ",
"R U R T U U q 0 9 9 8 & & $ .     O O   O         . . O           i $     O O           O O             O         O   O O O O     X       O   O                                                                                             O     O X   O                                           O   O 4 4 O                                   O O O                                             .                                                                                 O O O O O     O O     C.M.0 0 @ @ O O O O O O O O O O O @ @ @ ",
"R U U U 0 9 9 0 w e < & & $ +       O O     O   O O         O       O     O             O O               O O O   O O O O O O   O O O                                     O                                                   O             O O                                 O                       O 5 4 O                                 O O                                             O           O                                                                       O O O O O     O O     X.E.U I 5 2 @ @ @ @ @ O O @ @ @ O O @ 2 @ ",
"U U 0 0 9 9 0 w e e & & $ .         O O O   O   O                                           O O           O     O O O O     O                                     O O   O O         O                                                                           O                                         9 2 O                                                 O                                                     O     O O                                   O                     X O       O O   - ~.O.0 ( 5 @ @ @ @ @ O O O @ @ @ @ @ @ @ @ ",
"0 9 9 9 8 e e t 3 # o & .             O O O O                                                   O               O O         O                                         O O O                     O                                                                                                         - = O                               O                   O                                                 O O   O O O O                               O O O                   X O O   O X O   i.g.d ` v.4 @ 2 @ @ @ O @ @ @ @ @ @ @ O 2 @ ",
", > 8 e 3 6 3 5 2 X X . .   O O         O O O O       O O O   O             O O O O O O   O 1 1 O r yX[.  O 4.[.{.y O 1.      <.[.[.1.    @X;XE 4.5.1.{.+       e ;X%X+ O O 5.#     r y   O + 4.            <.#     e y       1.    e ;X@X#   y 8   O <.# {.1.[.1.          1.    O   4.0X[.  O # 5.[.  . % <.#   O O O                 O                     O O   O O                 O O O               O O O         O O O O                               O O O                 O O O     @     - k.j - o.~ 1 X X @ @ O O @ @ @ @ @ @ @ @ @ @ ",
"> e e 6 3 3 5 0 : X o .     O O           O O       O O O O O O   O   O     O O O O O O O   K K y IX@XzXr O IXdXzX5.y IX      LXlXlX%X  SXhX;X4.yXBXPXjX#     > IX%XiXr   {.IXpX    hXLX    pXIX        O   IX      ;XNX    # IX  r IX%XpX4.  NXoX  4.HXe hXIXlX;X  O O   y IX      @XHX|.NXhX  yXHXpXIX#   JX5.  O O O                                       4 K     O                                     O O O           O                                   O O                   O O O   O @      . .O k A 5 O   X X @ @ @ @ @ @ @ @ @ @ @ @ @ ",
"* 6 6 3 5 5 5 7 , o . .   O O O           O O               O O O O   O       O O O O       4 4 yX;X      O IX      y JX  O   KXe     + PX        4.NX        @XpX  O     zX|.KX    hXIX1.  HXGX          @XpX      @XkX    # IX  =XuX        zX{.  1.FX    HXe   O O O   jX[.      ZX<.    IX  yXyX  jX|.  AX4.  O 2 O                 O O O                 1 4                       O O                 O O               O                                 X                     O O O   O O   2 #.4 6 F , O O   X X O O @ O O @ @ @ @ O O O O ",
"6 6 3 5 0 5 0 : = o .       O O O             O     O         O O O O O O O O O O   O     O   X $XVX+   O + IX+ 8   y JX      JXB #   # IX  O     W.BX        %XhX        IX  IX+   NXoXzX1.jXGX          JX#       @XkX    # IX  ;XuX        zX{.# 1.SX    JXr     O O   IX        SX<.  + IX  yXyX  BX5.  AX4.  X ,                                         ; =                                           X                                                                       O @ O   X O   O %.I L p a @ O O     X X   O O O @ @ @ O O O O O ",
"+ 4 5 5 5 0 7 = o . .       O O       O     O O               O       O O O     O   O O   O   =   zXLXIX# + IXAXLX> r JX      SXGXJX[.# IX  O     W.BX        @XhX  X   # IX  BX5.  ZXr GXuX<.IX        <.SX        @XkX    # IX  =XuX# GXuX  pXJXSXGXzX    JXr     #   {.hX        FX<.  + IX  %XHXzXIX    ZX4.  @ ;     O                                   <                           O                               O O O                                                 O O O X   O O     ^ n.R T p % @ O               O O @ @ @ @ O O O O ",
"4 5 5 5 5 0 : = o .     O     O O O O O O   O O O             O         O O O O O O O O   O O   X     yXpX+ IX      y JX      LX#     # IX    O   W.BX        %XhX  O   4.IXpXHX;X  SXy pXIX  IX+       zX[.        @XkX    # IX  ;XuX  e GX  zX5.  y GX    JXr         GXr         SX<.  + IX  yXyX  @XlX  AX4.O 4 X O           O                           .                                                           O O O                                           O O     O     O O O   0 T.U X.O % o @ O               O O @ @ @ @ O O O O ",
"2 5 5 5 0 0 = o . .     O O   O O O O O         O O           O     O O O O O O O O O O   O O O       %XhX+ IX      y GX      LX#     + IX      O F.BX        |.lX      hXyX1.[.GX  SX<.# E   PX#       IX    O     @XpX    # IX  @XhX  # GX  zX{.  1.SX    JXr       e GX          ZX<.    PX  yX;X  @XlX  BX5.O 4 O O           O                                                                                             O                             O O         O O           O O     f.=.n 7 O O 7 O O                 O X @ @ @ @ O O O ",
"5 5 5 0 0 : = o .           O O O O O O O         O         O O O O O O O O O O O O O O   O O   [.LXNXIXO o IXHXLXyXe IXGXIX+ FXKXJXNX  jXHXZXpX  [.ZX          JXBXKXe LXy     IX  JX<.      PX#     %XhX          |.IXJXSX  IX  O LXBXGXzX  zX|.  1.GX    LXr       zX{.          1.IXzXIX@X  =XIXGXLX# 5.IX# @ 7 O O             O                                               O O O                                   O O O                             O O     O O     O O     O O O   N Y.0 q @ 2 2 O O                     O X @ @ @ @ @ @ ",
"H 5 I 0 : = o . .             O O O O O O                     O O O O O O   O O O O O O       O   O <.  O +   O + + +   + + +   + + + #   r y   O     +           <.e       O +   O         +   O O   +   O       O     + + +   + +   <.e   #     O     + +           +   O       O     <.#   O     +     r #   = , O               O                                             O O O O                               O O         O   O O O O               O     O 4 K O     O   O   O O O f.] T 1 O 4 5 O O   O         O O     O   X X @ @ @ @ ",
"T 5 I 0 = o . .   O O O O O     O O O O 4 K O       O O O O O O     O O O O O O O O O O O O     O O     O O O O           O   O   O O O O O O O     O O       O           O O     O           O   O         O           O           O     O                                 O         O     O O                 & & O                   O O                     O O                 O G O                           O O 4 O         O 1 O O 1         O       O O   O ~ ! O   O O     O   O %.C.I I O @ ~ 4 O O   O                       X X X @ @ ",
"i.9 I 0 = o . +   O O O O O     O O O O 4 ! 5             O O O       O O O O O O O O O O O O   O O   O   G W 1   O O       O O O O O O   O O O       4 K O                   O   O 1 O               O O O     O         O O O       O     O K 1                                     O O O G O                 $ $ 1 O O             O 4 4 O   O             O K 4   O O       O   5 ! O                               2 O   O O     O O O O               O       d o.O     O O O O O   U /.^ %.4 O U ^ O O O   O                           X X @ ",
"e.S 7 , = o .   O O O O O O O   O O O O O : i.X           O O O       O O O O O O O O O O O O O O O   O   O ^ 5             O O O O O O O O O O       G v.O     O O O O       O   1 4               O O O O     O         O O O       O     O ! 1                                       O O G O O                 . 4 4 O               5 1                   O 0 O                 b {                               X @     O O   X   X X O             O O O     r.z     O     O O O @ Y.K.] T O - a.@ O 4 O   O   O       O                   O ",
"9 n ; = = . .   O O O O O O O     O O O O X c f         O O O     O O O O O O O O O O O O O O O O O     O   f r.X         O O O O O O   O O O O O   O O a.X   O O O O O     O   O O 9         O O O O O @                 X O           O     o.X           O             O             O O 9 O                 O   5 G O               , X                   = f   O               v g     O       O                 = X     O         X X       O           O   . f X   O O     O X   =.^.X.$.2 X V f   @ 5 O   O         O O                   X ",
"0 8 < ; o .   O O O O   O O O     O O O X O   <           O O       O O O O O O O O O O O O   O O O O     O X v X         O O O         O       O   O   0.j   O O O O     O O   O   - X     O     O O   X                 X X           O     t.-           O                             X k     O   O         O   , w O   O       O   =     O           O   X X   O     O         k               O                         O O               O O               .   O O     O O @   , ~.s.O.I @ : w O O > 2 O   O         O O                     ",
"0 7 ; o $ .   O O O O   O O O     O O       O   .       O           O O O O O O O O O O O O       O O         . .   O O     O O                 O     O X a       O     O     O   O O X O               O           O O         O     O       <   O O                                       o     O       O     O   < - O O O               O                 .       O     O O O   .   O                                   O O O O     O O     O O O       O     O             X X   f.I.A ' 5 2 2 @ O X = @ O   O           O     O               ",
"0 : o $ .   O O O O O   O O O O O O O O O     O           O O O O O O O   O     O O O O O O O O O O                   O O     O O     O     O O   O   O   &           O                             O O O O O       O O   O O                 $ $                                           O         O         O   p % O         O O                                     O                                                         O O                               O       O O   ` E.[ ' 7 7 2 2 2 O * O 4     O O         O     O O             ",
"7 = o . .       O O O O O O O O O O O O   O             O O O O O O O O   O O O O O           O O O                   O O O   O       O O     O       O               O         O                           O                           O                                     O                       O             i $ O         O O                                 O   O O O O                                             O O     O                               O O     O   X U.d.U M , 2 2 @ @ 1 + 4 4 O   O                       O         ",
"= o o .     O O O O O O O O O   O O O O O O O O         O O O O O O O O   O O O O O             O O                           O       O O O             O     O       O O   O O                       O         O                       O   O                                                         O O           . . O O                                           O   O         O                       O           O     O O               O         O           O     O     S !.M q @ @ 5 2 @ X O O I 4 O   O                                 ",
"= o . .   O O O O O   O   O O   O O O O O O O O         O O O   O O O O     O O O O     O O O O         O O O   O O   O       O O       O O O O O   O   O O     O     O O O O O     O O               O     O   O O O   O O             O   O O         O   O                                       O O   O O O O       O O O                                             O O 1 O                                   O O 1 O       O     O O O   O       O O O O             O   = k.S 0 @ @ 2 0 X @ @   n 0 O O   O O                               ",
"= o .   O O   O O O O O   O O O O O O O O O O O O O     O O     O O     O   O O O O O   1 1 O O         O O O O     O         O O     O   O G O   O   O   O 4 O       O O           O O                     O O O O O O O                 O 1 O       O O O O                     O               O O O   O O 4 O     O O O O                                             O O 4 4                                     O 1 O               O O O O O       O   O O               N ..7 0 2 2 0 2 X @ @ O - X O       O O                       O O   ",
"= & .   O O   O O O O O   O O O O O O O O O O O O O O     O O   O O O O O O O O O O O O O 2 @             # e e e e e e e e 8 e e e e e e 8 / E > e e e e 8 / 3 e e 8 e e e e e e e e e e e e e e e e e #     O   O O O O         O O   O O 4 1   O O O O O                         O     O O     O       O O H 1     O O O O                                   O O         X 0 O       O                     O       X X     O O       O O     O O     O     O O O     O     O o.7 U @ 2 H 7 O @ O O + X O O                                   O   ",
"o .   O O O O O O O O O O O O O O O O O O O O O O O O       o               O O O O O O   o =     O   @X;X=X%X%X%X%X%X%X%X%X%X%X%X%X%X%X%X%X,X,X$X%X%X%X%X%X<X,X@X%X%X%X%X%X%X%X%X%X%X%X%X%X%X%X%X%X%X%X%XyX{.  O                   O       9 =   O O O           O O O                     O                 n   O O     O   O                                             ; ;     O                                 X X   O O                 O O O       O O O   O   O     ` U 0 0 2 0 I O O O @ O + O O     O           O O O               O O ",
"$ . O O O O O O O O O O O O O O O O O O O O O O O O O         O   O       O O O O O O O     o   O # jX<.                                    X c X   O       X f                                             5.sX  O             O O O   O   f ; O O O O                         O         O O O             X f     O     O O O                           O O O             X         O                                     O O           O         O O O O O O             2 $.H T X @ R 5 O   O @ O + O 4 O   O             O O       O O     O O ",
"$   O O O O O   O O O O O O O O O O O O O O O O O O O O         O O O O     O   O O   O O     O   kX  O O O O O O   O   O   O         O O O   ; o       O O   >         O O O O               O               e pX  O             O O   O   o X O O O O                       O O O         O                 X   O O     O O                             O               O         O                                       O O           O       O O O O O               O $.0 ) G 1 T ( 2 O X O O O O H G O         O           O O   1 4 O       ",
". O O   O O O O O O O O O O O O O O O O O O O O O O O O O       O O O O O O O O   O O O O       %X<.  O O O O O O O O O O O               O O   +       O O O           O O O O O   O       O O       O O       {.5.        O O O O         O       O O O   O             O O O             O O O               O O O     O O O O                           O O O         O O                                         O     O O                 O O O   O O               Y ] b ` O @ &.Q O O X @ @ @ 7 ~ G O         O           O     @ 1 O       ",
"  O O O O O O O O O O O O O O O O O O O O O O O O O O O O O     O O O O O O       O O O O       yX    O O O O O O O O O O O                 O   O   O O O O               O O O             O                 O   ;X              O         O O       O O O O             O O O           O O O O             O O O O     O O O                             O O                         O O                           O O O O O O             O O O O O O O O           O ;.7 n X   C o.2 1 O + @ @ O , ^ 4 O   O     O               X ;           ",
"O O O O O O O O O O O O O O O O O O O O O O O O O O O O O O       O O O O O O                 e @X  O O O O O O O O O O O       O     O O   O   O     O O     O           O O O                                   ;X      O O           O       O O     O O O               O             O O O O O             O O O   O O O O O                                     O                 O O O               O O       O O O O O O O           O O O O     O O     O     $.` 2 2 X = c - @ @ X @ O O 6 n I 1     O O   O               X X   O O     ",
"O O O O O 1 O O O O O O O O O O O O O O O O O O O O O O O O O       O O O O O O     O O O     t |.  O O   O O                 O O O O O O O O +   O O   O O   O         O O O O O O O   O O       O   O O   O O   %XO                   O O O O O       O O O               O       O O O     O O O O         O X O   O     O O O O O     O                     O   O     O O O O O O O O O     O O O O O     O             O O O           O O O O     O O   O O O   0 ;.5 2 @ O < < X X O O @ X O s w L 1           O                             ",
"O O O O O O @ O O O O O O O O O O O O O O O O O O O O O O O O         O O O O O O   O O G O   r |.  O O O O O O       O O O O O O O O O   O O K 4 O   O   O G O O O O         O O O         O O O 4 O     O       =X                      O O O O         O O       O     O O O     O O O             O O O O   +   O 4 O     O O O O             O O O O O O       O O O O O O O 4 O O O             O O                 O O O O             @ O O     O O O O O O O -.T ~ 2 @ O 3 + O O O O @ @ O < n T O         O O                             ",
"O O O O O   X X O O O O O O O O O O O O O O O O O O O O O O O         O O O O O O   O O 4 @   r oX  O O O O O         O   O O O O O O O     O ! H 1       O ! 5         O   O O O O           O O K 4     O O     =X    O           O     O O O O O O O     O     O O O   O O O O O O O O   O O       O O O O       O 5 O     O O O O         O   O O O O O O     O O   O O O     0 O                 @   O   O     O     O O O O     O O   X X O       O O O 2 O   %.&.~ T O 1 5 4 1 O O O O @ @ X < V 4 O         O O                             ",
"O O O O O   O O O O O O O O O O O O O O O O O O O O O O O O O O         O O           O X >   r |.  O O O O O O   O O O O O O O O O O O ;X&X}.qX,X  # &XW.  M = [.%X=X<.  O O O O O O O O O       0 :       O O   =X  O O O O       O     O O O O O O O           O       O @ O O O O O O O O   O O O O O O @   y 3 X ; O     O O O O   O O                     O O   # y @ O   = ;   O   O         X     O     } |.      O O O O     O O   X       O O O   @ O   5 D.] V.O O K L 4 4 O O O X O @ . s = O                             O             ",
"O O O O O O O O O O O O O O O O O O O O O O O O O O O O O O O O O       O O     O     O   O O r |.  O O O O   O O O O O O O O O O O O + lXhXIXpXuX  }.IXLX  f   GXBXpXIX@X  O O O O O O O O       - f   O         =X+ O O               O O O O O       O O   O   O         X O   O O O     O O O   O O     O   GXfX  =       O O O   O O                   O O O O   yXHX  @   X         O     O           O   VXIX#   O O O O O O   O O         O O O   X > O   ;.#.i.q O 2 ) 2 9 2 O O O @ @ O % p   O   O O                                     ",
"O O O O O O O O O O O O O O O O O O O O O O O O O O O O O O O O O         O   O O     O O O O r |.  O O O O     O O O O O O O O O O O O   # IX      zX|.IX# O   GX[.  5.GX  O O O   O     O O       >   O   O O   =X  O O         O O O O   O O O O     O   ;X                    O         O O O               ZXuX            O O     O O O       O O O O       O   =XSX  O           O O O         O # @X    r F.  O   O     O O     O         O O O O X     q ;.j C @ 4 ;.N = 9 @ @ O @ @ X O + . O O   O O O                                   ",
"O O O O O O O O O   O O O O O O O O O O O O O O O O O O O O O O O O   O               O O O O r |.  O O   O   O   O     O   O O     O O O r IX      LXy GX{.    GX[.  5.GX  O O O     O       O               O   =X  O O         O O O     O O           {.LXr O O   5.oX<.  O O   E oX5.r   O +   [.|.<.  O   ZXuX  O   5.|.<.  @ O     +   4.|.<.  O O O {.}.y     =XSX  o   <.|.5.  + O   1.|.1.O O jXlXr O # y O O   } oX[.  O O e   E |.4.  X     @ X   O ;.q 9 @ 2 b C X X X @ @ @ @ @ X @ O 4 K 4     O O O O   O O                         ",
"O O O O O O O O O O O O O O O O O O O O   O O O O O O O O O O O O O         O O O O O O O O   r |.    O O       O O     O   O     O O O O r IX    # IX  pXlX    SXhX@XGX[.  O O O                     O       O   =X  O O     O O   O O     O O O O O   =XIXIXKX}   FXHXNXIXpX    %XIXNXSXIX}.    LXGXBXIXLX    AXuX    BXLXBXIXpX  O O O   lXIXSXIXoX  # IXGXVXIX[.  =XSX    yXIXNXIXSX    jXPXNXLX# zXIXLXHX  ;XPX    &XIXNXGXJX    %XJXJXNXIXyX      X X   ] { 2 2 7 @ w = O O @ @ O O O @ X 2 O 0 / 1               O O O                       ",
"O     O O O O O O O   O O O   O O O @ X   O O O O O O O O O O   O O             O O O O       r |.        O O     O O   O O O   O O O O   r IX    [.ZX  y KX    SXpX|.zXhX  O O   O                 O O O O O O   =X  O O   O O   O O         O O     O   |.SX    5.IX    r IX+   LX5.    LX|.  |.LX    {.LX    AXuX  <.IX    5.IX  O O O r IX#         yXZX    hXNX  ;XSX    IX<.  + IXE 8 IX#     O   BX;X    @XHX    IX1.    JX}.  {.IX    {.LX  O O X O 2 ;.0 7 2 2 5 O O O O O O O O O @ @ @ - r.:                 O O                       O ",
"      O O O   O                 O O O X O           O O O O     O O                           r |.  O 4 1         O O   O O O   O O   O O r IX    uXIXGXJXIXO   GX[.    IX+ O O   O O O             O O O O O O   =X  O O O O O O O O   O O     O         &XSX    }.LX    y IX8   IX5.    PX|.  %XHX    @XLX    AXuX  [.IX    4.IX  @ O O r IX#     O   jXlX    pXBX  ;XSX  # IXr   O IX<.E IX# O O     ZXiX    @XHX  + IX<.    JX5X  |.LX    }.LX  O O X 1 C.%.H 0 2 H L O O O @ O O O O O @ @ O ; h   O O O       O                               ",
"      O O O     O               O   O O O O         O O O O                     O O           r |.  O W c.1             O G 4   O O   O O r IX    GX[.r # JX5.  GX5.  + IXO G 1   O   O O O O O O   O O O O       =X  O O O O O O O O O O O     O 1 O O   &XSX    oXLX    y IXe   IX5.    PX|.  ;XGX    %XLX    AXuX  [.IX;XhXIXiX  @ O O   SXIXGXjX    jXGX5XnXIXF.  ;XSX  e IXpXpXJXZX  y IX#         ZXiX    @XHX  # IX1.    JXqX  |.LX    |.LX  O     #.T.~ T 7 7 R H 1 4 O O O O O O O X @ O *   O   O O                                       ",
"    O   O O     O O O O O O O O O O O O O O         O O @ O O     O           O O O O O O O   r |.    4 A.,   O     O   O G R X   O   O O y IX  # IX#     lXlX  HXZXzXLXpXO c.G   O     O O O O O   O O O O   O   =X+ O O O O O O O   O 4 1 O O O G H O   &XSX    |.LX    y IXe   IX5.    PX|.  =XHX    %XLX    ZXuX  [.IX@X@X<.  + O 2 O O   5.|.LXjX  jXSX@X*XE     ;XSX  # IXyX=X5.    y IX#     O   ZXiX    @XHX  + IX<.X g JX<X  }.LX    |.LX  X   , ^.Z.%.0 @ 0 ` 2 2 H 4 1 O O O O X X @ O O O O O O O       O                               ",
"O   O O O O O O O O O O O O   O O O O O O O O O O O O O O X O O O O O O       O O O O O O O O r |.  O O c r.X     O O O     e.f   O O     > [.  # [.  O O r 5.  4.{.}.<.  O o.e.X O           O O O O O O O       =X  O O O     O O O O 2 X O O   @ `     &XSX    {.LX    r IX#   PX1.    IX|.  |.JX    oXLX    AXuX  5.PX        O X = O O O     %XSX  hXlX  l =     ;XSX  # IX>       O y IX+     O   ZXuX    @XHX    IX}   X HX%X  }.LX    |.LX  @ X t.!.H.' @ 7 M : : 0 T H 2 1 4 1 1 @ @ @ @ O O O   O     O O O O         O O               O ",
"  O O O O O O O O O O O O O O O O O O O O O O O O O O O O O O O O O O O     O O O O O O O O   r |.  O O = F o O   O O       = ;           X         O O O     O             g r.X     O O O O O O O O O O O O O   =X+ O O O O O O       > X O O O X f     =XJX    r IX<.# %XIX    zXSXoXNXIX|.  e IX<X&XIXJX    AXuX  # IX5.# 4.%X  O @ O O {.r # SXpX  {.LXt r {.[.  ;XFX    LX;X# y 0X    IX@Xo 4.#   BXjX    %XJX    HXuX# y IX1.  |.LX    |.LX  X = t.g.=.: @ 9 9 @ : b 9 2 2 2 5 G K G 4 1 O O O O O         O O O         O O               O ",
"O O O O O O O O O O O O O O O O O O O O O O O O O O   O O O O O O O O O O O O O O O O O O O O r |.        . $     O O O O     o     O O O         O O O O                   X a .       O O O O O O O O O O   O   =X  O   O O O               O O   ;     > GXIXy   |.PXIXJXy   O   iXzX[.GX|.    1.zXhX}.LX    jX%X    }.IXIXHX@X  O O O # ZXIXIXNX  O   hXIXIXGX}   oXzX    } HXIXLXpX    4.JXIXLX}   [.IXLX  }.NX  O e SXIXIX&X    [.VX    [.BX  O f p.=.9 @ 7 0 2 # > = = : : 7 q T T L H 5 O 1 4 O O   O     O   O                         O O ",
"O O O O O O O O O O O O O O O O O O O O O O O O O O O O O O O O O O O O O   O O O O O O O O O y |.  O O O O   O O O O O O O O     O O O O O     O O O O O O     O             . .   O O   O O O O O O O O O O O   =X+ O   O O O       O O O O O     O   O O       +           O O         JX|.  O       5.IX  O     O O           O   O O O         + O O         O @     @ O           O O           O       #     O O           O O     O O     @ O n ..q @ @ 0 0 O # * # O @ @ , b N M U I 5 5 Q ! 1 O       O O O O                           O ",
"O O O O O O O O O O O O O O O O O O O O O O O O O O O O O O O O O O O O O   O O O O O O O O O # =X  O O     O O O O O O O O O O O O O O O O O O O O O O O O O O   O       O O               O O     O O O O   O   ;X  O   O O O       O O O O O O         O           O O O O O   |.lX|.yXIX<.    zX%X{.GXVX  O O O O O O O O O O O     O O O     O O O O O O O O O O O O O     O                                     O O O O X O O O O O O       O 2 q [ 2 @ @ 0 2 O O + 4 O + # > ; , h b 0 0 N m.( 1 O         O O O O                 O   O O O ",
"O O O O O O O O O O O O O O O O O O O O O O O O O O O O O O O O O O O O O O O O O O O O O O O   yX    O     O   O O O O O O O O             O O O O O O O O O O   O                                     O O O O > ;X      O O O O   O O   O O O O O   O     O     O O O O O O O   8 yXZXNX[.  O   [.zXZXhX+   O O O O O O   O O         O O O     O O O O O O O O O O O               O               O O O O O     O   O O X O O O O O O O       X : { T @ X 9 q 2 O O @ 5 O   & * & > , : 7 : c ..I O O         O                 O         O O O ",
"O O O O O O O O O O O O O O O O O O O O O O O O O O O 4 4 O O O O O 4 O O O O O   O O O O O   O 5.}.O 1 O   O O O O O O O O O O O   O O O X O O O O O O O O O O     O O       O O                         O O   yXr O   O O O O     O   O O   O O     O       O O O   O O O O O   O         O   O         O   O O O O O O   O O O     O O O O     O O O O   O O O                         O O O   O O K O O O O O O O O O X @ O O   O O O       O X : m.L @ @ T I @ O @ 9 @ O O + + # & * : @ * F b 2 O O                           O O O       O O ",
"O O O O O O O O O O O O O O O O O O O O O O O O O O O 1 5 O O O O O G 5 X 2 2 O O O O O O O O O   yX5.G 4 O O   O O O O O O   O O O O 1 G O O     O O O O O O         O O O O   O O                       O   oX}.O O O O O O O   O O O O O O   O O O O O O O   O O   O O O O O O     O O   O O O O   G K O O O O O O O O O O O O O O O O @ O     O 4 1                               O O O O O     Y K   O O O O O O O X @ @ @ O O   O O     O   O X.N.2 @ U ) 5 2 O @ : O O O O O O O + @ @ i s X O   O   O                   O                   ",
"O O O O O O O O O O O O O O O O O O O O O O O O O O   O @ =   O O O 4 0 = @ @ @   O O   O O O O O   %XiX+.                              O                                                                 <.uX[.  Q 4       O     O O L O   O O O O O O O 4 1 O O   O O O @ O O O     O     O O O O O L Q O   O O O O O O O O O O O O O O O         @ @                     O O O O O O O O O O O - k.- O O O O O O O O X @ @ @ @   O O O   O O O = I.%.@ = o.U 2 @ 1 @ X O O O O O O O O @ O % % O O   O O     O               O     O     O O O O ",
"O O O O O O O O O O O O O O O O O O O O O O O O O O O O O X O O O O O X , @ X X X   O O O O O O O O   t ,X<X5X;X;X;X;X;X;X;X;X;X;X;X;X;X<XuX;X;X5X5X;X;X;X;X;X;X;X;X;X;X5X0XyX;X;X;X;X;X;X;X;X;X;X;X;X;X;XoXo   X 0 @   O   O O   O O { X   O   O O O   X 7 X     O O O O @ @ O O     O     O O O O   V A   O O O O O       O O           O         ; X                   O O O O O O O O O O O   f c X O O O O O O O O X @ @ @ @ O O O O O O 2 O j f.0 @ h C : @ @ @ @ @ O O O @ O O X @ @ O + O O O     O O O                   O O O O O O O O O ",
"O O O O O O O O O O O O O O O O O O O   O O O O O O   O O O O O O O O O O O X       O O O O O O O O O O =                                                                                                   O O X - ;   O   O O       k = O     O O O   X ; X O   O O O   X X O   O   O     O O O   X f f X   O O   O                     O O O               O O O O O O O O O O O O O O O O O   #   O   O O O O O O O X X @ @ O O O O     @ 2   D [ 1 @ n : @ @ @ @ @ @ O O 1 O O O O @ @ @ @ O O O O O O O O             O O O O O O O   O 2 1 O ",
"O O O     O O O O O O O O O O O O O O O O O O O O O   O O   O O O X O O O O O O   O O O O O O O O O O     . O O   O O O O O O O O O O O O     O O O O O O   O O O O O O O     O O     O   O O O   O O O O O O O     X         O       o O O   O O O O O   X X O   O O O O X       O O O   O O O O O O o   O                               O O O     O         O O O O O O O O O O O O O O O O   O O O   O O O O O O O O X X @ @ O O O O     @ O   { I O @ 3 @ X @ O @ @ 2 @ @ 2 @ @ O O O @ @ O O O O O     O           O O O   O O O     O w @ O O ",
"O O O     O O   O O O O O O O O O O O O O O O O O O O O O O O O O O O O @ O O O O   O O O O O O O O   O O O O   O O O   O O O O O O O O O O O O O O O O O O O O O O O O O O     O O O O O O O O O O O O O O O O O   O                     O O O O O O O O     O O   @ @ O O O O O O O       O O O O X O                   O       O O O O O O O O O O           O O O O O O O O O O O O O O O O O O O O O O O O O O O O X @ @ @ O O O O   @ @   : ;.5 @ @ 2 2 O @ O @ @ @ @ X @ @ 2 1 O 2 2 2 O O O O O O               O O O O O   O O O @ X     O ",
"O O O 1 4 O O   O O O O O O O O O O O O O O O O O O O O O O O O O O O O O O @ @ O   O O O O O O O O O O O O O O O O O O O O O O O O O O O O O O O O O O O O O O O O O O O O       O O O O O O O O O O O O O O O           O O               O O O O O O O   O       @ X O O O O O O       O O       O O           O O   O O O O O O O O O O O O O O O O         O O O O O O O O O O O O O O O O O O O O O O O O O O O O @ @ @ @ O O O O O @ O   ` %.2 X @ H 5 O 4 5 2 O @ @ @ @ @ @ 2 2 7 2 @ O 1 4 4 1                     O O O O O O O         O ",
"O O   4 ! K O O   O O O O   O O O O O O O O O O O O O O O O O O O O O @ @ @ @ @ O     O O O O O O O O O O O O O 1 2 O O O O O O O O O O O O O O O O O @ O O O O O O O O O O O       O O O O O O O O O O O O O O   O O O O O O O O O O         O O O O O   O O           O O O                     O O O     O O O O O O O O O O O O O O O O O O O O   O O O     O O O O O O O O O O O O O O O O O O O O O O O O O O O O @ @ @ @ O O O O O O     $.~ @ @ 7 R 4 2 ~ 2 @ @ @ @ O @ @ @ @ 7 @ @ @ X @ 7 5 O                     O O O O O O O O       O ",
"  O O O G P.j X   O O O O O O O O O O O O O O O O O O O O O O O O @ @ @ O @ @ @ O     O O O O O O O O O O O O O 4 2 @ O O O O O O O O O O O O O O O O @ @ O O O O O O O O O O       O O O O O O O O O O O O O O O O O O O O O O               O O O O O             O                             O O O O O O O O O O O O O O O O O O O O O O O O O O O O O O   O O O O O O O O O O O O O O O O O O O O O O O O O O O O @ @ @ @ @ O     O     = $.H @ @ C b X C U @ O 2 1 O O @ @ @ @ @ @ @ @ X = w @ O             O O O O O O O 2 @ O O O   O O O ",
"    O     d u.= O O O O O O O O O O O O O O O O O O O O O O O @ O @ @ @ @ @ @ @ @     O X @ O O   O O O O O O O 4 7 X O O O O O O O O O O O O O O O @ @ @ O O O O O O O O O O     O O O O O O O O O O O O O O O O O O O O O O O O O 4 O O O     O                               O O O O O O O O O O O O O O O O O O O O O O O O O O O O O O O O O O O O O O O O     O 2 5 5 O O O O O @ O O O O O O O O O O O O O O O O @ @ @ @ @ O O O   O   b @.4 @ @ 9 X = V X 4 5 5 4 4 O @ @ @ @ @ 2 2 @ @ @ @               O O O O   O X : > O         O O O ",
"  O O   O   - a   O O O O O O O O O O O O O O O O O O O O O O O O @ @ @ @ O O @ @ O O O O O 2 O X O O O O O O O 2 > X   O O O O O O O O X O O O O O O @ O O O O O O O O @ @ O     O O O O O O O O O O O O O O O O O O O O O O O O G W O O O O O O                         O O O O O O O O O O O O O O O O O O O O O O O O @ @ O O O O O O O O O O O O O O O O O     X 7 M 9 O O O O O O O O O O O O O O O O O O O O O O @ @ @ @ @ O O O O O   { T O @ 5 H 2 X O 1 2 0 T 5 4 @ @ @ 2 @ @ 2 2 2 2 5 O           O O O O O O O O X X O O   O O O O O O ",
"    O O O     . . O O O O O O O O O O O O O O O O O O O O O O O O @ @ @ @ O @ @ @ O O O O O > @   O O O O O O O @ X O O O   O O O O O O O O O O O O O @ O O O O O O O O @ @ O O   O O O O O O O O O O O O X O @ @ O O O 1 O O O   @ ;.@ O O O O O O O     O O O     O O O O O O O O O O O O O O O O O O O O O O O O O O O @ @ O O O O O O O O   O O O O O O O O O   = = f - O O O O O O O O O X O O O O O O O O O O @ X @ @ @ @ @ O O   O   = C.L @ @ / 5 @ @ @ @ 7 M R I 2 2 @ 5 5 @ @ 5 5 2 H K 4   O     O O O O O O O O O X O 4 4     O O O O O ",
"      O O O O     O O O O O O O O O O O O O O O O O O O O O O O O O @ @ O @ @ O @ @ O O O O O X O O O O O O O 1 2 @   O O O O O O O O O O O O O O O O O O O O O O O O O @ O O O   O O O O O O O O O O O O X X @ @ X O 1 H @ O O   = D = X O O O   O         O O O O O O O O O O O O O O O O @ @ O O @ O @ O O O O @ @ O O @ @ O O O O O O O X O O X O O O O O O O     X X X O O X O O X O O O O O O O O O O O O O O @ @ @ @ @ @ @ O O   O   O.D.4 @ M n.1 X @ @ X , b ] I 2 2 7 5 H 2 7 0 H 5 %.c.4 O O 4 4 O O   O O O   O O X 2 H 4 O       O O O ",
"O O O   O O O O O O O O O O O O O O O O O O O O O O O O O O O O O @ @ @ O @ @ @ 2 2 @ O O O O O O O O O O O O 4 @ X O O O O O O O O O O O O O O O O O O O O O O O O O O @ @ O O   O O O O O O O O O O O O O O X X O O @ 0 @   O O   < X O O O O               O O O O O O O O O O O O O O O @ X O O O O @ O O O O @ @ O O O @ O O O O O @ @ @ O O X O O O O O O O O O       O O X O O X O O O O O O O O O O O O O O @ @ @ @ @ @ @ O O   O - !.-.1 = s.%.1 @ @ 2 2 r b q 7 @ 7 9 T L 5 9 q I ` Z.! 1   1 L Q 4 O   O O O O O   = , @ O O O O O O O O ",
"        O O   O O O O O O O O O O O O O O O O O O O O O O @ O @ @ O @ @ @ @ @ 2 2 2 @ X O O O O O O O O O O O 1 : X O O O O O O O O O O O O O O O O O O O O O O O O O O O X X O     O O O O O O O O O O O O O O O O O X = X     O O O   O O O O               O O O O O O O O @ @ @ O O @ @ @ @ @ @ @ @ O O O O O O @ @ O O O O O O O O O O O O   X O O O O O O O O O O   O   X O O O O X X O O @ @ O O O O O @ @ @ @ @ X @ @ @ @ O X O X z l.U O d f.0 2 2 @ 2 5 r w 0 5 2 0 9 U I 2 9 9 e 2.:.Q O - b N 0 1 O X O O O O O O X X O O       O O O O ",
"O     O O O O O O O O O O O O O O O O O O O O O O O O O O @ O @ O O @ @ @ @ @ 2 2 2 @ X   O O O O O O O O O O O X O O O O O O O O O O O O O O O O O O O @ @ @ O O O O O O O @ O O   O O O O O O O O O O O O O O O O O O X O O   O O X O O O O O       O O O O   O O O O O O @ @ @ @ O O @ @ @ @ @ @ @ @ @ O O O O O O O O O O O O O O O O O X O O X @ O O O X X O O O O O     O O O O O X X O O @ @ O O O @ @ @ @ @ @ @ @ @ @ 2 @ O   O X c =.2 @ m -.1 @ @ : 0 0 e 7 I 5 0 J 8 9 7 7 w : s F X.G O - - d X O O O O O O O O O   O O O O       O O O ",
":   O O O O O O O O O O O O O O O O O O O O O O O O O O @ @ @ @ O O @ @ @ 2 2 2 2 2 7 X     O O O O X O O O O O X O O O O O O O O O O O O O O O O O O O O O @ O O O O O O O X O O   O O O O O   O O O O O O O O O O O O O O O O O O O O O O O O   O O O O O O     O O O O O O @ @ @ O O @ @ @ @ @ @ O @ X O O O @ O O O O O @ O O O @ O O O O O O O @ O @ O X X O O O O O   O O O X O O O @ @ O @ O O O O @ @ @ O @ @ @ @ @ 2 2 O O   O X { R @ @ o.^ O @ @ : 9 7 @ 7 7 : 7 3 e # 7 7 w > p F 9 O     X X O O O O   O O O O O O O O   O O O O O O O ",
"r.-   O O O O O O O O O O O O O O O O O O O O O O O O O @ @ @ @ @ 2 2 @ @ 2 2 @ 2 H T 7   O O O X @ X O O O O O O O O O O O O O O O O O O O X O O O O O @ O O O O O O O O O X O O   O O O O O O O O O O O @ O O O O O O O O O O O O O O   O O O O O O O O   O O     O @ O O O @ @ @ O O O @ O @ @ @ @ @ O X O @ @ O O O O O O O O @ @ @ O O O O O O @ O @ O O O O O O O O O O   O O O O O @ @ @ @ @ O O O O @ @ O @ @ @ @ 2 2 @ O O O O : V.H O - o.5 @ @ @ 7 : @ @ 9 : @ @ # # # 7 7 @ O p a X O O   O O O O       O O O   O O O O O O     O O O O ",
"d k . O O O O O O O O O O O O O O O O O O O O O @ O O O O @ @ @ @ @ 2 2 @ 2 2 2 5 H v.&.X O O O X @ O O G H O O O 1 K 1 O O O O O O O O O O O O @ @ O O O O O O X O O O O O @ O O O O O O O O 4 O O O O O O O O O O O O O O O O O O O O     O O O O O O O O   O     O O @ O O O @ @ @ @ @ X @ O O 4 5 O O X O @ O O @ O O O O @ @ @ @ O O O O O O O @ @ O O O O O O O O O O O       O O @ O @ O O O O O O @ O O O O @ @ @ 2 2 @ O   O   ' C.4 O f M @ @ @ @ 2 2 2 O O @ @ @ O + @ @ 7 2 2 i + O O O O O O O O O O O O O     @ @ O O O O O     O O O ",
"    .   O O O O O O O O O O O O O O O O O O O O @ @ O O O @ @ @ @ @ @ 2 2 2 5 2 0 0 R a.c   O O X O O X 5 I @ @ O O H 9 X O O O O O O O O O O @ @ @ O @ O O O O X O O @ @ @ @ O O O O O O O 2 5 1 @ @ O @ @ O O @ O O O O O O O O O O O O O O O O O O O O O O O O   O O @ @ O O @ @ O O @ X @ @ @ L ( 1 X O O @ O O O O O O O @ O @ O O O O O O O O O @ @ O O O O O O @ O O O O       O O X @ @ @ @ O @ @ @ @ O O O @ @ @ 7 @ @ O O O X f.v.O @ 7 2 @ O @ @ 2 @ 2 2 @ @ @ @ 2 @ @ 2 2 2 1 O O +   O O O O O O O O O O O   X X O O O O O O   O O O O ",
"  O O   O O O O O O O O O O O O O O O O O O O O @ @ O O @ O @ @ @ 2 @ 2 2 2 2 5 0 0 U V r.X O O X @ @ X @ : 9 @ X O X D : O O O O O O O O O O @ @ @ @ @ @ @ O O @ O O @ @ @ @ O O O O O @ @ 2 Y 2 @ @ X @ @ @ 2 @ X X O @ @ O O O O O O O O O @ @ O O 2 1 O O O O     O X @ O @ O O O O O O O @ : i.i.O @ X @ @ O O O O O @ @ @ @ O O O O O O O O O O @ @ @ @ O @ O O O O O O O O     O O O O O @ @ @ @ @ O @ @ O O O @ @ : @ @ O O   j ~.T @ @ H 5 @ @ @ @ 2 2 2 2 @ @ O O @ @ @ 2 2 2 2 O O O   O O O O O O O O O O O O     O O O @ O O O O O O O ",
"O O     O O O O O O O O O O O O O O O O O O @ O @ @ O O O O @ @ @ @ 2 @ 2 2 5 5 5 I U 0 < %   O O X @ O O O @ @ O O X = @ O O O O O O O O O O O @ @ @ @ @ @ O O O O O @ @ @ @ @ O O O O O O @ 9 : @ @ O O @ 5 0 @ @ X O O @ @ O O     O O O @ @ @ O @ 2 5 @ O O O O O O X @ O O O O O O O @ @ X , v v X O @ X @ @ O @ O O @ @ @ @ O O @ O O O O @ O O O @ O O O O @ @ O O O O O O O     O O @ @ @ @ @ O O O @ @ O O @ @ @ : @ @ X O   t.f.2 @ 0 v.5 @ @ @ 2 5 5 2 2 2 @ @ 2 @ @ @ 2 2 @ 2 O O O       O O O O     O O O O O O O O > @ O O O O O O O ",
"  O   O O O O O O O O O O O O O O O O O O O O @ @ @ @ @ O O O @ @ @ 2 @ 2 2 5 0 0 0 q U 0 .   O O X X O O O O O O   X X O O   O O O O O O O @ O O @ X @ @ @ @ @ @ O O @ @ @ @ @ X O O   O O @ X @ @ @ O @ 2 2 0 @ O O O O O X O O   O O O O @ @ @ @ @ 7 0 @ O O O O O   O X O O O O O X O @ @ X X > X @ X O X O O O @ O O O O @ @ O O O O O O O O O O O @ 5 4 @ O O @ O @ O @ O O O       X X @ @ @ @ @ O O O @ @ @ @ @ @ @ @ @ @ O X i.` @ X =.^ 2 @ @ @ 0 I 5 5 5 2 1 @ @ @ @ 2 2 @ @ O O O O         O O O O   O O O O O O O O X   O     O O O O ",
"          O   O O O O O O O O O O O O O O @ @ @ @ @ @ @ O O O @ @ @ 2 2 2 2 5 0 I 0 U U 0 o   X e 8 > r O # r O   @ @   e   X + #   O O @ @   } 4.+ O O @ @ @ @ O 8 O @ 8 e # r @ O e e 8 O @ O + O @   r @ # r r O 8   @   > + + F.r O O O @ @ @ @ X X > X @ O O O O O O O O O O @ X @ O @ @ X @ O O O @ O O O O @ @ O O O O @ @ O O O O O O @ O O O X @ U H @ O O X O @ O @ O O O O   O   X @ @ @ @ @ @ @ @ @ @ @ @ @ : @ @ @ @   = o.5 O - a.I @ @ @ : q I 0 0 5 O O @ 2 2 2 5 2 @ O O @ O O               O     O O O O O   O O O O O O O O O O ",
"O O O 4 G O O O O O O O O O O O O O O O O O @ @ O O O O O O @ @ @ 2 2 2 2 5 5 0 I I U U q >     ZXLXIXHX  IXZXIX@X  O {.IX%X    ZXGX  [.SX  0XHXzXhX  jXyXO O O e IXNX  jXJXIXGX> FXGXGXpX  @ O |.ZX  jXfX  IXAXJXW.zXoX  ;XzX# IXhXGX# O O @ @ O X O X X O @ O X @ O O   O O @ O O O O @ X O @ @ @ @ @ @ @ @ @ O O @ @ @ O @ @ @ @ @ @ O O O O @ O O X O b U 1 @ @ X X X O @ @ O O O O O   X X @ @ O @ @ @ O O @ @ @ @ : @ @ @ @   b &.2 X f  .2 @ @ @ : U T 7 @ @ @ @ @ @ 0 7 @ X O O O O O O                     O O O O O O O O O O O O O O O O ",
"O 4 L 4 ! I O O   O O O O O O O @ O 4 G O @ O @ O O O O O @ @ @ 2 2 2 2 2 5 0 I I I U U U 7   O   }.pX  O IX  O IX    NX%XSX    NXLXr W.BX  IX        pX-X  O O oXpXLX    } ZX    LX#     X X O {.NX  IX    IX      <.GX  JXe pX%X    @ O O @ @ O X O X X X O O X @ O O O   O @ O O @ X @ @ @ @ @ @ @ @ O @ @ @ @ @ @ @ @ O O @ @ @ @ @ @ O @ O O X @ @ # s 7 2 @ X X @ X X @ O O O O O O     X O @ @ @ @ @ O O @ @ @ @ @ @ @ @ @   n R O X m 0 @ @ @ @ 9 q H @ X O O O O @ @ @ @ @ @ O O O O O O O                 O O O O O O O O O     O O O O O ",
"O O @ f 9 a.c X X O O O @ @ O O @ O 4 / M X O @ @ @ O O @ @ @ @ 2 2 2 2 5 0 I I T U U U U 0 X   O @XhX    IX    IX    IX  IX    FX&XfX4.BX  IX8       pX-XO @   NX1.GXy O 1.SX    LX#     @ X O {.jXlX|.@   IX    O   LX  JX  pXpX    @ O O @ @ X X O O O O O @ X @ O O O   O O @ @ O O @ @ @ 2 2 @ @ X X X @ O O O @ @ @ @ @ @ X @ @ @ @ @ @ @ O X @ @ + s X 2 @ X O O O O @ @ @ @ O O O O       X @ @ @ @ @ @ @ @ @ @ @ @ @ @ X = #.H O @ 7 2 @ @ @ @ 9 0 5 O O O O O @ 2 2 1 2 @ O O O O O O O O O O               O O O O O O O O   O O O O O O ",
"O     @ X = v <   O O X X @ X O @ O O = r.d @ @ @ @ @ @ @ @ 2 2 2 2 0 0 0 I I T I U U U U q ;   O @XhX    IX|.pXNX  # LX  HXE   GX3 LX} VX  @XIXIXoX  pX-XO 2   IXO hX&X  1.SX    ZXJXIX|.  @ O {.MXIX  7   LXHXIXy   <XGX@XO # GXIXNX  O O @ @ @ X X O O O O O O O O O O O O O @ X @ O X @ @ 2 2 @ @ @ @ @ @ O O O @ @ @ @ O @ O @ @ X @ @ @ @ @ @ X O O o @ 5 2 @ O X O O @ @ O O @ @ O O O     X X @ @ @ @ @ @ @ @ @ X @ @ @ @ 9 N.4 @ 2 5 O @ @ @ X b 0 2 O O 1 1 @ , : @ @ 2 2 2 O O O O O O O O O O O O O         O O O O O O O 1 4 4 O   O O ",
"O O     O O     O O O O O O O O O O O @ = w @ @ @ @ @ @ @ 2 2 2 2 2 0 0 0 0 I I U U U U U U 7     @XhX    IX@XIX  + W.LX|.GXoX  GXt VX|.VXO O   8 IXO pX-XO 2 8 IX|.jXnX  1.SX    JX8   O @ @ O {.hXkX}.X   IX    O O # IX  @ O     NX&X  O 2 @ @ @ @ @ O O @ O O O O O O O O O O X X O @ O 2 0 5 @ @ @ @ @ @ @ O O @ @ O O O O @ @ @ O @ @ @ O O O X @ @   : w 2 @ @ X @ @ @ @ O O @ @ O O O O   X X X @ @ @ @ @ @ @ @ @ @ @ @ X =.N.O @ 7 2 @ @ @ @ @ , 7 @ @ @ 2 2 2 : X : @ 7 0 O O O O O O O O O     O O O O               O O O 7 ( W O O O O ",
"O O O O 1 4 O   O O O O O O O O O O @ @ @ O @ @ @ @ 1 @ @ 2 2 2 2 2 2 0 0 I I T U U U U U U 0 X   @XhX    IX  pX0X  hXhX@XyXNX  GX<.W.KXzX    O   IXO dXOX    }.SXoXoXPX  1.SX    JX8 O   X @ O {.NX8 LX    IX      O   IX  @       0XyX  @ 0 @ @ @ @ O O O @ O O X X @ O O O O O X X X X O : { 7 @ @ @ @ @ @ @ O O @ @ O O @ @ @ @ O O O @ @ O O O @ @ X X : 9 @ @ X @ @ @ @ @ @ @ @ @ @ @ O O   O X X @ @ @ @ @ @ @ @ @ @ @ @ , Y.) O @ 7 2 @ @ @ @ @ 7 @ @ @ 2 2 @ O X @ @ @ : @ @ O O O O O 1 4 O O   O O O O O             O X - r.;.4   O O O ",
"O   O O O @ , X O O O O O O O O O O @ @ @ @ 2 2 @ @ @ @ @ @ 2 2 2 2 5 0 0 I I T U U U U U U q X   ;XzX    IXO # IX  IXr   O IX  LX1.  IXzX  NXfXNXNX  pXLXNXiXzX@XO   IXB 1.HX    LXVXVXlX  @ O |.ZX  zXuX  IXNXZXyX  O IX    }.BXuXIXr @ @ 9 @ @ @ O O O O O O O O X O O O O O O O X X @ X , n : @ @ @ @ @ O @ O O O O O @ @ @ @ @ O O O @ @ @ @ @ @ O O @ @ @ @ @ X X @ @ @ @ @ @ @ @ @ @ @ O O O O X X X @ @ @ @ @ O @ : 2 @ O./.5 @ 2 7 2 @ @ @ @ @ @ @ @ @ @ @ O O O O @ @ @ @ O O O O O X T Q O O O   O O O O O             . k l =     O O O ",
"O O O O O X > X O O O O O O O O O O @ @ @ O @ @ @ @ @ @ @ 2 2 2 2 2 0 0 I I T U U U U U U U U 7   # 8 @ O y @ O } O y   O O y O r @ @ 8 8 O e [.[.  2 3 ,.,.} t O @ @ | I 2 r @ @ e <.<.}   @ @ @ e O   <.X r <.<.r O O y @ @ O 4.oX# O @ @ @ @ @ @ O O @ O O O O O @ O O O O O O O X X @ @ @ : 7 @ @ @ @ @ O O @ O O O O O @ @ @ O O O O @ @ @ @ @ @ @ O O O @ @ @ @ @ @ @ @ @ @ @ @ @ @ @ @ @ O O O   X @ @ @ @ @ @ O @ : : , !.C.2 @ 0 2 @ @ @ @ @ @ @ 2 7 @ @ @ O O @ O @ @ @ O O O O O X D C O   O   O O O O O O O           . .   O   O O   O ",
"O O O O O   O O O O O O O O O O O @ @ @ @ O O @ @ O @ @ 2 2 2 2 2 5 0 0 I I T U U U U U U U U 9 X O O @ @ @ @ O O O O O O @ @ @ @ @ @ @ @ @ @ O O @ @ @ @ 2 2 @ 2 @ X 7 0 7 2 @ @ @ @ X O X @ 2 @ X X X X @ X X O O O X O @ @ @ O O @ @ O @ @ @ @ @ @ @ @ @ @ O O O X O @ @ O X O O O O @ O @ 7 2 @ @ @ @ @ O O @ @ O O @ @ @ @ @ O O O O O @ @ @ @ @ @ O @ O @ @ @ @ @ O @ @ @ @ @ @ @ @ @ @ @ @ O O O O X X @ @ @ @ X @ : @ V ^.@.@ 7 0 2 @ @ @ @ @ @ @ @ @ @ @ @ 2 O @ @ @ @ O O O O O O X ; X   O O   O O O   O O O O   O     O             O O ",
"O O X 4 W 4 O O O O O O O O O @ @ @ @ @ O @ O O @ O 2 @ 2 2 2 2 2 5 0 I I U U U U U U U U U R q = O @ @ @ X X O O O O O @ @ @ @ X @ @ @ @ @ @ @ @ @ @ @ @ @ @ @ @ @ 2 @ @ 7 2 2 @ @ @ @ @ @ @ 2 2 @ O X X @ @ @ @ O X @ @ @ @ @ @ @ @ X @ @ @ @ @ @ O @ @ @ @ O O O X @ @ @ @ @ O O O O @ X @ 7 2 @ @ @ @ @ O O @ @ @ @ @ @ @ @ @ O O O O @ @ @ @ @ @ @ @ @ @ @ @ @ @ @ O O @ @ @ @ @ @ @ @ @ O @ @ O O O   X X @ @ O X : , : i.E.L @ 0 I @ @ @ @ 2 2 2 2 @ @ @ O @ @ @ @ @ @ @ O O O O O O +   O O   O     O O O O O O O O O O     O     O     O O ",
"    O 4 c.) 9 X   O O O O O O @ @ @ @ @ @ @ @ @ @ @ 2 2 @ 2 2 2 5 5 I U U U U U U U U U U U U U > O O @ @ X O O O O X X @ @ X X @ @ @ @ @ @ @ @ @ @ @ 2 @ X @ X @ X @ @ @ 5 5 2 5 H 2 X X X @ 5 I O   O @ @ @ @ @ X X X @ @ @ @ @ @ @ @ @ @ @ @ @ X X @ X @ @ O O X O O O O @ @ X O     X @ @ 2 @ @ @ @ @ @ @ @ @ @ O O O @ @ @ X O O @ O @ @ @ O @ @ O @ @ @ X X @ 2 @ @ @ @ @ @ X O @ @ @ @ O @ @ O O O O O X @ @ O @ : 7 d l.T.5 2 0 0 2 @ 2 2 2 5 5 5 2 @ @ @ @ @ @ X @ @ O O O O O O O O   O O O O O O O O O O O   O O O       O   O       O O ",
"  O O O @ C r.-   O O O O @ O @ @ @ @ @ O @ @ @ 2 2 @ @ @ 2 2 2 0 I T U U U U U U U R R R R U ` , X @ @ X X O O O O O X X X O O X O @ @ X X @ @ @ @ X @ X X @ @ X O O O @ 7 : : 2 I 2 O X X 2 H U : O   X X @ @ X X X X @ @ @ @ @ @ @ @ @ @ @ @ @ @ O @ @ @ X @ O X X @ X X @ @ @ O O   O O @ 7 2 @ @ @ @ @ @ @ @ @ O O @ @ @ @ X O O @ O @ X X O @ @ @ @ X @ @ @ @ 2 @ @ @ @ @ @ @ @ @ 2 @ 5 4 @ @ @ O O O O X @ @ X @ , , z !.B.2 : 0 2 @ @ 0 U 0 0 0 5 2 @ @ 2 2 @ O @ 2 @ O O O O X O O O O O O O O O O O O O O O   O O O O O O         O O O O ",
"O O   O   X X < + O O O O O X @ @ @ O O O @ @ @ @ @ @ @ @ 2 2 0 0 I U U U U U U U R R R R R R ^ ] @ X X O O O O       O O       4 ! 1 O @ @ @ X X X O X X X O   O   O O O O @ 2 2 0 I 5 1 4 4 I 9 =   X @ @ @ @ @ O O X X @ @ @ O O @ O @ @ @ @ @ @ X X @ @ X X X 1 @ @ 1 @ O @ @ O O O O X @ @ 7 @ @ @ @ @ @ @ @ @ @ @ @ @ @ X X X O O @ @ 4 2 @ @ O @ @ X @ @ @ 2 2 2 @ @ @ @ @ @ @ 2 ( 4 T L @ @ @ @ O O O X @ X X @ , = C J.0 @ : 0 2 @ 0 U q 0 0 9 7 2 2 5 H 2 O @ @ 2 O O O O O @ O O O O   O O O O O O O O O O   O O O O O O 4 W 4       X X ",
"@ O O O O O O   O O O O O O X X O X O O O O @ @ @ @ @ 2 2 2 5 5 0 0 U U U U U U U R R R R R R R [ n   X O           O O O   O   4 S.:.4 5 4 4 H H G 4 4 L G 4 1 4 4 4 4 H L Q L H H T ( ! b.b.T 2 O O X @ @ @ @ @ X O O X @ @ @ @ @ @ @ X X @ @ 2 L 2 X O O X @ O @ 2 Q 4 X @ @ @ O O 1 1 X @ : 7 @ @ @ @ @ @ O @ @ @ @ @ @ @ O X O @ @ X @ T 5 @ @ X @ O X @ @ X : 7 2 @ @ @ @ @ @ : a.;., a.0 @ @ @ @ @ O O O O   O X : - ..@.2 @ 7 H 7 7 q q 0 q 0 9 : 7 7 U H 2 @ 2 2 2 O O O O O O O O O O O O O O O O O O O O O   @ O O O X d D ) 4   O   X ; ",
"@ O O O O O O O   O O O O O O X O O O O O @ @ @ @ @ @ @ @ 2 2 0 0 0 U q U U U U U U U R ] ] R U @.` 2 4 1 1 1 1 1 4 4 G K G 4 5 4 *.~.D.N.M.N.D.D.D.D.N.D.Z.[ U U U U ] ] V.J.s.[ '  .*.B.E.E.C.( H 4 2 @ : @ @ @ X X O X @ @ @ @ @ @ X @ @ @ @ @ { q X @ @ O @ @ X : d., X @ @ @ @ O 0 0 X @ : 7 @ @ @ @ @ @ @ @ @ @ @ @ @ O O O O @ @ @ : n = X X O @ @ @ @ @ X > 8 @ @ @ @ @ @ @ = v - h j X @ @ @ @ @ O O O O   O X , b K.T 2 2 U 0 0 R ` q 0 0 0 7 7 @ w U 5 2 2 7 7 2 O O O O @ @ O O   O O O @ 2 O O O O O O O X @ 1 O O   D c X O O O O O   ",
"@ @ X @ 1 2 @ O     O O O O O O O O O @ O X @ @ @ @ @ @ @ @ : : : 7 : , 9 9 0 0 0 q q U ` ] @.] n.D.C.%.R I T T I U U #.;.X.' ` M N f.!.!.!.l.l.l.l.j.j.j.u.t... .A N V V e.w.0.V V x N =.i.w.g.T.N.v.v.) T 0 : @ @ @ @ @ @ @ X X @ @ @ @ @ @ @ @ V j X @ @ @ @ @ @ = r.- X @ @ @ @ @ , , X X 7 7 @ @ @ @ @ @ @ @ @ @ @ @ @ O O O @ O @ @ X =   @ @ X @ @ @ @ O O # # @ @ @ @ @ @ @ > o X @ @ @ @ @ @ @ @ @ @ O O O X @ = i.T.I : 7 U 9 ' &.R T U 0 7 0 1 r b 0 2 @ 7 0 0 2 O O O @ @ 5 4 O O O O X : @ O O O O O O O X X O O   o o X O O O         ",
": @ O O O @ 7 @ X O O O O O O O O O O O O @ O X O @ X @ O X X @ @ X X > > > 8 7 0 9 9 9 w M M N %.I.j.t.w.0.V j h j j x 0.0.l d h h x 0.w.0.0.8.0.r.r.S V c n 9 q 9 : , , = - - : , 7 I ' x k g f.E.T.T.(./.N.( H @ @ @ @ @ @ @ X @ X X X X X @ @ = @ @ @ @ @ @ @ @ X ,   @ @ @ @ @ X @ X X X @ : @ @ @ @ @ @ @ @ @ @ @ X X @ @ O O @ @ X X O @ @ X @ @ @ @ @ O @ @ @ @ @ @ @ @ @ @ @ @ @ @ @ @ @ @ @ @ @ @ @ @ @ X O @ j !.D.I 0 9 9 , i.O.] ] ] U 0 0 U Y 5 H 5 > 7 0 2 4 O O @ @ 7 T G O O O   X @ @ O O O O   O O O O O O O O O O @ 1 O O   O   ",
", @ O O @ @ @ @ X O O O O O O O X O O O O X O X X X X X @ O O @ @ O 4 2 @ X @ @ 7 @ : : : 0 9 q v...8.v g d , : , : , = = = X X @ @ X = & < # 2 w w w q 9 = @ : : : : : @ : : @ 2 2 L v.N - @ : g t.p.J.^.!.^.(.D.^ 5 : @ @ @ @ X X @ @ @ @ @ @ @ @ @ @ @ @ @ @ @ @ @ @ X @ @ @ @ X X @ X X X @ : @ @ @ @ @ @ @ @ @ @ @ X X O @ O @ @ O X X X @ @ @ @ @ X @ X X @ @ @ @ @ @ @ @ @ @ @ @ @ @ @ @ @ @ @ @ @ @ @ @ @ X @ = 0.^.D.U 9 ` 0 y f m M M ` @.0 j ..9 ` ( 4 7 7 : 2 1 X @ X X M ) G O X O O O O O O O O O O O O O O O O O O O O @ @ O O   O X ",
"= X O @ @ @ X O O O O O O O O X X O O O O O O @ @ @ O @ O O @ @ @ @ 2 7 7 @ @ @ : @ @ @ @ 7 : L b.e.-   X @ @ 2 2 2 0 7 @ @ @ @ @ @ @ @ 2 2 7 7 9 b , - - : @ @ X @ @ @ : : : 0 2 H b.P.x = : I I , V i.g.k.k.p.l.R.B.( I 0 7 : X @ X X @ @ @ @ @ X X @ @ @ X @ @ @ @ @ @ @ @ @ @ X X X @ @ @ @ @ @ @ @ @ @ @ @ @ X @ @ X @ O O @ O @ O O O @ @ @ @ @ @ @ @ @ @ @ @ @ @ @ @ @ @ @ @ @ @ @ @ @ @ @ @ @ @ @ : : : : X : = r.!.C.q b @.I w , : b m M ` 0 , = - k.q 2 @ 7 2 @ @ X O + a o.M.4 O X O @ @ O O O O O   O O O O O O O O O X X X X O O X @ : ",
"f   O O X X @ X O O O O O O @ @ X O O 4 @ @ @ 2 5 5 G 5 @ @ @ @ @ @ @ X : @ @ @ @ @ @ 7 2 : @ Q K.t.d O                                       X : = @ @ @ 7 @ @ @ @               4 N.e.=     4 H O O   g x +.r.r.w.p.:.n.v.) H 4 @ X X X X @ X X X X @ @ X X @ @ @ @ @ @ X @ X X @ @ X @ @ @ @ @ @ @ @ @ @ @ @ @ X X X O O O O @ @ X @ O O @ @ @ @ @ @ @ @ @ @ @ @ @ @ @ @ @ @ @ @ @ @ @ @ @ @ @ @ @ @ @ @ @ X @ = X < z.I.&.q  .n.T 7 , : : 9 b , @ @ O > d @ 2 @ @ @ @ O @ O $ s +.v.4 O O O @ @ O O O O O O O O O O O O O O O O O X O O O O     ",
"a & O X O O X X O O O O O O @ @ O O O 2 : = X @ 2 @ T #., X @ @ X @ @ @ @ @ @ @ @ @ @ 7 : = @ T f.w.X 5.0X0X0X0X<X<X0X0X0X0XqX0X<X<X5X5X0X0X<X-X@ X : 2 2 : @ @ O t ;X0X0X0XqXqX0XeXwXwX0XqXqXeXeXeXeXqX0XqX3.: M w h V =.R.E.D.v.K 4 O @ O @ X X X X X X X X O @ @ @ @ @ @ @ @ @ @ X @ @ @ @ @ @ @ @ @ @ @ @ @ @ X X X X @ O @ @ @ X X O X X @ X X X X @ @ @ @ @ X @ @ @ @ @ @ @ @ @ @ @ @ @ @ @ @ @ @ X X @ X X X @ ; e.U.%.q O.` 0 7 7 7 7 @ : : @ @ 2 X @ 5 @ @ 2 @ @ O @ O % 7.+.~ O O X X @ O O O O O O O O O O O O O O O O O O O     O 1 1 O ",
"o + O O O     O O O O O O O @ X X O O @ @ @ X @ @ X @ h f X @ X X @ @ @ @ 2 @ @ @ @ @ @ : @ 2 T S - pX}.O                   O         O O     } pXW.O @ @ : @   OX0X#   O O     1 L ..l X O H H @   X @ @ w *XqXO &.( I N i.p.j.g.V.n.L 5 1 @ X X O X X O O O O O @ X X X @ @ @ @ @ @ @ @ @ @ @ @ @ @ @ @ X @ @ @ @ @ X @ @ O O @ @ X X O X X @ X O X O @ @ @ @ X X @ @ @ @ @ @ @ @ @ @ @ @ @ @ X X O O O O @ X X X @ - f.U.n.0 ' 9 0 9 7 2 2 : @ X @ X O @ 0 5 2 @ 2 @ @ 5 2 O u 6.f 5 @ + X O X O O O O O O O   O O O O O O O O O O O     : 2 O O ",
"X O O O   O O O O O   O O O @ X o O X X O O X X @ X X   X @ O @ @ @ @ @ @ @ @ @ @ @ @ : @ : L ^ X hXe @ @ X @ X X @ @ 7 7 @ @ 7 @ @ @ 2 7 2 2 2   0X3.@ @ @ O oX{.  @ H L q , H b.H.S c X Q { O.M 0 7 0 q q @ 5.<Xb P.N.@., d f g e.p.=.) Q H 4 O O O O O O O O O O   X X X @ @ @ @ @ @ X @ @ @ X X @ @ @ @ X @ @ @ X O O O 5 5 O X X O O O X X X X O O X O @ X X @ @ X @ @ @ @ @ @ : @ @ @ X X O O O @ @ @ @ X X @ X z g.g.&.` R 0 9 9 0 5 5 2 @ 2 2 2 2 @ 9 2 @ 2 @ X , q 2 O $ s @ O O O O O O O O O @ 2 4 O   O O O O O O O O O O O   X X       ",
"o O O O O O O O O O O O O O O O O @ X X O @ @ @ @ @ @ X O O @ @ @ @ @ @ @ @ @ @ @ @ @ : : 2 ! R +Xh.2 : @ @ @ @ @ X @ @ 0 7 @ 2 @ @ @ @ 7 2 @ @ 7   pXO @ @ r uX  @ 5 I q 9 2 v.E.g.j ; 4 ] A j , 7 0 7 0 0 0 2 %X2.A g.U.] 2 @ X = - V o.:.-.) L 4 O   X O O   O O O O O O X @ 2 2 @ @ @ @ @ 7 @ X @ @ X @ X @ @ @ @ X O X b w O @ X O @ X X X X X @ X X X X X X @ @ @ X @ @ @ @ @ @ @ O O O O O X @ @ @ @ @ @   X X C i.i.@.` U 0 , 0 0 9 7 5 2 5 7 @ @ @ 2 @ @ @ @ : : @ O O + o @ O O O X O O O X X w 2 O     O O O O O O O O O O O O O         ",
"O O X X O O O O O O @ X X     O O O X O X X @ @ O @ @ @ @ @ @ @ @ @ @ @ @ @ @ @ @ @ @ 7 , 5 v.' uX  I , @ @ @ @ @ @ @ @ 7 7 @ @ @ @ @ @ @ @ @ @ @ @ 5.{.@ O ;Xe 7 5 0 0 b , 5 -.j.t.j 4 ~ ..f X @ 2 7 0 7 0 0 R 2 qX@ x r.X.R H 5 2 @ : , j Z =.-.^ L G 4 O O O O O X X X O O @ 7 0 5 @ @ X : : X X @ @ @ @ @ @ @ @ @ X O X - = @ O X O X @ X @ X @ @ O X X X X @ @ @ @ X @ @ @ @ X O O O O O @ @ @ @ @ @ @ @ @   X = A [ ..m.U 9 , 9 9 0 9 7 7 0 T 2 @ @ : 2 2 5 2 @ @ X O O O O X @ O O O O O   X @ @ : O O   O O O   O O O O O O O O O           ",
"@ X @ O O O O O O O X X O O O O O O X O O X X @ @ X @ @ @ @ @ @ @ @ @ @ @ @ @ @ @ @ @ 7 : H v.a.,XO I , @ @ X @ @ @ @ @ @ : @ @ 2 @ @ @ @ @ @ @ @ @ # ;X    0X  2 I 7 = : 2 L *.i.g = 5 @.V X X @ @ 2 7 7 : 2 7 , eXT H > , ` @.( H 2 @ @ : , 9 ` X.*.%.n.^ G O O     O O O O X X 9 q 2 @ @ @ @ X @ @ @ @ @ @ @ @ @ X @ O X X X O O O O @ @ @ @ @ @ @ @ O O @ @ @ O X O O X @ O O   O O O @ @ @ @ @ @ @ @ @ X @ O @ = i.X.g.C.U 0 : 7 , , 9 7 7 M 0 2 @ 2 0 0 0 T 2 X O O O O O @ @ 2 O O O O O O O X O O       O O O   O O O O O O O O O           ",
"@   O   O O O O O O O O O O O O O O O O @ O @ X @ X @ @ @ @ @ @ @ @ @ @ @ @ @ @ @ @ @ 7 @ H %.k.#X+ q , @ @ @ @ @ @ @ @ @ : : @ 2 2 @ @ @ @ @ @ @ @ O -X  O ;X  5 9 2 @ 2 ! ) ' A - @ 0 C - @ X @ X X : : 7 2 2   -Xm ;.I 5 0 M -.m.T H 2 @ 2 7 9 b ' =.I.Y.V.I 4 4 O O O O X X X @ : 0 I 5 @ @ 2 : @ @ @ @ @ @ @ @ @ @ @ @ 2 2 @ @ @ @ @ @ @ @ @ @ 2 2 @ @ @ @ @ O X X X X @ O O O X @ @ @ @ @ @ @ @ @ @ @ @ @ X X - e.i.g.D.R 0 7 7 : : : 7 0 7 7 @ X n I 0 q q @ O O @ O O @ @ @ @ O O X O O O O O O O O   O O O O O O O O O O O O               ",
"X X O O O O O @ X X O O O 2 2 O O O O 1 2 1 O @ O @ O @ O @ @ @ @ @ @ @ @ @ @ @ @ @ @ 7 7 H *.r..XO , , @ @ @ @ @ @ @ @ @ : : : @ 2 @ @ @ @ @ 7 @ @ O -X    5X  2 7 5 5 L S.H.N j X H 0 - X 2 @ @ @ @ @ @ @ 7 7 O -XX h [ 0 0 7 M -.D.C.R T I 7 0 0 9 m Z e.i.[ @.) ( L 4 @ @ @ @ @ @ = q q : @ : : : : : @ @ @ 2 @ @ @ @ X X @ @ @ @ @ @ : @ @ @ 7 2 2 7 w 7 X O       X X @ @ @ @ @ @ @ @ @ @ @ @ @ @ @ @ @ @ X X > j z j.T.^ T I 0 7 @ : 0 I 0 2 2 : b 9 0 0 @ O @ X O O O @ @ X @ O O O O O O O O O O O O O O O O O O O O O O O             O O ",
"X X O O O O X @ X X O O O O 2 n X O X 4 ~ n X @ @ X @ O @ @ @ @ @ @ @ @ @ @ @ @ @ 2 @ : 0 Q ..r.oX1 , @ @ @ @ X @ @ @ O   O O   7 @ @ @ @ @ @ : @ @ O -X  O <X  2 0 9 T M.(.g.m , 7           0 @ @ @ @ @ @ @ : O 5X1 2 b 9 0 0 q =.I.!.V.] [ U 0 I 0 : 9 9 b M [ X.=.B.) L 5 2 @ X X X : , 7 2 = = : : @ @ @ @ 2 @ @ X O O @ @ @ @ @ X o X @ @ @ @ 5 0 j - X O O O O O O @ @ @ @ @ @ @ @ @ @ @ @ @ @ @ @ : @ @ X = , , c j.T.=.m.T 0 0 : : ` I 7 @ : 7 7 I 0 @ X @ @ X @ O X @ @ @ @ @ O O X O O O X O O O O O O O O O O O O O O         O O O O 2 ",
"X   O O O O O X X X O O O O @ , = O   O 2 n = @ @ @ @ X @ @ @ @ @ @ @ @ @ @ @ @ @ 2 7 7 I ( A D OX5 , : @ @ @ @ @ @   {.IXIXIXZX  @ : 7 @ @ @ 7 7 @ O -X  O <X  2 0 , 5 C.!.p.j 7 O GXLXLXLXhX  @ @ @ @ @ @ @ @   -XU T @ = 7 I 0 m e.0.A ` ] R 0 ` R 0 q   | | M ] '  .X.#.^ T H H 5 X X @ : : 2 @ : : @ X X @ @ @ X X O O X @ @     @ @ X X O O 7 M h =     O O O X X O X @ @ @ @ @ @ : O X @ @ @ @ @ @ @ @ @ X X = , Z j.L.s.-.U 0 0 @ r 9 7 @ @ 7 9 q U 2 @ X @ @ O @ O X @ @ 2 2 O O O O X O O   O O O O O O @ @ @ @ O             O O O   = n ",
"X O O O O O O O O O O O O O @ @ O       O X X O X @ @ @ @ @ @ @ @ @ @ @ @ @ 2 @ 2 2 7 7 c.S.e.B OX7 9 : @ @ @ @ @ @ O IX5.O O BXhX  @ 7 : @ @ @ 7 7 @ -X  O ;X  : @ @ L B.p.0.= 2 O IX5.r t # @ @ @ @ @ @ @ @ 2   =X: ` 0 2 @ 7 U 0 , = = 9 ] @.U 9 M 9   hXIXGX@ ] C.] q N N ' -.D.S.L 2 2 7 : @ : 7 7 @ @ O O > @ X X O O @ @   fX&X  @ @ O W.IXX d X O     O O X X X X X X @ @ @ @ @   JX=X  @ @ @ @ @ @ @ @ X X , , N p.L.:.#.U 9 : > > : 2 2 @ : 9 0 0 2 @ @ @ O O O O @ @ @ 5 2 O O O O O O O   O 1 X X @ O @ : @ O O     O       O O O O > = ",
"X O O O O O O O O O O O O O X @ @ O O O O @ O O X X @ @ @ @ @ @ @ @ @ @ @ 2 2 : 7 7 7 0 b.E.u.D OX: , : : @ @ @ @ X ,.IX  @ O }.GX  @ 7 : @ @ @ @ 7 @ -X    <X  @ X H ) -.i.h @ 5 + IX1.@ 2 2 2 @ @ @ @ @ @ @ @   =X  = 7 2 2 @ = , 7 H 2 @ , n o.0 2 2 8 IX+.0 n.R O. .0 q U N Z l.!.U.n.v.) I 2 : 0 0 7 : # 5.@ @ X X @ @ @ @ O IXr @ @ 2 U W.IX    O X X O O X O O X O X X @ @ O X @   JX$X  @ @ @ @ @ @ @ @ X X = , N p.E.*.] U 9 @ : @ 7 2 5 2 8 9 7 0 2 @ @ @ O O @ @ X X 9 I 1 O O O O O O X - 9 O O O X @ @ X O O           O O O O O O O O ",
"X O O O O O O O O O O O O O @ X @ @ O O   @ @ @ X X @ @ @ @ @ @ @ @ @ @ @ @ @ : 0 0 9 0 %.l.w.4.OX: : : : : @ @ @ O 3.IX  @ O oXHX  @ 7 7 7 @ @ 2 7 @ -X    ;X  @ @ L #. .b : H I + IX}   O 0 0 2 2 @ @ @ @ @ 2   =X+ @ O @ 7 5 2 2 @ ] $.I 2 = , 7 9 7 w IX8 c a.' R 2 >.M 2 8 3.+.l p.I.E.T.n.A.>.O q 0   jXuXO > @ @ @ @ @ O &XAX  2 0 { h 4.IX  8 o   @ X     r y   O X @   # <.# O   JX&X  O O 7 @ @ @ @ @ X X = , j t.R.#.` U 7 2 : : : : 7 @ 2 2 7 2 @ @ @ @ @ X @ X X > M L 1 O X O O O O X , @ O O X X X O O O     O O O O O O O O O   O O ",
"X O O X O X O O O X X X O X @ X X @ X   X 1 @ @ X @ @ @ @ @ @ @ @ @ @ @ : : : : 7 7 9 U @.e.y.<.+X= 7 : : : @ @ @ O W.IX  @ O oXJX  7 2 7 7 2 2 2 7 X -X    ;X  @ 5 ~ *.b , 2 T b + IXlXhXzX| 0 7 2 2 2 @ @ @ X   =XO T / 2 2 0 0 0 2 , i.[ ~ H : : : | IXIXIXiX  KX+XIXFX  OXIXLXIXvX= i.k.FXKXPXIXMXQ 4 GXIXIXJX  @ @ @ @ 2   KXW.@ q N b X 1.IXLXIXIX|.    [.IXIXIXJXO X   0XIXLXIX<.  JX$X  1.IXt @ : : @ @ @ X = , j t.R.m.] I : 2 @ @ @ X , : 7 0 0 5 2 @ @ @ @ @ @ X @ > N H 2 @ X O O O O O   O O O O O O O O O       O O O O O O O O O O @ ",
"X O O O O O O O O X X O O X O O X @ X X O @ @ @ @ @ @ @ @ @ @ @ @ @ @ @ @ @ : 2 7 7 , T ) Z k E +X= : : : @ @ @ @ O W.IX  @ O oXJX  7 @ @ 7 2 2 @ : @ -X    ;X  2 T @.[ , @ ( ' - + IXpXuXfXy @ @ @ 2 5 5 2 2 @   =XO ` P.M @ 2 9 0 0 7 X , o.` : : 2 @ w IX` 7 1 AXJXY O O IX5.  @ IXQ.N C IX].z a.IX`.(.1 FX%X  9 : : 7 0 q 2.IXX 9 b , X O 1.IX<.  {.LX  @ > #     LX&X  O IXt     X   JX&X  LX@XO : : : @ @ @ X = , g p.^.N.] 0 7 7 2 2 @ @ @ @ , 9 q 0 @ @ @ @ @ X X @ O , R Q 1 X @ O O O O O   O O O O O O   O O O O O O O O O O O O   O X @ ",
"@ O X X O O O 2 O X X O O 4 2 O O X @ @ X @ @ @ @ X @ @ @ @ @ @ @ @ @ @ @ @ : @ 2 7 q ( -.x : | oXX @ : @ : @ @ @ O 5.IX  @ O oXHX  0 7 2 7 7 7 7 : @ -X  O ;X  I #.X. ., 2 { C = O IX}     @ @ @ X @ 7 I I 0 5 O -XO , m +.= @ 9 : 0 , : 7 9 b 7 @ @ @ | IXD : X FXwX#.%./ IXA.^ O LX+Xq { IX+.S C IX].l.d.JXeXH 0 7 7 0 [ : MXfXX = : @ @ X 3.IX  X ,.IX+ @ @       ZX=X  } IXO @ @ @   JX}.&XHX  7 : @ : : @ @ @ : , h t.^.B.R T 0 7 @ @ @ : 2 7 7 : 9 @ @ @ @ @ @ X @ @ > n &.Q @ X O O X O O O O O O O O   O       O O O O O O O O O O O X = 2 ",
"X X @ X X @ O 2 w , @ X O G M.o.= 2 X X @ @ @ @ X X @ @ 2 2 @ @ @ @ @ @ @ @ : : 7 7 R S.U.9.0 | oX@ @ : : : @ @ @ @ ,.IX  @ O }.GX  7 q 0 7 0 7 7 7 X -X  O 5XO ) X.j - , 2 b j X + IX1.O @ @ @ @ @ 2 2 0 0 0 0 O -XO X = , = @ : : : , : @ : : : @ : @ | IX8 7   SXaXN s.Y.IXY.B.0 LX4XU A.IXA.*.{ IX Xk.8.HXwX*.) ~ R { X.9 IXB X @ @ @ @ X 3.IX  O 3.IX+ @   =XNXVXIX&X  <.IX# X @ @   JX$XIXy X @ @ @ @ : @ @ @ : : f r.!.-.#.^ 7 : : : : : 2 2 7 7 @ @ @ @ @ @ @ @ @ + s D m.G @ X O O O O @ O O O O O       O O   O O O O O O O O O O X @ = 0 ",
"O O O X @ X X @ @ @ @ @ @ O 0 C D X X @ @ @ @ @ @ @ @ @ @ @ : @ @ @ @ @ @ 7 7 7 0 9 ) D.p.y.8 | OXX @ : : : 7 @ @ @ # IX5.O O NXlX  2 0 ` 0 7 7 7 7 X -XO   5XQ T.X., @ 5 0 : X @ + IX5.r y t @ 2 2 2 0 0 q 9 7   -X@ 2 @ X @ @ @ @ @ @ @ @ 2 7 : @ 7 @ | IXw 2   SXiX: ' i.IX~.H.U LXqX[ f.IXa.=.{ IXa.m - HXeX' B.Z.-.@.q ,XSX  @ @ X X @ @ 3.IX  O 1.IX+   lXLXh.y GX=X  <.IX# @ @ @   JX[.ZXpX  @ @ @ @ @ @ X @ @ : b r.I.:.d.^ 2 2 @ @ 2 2 : 7 2 2 @ @ @ @ @ @ @ X @ $ 6.D @.4 @ X O O O O O O O O   O O O   O 4 O O X X O O O O O @ @ @ X l k.",
"O X X O O X O @ @ @ X X @ @ X X = # @ @ @ @ @ @ @ @ @ @ @ @ @ @ @ @ @ @ 7 : 2 7 9 0 v.T.w.F # | OX@ : : : : : @ @ @   [.PXIXIXZXO 2 2 0 q M 9 : 7 7 @ -XO O 5XC.l.i., 2 0 7 7 7 @ O SXLXLXLXAX  0 0 0 0 q q q 7   -XO 2 @ @ @ @ @ @ @ @ @ 2 7 7 7 : 7 2 | IXw 2   SXuXX ` { IX~.T.R LXeX*.+.IX+. .;.IXA.@.O HXqXU K.T.Z.-.O HXXX1 2 @ @ X @ @ 3.IX  O 1.IXO   JX|.    SX=X  y IXo @ @ @   JX@Xr IX8 @ @ @ @ @ @ @ @ : , ] i.I.Z.=.T 5 2 2 2 7 7 7 7 2 @ @ @ @ @ @ @ @ X @ + p B 5 @ @ @ O O O 4 5 1 O O O O   O = X.c.4 O O X O O O X O O O X . F g ",
"O O O O O X O O 2 5 2 X X X O O @ @ @ O @ @ X X X @ @ @ @ @ @ @ @ @ @ @ 7 : 7 0 9 T S.E.t.k > } OX@ : : : : @ @ @ @ 7 O   zX0X  7 7 0 0 , b M 7 7 7 @ -X  O eXO.r.l , 0 I : : 2 2 7       O 1 ] R U 0 0 9 9 9 ,   -XO 7 2 2 @ @ @ @ @ @ @ @ : 7 7 0 7 7 | IXw :   SXuXO U @ IX+Xs.{ IXQ.s.+.IX>.[ C IXY.-.O HXeX0 E.^.J. .h.IXH U 5 H 5 @ X o 4.IX    |.KX    SXfX  # IX%X  o IXW.  # X   JX&X  zXBX  2 @ @ @ @ @ @ : b =.f.^.T.#.R 0 0 7 0 7 7 0 7 2 2 @ @ @ @ @ @ @ X O + u X @ @ @ X @ : 2 T L 4 O O O O O X c a.U O O X X O O O X O O O O +   O ",
"O @ @ @ @ X @ @ O 2 7 7 X O O @ X @ @ @ X @ @ @ X @ @ @ @ @ @ @ : : 7 7 7 7 7 0 9 ^ /.^.t.F 5 | OXX : : : 7 @ 2 @ @ 2 2 @ 3.yXO 7 7 0 7 7 : q M 0 7 @ -XO K eXb f , 5 ^ q 7 7 2 2 0 5 5 2 ` U.#.U M 0 9 7 9 9 7   -X@ 0 0 5 2 2 @ @ @ @ 7 7 7 7 7 0 0 7 | IXw 7   AXiX2 #.] ].IXIXIXgXR -.$.IX+.` n IXa...0 gXIXFX=.g.S O lXlX@.R T U T 0 : X } GXIXIXIX1.O O 4.IXIXIXyXuX    @XIXIXIX1.  GX&XO O IX5.@ : @ : @ @ @ , j i.a.!.Z.[ ] 9 0 0 7 7 : 7 2 2 @ @ @ @ @ @ @ @ @ @ @ @ @ @ @ @ @ @ = r.A 1 @ O O O O O . < - O O O O O O O O O O O O O O O O ",
"@ @ @ X X O O @ 2 2 @ @ @ O O X X @ @ @ @ @ @ @ @ @ @ @ @ @ @ 7 : : 7 7 7 7 0 9 M v./.!.z.F 0 | oXX : 7 7 7 7 2 2 7 : : 7 @ O 0 7 0 7 : : @ 7 ` ` 0 @ <X4 n.wXm h 7 T *.b 5 7 7 0 m.-.0 q 0 H.E.` q 0 0 7 7 9 :   -X@ q M U I 0 2 2 2 2 7 0 0 7 7 9 n 9 7   7 0 U O 0 -.V.H.[ M Y. .M f.:.&.O #.` M O ] -.V.d.R.g.I.*.] @.2 ..!.T.v.] M 0 0 7 @   + 8   O @ @ O   8       @ @   o 8   O 7     7 @   @ : @ @ @ @ @ @ = -  .a.g.-.#.T : 0 7 @ 2 0 0 2 @ @ @ @ @ @ @ @ @ 2 O @ @ @ @ @ O O O > X X O     O O O O O O @ O O O O O O O O O O O O O O O @ ",
"X X X O O O X @ 2 0 0 @ O @ @ @ @ @ @ @ @ @ @ X X @ @ @ @ @ @ : : 7 7 7 7 7 0 9 q M.E.j.x.s 9 w *XX : : 7 7 : 7 7 : : : 7 0 0 7 7 7 : 7 7 : @ 7 ] #.w qXQ H.wXj h H T M U %.R q q #.E.[ 0 0 M R.P.q 9 7 7 7 7 @   0X  9 M ` ` ` 0 2 : 7 7 7 7 7 7 7 9 0 0 U U [ #.] #.:.H.H.H.:.=. .N N O.s.L.T.%.] ] H.E.R.I.I.i.S X.&.-.V.d.s.f.U.C.^ 0 0 7 , 7 2 @ 2 @ X X @ X X X @ @ X X * > @ X @ @ @ @ @ @ @ @ @ @ @ @ @ @ @ X - X...I.D.&.T : 7 : 2 9 R ~ H 2 @ @ @ @ @ X : 7 @ @ @ @ @ @ O @ O O     O     O O O O X O @ @ X X O O O O O O O O O O O O O @ ",
"X X X X O X O @ @ @ : @ O @ @ @ @ @ @ @ @ @ @ X X @ @ @ @ @ @ : 7 7 7 7 7 7 9 9 U N.^.t.x.w b   yX  7 : 7 7 7 7 : : : 7 5 0 0 7 7 : : 7 7 : : : 0 X.Q.XXT.i.eXn 0 ) #.` @.C.H.[ q U P.I.N 0 9 ..k.b 9 7 7 7 @ 7 @ yXO 9 9 N ' q 0 0 0 7 : 7 7 7 0 0 0 q ` [ ' =.=.[ ] *.:.H.L.L.:.[ U q b ..U.E.L.Z.V.L.I.g.f.i.*.@.#.d.f.=.*.:.A e.!.T.n.U 0 7 7 7 7 2 2 2 @ X X @ X @ @ X @ . o @ @ @ @ @ @ @ @ @ @ @ @ @ @ @ @ @ @ , i.i.!.T.&.I 2 0 7 : N &.m.T 2 @ @ @ @ @ X X @ @ @ @ @ @ O O O O O O O O O O O O O O O O X X O O O O O O O O O O O O O   O O ",
"@ @ X X @ X @ @ @ @ X @ @ @ @ @ 2 2 @ @ @ @ 2 5 5 @ @ @ @ @ : : 2 7 7 7 7 0 7 9 T n.g.r.F q N : |.h.@ 7 7 7 : 7 : 7 7 7 0 0 0 7 7 : : : : 7 : 7 0 O jX) ^.p.o.eXH C.J.:.X.[ J.f.` R N a.V 9 q 9 D n 7 0 0 0 7 O *X1.7 0 0 q ` ` U U I 7 7 7 0 q ] #.[ '  .X.A X.=.X.` [ :.J.L.U.H.#.^ @.@.#.L.R.R.E.E.I.i.V m b ` =.I.f.N o.O.[ R m e.g.E.N.R 0 7 : 7 7 7 0 2 @ @ @ @ @ @ X @ X @ 2 @ @ @ @ @ @ @ @ @ @ @ @ @ @ @ @ @ , Z p.l.T.R I 7 7 7 , N -.] 7 @ @ @ @ @ @ @ X @ @ @ @ @ @ O O O O O O O O O O O O O O O O O O O O O O O O O O O O O O O O O @ ",
"@ @ @ @ @ @ @ @ @ @ @ @ 2 2 @ 2 2 7 : @ 2 @ 2 ( N.N = @ @ @ : : 7 7 7 7 7 0 0 9 T S.p.c w ` b -   fXr @ 7 7 : @ 7 7 7 7 7 7 7 : 7 : : : : : 7 0 O qXF.T.p.z.9 +X+X[ J.H.d.X.' f.*.q M M 9 q q 9 : : 7 0 0 0 @ 5.0XO 0 0 7 7 9 ' ' 0 0 0 0 0 q [ =.s...m N ' ' ..O.X.] [ *.L.R.R.L.H.V.H.P.:.I.^.R.!.p.V 9 0 U U M ` M M ` b h A [ ' N 0.t.!.D.^ U 0 7 : : : 7 2 @ @ @ @ @ X X X @ 0 @ @ @ @ @ @ @ @ @ @ @ @ @ @ @ @ X = h a.p.B.I I : : 0 ,  .@.2 2 @ @ @ @ @ @ @ @ @ @ @ @ @ O O O X O X @ @ X X X X O O X X O O X X O O O O O O O O O O O O @ - C ",
"@ @ @ 7 @ X @ @ @ @ @ @ @ 5 0 @ 2 5 : : 2 : 7 5 O.k.f X : 2 : : : : 7 7 0 U M 9 ( (.l.z R M h 0 9   pXoX@         O O                   O   O / dX].C.I.g. .*.R eXaXd.=. .' 0 @ X.: X O O O O X O O O O O 8 -X<X  9 7 7 7 : 2 , M U 0 0 q ] [ N A  .N M 0 M N N N  . .X.=.s.g.g.i.i.O.=.d.=.g.!.l.i.m 9 9 ] %.] R ] 0 b 9 0 7 , m M ` M x q.l.T.m.R 0 7 : : @ @ X @ 2 @ @ @ O X > U 2 @ X @ @ X @ @ X @ @ @ @ @ @ @ X X 7 M s.n.R I 2 , 0 , ' H @ @ @ @ @ @ @ @ X @ @ @ @ @ 2 4 O O @ @ @ @ @ O 4 1 @ O X O O O O O O O O O O O O O O O O X X @ = d ",
"@ @ @ X @ X X X @ @ @ @ @ 2 0 0 2 0 0 2 2 : @ @ , d < @ @ @ : 7 7 7 7 7 0 0 n q M.^.t.y.U M b 0 7 9   5.qX0XqX0XqXqXqXqX0X0XqX0X0X0X0X0XqX0XqX4XN.E.I.g.O.:.-.K.:.Y.wXwXwXeXaXeXeXaXqXqXqXqXqX0X0XqXqXqXqXqX| O 7 7 7 7 7 I 0 0 q [ ] 9 0 ` [ U 0 q M 9 9 b b 9 9 N M N N b A A N ] @.#.V.:.i.p.S b 0 q q ;.X.[ :.#.7 : , 0 0 7 : , N #.U b e.p.E.D.^ 0 0 7 @ @ @ @ @ @ @ @ @   s 0 @ @ X X @ X @ @ @ @ @ @ @ @ @ X X X 9 ` i.C.@.R 2 9 0 7 0 2 2 @ @ @ @ @ X X X @ O O o - %.K O @ @ @ @ @ 2 0 T 2 O @ X   O O O O O O O O O O O O O O O @ O O O   ",
"@ X X X X X @ @ @ X X X @ 2 2 0 0 0 T 0 7 7 2 7 7 7 @ 7 : X @ 7 7 7 7 7 0 9 9 R M.I.r.4.] N 9 0 7 9 9 7 O                               O 4 ) V.I.g.I.H.=.d.:.d.d.V.:.=.=. .' X.@ =.`                     X 7 : : 7 7 7 7 V.[ 0 q O. .0 7 9 ` ] U 0 0 7 9 0 0 7 : 7 : 7 : 7 U ] &.B.B.-.s...m m q 0 0 q M M N  .N ` I 2 7 : 7 7 7 7 , b #.C.#.S p.^.T.^ U 0 : @ @ @ @ @ @ @ @ O i > @ X @ @ @ X @ @ @ @ @ @ @ @ @ @ X : 9 N i.Z.] U 2 , 7 2 7 @ @ @ @ @ @ @ @ @ O @ O O i F m.G X @ @ @ @ 0 0 M 7 O O O O O O O @ @ O O O O O O O O O O O O @ O O O ",
"@ @ @ @ @ @ @ @ @ @ @ 2 2 2 0 I U q U ' N M U M N m 9 0 b , @ : 7 7 7 7 7 9 9 ^ S.g.r.y ' N 9 0 7 7 9 9 @ O O O X X @ O O @ X O O O 4 Q M.H.g.g.d.J.J.U.d.H.H.:.:.B.K.H.J.J.X.s.O.N g., X X O X @ X X @ X : 7 : 7 7 7 7 0 i.i., 0 N b 7 7 0 9 ` ` I 0 0 9 9 0 7 7 7 7 0 0 R #.V.K.K.J...N 9 q U q U U ` q 7 9 9 : ` 0 7 : : 7 7 0 U I 9 i.g.B.&.S t.l.T.B.R 0 : : : : @ @ X @ @ o @ @ @ @ @ @ @ @ @ @ @ @ @ @ @ @ X X , : b i.Z.@.0 5 : 7 7 2 @ @ @ @ @ @ @ @ @ @ @ 4 1 p F ` 4 X @ @ @ @ 7 : X @ O X O @ O X @ @ @ O O O O O O O O O O O O O O @ @ ",
"0 7 7 : @ @ 7 : : @ @ 2 0 9 9 M N b , b j , , , h , 7 0 9 , : : 7 7 7 0 0 9 0 ( T.p.D 0 ' b 9 0 7 9 : @ XX5XqX0X<X0X0X0X<X5X;X5X0XqXqXwXwXwX,XQ.] T.U.J.U.L.L.H.H.] ].wXwXwXwXeXwXqXeXqX<X<X0X0X<X0X0X0X*X{.  @ 7 0 9 9 0 h , 7 7 7 7 7 7 0 0 9 9 q R R q 9 9 0 0 0 U R ] ] -.K.R.I...M 0 q q ` ] R ] #.U 7 : 7 7 q 9 : : : 7 7 , { @.0 C g S =.-.O.e.p.^.D.) I 7 7 0 : @ X X @ X @ @ @ : @ @ @ @ @ @ X @ @ @ @ @ @ : : 9 N g.E.^ I 2 7 7 7 2 @ @ @ @ @ X X X X , M Y 4 < ; 2 O @ @ @ @ @ @ X X O O O @ X O O O @ O O O O O O O O O O O O O O O O O ",
": : , : @ @ @ = X @ 2 2 2 : @ @ 7 , : @ 7 2 @ : : 7 7 I b = @ 7 7 0 0 0 0 9 0 ) L.t.h.0 b 9 9 0 9   }.iXF.8 @ X X O X O O 3 2 5 H T @.-.f.i.+.3XlXP.U.L.U.R.R.d.Y.gX+XY.J.J.L.O., # O X X @ # X O O O O 8 W.fX3.X 0 7 9 7 0 0 0 7 7 0 7 0 0 0 9 0 9 ] $.] U q q U ] *.V.B.#.Z.L.p.V : 0 0 R #.#.@.#.o.N : : : : 7 q 7 7 7 7 : : : , b 0 : 7 - V =.&.[ 0.t.!.T.( 0 9 0 : @ @ X @ @ : 2 @ : @ @ @ @ @ @ @ @ @ @ @ @ @ : : ,  .j.E.%.0 7 7 7 7 @ @ @ @ @ X O X O X = = @ @ X @ @ @ @ @ @ @ @ O O O @ O @ @ O O O O O O O O O O O O O O   O O O O O O X ",
"@ @ @ @ @ X @ 2 5 5 H 0 : : 2 2 7 7 : @ 7 7 7 7 7 7 2 U m , @ 7 7 0 9 0 0 9 U M.J.q.| U b 0 9 9 X *X}.O 9 7 9 7 7 0 7 7 I %.N.T.E.L.L.H.K.R.L.&.#.mXP.E.R.R.U.].gX*.L.L.E.R.R.^.H.@.T 0 q 0 0 7 0 0 9 0 0 q   qXW.@ 0 0 0 q 0 q q 0 q 0 0 q 0 9 0 9 0 ] &.&.] [ H.d.H.L.L.V.X.N h 9 0 T #.-.#.*.d.O.b : 7 7 7 7 7 0 7 7 : 7 7 : : : : : 0 0 7 , m  .] q v t.l.K.) ] ` 0 @ : @ @ X 7 T 2 X @ @ X @ @ @ @ @ @ @ : : @ : , h +.k.R.%.0 0 : 7 @ @ @ @ @ X X X X @ @ @ @ @ @ @ @ @ @ @ @ @ @ O O O @ @ 2 1 @ X @ O X O @ O O O O O X O O O O O O O 1 4 O ",
"@ 2 : : @ @ @ 5 5 0 I 7 , = @ 2 7 0 7 7 7 7 0 0 0 7 0 U m , : 7 : 7 9 0 0 0 ^ D.g.e.U #.m 9 9 9 3.-X@ q 9 : 7 0 : 7 q T ) m.L.R.I.I.U.J.J.E.U.I.U.X.gXd.R.R.d.mX=.R.U.U.g.g.p.p.g.P.V.N.m.^ U 0 7 0 9 q q q q   iX8 q q q 0 0 q q q M q 0 q 0 0 0 0 U &.K.E.K.:.J.J.J.I.!...9 9 0 0 U :.d.X.[ X.' 9 9 9 0 7 : 7 7 0 7 7 : 7 7 7 : : 7 7 7 0 0 0 0 , h ] T n c i.H.B.#.q 0 @ @ @ X b ^ 5 @ @ X X @ @ X @ @ @ @ @ @ @ : , 9 n p.U.%.q 0 : 2 @ @ @ O O X @ @ @ @ @ @ @ @ @ @ @ @ @ @ @ @ @ @ @ @ : 9 7 @ O O O X X X @ @ X X O O O @ 7 H 2 X = A D.W 1 ",
"@ @ @ @ 2 5 5 2 : : : = X @ 2 2 2 7 0 0 7 7 0 0 { 0 0 q b , : : 7 0 9 0 9 q ) T.p.r.@.=.m 9 9 O iXO ` q 9 9 : : 0 T v.C.J.s.s.s...e.S ....:.f.i...A +X].J.U.wX].!.g.p.e.S N b m m A ..g.^.E.T.&.R I I q 0 q q q } qX: q q 9 0 7 0 q M ` ` ` U U ` [ -.L.U.I.U.K.L.R.g.i.Z 9 q q q ` X.X.' ` N 9 7 9 9 0 0 7 : 7 : 0 0 7 : 7 7 7 7 7 7 7 7 7 0 q U I 7 N :.^ 0 d 0.I.(.C.T 7 @ 2 X m &.5 @ @ X @ @ @ @ X @ @ @ @ @ @ @ = ,  .i.f.%.] 0 7 2 @ @ X @ @ @ @ @ @ @ @ @ @ @ @ @ @ @ @ @ @ @ @ @ X @ , 9 @ @ O O O @ @ @ @ X X @ 2 2 X c o.! 1 o v t.X.4 O ",
"@ @ 5 H 5 0 7 : = X X X @ @ @ @ 2 7 7 7 7 7 0 7 0 q 0 9 9 7 : : 7 0 0 0 b q n.J.t.C @...b 9 0 7 5X2 b 9 9 0 0 I ^ S.T.l.t.N ' M b 9 U ] @.#.X.' ` ` { wXL.f.wX0.t.Z h 9 9 9 9 M b 9 : b Z i.p.I.E.E.K.B.#.` q 0   qX  9 q 0 7 7 0 0 0 ] #.#.] [ :.H.d.U.R.R.E.U.R.!.i.b 9 U q U ` ] ] ` ` b 9 9 0 9 9 0 0 7 : : 7 0 0 7 : 7 7 7 7 7 7 : 7 0 9 9 ' @.R b V f.-.R b r.l.).C.R 0 7 : n ] 7 : @ @ @ @ @ @ @ @ X @ @ @ @ @ : h O.s.d.&.#.I 7 2 @ @ : 0 2 @ @ : : @ @ @ @ @ @ @ @ @ @ @ @ @ @ @ @ @ : : @ @ O @ 2 5 @ O O X @ 7 @ O ; f d 2 @ o o =   O O ",
"2 5 H I 0 , : @ @ @ @ @ @ @ X @ @ @ 7 7 7 7 7 7 7 0 U 9 9 7 : 7 7 7 0 q 9 U n.H.Z M ] A b 0 q | +X: 9 0 q R ^ @.&.d.p.0.j 0 q 0 q R ] ] %.-.#.&.V.O.M eXc z ,X= , 0 0 0 q 9 9 I T 0 7 7 7 , , b S i.l.!.^.E.K.*.2 5X0 [ U U U U U U R #.Z.P.-.*.H.L.J.U.R.^.^.!.i.X.[ R R R U U ` { [ M 9 9 q q 9 0 9 9 7 7 7 : : 0 0 7 : : 7 7 7 7 7 7 7 7 7 7 ,  .-.^ 0 h A [ ] 2.z.p.R.Z.R 0 2 , 9 : : @ = @ @ @ @ @ @ @ @ @ @ @ @ @ j ..i.I.N.@.H @ @ @ 7 w 7 @ @ @ @ : @ @ @ @ @ @ @ @ @ @ @ @ @ 2 2 2 @ X @ O O X @ @ @ O O @ @ @ X O     O O O @ @ O O @ O O ",
"5 I T 9 , , : @ @ @ @ @ @ @ @ @ @ @ @ 7 7 : : : 7 0 U 9 9 7 7 : 7 : 0 q 9 R N.f.e.` X.A N U R >.+X, q R n.C.H.d.O.A m 9 0 T R ^ ^ ^ %.N.Z.H.s.s.p.0., <XX X <X  0 0 R %.R 0 0 T &.-.q 7 7 7 7 7 : , j Z p.g.!.!.=.eXm.K.:.-.-.&.B.&.&.-.H.U.:.*.d.U.U.R.^.^.l.i.N ` [ @.B.B.[ ` ` ` b 9 9 9 9 9 0 0 7 7 7 7 : : : 7 0 7 : : 7 7 : 7 7 7 7 : 7 0 0 h A :.%.U , m X.#.{ C e.!.E.^ H 7 0 7 2 @ = = @ @ @ @ @ @ @ @ : @ @ : , j t.^.D.@.T 2 2 7 7 : @ @ @ @ @ @ @ @ @ @ @ @ @ @ @ @ @ @ : w 2 2 @ @ @ @ @ X X O O X X @ O O O O O X @ O O O O O O X O O ",
"0 0 0 7 : : @ 2 7 : : @ @ @ @ @ @ @ @ : : : : : : 7 I M 9 : 7 7 7 7 0 q 0 ) C.f...[ X.A N ` ] +.+XT n.C.T.I.p.e.m : N U ^ T %.C.N.V.=.E.!.p.e.j m M 2 qX@ @ 0XO I T n.(.T.Z.&.&.X.X.q @ O O 0 0 7 0 9 , b m e.e.V eXU.^.E.K.K.V.H.:.-.B.H.J.=.&.K.U.R.I.l.k.S b ` @.:.d.O.#.-.` q 9 9 9 0 9 9 9 9 0 : 7 0 7 : 7 : 7 0 7 : : : 7 7 7 7 7 7 7 7 7 : 7 9 m s.-.~ 0 m  .#.R m t.l.L.) I U 0 7 : : : : : @ @ @ @ : : : : : 7 9 f z.!.T.B.^ 0 7 7 : 2 2 @ @ @ @ @ @ : @ @ @ @ @ @ @ @ @ @ @ @ @ @ @ @ @ @ @ @ O O O O X @ O O O X O O @ @ O O O @ @ O O @ ",
": 7 7 7 7 : 2 7 7 7 7 : @ @ @ @ @ @ @ @ : : : : : 7 I M M 0 7 0 , 7 0 9 R n.H.s.O.#.X.O.' N ' >.3XN.E.R.p.t.e.N >.kX5 n.n.gX+XH.I.].gXl Z V 9 7 q R 7 <XO 2 qXH #.*.=.s.g.s.X.=...@ W.DXHXzX;.[ U 0 0 0 9 9 9 , X <XS p.l.R.E.L.T.H.-.C.Z.T.:.V.L.I.g.i.A b M U #.H.d...b ` { M q 9 7 0 7 0 9 9 0 0 @ X 9 7 0 7 @ 7 q 7 @   7 7 7 7 7 7 7 7 7 7 7 7 9 , g i.V.R 0 9 N ' R 9 x e.d.m.%.U 7 : 2 @ : : @ @ @ @ : : : : : 7 , n z.!.T.V.@.0 0 0 : 7 @ @ @ @ @ @ @ : @ @ @ @ @ @ @ @ @ @ @ @ @ @ @ @ @ @ @ @ O O O O @ @ @ O O O O @ @ O O O O @ @ @ @ @ ",
": 2 5 0 0 : : 7 7 : : @ @ @ 2 7 7 : : : : : : : : 7 0 b q R 0 9 9 9 0 9 ) D.f.s.=.=.=.s.O. .#.A.wXR.l.t.r.j M U A.IXC.T.f.IXMXz g aXVX  q 9 9 0 U U I qXL ) wX' ..V b h b b 0 q 9 3.IX+X].fX>.{ ' 9 0 U U q q 0 O -X: j A i.s.f.I.U.Z.K.L.(.E.H.s.i.A M ` ` ` ] #.=.' ' 0 9 q q q 0 7 0 7 7 7 7 7 @ 3.@X@ U U 2 @ 7 I @ ,.FX  7 7 7 7 7 7 7 7 7 : : 7 7 0 h Z O.@.I 9 m s.N.T , A s.D.n.T 7 , : : : @ @ @ : : : : : : : 9 M z.!.E.:.@.U U 0 7 @ : @ @ @ @ @ @ : @ @ @ @ @ @ @ @ @ @ @ @ @ @ @ @ @ @ @ @ @ O O X @ @ @ O O O @ @ @ O O X O O @ @ @ O ",
"2 7 7 7 7 : : @ : 2 : @ @ @ @ 7 7 7 : : : 7 7 : : 7 0 b 9 I { q 9 0 0 q v.K.g.i.=.=.s.s.=.-.Z.~.,Xt.r.F U %.m.Z.-.IX~.t.].JXLX    BXqX@ q 9 q ^ n.D.V.wXO...eXg , : 0 7 7 0 9 0 O fXzX  m , q U 0 0 0 ] ] ] R I O -X@ 9 9 9 9 N m  .*.H.L.^.!.O.b 9 9 q ] #.[ ` [ [ ` q 0 7 0 q q 0 7 7 7 7 7 7 7   HX-X0 { 7 2 @ 7 T 2 2.IX  7 7 7 7 7 7 7 : : 7 7 7 : 7 7 , m s.#.I : V i.] T 9 x p.R.D.) 5 7 7 : @ @ : : : : : : : : b ..h.!.T.*.] ` R I 7 @ : : @ : @ @ @ @ @ @ @ @ 2 2 @ @ @ @ @ @ @ @ @ @ @ @ @ @ @ O O O X O O O @ O @ @ O X X 2 4 1 @ @ O O ",
"7 7 7 7 : : 7 : : 7 7 7 7 7 @ : 7 7 : : 7 0 0 : : 7 0 b , 7 0 ] ` U q U n.T.p.i.=.:.H.L.T.R.l.k.>Xb ` @.C.T.^.l.c KX>X- iXqXIX@   JX}.0 T ) m.C.P.I.i.,X- = <X  7 , 7 7 7 7 7 7 O fXzX  X : : 9 0 0 U @.@.] ` ` 2 5X5 U 0 0 U R U q ` #.=.I.I.b 0 9 0 { 0 #.*.$.@ : q q   @       w 7 7 7 7 7 7 7 } IX@ >.0 : 7 : @ O   t IXO 7 7         7 7 X   0 7     : 7 @   ..#.1 O     X M q e.p.^.T.n.U 9 7 7 : : : : : : : : : b i.Y.g.K.[ ] ` ` I 7 2 : 7 7 @ @ @ @ @ @ @ @ : 7 2 2 @ @ @ @ @ @ @ @ @ @ @ @ O O O O O O O O O @ @ @ @ @ X , U H O O O O X ",
"7 7 7 : : : : : 7 7 7 7 7 7 : : : 7 7 7 7 7 9 9 7 0 q b , 7 0 q @.#.N ] N.R.p.s.:.K.T.(.!.g.p.a.3XZ.K.d.J.g.p.a.- zXpX  SX1.GXF.2 IX>.B.H.K.s.O...A = -X  O 0X  7 7 7 0 7 0 7 7 @ OXIX|.,.  @ 7 : : 7 { o.X.` R 5 qXU ] R ` U R 0 0 q ` M d.H.0 0 I q O MX,XM X vX+X7   jX|.IXIXzX  0 7 7 7 7 7   lXlX@ w : 0 7   W.KXLXAXIXO 7   pXIXIXVXo @ W.AX  O $XGXt @ 2.SXX m gXdXIXIX-XO q n e.t.l.E.n.T 0 7 : : : : : : : : 7 m p.f.g.Z.` U ` U U 0 7 : 7 7 @ @ @ @ @ @ @ @ > 0 2 2 @ @ @ @ @ @ @ @ @ @ @ @ @ @ O @ O O @ @ @ @ @ @ @ @ @ = = @ O O O O O ",
"7 7 7 7 7 : : : 7 7 9 : : : 7 : : 7 7 7 7 0 9 9 0 0 M m , 0 0 q R #...@.D.I.g.:./.R.^.!.k.Y.J.~.wXI.g.g.i.S N b : qXBX  IXw zXeXA.IX' i.....N q ` 9 @ -XO O 0XO 7 7 7 7 0 7 7 7 7   uXFXIXIXt @ @ 2 2 : 7 q U ] [ eXq U ` ` ` #.] U 0 q U V.K.R @.R R   HXqXX   GXqX@   SXGX8 } IX{.@ 7 7 7 0 9   IX| 7 7 7 9 0 w IX{.} &XIXO @ }.IXe > zXBX  w IXw   MXIX}.  -XGX  , IXvX{ Q.IXt 9 M ` V r.p.^.D.R 0 7 : : : : : : : : h e.O.g.K.R U U q U q 0 b 9 2 @ @ @ @ @ @ @ @ : 7 2 @ @ @ 4 5 @ X @ @ @ @ @ @ @ @ O O @ X X X X X O O O O O X O O O O O O O ",
": 7 7 7 7 : : 7 7 7 9 : @ : 7 7 : 7 7 7 0 9 9 7 0 q M N 9 9 9 q R #.-.C.T.R.T.E.).^.l.g.f.s.J.Y.eXs.s.=.=.' 9 q 0 Q.LX2 IXI eXVXQ.KX  : 0 0 R R ` 9 @ -X    0X  7 7 7 7 7 7 7 7 7 7 O     NXzX  7 T / U 0 0 0 7 = <X: q M ` ] ] { U #.$.%.K.R.V.=.[ *.O GX0X    GX0XO   GX@X@   FX0XO 7 7 0 0 2 XXHX  7 7 0 7 @ W.LX  O W.IXO   pXNX  O }.LX  O PXW.  IX0XhX  zXjXO X IX2.e.[ IXF.: 9 ' @.w y.t.^.T.%.U 0 7 7 7 7 : : , , N i.l./.^ q U U U U U 0 7 2 @ @ @ @ @ @ @ : : 7 : 7 h a.M.L @ X @ @ @ @ @ @ @ @ O O @ X O O O O O O O @ @ O O O O O O   O ",
": : 7 : : : : 7 7 : : : : 7 7 7 7 7 7 7 7 7 9 7 0 U M q 0 q q ] %.-.V.D.E.R.R.^.!.g.g.f.d.d.:.Y.wX=.s.O. .M U ) m.A.IX].FX, a.JX+XBX  0 R U R ] 9 7 @ -X    <X  : 7 2 7 7 7 7 2 7 @ 7 @ O *XZX  0 0 ] M 7 7 7 7   -XX 9 0 q ` ] ` q U #.-.L.^.d.[ ' `   GX0X    GX0XO   GX*X@   GX0XO 7 7 0 q O FXOX@ 7 7 7 0 @ }.LX  O W.IXO   fXBX  O oXLX    SX0X@ IX} GX  HXoX@ X IX3.- f IXQ.0 q m  .&.I F t.l.E.n.^ 9 9 9 7 7 7 : , A f.l.(.^ U U ` ` U U 0 2 2 @ @ @ @ @ @ @ : : 2 2 @ D Z I 2 @ @ @ @ @ @ @ @ @ O O @ O @ O O O O O @ @ O O O O O O O     O ",
": : @ @ : : 7 7 0 9 : : 2 7 7 7 7 7 7 7 0 9 9 0 q U M ` U U ] &.C.T.T.(.).^.!.g.p.i.=.=.:.H.d.Y.>X . .` R n.C.K.g.m IXaXfXO @ IXlXyXO 0 0 q R ] 9 7 @ -X  O 0X  7 : 2 7 7 7 2 2 7 @       NXjXO 2 @ : : : 7 0 2   -XX 7 0 0 7 9 9 0 I U [ :.U.X.` q 0   GX0X    GXqX@   GX*XO   GX0XO 0 7 7 7 | IX3 0 7 7 7 7 @ }.LXO O W.IXO   fXBX  O oXLX    fXzX,.FXO IX  IX,.7 @ IX3.2 X IXh.[ R 0 j N [ R M 0.p.E.D.^ q 9 0 0 7 7 , i.J.I.E.%.] ` ` ` ` U 0 0 2 @ @ @ @ @ @ @ @ : 2 2 @ o = X X @ @ @ X @ @ @ @ @ O O @ O O O O O O O O O O O O O O O     O O ",
": : 2 7 : : 7 0 0 9 : : 7 7 0 q U q 9 9 9 0 q U U ] ] @.] ] n.C.T.R.(.^.^.^.!.g.O.-.B.Z.H.H.d.Y.3X[ &.B.Z.L.g.p.S   GXIX{.:   GXIXW.@ 0 q 0 R *.b 7 @ -X    <X  : : : 7 : : @ @ O 0XIXGXJXLXO 7 7 7 2 2 7 7 9 7   -XO 0 7 0 0 7 7 7 9 U [ -.E.=.] q 0   GX0XO   FXqXq   GX*XO   FX0XO 0 7 7 O hXMXO 0 7 7 0 0 @ }.LX  2 W.IX    fXBX  O oXLX  @ }.GXoXjX  IXw IX@ 7 @ IX3.: @ IX3.A d.%.T , S d.m.U D p.I.D.n.U 0 9 9 7 , e.J.g.U.@.@.] ` ` ` U U 0 5 2 @ 2 @ @ @ @ @ @ @ @ @ 2 @ @ @ @ @ @ @ @ @ @ O O O O @ @ @ @ O O O O O O O O O O O O O O O O ",
": : 7 7 : 7 0 q 9 9 : : : 7 0 0 ` M q q U U ` ] @.#.&.&.-.&.D.E.^.^.).!.g.U.^.!.d.V.H.K.L.U.U.E.wXH.f.O...S V m M ` 0 | 9 9 9 7 w @ 0 0 U U U { 9 : @ -X    ;X  : : 7 7 : 7 : : 7   w W.W.  7 0 7 7 7 7 7 7 0 0   -X@ 0 9 9 9 0 0 0 0 { :.:.^.J.*.M q   GXqX    JX0XM   GXOX    LX{.@ 7 7 0   IX,.7 0 0 0 7 0 : 5.IX    {.IX    0XSX    oXJX  2 B PXzX|.  AXqXJX  0 @ IX3.: @ IX3.- x f.-.I , e.f.Z.&.' e.l.E.N.U q 0 0 , V O.p.U.B.&.] ` ] U U U U 0 2 2 @ @ 7 @ @ @ @ @ 2 @ X X @ @ @ @ 2 2 2 @ 2 @ @ @ O @ O @ @ O O   O O O O 1 1 O O O O @ @ s ",
": 7 : 7 7 0 T M m 9 0 7 : 7 7 0 0 T R ^ @.[ [ ] #.-.B.C.Z.T.U.R.R.^.!.k.h.:.R.).^.J.L.U.I.g.i.Y.,Xe.A b M q q q M q ` ' ' 9 0 0 0 7 7 7 0 ` q 9 7 7 @ -X    ;X  7 7 : 7 7 7 2 7 7 7 7 @ @ 0 0 0 0 7 7 7 0 0 0 0   -X@ 0 9 0 0 U 0 q 9 ` d.H.).R.L.[ ` 0 +XIXBXJXFXfX@   AXIXLXIXZX  0 0 0 @ =XJX  0 0 0 0 0 0 0 O LXGXVXJXIXO : # IXSXNXIXoX@ 7   IXIX}   iXIXzX  7 @ IXh.2 3 IX5.@ , j i.:.^ , x i.d.&.N 0.t.^.D.%.U 9 9 N =.g.U.B.#.R ' ] ] ` ` U I 0 2 @ @ 2 @ @ @ @ 2 @ @ @ @ @ @ @ @ 7 2 @ @ @ @ @ 2 2 @ @ @ @ @ O O O X 9 :.N.( H 2 @ @ @ @ $ ",
"7 7 7 7 7 0 I M m , 7 0 7 0 I I q U ] [ ' N M R %.C.K.E.!.g.g.H.U.^.l.k.;.Z.L.E.R.R.U.s.i.i.A +.+X9 M q q q q q q q 9 9 9 7 7 7 0 7 0 0 0 0 7 7 : 7 @ -X  O 0X  7 7 @ : : 7 7 7 7 7 7 7 7 7 7 7 7 7 7 0 U U R U 2 qXT %.%.m.m.&.@.` q ` -.J.).R.U.O.X.' @ Q.+X3.O $.{   GXoXy }   U &.#.U 0 | 8 0 0 0 0 0 0 q 0 0 @ OX|.  t @ 2 @ O }.OXB O 0 7 @ y } @ : 7 | 8 7 7 7 | 9 7 7 } 7 7 7 7 h V *.R q h A ' ] M C t.!.T.) I q A d.I.R.:.-.U b ] ] ` ] U U 0 5 2 @ @ @ @ 2 2 2 @ @ @ @ @ @ O @ X @ @ @ 2 2 O @ 2 2 2 @ @ @ + * s 7.2.S U 5 2 @ @ @ O O O ",
"7 7 : 7 7 0 q b h , 7 0 0 0 0 0 0 9 q q q ` @.N.D.E.!.!.g.i.B.L.g.g.d.:.Z.L.E.I.J.E.!.i... .' { $X: q M q q 9 9 q 9 9 7 7 0 0 0 0 0 0 0 9 7 7 7 7 7 @ -XO   qX  7 : : : 7 : 7 7 7 7 7 7 7 7 7 0 0 0 R %.-.-.T.T.&.eX-.Y.Y.Q.W.W.3.9 q ` *.d.^.R.f. .M M M 9 7 9 9 0 9   GXOX  : 2 q o.` 0 0 0 0 0 0 0 q q 0 q U U 0 5 2 7 7 7 2 7 7 @ @ : : 7 7 0 0 7 : 7 7 7 7 7 7 7 7 7 0 7 7 7 7 7 0 7 : h q U 0 9 ,  .*.&. .0.l.T.n.U S f.g.U.:.&.I ` &.^ ` ` U U U 0 5 @ @ @ @ : : 2 @ @ @ @ @ @ 2 @ X @ 0 T T 5 3 8 0 2 @ @ O O + O . .   X X X X X @ @ O O O ",
": 7 : : 7 0 q b , 7 7 7 0 0 9 9 0 q q R %.N.T.R.I.g.g.i.i.B.K.I.g.B.K.U.s.d.s.f...V.E.!.i. .' @ qXO q ` ` M q q 9 9 9 7 7 7 7 0 9 0 0 9 7 7 7 7 7 7 <.@X@ O 0XO 7 2 : 2 7 7 2 7 7 7 7 0 0 7 0 U R %.Z.Y.h.o.s.Q.F sX< 2.2.F y r > 7 0 q *.X.I.J.=.M q q q q 0 0 0 0 7   GX@X  2 T R 2 7 7 7 0 0 7 7 0 0 7 7 7 0 0 0 U U 2 7 7 7 7 7 0 0 7 7 2 0 w U 0 7 7 7 0 q 0 0 0 7 7 7 7 7 7 : 7 7 7 0 7 9 9 U 0 7 b ..*.#.M Z p.L.%.X.d.s.d.*.*.#.H.m.R ` ` U U U 0 5 2 2 @ 2 7 0 2 2 @ @ @ 2 5 5 @ < y B ` 0 2 # @ O O           O O O O O O O O O O O O O O ",
": 7 7 : 7 0 b b 9 0 7 7 9 9 9 9 0 R %.C.T.E.l.p.p.i.i.O.-.Z.U.I.L.T.R.U.i.N ' X.X.X.K.).^.f.N 9 qX} q ` ' ' M 9 9 9 0 7 7 : 7 7 7 7 7 : : 7 7 7 7   iXw 7 7 3.oX@ @ 2 2 7 2 2 2 5 0 U U ` M 0 q | n 2.7.s @ 9 e [.{.X : 7 2 7 7 7 7 7 0 ` ` J.d.[ M 9 0 q q 0 0 0 7 7 q   O 2 U Q.q @ @ @ 7 7 7 7 7 7 7 7 7 : 7 7 0 R R 2 @ : : @ : : 7 : : 2 7 w 0 7 7 7 0 n { { U U U w 0 R T 0 2 7 7 0 7 7 7 7 9 9 0 0 9 b A &.R b A O.d.L.d.L.-.P.V.' ] ` ` ` U q q U 0 5 5 U %.^ T 0 2 @ @ 7 2 @ : @ # O O O O O           O O O O O O O O @ O O O O O O O O O ",
"7 7 7 7 0 9 9 9 9 9 7 0 0 9 0 R v.S.T.^.!.p.z.+.*.s.i.#.N.K.I.I.U.g.i.B.U...M ` ] *.=.J.^.!.i.N @ kX  M M q 9 9 9 9 7 7 7 7 7 7 7 7 7 7 7 7 7 7 X 5.&XO 7 :   iXt @ : 7 7 0 ` { ` q q } B : : : : : @ X @ 0 0 @ kX  0 7 7 0 0 0 0 7 0 q ] ] U.U.[ M q 0 0 0 0 0 0 0 0 0 0 7 2 1.4.  @ @ @ : 7 7 : 7 7 7 7 7 : : : 2 R R 7 @ : : : : : : : 7 7 : @ : : 7 0 0 7 8 w 0 9 9 7 } | 0 7 7 0 q ] R 0 7 7 7 0 ' #.^ 7 C g.Z.( 7 Z p.I.R.E.V.d.I 9 M ` U ` U U R q ] >.W.Q.P.m.T 2 @ @ @ @ @ @ : 0 U 5 1 O O O   O O O O O O O O O O O X @ O O O @ @ O @ @ O ",
"9 : : 0 q M b 9 9 0 q 9 0 U ^ n.T.R.l.p.i.i.X.*.=.O.-.D.g.f.H.f.p...' #.B.I...b U #.:.X.d.R.g...q } lX| O 7 0 7 : : : @ : : @ @ @ @ @ 2 2 @ X   |.yXO U 0 7 I 1 kXW.  X : 2 0 9 : @ @ X X @ @ @ @ @ : 7 2   2.lX@ 0 7 7 0 0 0 0 9 7 0 q -.*.E.^.d.` ` ` q 0 9 0 0 0 0 0 0 0 0 w O @ @ @ @ 7 7 7 7 7 7 7 7 7 7 7 : 7 ] ^ 7 @ : : 7 7 7 7 7 : 7 7 7 : @ 7 n Y ] q 9 0 7 : @ @ X : 7 0 : | { U q 0 7 7 0 9 i.:.^ w h ..-.^ U S g.R.).K.[ U q q ` q ' :.C.N.F.3.3.<.} : 0 5 2 @ @ 2 @ @ @ : 9 0 2 O O O O O @ @ @ @ @ O @ O @ X @ O @ @ @ @ O O O @ O O ",
"@.q 0 0 U N j 9 U R ` ] @.%.B.H.I.g.s... .=.X.' [ B.D.g.t.=.:.p.e.` #.X.] -.P...9 U &.H.X.K.).g...b @ qXqX+X+X+XOXOXOXOXOXOXOXOXOXOXOXOX+XOX*XiXW.O { ,.U ` q 9   oXuX@XoXOXOXoXOXOXOXOXOXOXOXOXOXOXOXOX$XyX$X  0 0 7 7 0 9 9 9 9 9 0 q :.=.R.^.J.[ ` M q 0 9 0 0 0 0 9 0 0 0 ` 7 @ @ @ X : 7 7 : 7 7 7 7 7 7 7 : 0 &.@.0 2 @ : 7 7 7 7 : : : 7 : 7 7 @ 7 b ` ] q 9 7 2 7 2 : : 7 7 0 2 7 : 7 7 7 0 q 0 , S ;.%.U 9 ..J.C.-.f.~.^.T.T 0 q 9 N { x.Q.Y.C.$.U 0 0 2 : ] T 2 @ @ 2 @ @ @ X @ @ O O O O O O @ @ @ @ O @ X @ O O X O @ O O O O O @ X O O ",
"N.K.V.;.{ n q R @.#.-.-.B.f.i.O.X.O. . . .' ' ] m.D.g.0. .@.e.Z n ` ` M M ] m.L.i.h ] Z.E.:.R.^.I.A N : @ ,.3.3.>.2.2.,.,.,.,.,.,.,.| ,.2.3.w   @ 7 : 0 U ` 9 = : X   B ,.,.,.,.,.,.,.,.,.,.,.,.,.,.,.,.}   2 0 7 0 0 7 7 9 9 0 9 9 0 0 -.X.J.^.J.*.` M 0 0 0 0 7 0 0 0 0 0 U ] 2 @ @ @ @ @ 7 @ @ 7 7 7 7 7 7 7 2 q -.R I 2 @ : : 7 7 7 7 : 7 7 2 : : : 7 : w M [ ^ 0 2 2 7 : 7 0 7 0 0 7 0 0 7 7 7 , 7 7 , N X.&.@.` s.g.L.L.~.^./.( q 0 b X.$.1.2.{ U U #.^ T 8 B #.~ 2 @ @ @ @ O X X O O O O @ @ @ @ @ @ @ @ @ @ @ X O 4 4 O O O O O O O @ @ O O ",
"R -.=.h.4.1.{ %.N.T.U.g.J.d.s.' M N N ` [ ' ' %.S.I.w.2.R N N ^ ] A M U M M ] n.E.s.b ] K.R.U.R.^.a.#.[ &.;.' M ` ` q 9 9 0 7 7 7 : 7 2 @ : : : 7 7 7 0 0 9 9 7 : @ @ @ @ @ @ @ @ @ 2 7 2 2 2 @ @ @ @ 2 7 0 0 7 0 0 7 7 : 7 9 0 0 9 0 0 ] [ :.E.:.[ M q 0 0 0 0 0 0 0 0 7 7 U [ 0 7 7 2 R @.X @ 2 @ : 7 7 7 7 7 : q #.q 0 7 @ @ : 7 : 7 7 : 7 7 : : 2 2 @ : X F 5.B.n.I 7 2 : 7 0 7 7 7 0 7 7 0 7 7 7 7 0 U U ` =.H.D.] Z s.I.I.^.T.%.R 0 ' [ R U U R U | o.%.T r F ` H 2 @ X X O   X X O @ @ @ @ @ @ O @ @ @ @ @ @ @ = C ^ L @ O X O O O @ @ @ @ O ",
"9 U ` ` ' ` m.T.E.!.p.a. .*.=.h.4.{ U @.*...@.M.L.t.r./ M b ( #...m 9 q ` @.@.@.m.U.d.[ &.K.R.f.L.I.L.d.+. X$X|.}.}.}.}.}.}.}.}.}.}.}.}.{.}.5.O @ 0 7 7 : : : @ 7 O # h.}.{.{.}.{.{.{.}.{.{.}.{.}.}.{.}.W.w @ 0 U :.K.#.9 7 9 0 0 0 0 9 I ` -.R.=.` q 9 9 0 0 0 7 0 0 0 7 : ` { 7 7 7 7 ;.;.@ @ @ @ @ 7 7 7 7 7 : 0 U : q 0 2 @ 7 0 7 7 7 7 7 7 7 7 7 7 : : 7 o s x.Z.%.0 7 7 0 0 0 7 0 7 7 7 0 0 0 U 0 q ` U 0 b o.P.%.] e.g.^.R.L.B.^ ` q q ` ` ` ` 0 } M ` R J r ] L 2 O O O O O X @ @ @ @ @ @ @ @ @ @ @ @ O O @ X , - 2 @ O O X X O O @ @ O O * ",
"0 q R m.Z.L.I.g.g.p.i.A M ' N 0 w q ] ` N @.N.U.t.A 0 M b ~ @.A m 9 9 q ` &.Z.a.4.$.L.d.O.;.E.g. .-.~.gXwX].h.W.Q.W.W.W.W.W.W.W.W.h.W.W.W.5.{.iX&X  0 : 7 7 7 : O 0X;X{.5.5.5.F.W.h.h.W.F.F.F.F.W.W.W.W.Q.qXiX2 U f.~.f., 7 0 0 9 9 0 0 ` #.:.^.d.` 0 9 9 0 0 0 7 0 0 0 0 7 q 0 7 7 7 7 7 : @ @ X @ @ @ 7 7 7 : 7 q 0 : q R 5 @ : 7 0 7 7 7 7 7 7 2 : : 7 : 7 7 o 7.h.&.0 7 0 0 0 7 0 0 0 q ] R U ] U 0 0 7 7 9 q q m ..-.O.g.^.E.d.Z.) q q 9 M ` ` ] q 0 U q U Y s X.( 4 O O @ @ @ @ @ @ @ @ @ @ @ @ @ @ @ @ O @ O O O O O X @ O O X X O O @ @ O # ",
"U @.N.T.R.l.t.i. .i.i.A q q U ` M U ` ' %.N.R.p.s.` N M ^ ] A b 9 9 9 0 q ` [  .y q [ X.N M ] T.f.Q.bXf.J.^.i.9 q M 9 0 0 0 0 7 : : 7 7 7 7 @   1.jX  7 7 7 7 @ zXe O @ 7 7 2 7 @ @ : : 7 7 q 0 7 7 0 U q @ w zXt 7 , - 9 0 0 9 9 9 0 0 [ P.=.^.J.' 0 0 0 0 0 0 7 0 0 0 0 0 0 0 7 : 7 7 7 7 @ @ @ @ @ @ : 7 7 7 7 U 0 7 9 R 0 @ @ : 7 9 7 7 7 7 7 7 7 2 7 : 7 : @ s h.%.0 0 0 7 0 7 R R 0 ` { q 0 0 0 7 7 7 7 9 9 0 9 b i.s.I.).T. .J.n.U 9 q M ` ] ] U U q n U Y 7.+.) 4 @ @ @ @ @ @ @ @ @ @ @ @ @ @ @ @ @ @ O O O O O @ @ @ @ @ O O O @ O X @ O O ",
"N.T.R.l.p.t.i...X...N ` ] ' M M M U M @.S.^.t.a.[ O. .^ -.e.j 9 q 0 0 0 M M q M q M q ] *.` ` ] P.cX2 E.!.I.!.e.b U q 9 9 9 9 7 7 : 7 7 7 7 7 7 @ y 0X  7 0   hXO 7 7 7 : 7 2 7 : 2 2 7 7 7 { ;.7 7 7 0 q 0 9   hX  0 7 0 0 0 0 9 9 9 9 ` :.d.^.R.=.q q 9 9 9 0 7 0 0 0 7 7 0 0 7 7 7 7 7 7 7 7 2 @ @ @ @ : 7 7 0 ] 0 : 0 q 0 @ @ : 7 9 9 7 7 7 7 7 7 7 7 7 7 @ @ i 1.R 0 7 7 7 9 9 { q 0 7 9 7 7 7 7 7 7 7 0 9 9 9 9 M N e.l.).C.m g.D.R q 0 M ` ] ] U U q <.{ U _ B R 5 @ @ @ @ @ @ @ @ @ @ @ @ @ @ @ @ @ @ O @ O O @ @ O @ @ @ O O O @ X X @ O O ",
"E.!.t.e.O.O...A N ` #.=.Z m 9 9 q q @.S.R.j.r.$.i.e.R &.i.c 9 q 9 9 9 9 q q q q q M q U #.-.' , yX;.s.' E.I.s.g.N 9 q 9 9 9 0 7 7 7 7 7 7 7 0 7 7 O -Xt 7 2 {.{.@ 7 @ : : 7 ` M : : 2 7 7 7 0 0 7 7 7 7 0 0 7 7 3.OX7 7 7 7 7 0 9 9 9 0 U X.:.^.R.=.M q 0 0 9 0 0 0 0 0 7 7 0 0 7 7 7 7 7 7 7 7 7 7 @ @ @ @ : 7 9 U 0 : 7 0 0 2 @ @ : 7 9 7 7 7 7 7 7 7 7 7 7 @ : * <.U 0 7 7 0 7 7 0 7 7 7 7 7 7 7 0 0 7 7 7 9 9 9 0 M q C l.E.%.j g.T.%.q 0 M N ` U U 0 w y U U 3 : 2 2 @ @ @ @ @ @ @ @ @ @ @ @ @ @ @ @ @ O O @ @ @ @ O O O O @ @ O O @ @ @ @ O @ ",
"i.......A A ` ] ` ` ' m b 9 0 0 0 R v.T.j.r.{ &...' @.S j , 9 9 , 9 7 0 0 q q 9 9 q 0 9 0 &.d., qXO V.=.R T.U.X.d.A , 0 9 7 0 0 7 7 7 7 7 7 7 0 7 7 y &X@   0X  7 : : : : : 0 0 : 7 7 7 7 7 7 @ 7 7 7 7 0 7 7 0   yX  7 : : 7 0 7 9 0 0 ` H.=.^.R.:.` q 0 0 9 7 7 0 0 7 0 7 q U 7 7 7 7 7 7 7 7 7 7 7 @ @ @ @ @ 7 0 7 : 7 7 0 0 2 @ : 7 0 q 0 : 7 : 7 7 7 7 @ @ : # | I 7 7 7 0 7 7 7 7 7 7 : 7 7 7 7 0 7 7 : 9 9 9 9 M 9 r.!.(.%.m g.E.m.` q M N ' #.%.R T 0 0 0 2 7 2 @ @ @ @ @ @ @ @ @ @ @ @ @ @ @ @ @ @ O O @ @ X @ O @ @ @ @ @ @ @ : 2 2 1 O @ ",
"' X...' ` M ` ' A b 9 0 0 0 q q U v.m.i.c n q ` #.@.A j : 0 9 9 7 7 0 0 9 9 9 9 0 q q q 0 I =.a.OX: T H.O.R D.J.=.I.i., 7 0 7 0 0 7 7 7 : 7 : 7 : : O ;X    5X  7 @ @ @ @ @ @ @ 7 7 : 7 7 7 : : 7 7 9 0 0 7 7 7   <XX 0 7 : 7 7 7 0 9 0 ` P.X.R.I.=.q 0 0 0 0 7 7 7 7 0 7 7 $.;.0 : 7 7 0 7 7 7 7 7 7 7 @ @ @ @ : 7 2 : 2 7 ] R 7 7 @ : 7 q 9 : @ @ @ 7 2 7 @ @ X 8 ` T 7 7 0 7 7 7 7 : : 7 : 0 7 7 7 7 7 : : 7 9 9 9 q q r.!./.%.m i.U.N.] U ` =.g.E.N.] @.T 0 7 7 2 @ 2 @ @ @ @ @ @ @ @ @ @ O @ @ @ @ @ @ O O O O O @ @ @ @ @ @ @ O X : 2 1 O O X ",
"] ' ` ` ` N b M q q 9 7 0 I 9 U ( %.S x 9 0 9 U R N b 9 9 7 7 7 9 0 0 0 0 9 9 0 0 0 q M 0 9 q >.+X0 M R H.X.] E.^.f.!.i.h 0 9 7 0 0 0 9 7 : 7 7 7 : @ -X    ;X  7 7 @ @ @ @ @ @ 7 7 7 2 2 2 7 7 2 2 0 0 7 7 7 7   -XX 0 7 7 7 7 7 7 0 9 9 ;.[ d.d.[ 0 0 9 0 0 7 7 7 0 7 7 7 A.Q.7 7 7 U 0 7 7 7 7 7 : 0 0 2 @ @ 0 2 2 2 : : { &.0 7 : : 7 9 9 7 : : : 2 7 @ @ @ @ w ` U 0 7 7 7 7 7 7 7 7 7 7 7 7 7 7 7 7 : 7 : 7 7 7 9 m t.^.T.&.M O.J.Z.&.] ` X.X.[ ] U ` R 0 0 5 2 @ 2 @ @ @ @ @ @ @ @ @ @ @ @ O O @ @ @ X @ 5 H 4 1 @ @ @ @ @ O O O O O @ @ X X ",
"` [ [ ' N 9 , 0 0 9 9 0 I 0 U ) N.S g , : 9 0 I b 9 9 9 7 7 7 7 : 7 7 9 9 0 9 9 0 q q q 9 9 0 | +X7 q M @.P.=.V.).!.f.I..., 0 0 7 0 9 : 7 7 7 7 7 7 @ -X    ;X  : 7 @ @ 2 @ @ 2 7 @ @ @ @ @ 7 7 : 7 7 0 7 7 7 7   -XO 7 7 7 0 0 0 7 : 0 0 U ` :.d.` 0 0 0 0 7 7 7 0 0 7 7 7 >.F.2 7 7 { q 0 7 7 7 7 7 0 $.0 @ 2 R 2 @ 2 @ @ ` &.I 2 : : : : 9 7 7 7 7 7 2 @ @ @ @ 9 Y 0 7 7 7 7 7 2 7 7 7 7 7 7 7 7 7 7 7 : 7 7 7 0 0 9 j p.^.Z.#.] X.i.U.N.U 9 M ` U U U 0 0 0 0 5 2 @ @ @ @ @ @ @ @ @ @ @ @ @ X , 0 1 @ @ , o.$.R 5 2 O @ @ @ @ @ O O O X X O o @ ",
"=.o.m b 9 7 0 0 9 9 0 T 9 U v.D.p.D : : : 7 0 q 9 9 7 7 7 7 7 7 , : 0 U 9 7 0 0 9 0 0 9 9 9 0 | OX7 q q q @.T.f.U.^.l.i.H.].2.: 9 7 q 9 : 7 7 7 7 7 @ -X    ;X  : 7 : @ @ @ @ @ @ 2.5.h.5.t   0 7 : 7 0 0 7 7 7   -XO 0 7 0 q q q 0 : 0 0 U ` H.E.` 0 0 @ @ 0 7 7 7 0 7 7 7 $.>.7     0 0 7 7 7 7 7 7 0 0 0 : q m.2 @ @ @ @ 7 ] I 7 0     9 : 0 7 7 7 2 2 @ @   @ , q 7 7 7 7 7 7 7 7 7 7 7 7 7 7 7 7 7 7 : , ] I 7 q q V p.R.[ X.N.] 0.I.N.T 7 q ` ` U q q q 0 0 0 2 7 2 2 @ @ @ @ @ @ @ @ @ @ , C @.5 O @ X X @ @ @ @ @ @ @ @ @ @ @ O O X @ @ O X ",
"A j , : 0 0 9 9 9 0 q 9 U v.D.j.9.y 7 9 7 0 0 0 9 , 7 7 7 7 7 7 : 7 I %.o.m 9 0 9 9 9 9 9 9 9 | OX@ M q 9 U &.J.s.d.^.g.,XIXIX= 9 0 0 q 9 7 7 0 7 : @ -X    ;X  7 7 : : : : @ :   HXLXGXGXIX$XO 5 7 7 7 0 0 0 0   -XX 0 0 0 7 7 9 M 9 0 9 q ` J.^.' 0 @ }. XX 7 7 7 0 0 0 7 $.$.O hXZXw : 7 7 7 7 7 7 7 0 0 : U Y.Y @ : @ @ @ 0 0 7   dXiX  : q 0 7 7 7 @ @   0X| : 0 2 2 7 7 7 7 7 : 7 7 7 : : 7 7 7 7 7 : D $.I , M q Z l.T.` e.Z.^ z l.T.^ 9 M M U U U q U 0 0 0 5 9 U H 2 @ @ @ @ @ @ @ @ @ @ = 2 @ O O O O X @ @ @ @ @ @ @ @ @ @ O O @ @ @ @ @ ",
"q , 9 0 0 0 9 9 0 q b M ~ n.i.0.h 0 M 7 7 I U N b 9 7 7 7 7 7 : : 7 0 q N b 9 0 0 7 9 9 9 9 9 | OX@ 0 q M 9 q #.=.X.Z.H.VXwXLX~., 9 9 0 9 9 0 0 0 7 @ -X    ;X  0 : 7 : : : 2 7   GX|.    5.IXO :.;.7 7 7 0 0 7   -XO 7 0 0 0 7 7 9 q 7 9 U ` d.^.[ 0   zXVX  7 7 0 0 0 0 7 { @ BXZXW.0 0   @ 7 7 7 7 0 0 0 7 { IXE 0 7 @ @ @ : q 0   LXFX  : N q 7 7 @ @ @   IX}.X 0 7 7 7 7 7   0 7 7 7 7 7 7 7 7 7 7 : : 9 q 7 M #.M e.!.T.q Z P.~ v j.E.) 0 q M q q U q 0 7 0 U } ,.B.~ 2 @ @ @ @ @ @ @ @ @ @ O X X @ @ @ O X @ @ @ @ @ @ @ @ @ @ @ @ @ X X @ @ ",
"q 9 9 0 7 7 9 0 0 q q ~ ) ..l , 2 7 I T ` ` [ A b 7 7 7 7 7 7 7 : 2 7 7 7 7 7 0 7 7 7 7 0 0 9 | OX@ 0 0 ] N 9 q #.:.[ U IXh.FXeX..7 7 7 0 0 0 0 0 7 @ -X    ;X  0 7 @ : @ 2 2 @   FX&XO 7 t IXO X.;.9 7 7 7 7 7   -XO 7 7 9 7 7 7 7 0 0 7 ] ] *.I.' 0   lXMX  7 9 @     @ 0 `   IX,.  0   hX<.@ 0 7 7 7 7 7 O aXBXO U 0 : @ O : 0 O 0 O O 7 : N :     O @ :   LX{.O @ 2 7 7 @ 7 BX  7 7 7 7 7 7 7 7 7 7 7 7 9 0 , [ @.M t.^.D.q e.H.^ x t.^.N.0 9 q M ` U U 0 q [ &.1.2.#.Q 2 2 @ 2 @ @ @ @ @ @ @ @ @ @ @ X @ O X @ @ @ @ @ @ @ @ @ @ @ @ @ @ @ 7 2 ",
"` j , 7 7 7 0 0 q q ^ N.i.z - @ 7 H ( *.i.N M b 9 7 7 7 7 7 7 : : : 7 7 0 0 0 0 7 7 7 7 7 0 0 | OX@ 9 0 q X.N , 0 %.H.+.IXf.gXNX7 X.9 9 9 7 0 0 7 7 @ -X    ;X  0 0 : : @ 2 Y `   SX&XO @ y IX8 @ 7 0 9 7 7 7 7   -XO 7 7 0 0 7 7 2 2 0 0 $.-.] d.` q   lXMX  0   @XNXzX3.O 7 oXIXfXOXO OXIXiX}.X 7 7 7 0 0   IXW.7 0 0 0 O }.O {.MX@  X{.X ,   <XBXlXOX8 @   LXh.qXkX3.O @ 3.NXJX0X7 7 7 7 7 7 7 7 7 7 7 9 9 9 , X.] N p.^.C.' i.H.%.N w.!.D.R q M M ` U ` [ H.Y.-.U E q H 7 @ @ 2 @ @ @ @ @ @ @ @ @ @ @ X X @ @ @ @ @ @ @ @ @ @ @ @ @ 2 2 2 b 9 2 ",
"N h 9 7 0 0 0 9 q ) S.!.w.F 5 0 0 R { ' b b 9 7 9 7 7 7 7 7 7 : : @ 7 7 0 7 7 7 7 7 7 7 7 7 0 | OX@ 9 0 0 q [ q 9 0 ^ qXJX7 >XPXX &.*.9 7 7 7 9 0 2 @ -X    ;X  0 0 : : @ 2 q `   FX*XO @ y IX8 7 7 0 0 7 7 7 7   -XX 7 0 0 0 7 7 7 2 0 q ] ;.` H.[ #.  lXMX  O uXPXoXiXIX| 2 fXIXkX*Xw lXIXjX}.X 7 7 7 9 7 5.IX  0 0 0 7   jXJXJXiX  ZXzX    hXJXXX-XIX0XX   HXIXpXkXIX| O OXSXHXiX7 7 7 7 7 7 7 7 7 7 9 0 0 9 h ;.] D l.).N.N s.&.] b r.l.(.%.U ` ` X.:.d.:.#.R U 7 7 0 0 7 : 7 2 @ @ @ @ @ @ @ @ @ @ @ @ @ @ @ @ @ @ @ @ @ @ @ @ @ @ 7 @ @ @ @ 2 ",
"h , 0 7 0 0 9 0 ~ n.d.t.c 7 0 U U U M q b 9 7 7 7 7 7 7 7 7 : : : @ 7 0 0 7 7 7 0 0 0 7 7 7 0 } OX@ 7 0 0 0 I @.N , O zXlX, q IXa.9 #.;.9 , 7 0 7 0 X -XO   ;X  7 0 7 : : 2 @ :   FX*XO @ y IX8 7 7 0 7 7 7 7 7   -XX 7 0 0 0 0 7 7 7 7 q U ` ] L.*.*.O lXMX    JX}.O   JX@X@ O IX2.O 7 > IXw X 0 7 7 7 9   BXqX@ 0 9 0 7   iXSX  2 O NXhX    LXQ.O   LX*X@   KXOXO   JX$X@   pXBX  7 0 0 7 7 : 7 7 7 7 7 9 0 9 b *.q y.!.(.%.A d.@.q b y.p.^.T.V.J.K.P.:.] R I 0 0 0 t 0 0 7 7 7 7 2 @ @ @ @ @ @ @ @ @ @ @ @ @ @ @ @ @ @ @ @ @ @ @ @ @ @ @ o X : 0 ",
"9 7 7 0 0 9 0 ) D.g.e.N ` M , 0 0 0 U 0 9 9 7 7 7 7 7 7 7 7 : : : 7 7 7 7 7 7 7 7 7 7 7 7 7 0 } OX@ 0 9 9 7 0 U *.m   GXIXIXIXIXwXe., -.P.N : 0 7 7 @ -XO O 0X  7 7 7 : : 7 2 7   FX&XX 2 t IXO 7 7 7 7 7 7 7 7   -XO 7 7 0 0 7 0 7 7 7 0 [ ` [ U.d.[   lXMX    LX{.  O IX|.7 @ IXh.7 7 w IX} 7 7 7 7 9 9 w IXw 0 9 9 7 9   pXZX  ` O NXhX  X PX+XU 2 LXqXq   LX+X0   KX@XO   fXVX  7 0 0 0 7 7 : 7 7 7 7 9 9 9 b [ 9 z.!./.] S H.R b M m k.!.(.H.=.#.M ` ] U 0 0 9 7 w 9 0 2 @ 2 2 2 @ @ @ @ @ @ @ 2 @ @ @ @ @ @ @ @ @ @ @ @ @ @ @ @ @ O + * < n T ",
"7 7 : 0 9 , ) S.I.t.h.n A , 7 7 0 0 9 , , : 0 7 7 7 7 7 7 7 : : 2 2 7 7 7 7 7 7 7 7 7 7 7 7 0 | oX@ 0 0 9 7 0 0 U ' w IXw 0 X kXmXH.i.9 -.I.N , 0 2 @ -X  O qX  : 7 7 : : 2 2 2   GX|.    ,.IX  7 7 0 0 7 7 0 0   -XO 0 0 0 0 0 0 0 7 7 0 [ =.=.R.U.[   lXMX    JXKXHXIXNX  q @ IXW.0 0 w IX| 7 7 7 7 7 @ qXVX  0 9 9 7 7   pXZX  M 2 BXhX  < IX+X#.7 LXqX0   LX*Xq   KX@XO   fXVX  7 0 q q 7 7 7 7 7 7 7 9 7 7 9 M n r.^.D.M ..-.0 x *.R 0.p.D.^ q q ` ` U q 0 0 7 7 2 : 2 2 @ @ @ @ @ @ @ @ @ : 2 2 @ @ @ @ @ @ @ @ @ @ @ @ @ @ @ @ @ O + * < b H ",
"9 0 0 9 9 R M.U.u.r.B , - 2 7 0 U N h : 7 7 7 0 7 7 7 7 7 7 : : 2 2 2 : : 7 7 0 7 7 7 7 7 7 0 | oXX 7 0 9 0 0 0 0 2 OXIX  9 U +XLXU ^.i.b -.P.b 7 7 @ -X    0XO 0 7 0 7 7 : : 7   GXGXBXVXIXiX  7 0 0 7 7 7 7 0 O -X@ ` o.` 0 0 0 9 9 9 0 ` d.d.R.U.X.  lXMX    LX@Xy #   9 0 @ IX5.: : w IX} : : : 7 0   IXQ.2 9 M ' ` q O pXZX  =.] VXhX  X PX+Xq O LX*X@   LXOX@   KX@XO   fXVX  : 0 ` U 0 7 7 7 : : 7 7 7 7 0 9 , i.R.n.9 ' ^ 2 g O.^ j e.T.( 9 q ` ` q 0 0 7 2 2 @ : 2 @ @ @ @ @ @ @ @ 2 2 : 2 2 O @ @ @ @ @ @ @ @ @ @ @ @ @ @ @ O @ O * o 7 5 ",
"9 0 0 7 R S.U.t.8., : 7 T U b q M C 9 7 7 7 7 7 7 7 7 7 7 : : : L #.C , 7 0 0 U o.m 0 7 7 7 0 } OX@ 0 9 9 9 9 7 9 7 Q.}.@ , 0 @.eX` L.^.g.b ] P...9 @ -XO   <XO q q U : 7 7 7 7 @ {.oXOXOX3.  9 7 0 9 9 9 9 0 0 O -X7 M N M M ` M q 0 q q ` :.H.^.R.X.O lXMXO   KX X9 ` 9 X.X.9 IX].d.d.;.IX+.:.*.N ' J.].IX=.J.d.R.^.^.E.J.gXDXO.^.U.VXvX`   KX X    IX*X@   LXOX@   KX@X@   fXNX  7 9 M U 0 7 7 7 7 7 7 7 7 7 9 0 b i.T.^ h *.T @ - N R b t.R.M.U q q q 0 0 0 0 2 2 @ : 2 2 X @ @ @ @ @ @ @ @ @ @ O O @ @ @ @ @ @ @ @ @ @ @ @ @ @ @ @ @ @ @ X @ @ ",
"7 9 7 T v.d.t.c 9 9 , I T { M 0 9 , : 7 7 7 7 7 7 0 7 7 7 : : 7 0 ] m : 7 0 0 0 9 , 0 7 7 7 0 | OX@ 0 0 9 9 9 9 9 0 0 7 ` 0 9 0 @.f.X.E.^.g.N &.R.S @ 5XO O 0X  0 U #.+.O 7 7 7 0 @ @ @ @ 0 9 7 0 9 0 0 9 0 q M X <X@ 9 9 9 q ` ` ` b q q ` H.J.R.^.J.: MXVX: O.gXPXwXwXKX~.I.s.IX].!.^.f.IXwX].s. .X...DXgXf.f.i.g.!.I.I...lXGXj I.i.DXvX: : $XIXVXPXIX*X@   IX*X@   IX*X@ O iXLXW.0 7 0 0 7 7 7 7 7 7 7 7 7 9 ` 0 m g.T.T m ;.T : : m [ U c g.C.R 0 0 0 0 0 0 7 : : T I : 2 @ @ 2 @ @ @ @ @ @ @ @ @ X @ @ @ @ 2 2 @ @ @ @ @ @ @ @ @ @ @ @ @ : 9 0 ",
"9 q T v.*.Z m U M h 7 5 0 0 7 9 : : : 7 7 7 7 7 7 7 7 7 7 : : @ @ 7 : 7 7 7 0 7 7 7 7 0 7 7 7 } oX@ 0 0 9 0 9 9 9 9 9 0 q U 9 9 U K.I.*.T.^.i.] V.P.M -XO @ 0X  0 0 &.W.a @ 7 7 0 7 7 0 7 0 0 7 0 9 0 9 0 0 9 9   -XX 9 9 q 0 q ` q 0 0 M [ L.J.U.J.=.9 }. X: N - qXVXvX XA A j uXa.O.O., OXZX+X, q b b aXi...N N ..O...N , Q.+Xh ..N +X}.0 `   2.{.@ SX-XX O -X3.@ O *X3.@ 0 @ kXZX7 7 7 7 7 7 7 7 7 7 7 0 7 9 ] 9 e.^.T.R b [ 0 : = d o.^ b t.L.) q q q 0 0 q ' X.Y./.Q : 2 @ @ @ @ @ @ @ : @ 2 @ X X @ @ 2 : : @ @ @ @ @ @ @ @ @ @ @ @ : , 9 M U ",
"9 U v.B.Z B L ' j : 2 7 7 0 7 , : 2 : 7 7 7 7 7 7 7 7 7 7 : : @ @ 7 7 : 7 0 0 : 7 7 : 0 7 7 0 } OX@ 0 0 0 0 0 0 9 9 9 0 q ` [ b 9 R T.g.=.E.^.U.J.-.H.eXX O qX  0 0 ^ Y.7.X 7 7 7 7 7 7 7 0 0 0 0 q q q 9 9 7 9   -XX 0 9 q 0 0 0 ` -.X.X.[ :.d.J.=.=.{ X @ 9 9 M :   X 9 M M M 7 ' X.' ` @   7 0 7 9 b m X.` 0 q ' ' N N M 7 : '  .N 7 0 U q @       HX&XO : O @ 7 0 X @ 7 7 7     7 7 7 0 7 7 7 7 7 7 7 7 7 b ` , t.^.D.U N ` 0 : : ,  .@.b t.^.N.I q q q X.P.E.Z.O.R 0 7 2 @ 2 @ @ @ @ @ @ @ @ @ O X @ @ @ 2 @ @ @ @ @ @ @ @ @ @ @ @ : : 9 q I 5 ",
"q v.N.e.f 3 0 b 0 0 0 0 0 : 7 : : 7 7 7 7 7 7 7 7 7 7 7 7 : : @ 2 : 7 : 7 7 7 : 7 7 7 7 7 7 7 O 0XO 0 0 0 0 0 0 9 9 9 0 0 q @.X.9 0 [ J.s.[ E.^.g.N | wX..  qXO q 9 I Z.x.X 0 7 7 0 7 7 7 7 0 0 q M M 9 9 9 9 9   qX  0 q q ` :.R.I.I.O.` ' [ d.f...O.0 : : 7 7 9 9 9 9 9 9 9 0 q ` M M M 0 0 0 0 7 0 9 M ] U 7 9 9 9 9 9 9 7 7 7 9 9 q q 0 @ OXIXNXGXIXy X @ @ @ 7 7 7 : 7 7 7 7 : 7 7 7 0 q 7 : 7 7 7 7 7 7 M U j p.^.m.q ' U 7 : : : N ] q 0.g.T.B.#.*.Y.C.#.` 0 : 7 7 2 2 @ @ @ @ @ @ @ @ @ @ @ O @ : @ 2 1 : 9 U I 2 @ @ @ @ @ @ @ @ 7 : 2 5 @ ",
"~ %.e.m I q N U @.' M q 9 , : 7 7 7 7 7 7 7 7 7 7 0 7 7 7 : : @ 2 : 7 7 0 7 7 7 7 7 7 7 7 7 7 O uXX 0 0 0 0 0 0 0 9 9 9 9 9 0 ] ' 9 q U -.=.*.(.!.j @XQ.I.i. XW.q M I @.4.8 q 0 0 0 7 0 0 0 9 9 M M 9 9 9 9 q q ,.*X: ` :.R.R.I.!.i...N M ` X.d.O.N X.q 7 7 : 7 7 9 0 0 9 0 9 9 q M q 0 9 0 q $.] 0 0 0 M ` q 7 9 9 q 0 9 7 7 7 9 0 0 0 ` 0 :   2.*X+Xe @ : @ @ @ @ 2 2 : 7 7 7 7 7 : 7 : 9 U 0 7 7 7 7 7 7 7 9 0 j g.T.R 9 ' U 7 : 7 , b [ ] e.l.R.T.P.B.-.R U 7 7 0 7 7 7 5 2 @ @ @ @ @ @ @ @ @ O @ , V =.) 4 X j Y L 2 @ @ @ @ @ @ @ @ @ @ @ O X ",
"&.e.d H U b T ^ ' N 9 9 , , : 7 7 7 7 7 7 7 7 7 7 7 7 7 7 : : 2 7 @ 7 7 7 7 7 7 7 7 7 7 7 7 7 0 r uX  7 7 0 7 7 0 0 9 9 0 0 9 0 U q 9 0 U V.s.[ L. .aXO ] R.V fX  ` U q { > 0 q 0 0 7 7 7 0 9 q M M 9 q M M `   hX@ [ d.^.^.f.....N 9 0 0 ` :.X.M M { M 7 7 7 7 7 0 0 0 0 0 9 9 0 0 q 9 0 0 7 $.>.U 0 0 U ` 0 7 7 7 9 9 0 7 7 7 0 9 0 : q T 2 : 9 9 q 0 7 7 : : 0 0 2 @ @ @ : : : 7 7 7 7 7 0 0 7 : : 7 7 @ : 9 7 j g.Z.0 b ` I : : 7 7 b O.U y.k.).D.R U U M U 0 9 0 0 7 9 0 2 2 @ @ @ @ @ 7 9 5 2 h b A i.^ H 2 X @ 2 @ @ @ @ 2 @ @ @ @ @ @ @ O @ ",
"p.r.e 0 0 9 0 U N 9 9 : : : 7 7 : 7 7 7 7 7 7 7 7 7 7 7 : : @ 2 7 7 7 7 7 7 7 7 7 7 7 7 7 7 7 7 @ [.0X  @ 7 0 0 7 0 0 9 0 0 0 0 0 q 0 0 7 U *.: w MXq ` q #.Y.a.lX@ 7 q 9 0 7 0 q 0 7 0 0 0 0 M M q 9 9 9 7 X kX].f.s...s.O.N b 9 9 7 0 U { ' M M q ` 9 7 7 7 @ 7 7 0 0 0 0 9 9 0 0 9 9 7 7 0 0 0 9 ` { U U 0 0 0 9 9 7 7 7 7 7 0 0 0 7 q $.0 @ 9 M X.0 7 7 7 0 Y 0 2 @ @ @ @ @ @ @ : 7 7 7 0 7 7 : : 7 7 : 7 0 7 x I.N.0 j #.0 : : : : b [ @.B z.!.T.R U ` U U 0 7 0 7 : : 7 @ 2 @ @ @ @ @ : 7 2 @ = @ @ X 2 2 @ @ @ @ @ @ @ @ @ @ O O @ O @ X O O ",
"r.F 2 0 T U b 9 9 9 , 7 7 : : 7 7 : 7 7 7 0 7 7 7 7 7 7 : : @ @ 2 7 7 7 7 7 7 7 7 7 7 7 7 7 7 7 7 O 1.fXoX,.} | | | | | | | | | | | ,.,.| } W.qXqXO &.=.` U [ f.n pX*X3.| | | | | | | ,.| | ,.+.+.| | | W.qXgX~.I.i.b 9 b 9 7 9 9 9 0 q ` 0 9 q q 9 q q 7 7 : : 7 : 7 0 7 0 0 0 0 7 0 9 7 7 7 7 0 7 9 ` ` { { I 7 9 0 0 , 7 7 7 0 0 0 7 q $.T @ 7 9 M 9 7 7 7 0 0 7 2 @ @ @ @ @ @ @ @ : : : 7 2 7 : : 7 7 7 9 I : 0.^.N.7 V &.0 : 7 : : N [ R 0 r.p./.) U ` U U 0 7 7 7 2 @ 2 2 @ @ @ @ @ @ @ @ @ X X @ 2 @ @ X @ @ @ @ @ @ @ @ @ @ O O X X @ 2 1 O ",
"y.# 9 0 T ] n 9 7 9 : : 7 7 7 7 7 7 7 7 7 7 7 7 7 7 7 7 : @ @ @ 2 7 7 7 7 7 7 7 7 7 7 7 7 7 7 7 7 7 7   1.oX@XOX@X@XOXOXOXOXOXOXOXOX+X*XeX$X}.w 2 q 5 C.d.N q ] J.A B |.*X@XOXOXOXOX$X$X@X$X+XOXOX+X4XwXwX].m ..A 9 7 0 0 0 0 9 9 M M 0 0 7 7 9 q 0 0 0 0 7 7 7 0 7 : 7 7 7 7 7 7 0 7 0 0 7 0 7 0 0 0 0 0 >.|.Q.] 0 9 9 0 7 7 7 0 0 7 0 : U H @ : 7 9 7 7 0 0 7 7 7 7 2 @ @ @ @ @ @ @ @ : : 7 7 7 7 7 0 7 7 9 0 ; t.).n.7 ..^ 7 : @ @ : 9 q q 0 j 0.E.n.U U U U 0 b { U 0 n &.L 2 @ @ @ @ @ @ O O X @ @ @ @ @ X @ 2 @ @ @ @ @ O O O O O X < , U G O ",
": 9 , 0 0 q U b , : 7 : : 7 7 7 7 : 7 : 7 7 7 7 : 7 7 7 : : @ @ 7 7 7 7 7 7 7 7 7 7 7 7 7 7 7 7 7 7 7 7 7 @ @ @ @ @ 2 @ : : : @ 2 @ 2 5 -.S = 0 0 U 0 I T.~.A 9 *.R.I.m @ 7 : 2 7 : 7 7 : 2 2 M =.f.f.s.A b 9 7 7 7 7 0 9 q ` M q 9 9 7 7 0 0 9 9 7 7 9 0 7 : 7 7 9 9 7 : 7 7 7 7 0 7 7 7 7 0 0 7 : 0 0 U 7 w 3.Q.A.] 0 7 0 7 7 7 7 7 7 2 7 0 2 : 9 9 0 7 0 7 7 7 7 7 7 7 7 7 2 @ @ @ @ @ @ @ 7 7 7 7 0 0 0 q 7 k p.(.^ , N T 7 : @ @ : : 7 , 0 9 e.g.D.R ` ] U q  .;.-.@.[ @.H @ @ @ @ @ @ @ O X @ @ @ @ @ @ @ @ @ @ @ @ O X X - 7 4 @ & s n R G O ",
"9 : 7 7 7 0 q 9 , : 7 7 : 7 7 7 7 : : : 7 7 : 7 7 7 7 7 : : @ 2 7 7 7 7 7 7 0 7 7 7 7 7 7 7 7 7 7 : 7 7 7 7 7 7 0 0 0 0 0 0 7 7 0 0 0 0 0 ] ' 7 7 q ] M #.E.!. .M *.R.!.A : 9 0 0 0 0 0 0 X.d.J.P.O.b 9 9 9 9 q q q M M ` M M 9 7 0 0 7 7 0 0 9 7 7 7 0 0 7 7 7 : 7 9 9 7 7 7 7 7 7 7 7 7 7 7 7 7 7 7 0 q 0 0 7 0 $.>.$.U 7 0 0 0 7 7 7 0 7 0 0 9 M M 0 7 7 7 7 7 7 0 0 0 0 7 7 7 2 @ @ @ @ @ @ 7 7 7 0 7 9 0 7 f j./.T b [ I 7 : @ @ : : : , M U g p.D.%.` ' ` q ` ` { @.I 7 2 7 2 @ @ @ @ @ X O @ @ @ @ @ @ @ @ @ @ @ @ @ o f a.P.v.H + < , 0 4 O ",
"b 0 q 9 7 0 0 : : 7 7 7 : : 7 7 7 7 7 7 : : 7 7 7 7 7 : : @ @ 7 7 7 7 7 0 7 7 7 0 0 7 7 7 7 7 7 7 7 7 7 7 7 7 7 7 0 7 0 0 7 7 0 7 7 7 7 : I &.o.- 7 U X.` -.E.I.N U -.E.!.V 7 0 9 U ` ' :.f.s.N , : 9 0 0 0 0 M M 0 9 9 9 9 7 7 7 7 7 0 9 7 7 9 9 7 7 7 0 7 : 7 7 : 7 7 9 9 7 7 7 0 9 7 7 7 7 7 7 7 : q ] U q 9 7 7 0 ` U 9 0 0 7 7 7 9 0 7 q U U [ [ 0 7 7 7 0 9 0 0 0 0 0 7 7 7 7 7 2 @ @ @ @ @ 7 7 0 7 0 0 : v l./.0 x -.I : : : : : 7 : - ..R h e.K.%.M O.f.E.K.%.H 7 7 7 2 2 @ @ @ @ @ @ @ @ @ @ @ @ @ @ @ , 2 2 O X @ X , j q 5 @ O @ : 5 2 O ",
"U M N 0 M 9 : 7 7 : : 7 7 7 7 7 7 7 7 7 : : 7 7 7 7 7 : : @ @ 2 7 7 7 7 7 7 0 0 0 0 0 7 7 7 7 7 7 7 7 7 7 7 7 0 0 0 0 0 0 7 0 7 7 0 0 7 0 7 I { n 7 0 [ *.' B.^.!.V M Z.E.!...9 #.R.~...M 9 9 0 0 9 9 q 0 0 0 9 9 7 7 7 7 9 9 9 9 7 7 0 0 7 0 0 9 7 7 7 0 7 7 : 7 7 : 7 7 7 7 7 7 9 9 7 7 7 7 7 7 7 7 U U q 9 9 7 7 0 7 0 0 0 0 0 7 7 9 9 7 q [ *.;.` 7 7 7 0 9 9 0 0 0 0 7 7 7 7 7 7 7 : @ @ @ @ @ 7 7 7 9 0 7 c !.C.7 e.B.I 7 : 7 : 7 7 7 , S &.9 Z U.T.L.!.R.K.^ I 7 7 @ 7 2 2 @ @ @ @ @ @ @ @ @ @ @ @ @ @ 2 w w 1 O X @ O @ X O O O # < , I 4 O ",
"q h 7 0 9 , : 7 7 : : : @ 7 7 7 7 7 : 7 : : 7 7 7 7 7 7 : @ @ @ 7 7 : : 7 7 0 0 0 0 0 0 7 7 7 7 : 7 7 7 7 7 7 7 0 7 7 7 7 0 7 7 7 0 0 7 7 , 7 0 0 9 q U ] *.[ L.^.l.V ` V.R.I.=.*.O.A , 7 9 q 0 0 0 M q q 0 9 9 0 7 7 7 7 0 0 9 7 7 : 7 7 7 7 9 9 7 : 7 0 7 7 : 7 : : 7 7 7 7 : 7 9 9 : : : 7 7 7 7 7 q U 0 7 7 7 7 7 7 7 0 7 0 0 0 0 0 7 : 0 #.-.` 0 7 7 9 0 0 9 0 0 0 0 7 7 7 7 7 7 7 7 7 2 : 7 2 @ @ : 9 0 : Z U.^ , i.m.0 : : 7 7 7 : 0 : V -.U 0.l.T.N.#.] R I 0 7 7 7 7 2 2 @ @ @ 2 2 @ @ @ @ @ @ 2 @ @ @ X O O X X @ O O 2 @ @ @ * a b T 4 O ",
"m , @ : : : : 7 : : : : @ @ 7 7 7 7 7 @ 7 7 : : 7 7 7 : @ @ @ @ 7 7 7 : 7 7 0 0 0 0 0 0 7 7 7 7 7 7 : 7 7 7 7 7 7 7 7 7 7 7 7 7 : 7 : : : : 7 0 0 U ` , 9 R [ #.E.^.p.j ` -.P.d.[ 9 : 9 9 9 0 0 9 9 q M M 0 0 7 7 7 7 7 7 7 7 7 : : : 7 7 7 7 0 q 7 @ @ 7 7 7 : : 7 7 7 7 7 7 : : 7 9 : : 7 7 7 7 7 7 0 0 7 : 7 7 7 7 7 7 7 7 7 7 0 0 0 7 @ @ q U 0 7 7 0 0 0 0 0 0 7 7 7 7 7 7 7 7 7 7 7 7 7 7 q 0 2 @ : 0 0 - p.Z.T , ..^ 7 : : : : : : 7 7 , [ T F j.E.v.` ` R I 7 2 2 7 : 2 2 2 @ @ @ @ @ @ @ @ @ @ @ @ O O O O @ @ @ @ O @ @ @ O @ @ > 7 H 5 @ ",
"f X @ @ @ @ : : : 7 7 : : : 7 7 7 7 7 @ 2 7 2 @ 7 7 7 : @ @ @ @ : 7 7 0 7 7 7 7 0 0 7 0 7 7 7 7 7 7 7 7 7 7 7 7 7 7 7 7 7 7 7 7 q : : 2 : 7 7 0 0 I &...- 0 R -.=.U.^.i.q &.:.H.H.d.O.9 : 0 0 0 0 0 9 0 ` q 0 7 7 7 7 : 7 7 7 7 : : 7 7 7 0 0 9 9 7 7 @ 7 7 7 : : 7 7 7 2 7 7 : : : : : 7 7 7 7 7 7 7 0 7 7 7 7 7 0 0 7 7 7 7 7 7 7 7 7 7 2 @ 0 q 7 7 7 7 q q 0 7 7 7 7 7 7 7 7 7 7 7 7 7 0 0 7 q U 0 @ @ 7 @ d g.C.I , M 0 : : : : : : 7 7 7 7 9 0 k t.^.C.U q R q 7 2 2 @ @ 2 2 @ @ @ @ @ @ @ @ @ @ O O O O O @ @ @ @ @ @ @ @ @ @ @ @ @ : 7 2 1 + ",
"; : @ @ @ @ : @ : 7 7 : : : : : : 7 : : @ 7 7 7 7 : : : @ @ @ @ : 7 7 0 0 : 7 7 7 7 7 7 7 7 7 7 7 7 7 7 7 0 ` ` 7 7 0 0 7 7 2 0 $.n : 7 7 7 7 0 0 0 R P.m : 0 &.J.O.K.R.A [ B.Z.L.J.I.g.b 7 0 0 7 7 9 9 0 q 0 0 7 7 : : 7 : 7 7 : 7 7 7 7 9 9 9 9 9 0 : 7 7 7 7 : : 2 @ 2 7 7 @ @ : : : 7 M 9 : @ : 0 7 7 7 7 : 7 7 7 7 7 7 7 7 7 7 7 7 @ @ @ 0 q 0 0 9 7 o.;.I 0 7 7 7 7 7 7 7 7 2 7 : : 7 0 7 7 0 0 2 @ 7 @ d I.n.0 9 U 2 @ 7 : : 7 : 7 : : 7 7 0 9 9.l.T.^ ` U 0 0 0 2 @ @ 2 @ @ @ @ @ @ @ @ @ @ O O O O X @ @ @ @ @ @ @ @ @ @ @ O @ X , 0 5 1 i ",
": : : @ 2 X : : : : 7 : : : 7 : 7 0 : : : : 7 7 7 7 7 7 0 0 : @ : : 7 I Y M 7 7 7 7 7 7 7 7 7 7 7 7 7 7 7 0 ` 0 7 7 0 0 7 @ 2 0 7 : : 7 0 0 q 0 0 7 0 ] o.b 7 T B.s.] C.L. .[ -.d.f.[ V.J.' q @ 7 7 7 9 9 0 9 7 7 7 : : 7 7 7 7 7 7 7 7 7 0 0 0 0 0 7 @ @ 7 7 7 : : 7 2 @ 7 2 @ : : 7 : 7 9 7 : 9 : 7 0 7 7 7 7 7 7 7 7 7 7 7 7 7 7 7 7 @ @ @ 7 0 q 0 0 0 M { 0 7 7 7 7 7 7 7 7 7 7 @ 7 7 7 7 7 7 7 0 2 @ : : V L.~ 7 m @.7 : 7 7 @ @ : : 7 7 7 9 0 0 x u.K.^ U U 0 9 7 2 2 2 @ @ @ @ @ @ O O @ O O O O X X O @ @ O @ @ @ @ @ O @ @ O 8 B C f.) G * ",
"= : : : : : 7 7 : : 7 7 : : : 0 ( ;.r.n @ : 7 7 7 7 : 7 R ' b 7 7 : 7 0 q 9 7 7 7 7 0 7 7 7 7 7 7 7 7 7 7 7 7 7 : 7 2 @ @ @ 7 0 7 0 0 I U U U q 0 0 7 9 q ` 0 9 U [ [ U Z.R.s...-.H.=.` ] U.!.V : 0 q q q 9 0 0 7 7 7 7 7 7 7 7 7 7 7 7 7 0 0 0 0 0 7 @ @ 7 7 7 @ : 7 @ 7 7 : @ : 7 7 2 7 : 7 : q 9 q 0 7 7 7 7 7 7 7 7 7 7 7 7 7 7 7 7 : : : 7 q U 0 7 7 7 7 0 0 7 7 7 7 7 2 2 7 7 7 : 7 7 7 7 7 0 0 2 @ 2 = e.E.~ 7 b T 2 : : 7 : : 7 7 7 7 7 7 7 7 , x *.^ U 0 0 7 7 2 @ @ @ @ @ 2 O @ O O X O O O @ O @ @ @ O O X @ @ @ @ 7 7 7 7 7 7 9 q H 2 O ",
"h , = : 7 : : : @ @ : 7 : : : 7 H ` j : 7 : : 7 7 7 : @ 2 @ @ 7 7 7 : 2 7 7 7 7 7 7 7 7 7 7 7 7 7 7 7 2 7 7 : @ @ @ @ @ @ 2 0 U Y U U 0 0 0 0 0 7 7 : : 7 0 q 9 9 U ] ' @.(.!.i.' -.:.X.M ] U.I. .9 9 q 0 9 9 9 7 7 7 7 0 7 7 7 7 7 7 7 7 0 0 0 0 0 7 7 @ 7 7 7 : : : 7 7 7 @ : 7 7 7 @ @ : 7 @ : 7 ] U 0 7 7 7 2 7 7 7 7 7 7 7 7 7 7 7 @ : : 7 0 0 7 7 7 7 7 7 7 7 7 7 7 7 7 2 7 7 7 7 7 7 7 7 : 0 7 2 @ 7 - t.(.T 7 : 0 @ : 7 7 7 : 7 7 7 7 7 @ : 7 7 h ..^ T 0 2 2 7 7 @ @ @ @ @ @ O O O O O X X X X @ @ X : 0 0 0 2 2 2 @ @ @ @ @ O @ @ @ O O @ ",
"S b , = : : = : @ @ @ @ @ : @ @ 2 @ @ 7 : : : : : : : @ @ @ @ : 7 7 : : 7 7 : 7 7 7 7 7 7 7 7 : : 7 : 7 7 : @ @ @ @ @ 2 2 7 0 0 0 7 7 0 7 7 0 7 7 : : @ 7 7 0 ` 0 9 U &.;.-.^.!.S ` #.J.O.9 I ] :.U.s.h , 9 0 9 9 7 7 7 7 7 7 7 7 7 : 7 7 0 0 9 0 0 7 : @ : 7 7 7 7 7 7 7 7 7 : 7 : 2 @ @ 7 7 7 @ 7 &.U q 9 : 2 2 7 : 7 7 7 7 7 7 7 7 2 @ @ : 7 7 7 7 7 7 0 7 7 7 7 7 7 7 7 2 2 7 7 7 7 : @ : @ : 0 7 2 2 7 d p.T.I : 0 2 @ : : 7 : 7 7 7 0 0 7 7 , M 0 d e.B.~ 0 0 0 7 7 @ 2 2 @ @ @ @ O O X @ @ X @ 7 0 7 w n o.R H 2 @ O O O @ @ @ O O O @ 1 O O ",
"-.d.i.x - = , : : @ @ @ 2 : : @ 2 : @ @ : : : : : : : @ @ @ : : 7 7 7 : : 7 7 7 7 7 7 7 7 7 7 7 7 : 7 @ @ @ @ @ @ @ 7 7 7 7 7 7 7 7 7 7 0 7 7 0 7 : @ 2 7 7 0 ` [ 9 0 T -.X.-.E.I.m #.T.^...9 q R T.^.!...9 q q 9 7 7 7 7 0 q 0 7 7 7 7 7 7 9 9 9 0 7 : @ @ 7 7 7 7 7 7 7 7 7 : 7 7 2 2 7 7 7 7 : 0 @.7 7 9 7 @ @ 2 7 7 7 7 7 : 7 7 7 7 2 @ 7 : 7 7 7 7 7 7 7 7 7 7 7 7 7 7 @ @ : 7 : @ @ @ @ @ : 0 7 2 2 @ d g.C.5 : 7 2 @ : : : : 7 7 0 7 7 7 2 C s.^ , 0.P.n.I 0 0 7 7 2 2 7 2 @ @ 2 O X : 2 2 @ 7 w 0 0 0 0 @ 2 @ @ O O O O @ @ @ @ 2 > 7 2 O O ",
") D.R.j.e.m , - = @ @ @ 7 9 , : @ @ @ 2 @ : : @ : : : @ @ @ @ : : 7 7 2 7 7 7 7 7 7 7 7 7 0 7 7 2 2 @ @ @ @ @ @ 2 2 7 7 7 7 7 7 7 7 7 0 0 0 0 9 0 : @ 2 7 0 0 0 ` ` 0 , U #.[ #.E.J.' K.R.l.N q q ] K.).^.~...9 9 9 9 7 9 0 q ` ` 7 : 7 7 9 9 9 9 0 7 : : @ 7 7 7 7 7 7 7 : : : : 7 7 : : : : : : 0 ^ 2 : 7 7 7 7 @ : 7 7 7 7 : 2 7 7 @ @ @ @ : : 7 7 7 7 2 7 7 7 7 7 7 7 7 2 @ @ : : @ @ @ @ : 7 7 0 0 2 @ j g.%.5 , 7 @ @ : : : : 7 7 0 0 7 7 7 7 ' ^ 2 c f.M.T 0 0 0 0 0 0 0 7 2 2 2 8 B q T 2 2 @ 2 2 2 @ @ @ X @ @ @ @ O O @ @ @ O * > 0 5 O O ",
"U R m.K.U.I.p.e.B : , = : 7 9 , : @ @ @ @ @ @ @ @ : : @ @ : : : 7 : 7 7 7 : : : 7 7 0 : 7 7 : : @ @ @ @ @ @ 2 2 7 7 7 7 7 2 7 7 7 7 7 7 0 0 7 0 7 @ @ 7 0 7 7 0 0 q q 9 9 U [ ` %.L.s. .L.R.g.b M M ` :.R.^.~.s.9 9 9 0 9 9 9 0 U q 7 7 7 7 9 9 9 0 7 : @ @ @ 7 : : 7 7 7 : : : : 7 @ : : 7 : 7 : 0 0 2 : @ : 7 0 7 7 7 7 7 7 2 2 7 7 2 7 7 @ : : 7 0 7 7 7 7 7 7 7 7 7 7 7 2 @ @ @ : @ @ @ @ 7 9 2 7 U H : x L.( X 9 0 @ : : : : : 7 7 0 0 7 7 7 2 9 ` H , ..C.^ } } { [ / <.` T } q / H @ @ 2 @ @ @ @ @ @ @ @ @ @ @ @ @ @ O @ @ @ O O @ @ 2 2 2 @ ",
"M b , I M.(.^.j.z.a.' S m 0 : , : : : @ @ @ @ : 2 @ : : @ @ @ @ : : : : 7 7 @ @ 2 2 7 7 7 7 : @ @ @ @ @ 2 2 2 7 7 7 7 7 7 7 7 7 7 7 7 7 7 0 7 7 : @ @ 7 7 7 0 0 0 0 q 0 0 0 U [ ` @.E.g...L.!...' ..N ` [ H.E.^.I.9 0 0 9 q 9 7 7 0 0 7 7 7 9 9 9 7 : : : @ @ @ @ : 7 7 7 7 7 7 : 7 2 @ 2 7 : 7 7 U 0 7 7 7 7 7 7 7 7 7 0 7 7 0 0 0 7 { >.Y 0 7 7 7 7 0 7 : : 7 7 7 2 7 7 7 : @ @ : 7 7 : @ : : 0 7 7 9 5 - e.K.Q = o.T @ @ : : : 7 7 7 0 7 7 7 7 2 7 ' T 7 j -.%.| 3.5.>.3.F.W.Q.>.;.) H 2 @ @ @ @ @ @ @ @ @ @ @ @ @ @ @ @ @ @ @ X @ @ O @ @ @ @ @ ",
"-.o...N U @.T.R.l.p.O.Z g = 9 b , , : @ @ @ : : @ @ 2 : @ @ : : : : : : 2 @ 7 7 : 2 0 I b : @ @ @ @ 2 7 7 7 7 7 : 7 7 7 7 7 7 7 7 7 7 7 7 7 7 7 : @ @ 7 7 7 0 0 0 9 9 q 0 0 q R ] U H.^.g.O.E.I.N ` =.' ` ] #.L.^.I.N 9 0 9 9 7 7 0 0 0 7 0 7 0 9 7 7 : @ @ @ 7 0 0 q ` q 0 0 7 7 7 7 7 7 2 7 : 7 ] 0 2 : 7 7 : 7 : @ @ @ @ @ 2 2 7 7 @ 7 7 2 : 7 0 ` $.@.0 7 7 7 7 2 7 : 7 0 9 0 : 7 7 2 @ : : 7 7 : 0 5 , i.C.5 , ;.T @ : : 7 7 2 7 7 : 7 7 0 0 7 7 7 I 5 b X.) n ,.5.;.A.W.;.m.m.~ 5 2 2 2 @ @ @ @ @ @ @ @ @ @ @ @ @ @ O @ : : @ 4 @ @ @ @ O O @ ",
"U ` ] #.o. .] #.:.K.R.!.t.y.e 9 , , : @ @ @ 7 : = 2 5 = X @ : 7 : : : @ @ : 7 0 b : 5 T o.h X 2 7 @ 2 2 7 7 7 7 7 7 7 7 0 7 7 7 7 7 7 7 7 7 7 7 @ @ @ 7 7 7 7 0 0 0 0 0 0 9 0 0 U ` ] T.^.g.:.U.s.9 M X.` 0 q q #.V.J.X.q : : 7 0 7 : 7 0 0 0 9 9 7 0 0 q 7 @ 0 q U ` ` U 0 7 7 @ 7 2 2 2 2 7 : 0 ] 7 @ @ : 7 7 7 q 7 2 @ @ @ @ @ @ 7 7 @ @ @ : : 7 7 U R 0 7 7 7 7 7 7 7 9 q 0 0 7 7 2 @ @ @ : : : @ 0 T 9 s.n.2 , ] 5 @ 7 7 7 2 2 7 : : 7 w 0 7 7 2 2 5 @ , A &.] } <.>.&.$.m.( 5 2 @ @ @ @ @ @ @ @ @ @ @ @ @ @ @ @ @ @ O @ @ , Y H @ @ X O O O O ",
"&.:.:...N M ` ] %.m.T.).!.k.r.b 9 , , : : @ 2 : : 5 ] D , @ @ 2 : : : @ @ 7 7 0 9 @ 2 I , : @ 2 7 7 2 @ 7 7 7 7 7 7 7 7 7 0 7 7 7 7 7 7 7 7 7 7 @ @ @ 7 7 7 7 7 7 0 0 0 0 q 0 : 9 U ] #.L.I.X.B.H.N , q q q ` 0 9 q @.T.!.f.b : 7 7 7 0 0 q ` U ` 0 7 9 0 2 @ 2 2 2 7 7 7 7 7 : : : 7 2 7 7 7 7 0 U : @ @ : 7 : 7 0 0 7 : : @ @ @ @ 7 2 @ @ @ @ : @ : 7 0 0 7 7 7 7 7 7 7 9 0 0 0 7 7 7 2 @ : 7 : 7 @ 0 I m g.n.2 , T 2 : 7 7 7 @ : : : : 7 7 2 7 0 5 : 7 @ ; c J.&.1.5.>.D.~ 0 0 2 @ 2 @ @ @ @ @ @ @ @ @ @ @ @ @ @ @ @ @ @ O @ : 0 H @ @ @ O O @ @ ",
"B.H.s.i.N U [ ` ] U @.&.D.R.l.p...j - = @ @ @ : @ 5 0 - = @ : 7 : : : : @ 2 @ @ @ @ @ @ 2 2 2 2 2 @ @ @ 7 7 7 @   O 7 2 @ @ @ @ 7 @ @ 2 2 @ @ @ X @ @ @ @ : 7 7 0 @ 0 0 @ 0 0 : @ 7 ` =.X.@.#.] &.X.h , 9 q [ O.N q q ` E.^.!. ., 9 9 9 q U q q 0 7 7 7 : @ @ @ @ : : : : 2 7 : : : 2 @ 7 7 7 q 7 2 @ @ 7 : : : : 7 7 7 7 : @ @ @ @ @ @ @ @ @ @ 7 2 2 @ 7 0 0 0 7 7 7 7 : M ` q 0 7 : 7 7 7 7 0 7 0 7 7 : r.!.N.5 b U 2 : : 7 7 : @ : : 7 2 @ @ @ 0 7 , : 0 @ y.l.(.Z.$.&.^ H 2 7 7 0 2 2 2 @ @ @ @ @ @ @ @ @ @ @ @ @ @ 2 2 O @ @ @ @ @ O O O O @ @ ",
"B.:.i.V M ) C.d...o.>.Z.T.U.R.R.I.p.e.j ; : : @ @ : @ @ @ @ 7 7 : : @ @ @ 2 @ @ : : : @ @ @ 2 7 @ |.5X5.  0   |.jXqX  t qX}.$X|.O ,.OXO w yX}.$X}.2 OX-X0X8 7 7 @ }.0 O  Xw >.qX*X&XY +Xf., XX;.I gXgXh.: 9 q ` ' { 9 9 #.E.).^.s.N 9 9 9 7 9 9 9 0 7 7 : : @ @ : 7 7 7 7 7 7 7 7 7 : 2 2 : 7 9 0 7 2 @ @ : : @ 7 7 7 7 7 7 7 : @ @ @ @ @ @ @ @ 2 @ : : 7 7 0 0 7 7 : 7 7 9 0 0 7 7 7 0 7 7 7 0 0 9 ` 0 f k.).n.9 o.~ 2 : : 7 7 : @ @ : 7 @ @ : @ 7 9 2 b ] H k k.^./.T I 0 0 7 7 7 7 2 @ 2 @ @ @ @ 2 @ @ @ @ @ @ @ @ @ @ 2 2 @ @ @ @ @ @ O O @ @ X ",
"Z.P.Q.h.o.*.m.T.I.h.F.*.-.V.R.!.U.E.!.t.D - = : : : : : @ 2 7 , : : @ 2 7 q M M 9 9 : : 7 : 2 7 w IX@XAXiX  &XSX5.pXBX# 0XLXfX@X  SXIX2.t 0XPXpXoX5.LX%XpX> 7 7   IXt 1.LX  dXVXeXqXO IX5 b IX  JXeXwX>X= q q 9 0 ' o.q U *.L.U.R.I.O., 7 9 9 9 9 7 7 7 7 : @ @ : 7 7 7 7 7 @ 2 @ 2 : @ 7 : 7 7 q q 7 7 : : @ @ @ 7 7 7 7 7 7 @ @ @ @ @ @ @ @ : : @ @ : 7 7 0 7 7 7 7 7 0 7 7 7 7 7 0 9 0 7 9 q  .X.T 2 - i.T.~ b V.T 2 : 7 7 0 9 9 q U q M U q 0 0 r 4.i.K.) 0 h i.K.n.H : 7 2 2 2 : 2 @ @ @ @ : @ @ @ @ @ @ @ @ @ @ @ @ @ @ @ @ @ @ @ @ O @ @ @ @ ",
"B.o.| Y ^ -.s.[ ] ` 0 U ^ n.Z.J.g.V.L.J.f.e.x k # : 7 7 @ @ @ @ @ @ @ 5 U { ` M M 9 7 : 7 : @ 2 w LX  8 LX  VX1.O   IX    AX,.O O IX*XyXO   GX}   [.BX  O 7 7 7   LXO HX1.  pX4X@ @   NXW.4XfX@ IXO H.I.i.9 q q 9 0 0 0 0 U ] -.V.E.^.f.9 7 9 9 9 7 7 7 7 7 @ @ : 7 7 7 7 7 : @ @ @ @ @ : 7 7 7 7 0 7 2 7 @ @ @ : : 7 : 7 7 @ @ @ @ @ @ @ @ @ : @ @ @ @ 7 7 7 7 7 7 7 0 0 7 7 7 0 0 7 : 7 0 0 q M &.T @ - f.N.H b #.5 @ 9 M M ` ` ` ` U U ] @.R I q w y X.-.) L : j X.Z.n.H 2 2 2 2 7 @ 2 @ 2 2 : @ @ @ 2 @ @ @ @ @ @ @ @ @ @ @ @ @ @ @ @ @ @ O @ @ ",
"2 @ = 2 4 5 U ` M N q 9 q R %.V.g.p.' #.C.E.l.r.v = = X @ @ @ : @ @ @ 0 U ` M 9 9 9 7 : 7 @ @ 2 8 LX  r LX  ZX5.O O IXO   AX3.@ <.FXy FX    GX<.  W.ZXe | @ : :   LXW.ZX  O iXuX} | 7 h.fXNX| O IXW.$.:.!.S 9 q M 0 7 0 0 q q ] *.*.L.R.I.N : 0 9 : : 7 7 : @ : : : 7 7 : 7 2 7 2 2 @ @ 7 w 7 : 7 7 2 2 @ @ @ @ @ : : 7 7 7 @ @ @ @ @ @ @ @ @ : : @ @ @ : 7 7 7 7 7 7 9 9 9 0 9 0 0 9 9 7 7 : N ` N N N i.^.N.0 0 q 7 > M ' [ #.#.#.[ P.&.R U U 0 7 2 2 2 9 T H : x N [ ;.-.T 2 @ 7 , 0 5 2 @ @ @ 2 2 @ 2 @ @ @ @ @ @ @ @ @ @ @ @ @ @ @ O @ @ @ O @ ",
": : 7 @ @ @ 5 R @.[ A b q R n.T.l.w.Z 0 ^ %.C.K.g.t.Z - X @ : : : : 7 7 0 0 0 0 7 : : 7 @ @ @ @ # IXBXKX}.  VX5.@ O IXO   AX3.  yX0X  IX    GXW.F [.IXNXMX  7 7   JXNX@X@ O 0XJXVXuX@   HXBX  2 3.AXIXgXd.!.S M M q 9 0 0 0 q M q ] *.*.H.R.O.b , , : 7 7 7 @ @ 7 7 7 7 7 7 7 2 7 7 @ 7 U 0 7 : : 7 @ @ : @ @ @ @ @ : 7 7 7 : : @ @ @ @ @ @ @ : 7 @ 7 7 7 7 : 7 9 9 9 9 9 9 9 9 9 , , h b b e.g.^.^.^.Y.U.E.C.U M q U M ' #.-.-.&.#.] [ @.R U q 0 0 7 7 2 , M 0 2 h ` Y C I.T.&.{ U 0 { ~ 5 : @ @ @ @ 2 2 @ @ @ @ @ @ @ @ @ @ @ @ @ @ O O @ @ @ @ @ ",
"7 , @ @ 2 2 0 ` ] ` ` M M U R M.K.p.0.j 7 I T v.T.E.l.p.c ; : : : @ @ @ X @ @ @ : : : 7 7 : : 2 8 PX8 IX    ZX5.@ O IX7 } GX5.  MXGXNXIXE O HX].+.}.NX    0 7 7   LX2 IX  X dX$X  O Y 0 lX*X@ T #.@ 2 IX*.^.g.b M 9 9 0 9 9 0 0 0 0 q ] ] #.L.~.p., : 7 0 7 : : : 7 7 7 7 7 7 7 0 7 0 q 0 7 7 : : : 7 @ : : @ @ @ @ : 7 7 7 : : : : : : : : : 7 7 7 7 : : 7 9 q q 9 9 0 9 , 9 b A i.g.l.^.!.!.^.^.E.T.m.X.:.B.] o.-.*.-.#.#.#.@.] ] U R U ` U q 0 q 0 7 2 ; C @.H @ , 9 A d.K.Z.&.T 5 2 5 @ : 2 2 @ @ @ @ @ @ @ @ @ @ @ 2 @ @ : 7 7 2 @ O @ @ 2 @ @ ",
"0 , @ @ 2 5 U q q q U U U ` ` %.Z.U.p.e.N b 0 R @.%.D.R.t.D b , , 9 9 { <.<.F r 7 0 7 7 7 0 7 0 Y IXX jX0X  MX{.  @ IX1 @ SX3.  IXt e jX&X  HX3.@ {.NX    @ 7 7   LX8 pXpX  pX@X    7 @ fX+XX 0 2 ` 9 IX` E.R.p.b q q 0 0 M q 9 0 9 M M M *.-.R.).g., 7 9 7 7 7 7 7 9 9 0 7 7 7 7 0 U 7 7 @ @ @ @ @ 7 : : : @ @ @ : 7 0 7 7 7 : : 7 7 7 : : : 7 7 7 7 : 7 9 9 9 q 9 h V i.i.i.I.!.!.^.E.L.H.H.T.K.Z.#.` ' d.K.] [ *.X.@.] [ [ ] ] ` ` U U U U U q 0 7 0 2 @ , ;.v.4 - N *.%.] =.B.T 5 7 7 : : 2 2 2 @ @ @ 2 @ 2 @ @ @ q ` 0 2 @ @ 5 2 @ @ @ @ @ @ @ ",
"0 , : @ 5 T M b w 0 q U ] [ ` ) B.V.=.X...A M 0 q U ( D.g.C M ] #.$.-.A.>.| B 7 2 7 7 7 @ 7 : 2 w KX  8 IX  } IXSXIXoX@   ZX3.} GX  @ [.ZX  FX3.@ W.IXLXIX3.@ 7   JXw   IXO -XIXLXIXw @ fXqX'   JXHXIX X] (.R.^.i., q 9 9 U ` 9 7 7 q o.M 0 [ =.J.d.X.9 : : 7 @ 7 0 9 9 : 7 7 7 0 0 7 @ @ @ @ @ @ @ 7 7 : : 7 7 : 7 7 : : 0 7 : : : : 7 7 7 : : : 7 7 7 9 , h S f.g.g.!.^.^.J.J.H.-.[ ` ` U ` ] #.#.0 9 `  .Y.%.q ` ` q ` ] [ [ ] ` ] U U U U q q 0 7 2 2 @ 7 b T H , C #.R U N O.H.U 0 7 0 0 7 2 2 2 @ @ 2 @ @ @ @ @ 7 9 7 @ @ @ @ O @ @ X : 2 @ @ ",
"7 : @ 2 H R ' | t 7 0 I @.[ ` @.&.H.H.f.S b 0 0 0 q T M.d.x 0 0 q q q 9 : @ @ @ 2 7 7 : @ @ @ 2 3   7 @   0 @   8 O O 2 7   @ @   7 @ O   w   @ 7 @       @ 7 7 9   : 0   w O       7 0 O 7 P.o.  w U ' ` B.E.R.!.Z 9 0 q q M M 9 7 7 7 0 ` ` ' s.` R -.X., = @ : 7 9 9 : : 7 Y q 2 @ @ @ @ @ @ @ 7 0 0 7 : : 7 : 7 7 : : 9 7 : : @ : : 7 7 : , - - , M N  .f.!.^.^.H.J.T.B.] ` 0 0 9 9 9 : 9 q q 0 X x :.9 f.V.R 0 9 q q ` [ [ ] ] ] ] U U U U q 0 2 2 @ @ = n T H 9 M I 4 : M N f.Y.^ 2 7 0 7 7 7 2 2 7 2 2 2 @ @ @ @ @ @ @ @ @ @ O @ @ : 7 2 @ O ",
"@ @ @ 2 T R ` 9 0 0 9 U U U ` [ @.B.Z.J.t.m q 9 U U M ` #.V j 9 : : 7 7 , : @ @ 2 @ : : @ : @ @ @ @ @ @ @ @ @ 2 @ @ 2 2 @ @ @ @ @ @ @ @ @ @ @ @ @ @ 2 @ @ @ : 7 7 7 2 2 7 7 7 7 7 7 7 7 7 0 T { 9 0 0 R [ ` B.(.^.!.b 0 0 9 9 q U 7 : 7 : 9 X.` [ X.q 0 V.Y.X.: : : 7 7 : : 0 q 7 7 @ @ @ : : : 7 7 0 0 7 : : : 7 7 7 0 9 9 9 : : 7 : : : : h e.g.!.f.X.{ ` ` =.d.*.] #.U 0 7 7 : : 0 0 7 9 0 7 7 @ ; r.B.0 Z E.N.I 0 q q ` ] [ ] ] ] ] U U U U U 0 2 @ @ @ X h $.5 @ 9 M 4 @ n ..s.J.Z.~ 2 @ 7 7 7 2 7 7 7 2 2 2 @ @ @ : : @ @ @ @ @ X O : @ 2 2 O ",
"X @ @ 5 q I q q U U U U U U ` ] ` ] &.m...N M b 0 ~ &.f.=...V m , : 2 2 7 @ : : 7 7 : : @ : @ @ @ @ @ @ @ @ @ @ @ @ 2 @ @ @ @ @ @ @ @ @ @ @ @ @ @ @ @ @ @ @ @ 7 7 7 7 7 2 7 7 7 7 7 7 7 7 7 0 5 0 9 0 0 U [ U m.(.^...9 0 M 9 0 0 0 9 7 9 7 0 q 9 q q { #.-.K.:.M : , 9 0 0 7 7 @ : @ @ : 7 7 7 : 7 ` U 7 : : : 9 9 7 9 9 b , , , b N O...'  .f.I.T.#.0 2 @ @ 0 U I 0 0 7 7 7 7 7 7 : : 9 q 2 : @ X f a.m.0 m J.K.T 0 0 q M ` ] ] ] R U U U U U U I 5 2 @ @ @ @ 7 2 O - i.^ 4 = 9 ` ] *.m.T 2 7 7 7 2 2 2 2 2 2 2 @ @ : : 7 @ @ @ @ @   i ; 9 4 1 O ",
"@ @ 2 0 9 0 0 q I U q 0 q U ` ` ` ` R @.[ X.' ` M M ^ m.L.I.p.8.- , @ @ : 0 0 0 7 0 n , @ @ @ @ : @ @ @ @ @ @ @ @ 2 @ @ @ @ @ @ @ @ @ @ @ @ @ @ @ @ @ @ @ @ @ @ : : 7 2 2 7 7 7 : : 7 7 7 : : 7 0 0 7 7 0 R ] U D.E.s., 0 q 0 0 7 q U 9 9 9 0 9 9 7 0 R *.#.R &.P.s...N 9 0 7 7 : : : : : : : 7 7 : 0 q 7 7 : 7 7 : : , Z p.g.!.I.d.:.:.[ q q q q 7 2 0 2 @ : 7 0 2 @ 7 7 7 : 7 0 : : : 9 7 @ @ - o.U ` [ @.U s.T.^ 0 0 q q ` [ ] ] R U U U U U U 0 5 2 @ @ @ X 2 @ O X m @.G O X 2 q q ] #.I 5 7 2 2 @ @ @ @ 2 2 @ @ @ @ @ 2 O O O X $ p F ' L 4 O ",
"@ 2 0 0 0 0 0 9 0 0 0 0 0 q U U ` U U ] ] #.=.X.*.S b I v.T.!.w.y.= : 7 : 0 I U M I M h = @ @ @ @ @ @ @ @ @ @ @ @ @ @ @ @ @ @ @ @ @ @ @ @ @ @ @ @ @ @ @ @ @ @ @ @ : : @ 2 7 7 : : 7 7 7 7 7 2 2 7 0 0 7 7 7 q ` R C.J.' 7 b 9 0 7 0 U 0 9 9 q 9 9 7 9 ` ] ] ` 0 [ R.^.I.a.{ M b , : : : : : 7 7 : 0 7 : : , , , b b N i.!.).^.E.:.` 0 M ` q 9 M 9 7 7 0 7 @ : 7 0 7 : : 7 7 : @ : : 9 0 @ @ X : m #.I 2 0 H : e.U.%.0 0 q q ` [ ] ] ] ` U U U U U 0 5 2 @ @ @ @ @ 2 @ O X 9 H O X X : 0 0 M ] T 5 2 @ 2 @ @ @ @ @ @ @ @ @ @ @ @ O O X + s v X.c.4 O ",
"@ 2 0 7 7 0 0 0 0 0 0 0 0 7 0 0 q q U U R %.:.s.=...x 9 T M.(.t.0.- : 7 : 7 2 5 0 U ' h = : @ @ @ @ @ @ @ @ @ @ @ @ @ @ @ @ @ @ @ @ @ @ @ @ @ @ @ @ @ @ @ @ @ @ @ @ @ 2 2 2 2 @ @ : 7 7 7 7 7 7 7 0 0 0 7 7 7 U U 0 m.H.N 9 q 9 0 0 9 q 9 9 9 q b 9 0 0 M X.[ 9 0 *.^.).U.O.=.P.;.' M 9 9 0 7 : : = b i.p.i...s.O.' M ` :.H.*.` 0 7 9 q q 0 7 9 q 0 7 2 : @ @ : 7 @ @ @ @ @ @ = , 7 7 7 2 @ @ : 7 0 0 7 0 2 = Z U.m.0 0 0 0 ` ] ] ] ] U U U U U U I 0 2 @ @ @ @ @ @ @ O X , 0 4 O   O @ 7 7 b  .U 2 @ @ 2 @ @ @ 2 2 @ @ @ : 9 b n 0 2 @ # , ` L 4 O ",
"2 0 q , , 7 7 7 7 7 7 0 0 7 7 0 0 9 , 0 0 T -.p...] S m q ^ N.f.0.j , : 7 : @ @ 5 #.A h 2 9 - X @ X @ @ @ @ @ @ @ @ @ @ @ @ @ @ @ @ @ @ @ @ @ @ @ @ @ @ @ @ @ @ @ @ @ : @ @ @ @ @ @ : : : : : 7 7 0 0 0 0 7 0 9 R N 5 N.I...9 0 0 9 9 M 9 7 0 q 9 9 7 7 9 q ;.o.q q =.L.K.-.] I 0 0 7 7 : b N ' ` N I.^.^.H.] q 0 7 2 7 9 q 9 : : 7 0 0 @ : 9 N 9 : @ @ > w : 7 0 @ @ @ @ X @ 9 ` 5 @ @ @ : : @ , M 0 0 0 2 @ j J.M.U 0 0 0 U ` ] ] ] ] U U U U U I 0 2 @ @ @ @ @ @ O O X X 2 2 X @ @ X @ 7 j e.l.V.H @ : 2 @ @ 2 2 @ @ @ 7 M q ] I 4 2 X @ : 7 2 2 ",
"H `  .n <.9 M 9 9 9 7 7 7 7 : 0 I q h : 7 I %.f.i.*.=.i.A ` ) Z.p.8.- 2 7 : > X 0 *.V , 5 0 , , X X @ @ @ @ @ @ @ @ @ @ @ @ @ @ @ @ @ @ @ @ @ @ @ @ @ @ @ @ @ @ : : : : : : : @ @ @ @ : : : 7 7 7 7 0 0 0 0 9 9 0 P.e.0 D.!.i.: : 7 0 , , : , 9 , , : , , , , ` X.A S i...O.s.S h , 9 b  .f.I.f.O.X.X.-.#.0 0 9 9 9 7 9 q q q 9 7 7 7 9 M 9 b i.=.` 7 : O <.w 7 0 7 @ @ 7 7 7 0 2 @ @ @ @ : 7 7 0 0 0 7 7 2 2 - =.n.U 0 0 0 q ` ] ] ] ] R U U U U U 0 2 @ @ @ @ @ @ @ @ O O @ @ X 2 @ X @ @ b e.g.E.M.H @ : : 2 2 2 2 @ O @ @ @ @ @ 2 @ X @ 7 0 7 2 ",
"I @.X.+.<.7 q 9 b 9 9 7 7 7 : 7 0 0 9 : 2 0 ) m.d.f.H.i.S N ^ D.l.w.F o 0 0 9 > 5 ` b , : 2 0 q , X @ @ @ @ @ @ @ @ @ @ @ @ @ @ @ @ @ @ @ @ : 9 9 : 7 7 0 0 7 7 9 7 : 7 7 7 7 7 7 : 7 : 7 7 7 7 7 : 7 0 0 U ` b 9 ` f.' #.^.I...i...i.g.g.i.i.g.p.i.f.g.g.g.p.O.s.!.!.^.^.^.^.^.^.I.f.=.*.=.=.d.d.[ U U q 0 0 0 0 7 7 7 7 9 9 9 0 7 7 7 9 7 : 9 M 7 2 @ @ O t 7 7 @ @ @ : 7 @ : : , : : : : 7 0 0 7 0 7 : 0 @ = S #.U q 0 0 q U ] ] ] ] U U U U U q 0 7 @ @ @ @ @ @ @ O O   o w 0 O O @ @ @ X b X.*.&.T 2 : 7 7 2 2 2 2 @ @ @ @ @ @ @ + < - 9 I 5 2 ",
"` R ` 9 : 7 7 0 9 9 9 0 9 9 : : 7 0 0 0 7 0 q R @.&.T.g.e.V ` S.E.t.y.< 7 0 , : 7 7 0 9 , 7 0 I q h X X X @ @ @ @ @ @ @ @ @ @ @ @ @ @ @ 0 7 9 M b 9 7 7 0 7 7 7 9 7 : : : 7 7 : 7 7 7 7 7 7 7 7 7 : : 7 7 9 `  .O.O.=.=.:.E.E.I.^.R.R.).^.^.R.^.E.J.L.E.E.E.L.X.X.H.E.E.R.).E.E.V.&.@.U 0 0 0 0 0 7 7 : : : @ @ @ : @ : : : : : : : : 7 9 9 9 9 7 7 : : : @ r [.7 @ @ @ : @ @ = , b q 7 7 7 7 7 7 : 0 0 7 q @ = e.J.R q 0 0 q q ` ` ] ] ] U U U U 0 0 7 2 @ @ @ @ @ @ @ @ O o w U 4 O O @ @ X @ 9 0 M ] T 5 7 7 2 @ 2 2 @ @ O O @ @ @ + i k b L 5 2 ",
"q 0 0 : : : 7 7 7 7 7 7 7 9 , : 7 7 0 7 7 7 I ` ` ^ C.U.p.e.M Z.(.l.q.k > : , @ @ 7 U N 9 : @ 0 U { h : @ @ @ @ X @ @ @ @ @ @ @ @ @ @ 2 2 2 2 @ @ @ @ @ @ @ 2 q , @ @ @ @ : @ @ @ 2 @ @ X X 9 : : 9 q ` o.o.*.P.^.I.*.] @.] ] ] ] ] #.:.V.#.] ] ] q 0 q U q 0 0 U q ` ] ] ] U 7 2 2 7 2 @ @ @ @ @ @ @ @ @ @ @ @ 7 w , : : 9 : : @ @ @ 7 7 7 0 0 7 7 7 7 0 7 X 5.Q.5 X : 7 2 @ @ : M U 0 0 9 9 9 7 9 M q 0 N 0 = 0.!.N.U 0 0 0 q ` ` ] ] ` U U U U q 0 7 2 @ @ @ @ @ @ @ @ O O @ @ 4 O O X @ @ @ , 9 0 q ` T 5 1 2 @ 7 7 2 @ 2 @ @ @ @ + i k ' ( I 0 ",
"7 0 9 9 : : : : 2 2 : : : 7 7 : : 7 2 2 7 7 0 q q q T n.=.O.Z.I.J.Z.i.0.B 2 q n w b 0 M h : 7 7 0 0 N b 7 7 : @ X X @ @ X @ O @ 9 9 @ @ @ @ @ @ @ @ @ @ @ @ 7 7 @ @ X @ @ @ @ X X = - b ..f.s.{ { ` ] ` ` ] ] R T.P.9 2 0 q 0 7 : : : 9 q 7 7 : : : @ : : : @ 2 q 0 9 7 7 0 7 2 @ @ @ O @ @ @ @ O X @ @ @ @ @ @ @ 9 M ` 9 7 : @ @ @ @ @ @ @ @ @ @ @ @ @ @ @ @ X Q.%.@ @ @ @ @ @ 7 9 0 7 7 7 0 0 7 9 M U 0 N ] @ l !.N.U 0 0 9 0 q ` ] ] ` U U U U 0 0 2 2 @ @ @ @ @ @ @ X @ O X @ O O O X X @ @ X m ` I 0 ` R 5 O @ @ : 7 5 2 @ @ @ @ + u ; M L 5 2 ",
"2 7 7 7 9 9 7 : : @ : @ 7 : : @ @ 2 7 2 7 7 0 0 q 9 9 T ) Z.(.l.k.;.K.0.f 5 U q ' V 7 q b : 2 : 2 2 q : X | ,.<.<.<.<.<.<.<.<.2.2.,.<.<.<.,.t   X @ @ @ 2 7 @ X X X   B 2.2.2.3.h.h.3.Y.Q.Y.2.,.<.<.,.3.}   @ 2 I m.] : 0 0 U 0 7 7 : : : : : : 7 7 7 7 : : : @ @ 7 9 9 7 7 7 9 q @   O O @ @ X O O X @ X X @ X @ 7 q 0 2 7 @ @ X X X X @ @ @ @ @ @ @ @ @ @ @ : q A.I @ @ @ @ @ @ 2 2 7 @ 2 7 7 : 9 q 0 0 b ;.I - i.m.T 0 0 0 0 q ` ] ` ` U U U q 0 0 2 @ @ @ @ @ @ @ @ @ @ O X : @ O O O X X @ @ @ 7 I I 9 ` R 5 @ @ : 0 H 2 @ @ @ @ O * d ` P , 7 ",
"2 7 : 2 7 7 7 : : : : 2 7 9 , @ 2 : : 7 0 U ..V , : 0 q ) C.T.R.p.d.T.t.v 8 5 0  .j @ 0 , 7 @ : 7 @ O 0X0X@XOXoXOXoXoXoXoXOXOXOXoXoXoXoXoXoX@XiX5.  @ X : , , b , ,XgXeX+X+X+XOXOXoXoXoXOXoXoXOXOXOXOXOX@XyX@X  9 0 T 7 7 7 2 7 2 7 9 7 : @ 7 7 q 0 7 0 0 7 7 7 7 7 0 0 0 9 7 0 q { @   O O @ @ @ @ @ @ @ @ @ @ @ @ @ @ @ : @ @ @ @ @ @ @ @ @ @ @ @ @ @ @ @ X , 9 { @.2 X @ @ 7 @ 2 7 : : : : 7 : 9 q 0 7 : o.T X V -.T 0 0 0 0 0 q ` ` U U U U 0 0 0 2 @ @ @ @ @ O O O @ @ @ X 7 7 1 O O O O @ @ O O @ 2 5 7 ' R 5 @ @ 2 5 @ @ @ @ @ O 3 k N ) o.] ",
"@ @ @ @ @ @ 7 0 9 : 7 2 7 9 : @ 2 @ : 2 I v.H.e.c B 7 0 U @.[ #.N.T.E.g.8.f @ 0 b , @ 7 , : : @ 2 t jXt   @ : @ @ @ X X @ 7 X O O X     X X X   oXiXX o.o.o.] O lXQ.O O O O O O O X @ @ 7 h : @ @ @ @ @     1.lX@ w 0 0 0 : @ 2 0 7 q q 9 7 7 7 7 2 2 7 7 7 7 0 9 q q 0 0 q 0 0 0 0 0 X X X @ @ 2 7 7 7 @ @ 7 9 : @ @ 7 7 @ @ @ @ @ @ @ @ @ @ @ @ @ @ @ @ @ @ , ' 0 U 5 X @ 2 7 : 2 @ 7 : : : 7 : 0 0 7 7 7 M T @ g d.@.0 7 0 7 7 q ` ` R U U U 0 0 2 2 @ @ @ @ @ O @ O X @ @ @ : 9 5 O O O O X : @ @ O @ 7 7 7 ` R 5 1 @ 2 @ @ : 2 O O O * m V.) L ",
"@ @ @ @ @ @ 2 0 0 7 @ 2 @ @ @ @ @ @ @ 2 5 Q ) O.Z h : 2 I @...N ~ v.D.E.t.c 8 7 9 : 2 0 n , @ 7 O lX  7 7 7 7 : @ @ 9 q 0 @ X O @ @ 7 { o.o.' { 7 W.*X2 7 @   pXe O @ @ @ : 2 0 0 0 7 7 U Y.N @ : @ @ @ @ : 7 @ fX  7 7 7 7 @ 2 2 0 U U 0 0 0 7 7 @ @ @ @ @ @ @ 7 0 q q 7 7 7 7 2 2 @ : @ X X @ @ @ 7 0 0 7 0 7 @ @ 7 9 0 7 0 0 @ @ @ @ @ @ @ @ : @ @ @ @ @ 2 : q 0 O 2 @ : 7 2 7 @ 7 7 7 7 7 7 7 0 0 7 7 7 7 T @ d g.B.0 0 7 7 7 9 ` U ] R U U U 0 2 @ @ @ @ @ @ @ @ X O @ @ @ @ : 2 O O O O   ; 0 2 2 O @ 0 I M ' @.4 O X 2 0 0 5 5 1 O O X @ G 1 ",
"@ @ @ @ @ @ @ 2 2 @ @ @ @ : @ @ @ X @ 2 @ 5 I I q q b , 0 ( &...b 0 ~ S.f.x , : : = @ I N - : @ 0X} 7 7 7 7 7 7 7 q ` 9 @ 0 7 @ @ 2 q ` q 0 7 @ O   yX8 @ @ 1.OX@ : : @ @ 2 0 0 0 7 @ 2 0 0 @ @ @ @ @ @ 7 7 7 : [.{.@ 7 7 : @ @ @ 7 0 0 0 0 0 9 7 : : @ @ @ @ @ 2 0 0 q 9 0 7 7 7 : 7 : 7 @ @ X @ @ : 9 0 0 2 @ @ : 0 0 0 0 0 0 7 @ @ @ @ @ : : : @ @ @ @ @ @ @ 2 2 @ @ 2 7 : @ 2 @ : 7 7 7 7 7 7 0 0 0 7 7 7 0 2 f p.L.T 0 7 7 7 0 q ` ` R U U U 0 2 @ @ @ @ @ @ @ @ X @ @ @ @ @ @ @ O @ O O   o : 0 2 @ O O 7 0 ' =.-.I 7 9 I 5 2 @ @ X X X O O   ",
"@ @ @ @ @ @ @ @ @ @ @ @ 2 2 7 7 7 : : @ @ 7 7 7 2 H 0 9 7 I ^ *.A b 0 ~ m.S m b 9 , 2 0 M h :   0X  @ 2 7 7 7 7 0 9 : @ @ 7 7 7 @ @ @ @ @ 0 9 : 7 0 | OX@ O 0XO 7 7 7 2 2 7 2 2 2 : : @ 2 @ @ X @ @ : 7 7 7 7 7   yX  7 : : @ @ : 7 9 q 9 7 9 9 9 9 7 : : : : @ @ : 9 0 7 7 0 0 7 @ : @ 7 : @ X X : 9 0 7 7 0 q 7 7 7 7 7 7 7 7 @ 2 @ @ @ @ : : 7 @ @ @ @ @ 2 @ @ @ @ : 7 7 : 7 2 @ : : 7 7 7 7 7 0 0 0 0 0 7 7 7 f k.^.%.0 9 0 9 9 q ` ] R U U U 0 2 @ @ @ @ @ @ @ @ @ @ @ @ O O @ @ @ O O O     ; 9 I 5 2 X O 2 h A s.Z.~ 0 I 5 @ @ @ : 9 M q @ e ",
"@ @ @ @ @ @ : @ @ @ @ @ 2 2 7 0 9 7 @ 7 7 : : 2 2 @ 2 7 : 7 I R ` q 0 T N.s...N b - 2 5 M , @ t @X  @ 2 2 : @ 7 7 : , 7 : : : @ 7 0 0 7 7 9 9 : 7 7 O ;X    ;X  @ @ @ 2 2 2 @ @ @ : @ X @ @ @ @ @ 7 7 : 7 7 7 7   <XO 0 7 : : 7 M  ...[ ` ` ` 0 9 9 9 7 7 0 0 7 : @ : : : 7 7 7 0 7 7 7 2 : @ @ X @ 7 7 2 2 2 ` { 7 @ @ @ : @ : : : @ 2 @ @ : : : @ @ @ @ @ @ @ : @ @ 9 7 7 : 7 7 7 : : 7 7 7 7 7 7 7 7 7 7 7 7 0 = r.^.N.0 9 0 9 9 q ` ] R U U U 0 2 @ @ @ @ @ @ @ @ @ @ @ O O O O @ @ @ O O       ; U T 2 1 O @ d i.s.V.N.( I 0 2 @ @ @ @ 0 7 @ r ",
"@ @ @ 2 7 7 7 @ @ @ @ @ 2 2 7 7 7 2 2 0 9 : : @ @ @ : 2 2 2 0 U ` q 0 ^ M.H...N 9 , , @ 0 , @ E oXO @ : : 7 9 7 : 0 ` N : 2 @ @ @ 0 0 7 7 2 @ @ @ @ O -X    ;X  @ @ @ @ @ 7 : 9 : : @ X @ @ @ 7 7 7 7 7 7 7 7 0 O -X7 ` q 7 7 0 0 U q q 0 U ] 0 0 0 0 7 0 7 @ 2 2 0 w 7 : : @ 7 7 7 7 7 7 @ @ @ @ @ @ 2 2 @ @ 7 q 7 2 2 @ @ @ @ : @ : 2 @ @ @ @ : @ @ @ @ @ @ @ : 2 : 7 7 7 @ @ 2 2 : 7 7 7 7 7 7 7 7 7 7 7 : 7 0 : 0.!.D.0 0 0 7 9 9 ` ] ] U U U 0 2 @ : @ = @ @ @ @ @ @ @ @ @ @ @ @ 2 @ X O O     . > U I 2 @ : 9 M [ #.-.&.L 5 2 7 @ @ @ @ 1 O + ",
"@ @ 2 2 0 7 : @ @ @ @ @ @ @ @ @ @ 2 2 0 7 : : : @ @ 2 : @ 7 0 U ] M M q T v.s.e.m 0 j , : = : t oXX M C m 9 q 7 7 2 5 0 9 : X X @ 7 2 @ @ 2 2 7 7 @ O -X    ;X  @ @ @ 7 7 0 { { 9 2 7 7 : 7 0 7 7 7 7 7 7 7 7 7   -X@ U q @ @ @ @ 2 7 7 7 0 q 9 7 0 7 7 7 7 7 @ @ 7 0 : M n 9 : 2 7 7 7 7 7 7 7 @ @ @ @ @ @ @ 2 2 7 7 7 7 2 2 7 7 0 0 7 7 @ @ : @ @ @ @ @ @ @ : : 0 7 7 0 2 @ @ 2 @ @ @ 7 7 7 7 7 7 2 : 7 7 : 7 7 7 l p.T.T 0 0 7 9 9 U ` ] U U 0 5 2 @ @ @ 9 { 5 @ @ @ @ @ @ @ @ @ @ @ 2 @ @ 1 O     o w ] U 7 2 2 2 7 M [ *.m.T @ 7 0 2 @ @ 2 2 @ ",
"@ @ @ @ 2 @ @ @ @ @ @ @ @ @ @ @ @ @ 2 7 2 2 7 : : 7 2 : 7 0 q U U ] ` h 0 ) K.j.8.M N M { A j | OX: [ o.h : 7 : @ @ @ 2 ` w , X @ @ @ @ @ @ 2 2 7 : O -X    ;X  7 7 7 7 7 0 ` N 7 @ > @ 7 7 7 7 0 0 7 7 : 7 7 7   -XO 7 w @ X @ @ 7 7 7 7 7 0 0 0 0 7 7 7 7 7 : : 7 7 @ 7 { ' M 9 : @ 2 7 7 7 7 7 : @ X @ 7 7 @ O 2 @ 2 7 7 2 7 0 0 0 7 0 7 7 7 @ @ @ @ @ @ : 7 9 q 0 0 0 7 @ 2 2 2 2 2 7 7 7 7 7 7 7 7 7 : : : : 7 j t.^.%.0 7 9 0 0 q ` ` U U I 2 @ @ @ @ @ 0 0 2 @ @ @ @ X @ @ @ X @ @ @ @ @ O     X ; n @.~ 5 : 2 @ : q ] =.J.#.5 4 2 2 2 2 2 @ ",
"2 , , : @ @ @ @ @ @ @ @ @ @ @ @ @ @ : @ @ @ 7 0 0 : 7 0 9 9 q q U R [ ..b @.D.l.w.V 9 ` ] o.N >.+X@ U N m b : : 7 7 9 9   GXiX  X @ @ @ @ @ @ 2 @ @ O -X  X qX  7 7 7 2 2 2 0 o.:   BXzX  : 7 7 0 7 : : 7 : : :   -XO 7 0 @ X X @ 7 7 7 7 7 7 0 0 0 0 7 7 7 7 7 7 7 7 : @ @ @ 7 9 7 : : : @ @ 7 7 @ @ X X 7 : 3.uXO @ 2 2 7 7 7 7 2 2 2 2 2 @ : @ @ @ @ @ @ @ : 7 7 7 2 2 7 @ 2 @ 2 @ @ 2 2 7 7 7 7 2 : : 7 7 @ : 7 , 0.~.D.I 9 9 0 0 q U ` ` U I 2 @ @ @ @ @ @ @ @ @ X @ @ X @ @ @ @ @ @ @ 2 @ @ = d j 8 y ` ^ U 9 7 2 e : q S p.Y.m.I : : @ X O X ",
"H q n , X @ @ @ @ @ @ @ @ @ @ @ 2 7 : @ @ @ 7 7 7 : 0 0 0 7 9 0 U ] m.s.i.&.D.R.t.0.M M U 0 7 | oX@ U ` ` q 7 0 9 q ` e.- AXeXh j : @ @ : , , , 9 9 @ -X  O <X  7 : @ @ @ 2 { ` @   zXjX  : 7 7 2 7 7 @ 2 2 7 7   -XO 2 7 @ X @ @ 7 7 7 7 7 7 0 0 0 7 0 7 7 7 7 7 7 7 7 7 @ @ @ @ @ : 9 n , , @ @ 2 @ @ X : O jXIX} 2 7 7 7 7 7 7 2 @ @ @ @ @ @ @ @ @ O X @ @ : 7 : @ e y 2 @ 2 : 2 @ @ @ 2 2 7 7 2 @ @ 7 7 : 2 @ : 0 x I.N.T 0 0 9 0 q U ` ] U 5 2 @ @ @ @ @ @ @ O @ @ X X O O @ @ @ @ @ @ @ @ : j m q 4 6 w [ @.R 7 2 6 , q ' ..d.K.@.q 9 : X # - ",
"5 5 : = X @ @ @ @ @ @ @ @ @ @ @ 2 7 : @ @ @ 7 7 7 2 7 7 7 @ 7 0 ] #.M.P.O.#.V.K.g.0.m M b : @ y oX1 M 0 2 @ @ 2 2 5 ^ ~.= AXeXM N , : 0 N ..S N N N , <X    ;X  0 M : X @ 0 U 2 @   zXjX  2 @ @ 2 @ @ 2 2 2 2 2   -XO @ 7 @ @ @ @ 7 2 7 7 7 7 0 0 7 7 7 @ 7 7 7 @ 7 7 7 7 7 : : X @ O   @ ` M 7 X X : @ = i.N @ ,.@ 2 7 2 O @ 2 2 2 7 : @ @ @ @ @ @ @ O @ @ @ @ 7 7 @ < 1.0 2 2 @ @ @ @ @ @ 7 7 7 2 @ @ 7 7 2 @ @ 7 7 - ..V.^ 0 0 9 0 q q U U U 5 2 @ @ @ O @ @ O O @ @ X @ O @ @ @ @ @ @ @ @ @ = : 2 4 O   ; N *.%.R H 1 = 7 0 9 [ :.Z.m.] { ' V Z ",
"@ O @ @ @ @ @ @ @ X X X @ @ @ @ @ : : @ @ @ : : 7 2 @ 2 7 : 2 0 T U ) #.[ C.d.#.C.g.r.n b , @ t oX@ , 7 0 : @ @ @ @ I 0   AX5XO U n 9 ] *.*.' q q q @ <X@ O <X  0 o.9 X @ 2 2 @ @   zXjX  @ @ @ @ @ : 7 2 7 7 7   -XO @ @ @ @ @ @ @ 7 7 7 7 7 7 0 7 7 {  X@ q O }.w 7 0 7 9 9 0 9 O [.;XoX@ 5 @ }.r :   3.].#.8 W.@ 7 O } yXoXr @ @ @ 0 7 @ @ @ @ @ O @ @ @ @ @ : 7 @ < h.R 2 2 @ @ @ @ @ @ 7 7 7 @ @ @ @ 7 2 @ @ 7 7 9 V P.B.R q q q q q U U U 5 @ @ @ @ O @ @ O @ O > 9 2 @ @ @ @ @ X @ 7 2 2 2 2 1 O O   X ; ' #.@.R 0 n M ] ] U R &.&.R 0 9 A =.",
"@ X @ @ @ @ @ @ @ @ @ @ @ @ @ @ 2 7 : @ 2 @ @ : @ @ 2 0 9 9 9 0 U q I I ) Z.g. .S.^.t.h.b , = t oX: 9 7 0 : 2 @ @ @ @ @   ZX5X  0 q 7 2 5 0 2 2 7 2 O -X    ;X  2 N : @ @ 7 @ @ @   zXjX  @ @ @ @ @ : 7 @ 7 @ 7   -XO @ @ @ @ @ @ @ @ 7 7 : 7 7 7 7 9 : IXqX  iXLX  0 q q ` ` `   zXGXzXJXLX    pXLX  t IXW.O [.IX  O W.IXNXVXGX  @ @ 7 U 7 @ @ @ O @ @ @ @ @ : : 9 7 < W.%.2 @ @ @ @ @ @ @ 7 0 7 7 @ @ @ @ : 2 @ : 0 7 j g.C.R q q q q q q U U 2 @ @ @ @ @ @ O O O X : 9 7 1 O O @ @ @ @ @ 7 2 2 @ O     O   o ; ` [ [ [ ` ^ ^ T I I q N ] ` 0 2 0 ",
"@ X @ @ @ @ @ @ @ @ @ @ @ @ @ @ : : @ @ 2 7 7 7 7 0 0 U U q 0 0 0 0 7 T M.D.g.i.v.(.j.z.D , , B OX@ : 7 7 : 7 : @ 2 @ @   AX;X  2 7 @ @ @ @ @ @ @ @ O -X    ;X  2 q : @ 7 7 @ @ @   zXjX  @ : : @ @ 2 2 @ @ @ @   -Xo @ @ @ @ @ @ 7 7 7 7 7 7 7 7 0 q { Q.IX  IX3.2 @ O @ @ O 7 q       # IX<.O   LXF.lXMX  @ F.PX    AX0X      0 2 @ 2 2 2 @ O X X @ @ @ @ : : : q 7 < [.m.5 : @ @ @ @ @ @ : 0 7 2 7 @ @ @ @ 2 @ : 7 : d g.C.^ U q U q q 0 U 0 2 @ O O @ O @ O @ O X X X 2 1 O X X @ = 9 0 2 2 @ @ O O   O O   < <. .=.&.n.Q H 5 4 2 @ , b [ %.H 4 ",
"@ @ @ @ @ @ @ @ @ @ @ @ @ @ @ @ 7 : @ @ 2 0 9 0 q 0 0 0 0 0 0 0 0 0 0 R M.K.f.S n.T.!.p.r., : | OX@ 7 7 7 7 : @ @ @ @ @   ZX;X  2 0 : @ @ @ @ @ @ @ O =X    ;X  7 7 @ 2 2 2 2 2 @   zXjX  : 7 @ @ @ : : @ @ : 7   -XO 7 : @ @ @ 2 7 0 7 @ 7 7 7 7 7 q ]   GXLXZX  2 W.uX0X0XiX| 2 @     O IX,.    |.IXIXE 2 2 W.PX    ZXjX    O 7 @ @ @ @ @ @ X @ @ @ @ @ @ : @ 7 9 7 o W.m.5 : 2 @ @ @ @ : : 0 5 2 @ @ @ @ @ @ @ @ 7 2 = ..B.^ U U q q U q U I 2 @ O X O O X @ @ @ @ O O @ X o B 9 2 : 9 0 7 : @ @ O O X O @ , 7 q o.Z.v.L 5 3 X 7 O = , N [ ) L 5 ",
"@ @ @ @ @ @ @ @ @ @ @ @ @ @ @ 7 : : @ 7 7 7 0 0 0 2 2 0 0 0 0 0 9 0 0 T v.K.g.o.-.D.R.j.e.= : E OX@ 9 9 0 : @ @ @ @ @ @   ZX0X  2 0 : @ @ @ @ @ @ @ O =X    ;X  2 : @ @ @ @ @ @ 7   zXhX  O O : @ @ : 7 7 0 0 0 O -XO @ @ @ @ @ 2 2 2 @ 7 7 7 7 7 0 0 q 2 3.IX,.7 7 XXzXzXzXNX2.O 5.JXIXIXIX2.: >   LXzX  @ O W.IX  O {.IXIXHX}.O @ @ @ O @ O @ @ @ @ @ @ @ @ @ : 7 0 @ +.B.5 @ 2 @ @ @ 7 : 0 0 2 2 @ @ @ @ @ @ @ @ @ 2 X N -.@.U U U q U U , : @ X = X @ @ X @ @ O O O @ @ @ X : M I 2 @ @ : 9 7 @ @ @ @ @ O @ 2 2 0 ^ T r 0 e r , 5 2 7 U R T I 5 ",
"@ @ @ @ @ @ @ @ @ @ @ @ @ @ @ 2 : 7 7 : @ @ 2 2 2 @ 7 7 0 0 7 0 0 0 : 0 ) K.g.X.s.C.D.g.c , : B oXO 7 7 7 : : : X X X @ > IXoXO 2 7 @ @ @ @ @ @ O @ + =X    ;X  @ @ @ @ @ @ @ @ 7   zXZX@X-X|.O @ @ 2 2 2 2 5 2   -XO @ @ @ @ @ @ @ @ @ @ : 7 7 7 7 0 0   MXIXzX  q 2         @   IX@XO O IX2.0 @ 5.IXIX# O   5.IX  @   t ,.pXIX# @ @ @ @ O @ @ @ @ @ 2 @ @ @ @ : 7 0 7 0 ^ 5 @ @ @ : @ 7 7 0 0 2 @ @ @ @ @ @ @ @ @ , 9 @ h =.%.R U U q q q C a.I X b w 1 @ O @ O X X X @ @ @ @ @ 2 2 @ O @ X 9 0 2 @ @ @ 2 @ @ O   > 9 U t n ' { N R G O O @ 2 4 1 ",
"@ @ @ @ @ @ @ @ @ @ @ @ @ @ 2 @ 7 7 @ @ @ @ @ @ @ @ : 2 7 9 : 7 7 0 , 5 n.T.f.H.f. .M.H.S j 7 B oXO @ @ @ 7 7 : : X @   NXjX  7 2 7 : @ @ @ @ @ @ @ O =X    ;X  7 9 @ @ @ @ : @ b 0.$XhXlXzXyX  @ @ @ @ @ @ @ 2   -XO @ 2 @ X @ @ @ @ @ @ : 0 0 0 7 9 7 1.IXw IX} @ 7 7 2 2 7 7 # IXt @ O IX,.0   KX|.NXjX    5.IX  O O O @   IX} @ @ @ O O @ @ @ 2 2 @ @ @ @ 7 7 7 7 2 2 5 2 @ @ @ @ @ @ @ 7 7 2 @ @ @ 2 @ @ @ : : j o.2 - i.&.] ` U U U U N d.( 2 @ 5 4 X O X X = , : 2 @ : 7 2 2 @ X @ @ X : 0 2 2 @ @ @ O X O O   > 9 N A X.&.[ ^ T 2 - c M 4 1 ",
"@ @ @ @ X @ @ @ @ @ @ X @ @ 2 7 7 : @ @ @ @ : : : : @ 2 0 9 , @ 7 7 7 H N.I.d.B.X.` %.Z.X.x 7 } OX  @ @ @ @ @ 7 : : @ 7     7 2 7 : @ @ @ @ X @ @ @ O =X    ;X  Y q @ @ @ 2 : @ @.~.X         7 @ @ @ @ : : : @   -XO @ @ @ X @ @ @ @ @ @ : 0 0 0 7 q   GXiX  fXSX  2 2 7 2 : :   IXyXy iXIX,.O OXIX  } IXB X h.IX    oX[.} uXIX  @ 7 @ @ X @ @ @ @ @ @ @ @ @ 2 2 7 2 2 @ 7 @ @ @ 2 @ @ @ @ 2 2 @ @ @ @ 2 @ @ @ @ 7 , ;.L ; e.H.:.[ U U U q 0 4 4 O @ @ @ @ @ = , , : 2 @ @ : 2 @ O O X X X X X : 2 2 @ @ @ @ X @ O   = j N ] [ &.#.^ ^ 0 j Z *.) 5 ",
"@ @ X @ @ @ @ @ @ @ X X O 2 2 7 @ 2 @ @ @ 2 7 : : : : 2 0 9 7 7 7 : 7 Q D.g.2.I U U #.-.&.e.f y oX  @ @ @ @ @ @ @ 2 2 7 : : @ @ 2 : @ @ O @ @ @ @ @ O -X    ;X  7 @ @ @ @ @ @ 2 0 0 @ @ @ @ @ @ @ @ @ @ @ @ @ @   -Xo @ @ @ @ @ @ @ @ @ @ 2 0 0 7 7 9 2.VXO 7 O ZX| @ @ 2 7 7 7 7 W.HXLXuXoX,.  zXW.@   iX5X  3.zX    %XSXLXGXB O @ @ 0 7 @ @ @ @ @ @ @ @ @ @ @ @ 7 @ @ @ @ @ @ @ @ @ @ @ @ @ @ @ @ @ @ 2 2 2 @ @ @ @ q L X Z U.Z.&.` ` ` U H 2 X @ O @ X X X : 7 @ @ @ @ @ @ 2 O O X X @ @ X X h : @ @ @ @ @ @ O O @ X : 0 U I ] ^ T U ` A ` ( @.0 ",
"@ @ @ @ @ @ @ @ @ @ X O @ @ 2 @ @ 2 : @ @ 2 7 9 7 7 : 7 0 : 7 7 0 9 9 ( T.p.B 0 ` R *.N v.f.8.2.oX  @ @ @ @ @ X O @ 2 2 7 9 , , 2 @ X   @ @ @ @ @ @ O -X    ;X  7 @ @ @ @ @ @ @ @ @ @ @ @ @ @ @ @ @ @ @ @ @ @ @   -XO @ @ @ @ @ 7 @ @ @ @ 7 7 7 : 7 M :   2 @ 2   @ @ 7 2 9 0 7 7 O     O O @ 0   O 7 7 O O 0 @   7 @         O @ @ @ @ @ 2 2 7 : @ @ @ @ @ @ @ @ 7 2 @ 2 7 @ @ @ @ 2 @ @ @ @ @ @ @ @ @ 2 2 @ @ @ @ X m U   x f.B.@.] ] U I 5 @ @ @ @ @ @ @ 2 @ @ @ 7 2 2 @ @ @ O X O X @ X X @ f A 0 2 @ - g , 2 @ O     @ 2 2 7 0 0 9 N  .#.^ q q ",
"@ @ @ @ @ @ @ X @ @ @ : , 7 2 @ 2 2 : : @ 2 7 7 7 7 @ 2 7 : 7 7 0 M M m.E.t., q ` @.X.b ( D.t.; =XO : @ @ @ X X @ @ @ 2 2 0 b h , - X O X X @ @ @ @ w -XO   0X  7 @ @ @ @ @ @ @ @ @ @ @ @ @ @ @ @ @ @ @ @ @ @ @   0X  2 @ @ @ @ 2 @ @ @ 7 7 7 7 7 q M 7 2 2 @ @ @ @ @ @ @ 0 0 7 2 @ @ @ : 7 7 2 @ 2 2 2 2 2 2 @ : : @ @ X X O O X X X @ @ @ @ : 7 7 2 @ @ @ @ @ @ 2 2 2 2 2 @ @ @ @ @ 7 @ @ @ @ @ @ @ @ @ 2 @ @ 2 2 X j ;.2 d s.D.@.] ` U I 5 @ O @ X @ 2 2 2 @ @ @ 2 2 @ @ @ @ O X O X @ @ @ @ - m U 2 @ j Z [ I 2 O o o @ @ @ e 9 q ' N [ *.[ ] ` ",
"@ @ X @ X @ X X O @ 0 M , @ 2 @ 2 2 : @ @ 2 7 : : : @ 7 2 @ @ 7 I ` ` C.I.0.9 ` U R N 9 I M.i.= yXO : @ X X X X @ @ @ @ @ 2 0 9 9 m = @ X @ @ @ @ O }.4.@ @ oX2.2 @ @ @ @ @ @ @ @ @ @ @ @ @ @ @ @ @ @ @ @ @ @ 7 t ;XO @ @ @ @ @ @ @ @ 7 7 2 7 7 0 M M : @ @ @ @ @ @ @ 2 @ 2 7 2 2 @ @ 7 7 7 7 2 2 @ 2 2 2 2 @ 2 2 @ @ @ @ @ @ O O X X @ @ @ @ @ @ @ @ @ @ @ @ @ @ @ @ @ 2 2 @ @ @ @ @ 7 7 @ @ @ @ @ @ @ @ 2 @ @ @ @ @ , *.T : ..D.&.] ` U 0 2 @ @ @ @ @ O O X @ @ @ @ @ @ @ @ O @ O O X @ @ @ @ @ h q 5 @ - N @.T 2 @ O @ @ @ @ : , q U U ] ] ] R ` ",
"@ @ @ @ X X X @ @ 7 w 7 @ 7 7 : @ 2 : @ @ 2 2 : 7 : : : @ 2 : 0 U ] [ Z.p.0.q q 5 @.A 9 M R ^ j 2.@X  : X X @ @ @ @ @ @ @ @ @ 1 I N , @ @ X @ @ @   hX  @ 2 O dX  @ @ @ @ @ @ @ @ @ @ @ @ @ @ @ @ @ @ @ @ @ :   fX8 @ @ @ O O O @ @ @ 7 2 @ 2 7 0 q 0 @ @ @ @ @ @ @ @ @ @ @ @ 2 2 @ @ 7 2 2 2 2 2 @ 2 2 2 2 @ 2 2 @ 2 @ @ 2 @ O X @ : @ @ @ O @ @ @ @ @ 2 @ 7 7 : : @ @ @ 2 @ @ @ @ @ @ 7 @ @ @ @ @ @ @ @ 2 @ @ @ @ 2 @ 0 H O m V.&.] ` U 0 2 : : @ 2 O O @ : @ 2 O @ X @ @ @ O O O O O @ @ @ @ @ , n 0 @ : , 0 5 7 2 O O O O @ X X 2 5 0 q R U H 5 ",
"@ X @ @ X : 9 q U M 7 O 2 2 : : 7 2 : @ @ 2 7 : : : @ : @ 2 7 0 ` ] #.Z.p.x 0 h 2 )  .b N 7 ~  .- &X}.  : X X @ @ X X O @ 2 X O 0 N = @ @ @ @ O O zX# @ @ @ @ ,.pX  O @ @ @ @ @ @ @ @ @ @ @ @ @ @ @ @ @ @ @   qXW.@ @ @ @ O X O @ @ 7 @ @ @ @ : 7 0 0 @ @ : : @ 2 2 2 @ @ @ @ @ @ @ @ 7 : @ @ @ @ @ @ 2 2 2 @ 7 @ @ 2 2 2 @ @ @ X @ : : @ @ O O O O @ @ 2 @ 2 0 9 0 7 @ @ @ @ @ @ @ @ @ 2 2 @ @ @ @ @ @ @ 2 @ @ @ @ @ @ @ 2 X d s.B.#.` U I 7 7 0 2 O O X @ 7 7 2 @ O @ @ 2 2 O O O O O @ @ @ @ @ X h 0 @ : 7 0 1 @ 2 2 O       X = = , 9 U I 5 6 r ",
"@ @ @ 2 5 0 0 0 5 @ @ @ 2 2 7 : : 7 2 @ @ 2 0 : 7 : X : @ 2 7 0 0 U #.V.Z , [ C 7 ^ ' M , : Q @.e.X }.pX3.O o o O o O O O O o o # > O O O O w |.fX# X X @ 2 2 @ <.fX{.> O O O O O o O O o O O O O O O O # W.dX3.O @ @ @ @ O O X @ 2 2 @ @ @ @ : 7 q 7 @ @ 7 7 2 X : 7 : @ @ @ @ @ @ 2 7 7 @ @ @ @ 2 2 2 @ @ @ @ @ 2 2 @ @ @ X @ X @ @ 2 @ : @ @ X X     O O @ @ @ 9 9 : @ 2 @ @ @ @ @ @ @ 2 @ @ @ @ @ @ @ @ @ @ @ @ @ @ @ 7 @ , i.Z.*.] R 5 @ @ @ @ @ @ @ @ @ @ @ O O O @ O O O O O O @ @ @ O O O O d h 5 @ 7 2 O O O X @ @ X ; d z V M 9 7 @ O = - ",
"@ @ @ @ @ @ 7 @ @ @ @ @ 2 2 7 9 : : @ @ @ 2 0 : 7 : @ @ @ @ : 7 M X.=.f.8.U ;.Z 2 [ q 9 , : I ) O.c X X }.-X5X0X;X;X;X;X;X;X;X;X5X<X;X;X;X;X%Xh.  : , X @ @ 2 2 @   W.&X;X;X5XqX<X;X;X;X;X;X;X;X;X;X;X;X&X{.O @ @ @ @ @ @ O O @ 2 @ @ @ @ @ @ : 7 q 0 @ @ @ @ @ C A : 7 : @ @ @ @ @ @ 2 @ @ @ @ @ @ @ @ @ @ @ @ @ @ @ @ @ @ : 7 @ X : @ @ @ 2 2 7 7 : @ O O X @ X 9 M M 7 @ @ @ @ @ @ @ @ @ @ @ @ @ = = X @ @ @ @ @ @ @ X 2 2 @ N H.B.#.T 5 @ @ O O @ @ @ @ @ @ @ @ O O X @ O O O O @ @ @ O O O O O = V U @ @ @ X     = d h f v q.t.V.m.O.i.i.V l h ",
"@ 2 : = , 9 : X X @ @ @ @ 7 7 9 : : @ @ @ 2 0 : 7 7 : @ @ : 2 U g.f.Z.g.0.R =.g 0 m 0 0 M , , ~ %.e.l ; X   O O                 O X   O O O O 7 7 7 9 , = @ @ @ @ @ @ O     O O O   O O O O           O O @ 7 @ @ @ @ @ @ X @ : : @ @ @ @ : 7 : 7 q 7 @ @ @ @ @ Y.$.@ 7 @ @ @ @ @ @ @ @ @ @ @ @ @ @ @ @ @ @ @ @ @ @ X @ : 7 7 2 @ ; X @ @ 2 2 2 7 0 0 0 : @ @ @ X , ' ` 2 , 9 O @ @ @ @ @ @ @ @ @ @ n { @ @ @ @ @ @ @ @ X 2 2 @ j s.B.] T 2 , 7 O @ @ @ X @ @ @ @ @ @ @ @ @ @ @ @ @ O O O O O X O O X - 9 @ = , b 9 : : d m { 0.u.U.b.Q U [ :.H.g.p.",
"2 0 0 b m , @ @ X @ @ @ 2 7 7 7 : @ @ @ @ 2 0 : 7 7 , : @ : I K.I.d.T.g.c R X.b 0 h 7 T ..C ; 0 ( f.w.F                                       O 2 2 7 7 : : : @ @ @                                       O @ @ @ @ @ @ @ @ : 7 : @ @ : 7 9 M 9 9 9 @ @ @ @ @ 2 T 0 @ @ 2 @ @ @ @ @ @ : 7 : : : : : : : @ @ @ @ @ X @ : , 7 7 2 , k.m O @ 2 2 @ : 2 7 7 7 7 9 7 = , q q 1 , { O @ 2 @ @ @ @ @ @ @ O @ ^ 4 X @ @ @ @ @ @ @ @ 2 O k p.-.] H 2 X 2 @ @ @ @ X X @ @ @ @ @ @ @ @ @ O O O O O O O O X O   O = f q 9 h M w 7 7 : w x w.p.E.N.T @ : 7 M ..s.",
"5 I M b : X @ @ @ @ @ @ 2 7 7 : @ @ @ @ @ 7 7 7 0 0 j 7 2 7 ) L.:.&.H.i.j ~ ' b q : 7 T =.e.9 : ~ E.q.x.1X0X<X<X<X<X<X<X;X<X0X0X0XqX<X0X<X<X<X&XO O 2 @ @ 7 9 :   e ;X0X<X<X<X<X<X0X<X<X5X;X0X<X<X<X0X0X0X0X<.  2 @ @ @ @ 7 9 0 7 0 0 q q 9 q q 7 7 : @ @ @ @ @ @ @ 2 2 @ @ @ 7 7 2 2 7 7 7 7 7 : 7 7 7 @ @ @ @ @ : : : 7 7 : @ @ ;.%.@ 7 2 2 @ @ @ @ @ 2 7 9 0 9 q q 7 1 : 0 5 O 1 @ X X X X @ X O @ 2 @ @ @ @ @ @ @ : : : : X v t.L.@.5 @ X 2 @ @ @ @ @ @ @ @ O @ O O @ @ O O O O O O O X X @ O X X X - q y n w _ } 9 0 , 0.t.J.T.D.%.9 = : : m X.",
"I ] N , @ @ X @ @ @ @ @ 2 2 @ @ @ @ 2 @ @ 7 7 9 0 M j : 2 H &.[ ` n.J.S , I ` 9 7 @ : I ) ' 9 : ~ v.cX>Xk                       O X           } pX5.  @ @ 7 q   oX0X>                                 O   8 -X;X  @ @ @ @ 2 7 7 2 0 0 0 7 2 2 2 7 : @ @ @ @ @ @ @ @ @ X @ @ @ 2 7 2 @ 2 2 2 2 7 7 7 7 7 @ @ @ @ : : 7 0 7 7 7 7 : 2 5 @ @ @ @ 2 2 2 @ @ @ @ 7 7 0 ` ` 0 7 7 2 2 @ X X @ X X X O X X @ @ @ X @ @ @ @ : : : : 9 : v k.E.B.I : @ @ 2 @ @ @ @ @ @ @ O O O O @ @ O O         O X @ @ X X X : : 7 y n [ R ` $.^ 0 m [ n.^ ^ ^ q q @ X - Z ",
"U R 7 @ @ @ @ @ @ @ @ @ @ @ @ @ @ @ @ @ @ 2 0 0 q b , @ 5 &.=.' ] %.d.V , U q : @ @ : 7 T 0 9 7   jXY.t.z : 9 > @ X X @ X X @ @ 2 b = O X @ @ >   yX1.@ @ 7 @ oX}.O 7 : @ @ X @ @ @ @ @ @ @ @ @ @ @ : 7 @ @   5.-X  @ @ @ @ O @ @ 2 @ @ 2 2 @ @ : @ @ @ @ : @ @ @ @ @ @ @ @ @ 2 @ @ @ @ @ @ @ 2 7 @ @ @ @ X @ 7 7 7 0 7 7 7 9 9 9 , , : @ @ @ : @ @ @ @ @ @ : : 7 7 7 2 2 7 7 : : @ @ @ @ @ @ @ X X @ X X = , : : , 9 9 9 , M q k k.^.D.I : : @ @ @ @ @ @ O @ X X O   .   X X X O + X X X X X : , , 7 0 0 0 0 9 ^ L H G 5 9 9 I H 2 @ 2 7 7 9 9 - l ",
"2 5 , = X X @ @ @ @ @ @ @ @ @ : @ @ @ @ @ 7 0 9 M b 9 2 %.P.O...q @.O.g 0 U : @ @ @ @ 7 5 I 9 :  XQ.D.g.d 7 0 : @ @ X X X @ X O 2 w X X X @ @ 7 7   pX  @ 7 t uXO @ @ @ , , : @ @ @ @ @ @ @ @ @ @ @ 2 @ @ @ @   @X,.@ 2 1 O O   @ @ @ 2 @ @ @ 2 : : @ @ : @ @ @ @ @ @ 2 2 @ 2 2 @ @ @ @ @ @ @ @ @ @ @ @ @ @ : 7 7 2 7 7 7 7 0 0 0 9 7 : : : 7 9 7 : : : @ 2 : 7 7 @ : @ w : 7 7 7 7 : : , , , , 9 7 @ @ : : 9 9 7 : 7 0 7 7 7 0 : 0.^.D.H @ @ @ @ @ @ @ @ @ O X @ O * p F - @ @ @ @ : : @ @ @ 2 2 2 7 7 0 0 0 0 H 4 + o d h q M 7 2 @ @ @ : 9 m V 0.",
"@ T 9 ; X X @ 2 2 @ @ @ @ 2 : : @ @ @ @ : 7 q N m 9 7 ^ Z.:.i.A I d.i.h 0 7 , X : @ @ @ @ H 0 X uX  M.s.- @ 7 : X O O X X X X & * 3 @   @   + @ X X 4.[.X O ;Xe O X X @ 0 < ; - , @ @ @ @ @ @ @ @ : @ X @ @ @ : O 0X  @ X < p p o X @ O # X O $ & O @ @ @ @ @ O @ @ @ @ @ @ @ @ : @ : @ : : : @ @ @ O @ @ 7 7 7 7 7 7 7 7 7 7 2 7 7 7 @ @ @ : 0 7 7 0 0 7 : 9 M 9 , , , B 9 7 0 9 9 b 9 9 9 0 0 0 7 @ @ @ 7 0 7 2 @ @ 2 2 @ @ 7 : - I.S.G @ O @ X + # O @ X X @ @ @ o < n *.T 5 @ @ 2 2 2 2 2 @ 2 @ : 7 0 7 0 0 0 1 o f c [ -.o.T 7 : @ @ : , 9 b e.",
"H Q 0 , X @ @ @ 2 2 @ @ @ 7 : : @ @ @ @ 7 0 ` N b 0 5 n.B.-.i.b v.P.e.b 7 h , , , @ @ @ @ 0 T B $XO v.O.f w 7 7 X = - = X j r.F 7.s > O : n k r e = # ;X    0X  : 8 > 7 | 2.B b b : : , n b : 7 9 9 : : 7 > : @   0X  @ : C 2.B X X @ ; B = ; F F B e < ; < a a & @ @ X o @ @ @ @ : @ : 7 0 7 @ @ X @ : : : 7 2 7 7 0 7 2 7 7 : : 0 7 @ @ @ @ 7 7 @ 7 2 2 0 q q 0 9 b N ] U 0 7 7 7 2 2 2 2 0 2 : 7 @ @ @ @ 7 2 @ @ @ @ + o ; = @ = A n.G X @ @ @ @ > > : @ @ @ X @ : @ 0 T L 2 @ 2 @ @ @ @ @ @ @ @ , 2 7 7 0 M q 4 X d N v.@.R ( 0 7 5 5 O ; h V Z ",
"7 H 7 X X @ @ @ @ @ @ @ 7 7 : : @ @ @ : 0 U ' N b 7 R #.@.#.9 q %.f.Z 9 U m : 9 , @ @ @ 2 7 L >.OXO ) s.e.> 7 7 5 M C = 5 T.f.o.n : : 2 R #.M : : : O =X    ;X  2 7 7 I @.] 0 0 0 9 9 0 0 0 2 0 0 7 @ 2 2 2 2 @   =XO 2 2 T ) T 2 @ @ ] ;.9 R -.X.` q 0 q ` { { 9 @ @ : , , : : : 9 9 w B w @ X X @ : : : 7 7 7 8 e 3 8 2 7 8 * 6 e * $ + @ : @ e * * i i s 4.F a e : 9 I 5 2 @ @ 7 e < < 8 @ @ : 7 0 0 : , 7 7 @ @ X > 8 ; v i.U = , $.H @ @ : 7 7 7 7 2 2 @ @ @ @ 2 0 7 2 2 : @ 2 @ @ @ @ @ @ @ , 7 2 2 2 2 0 q w d h T Q 5 H H 7 2 5 4 # ; 9.t.=.",
", 0 h - X @ @ @ @ @ @ 2 0 9 9 : @ @ 2 7 0 ' i.N , 0 #.' X.{ 2 U V.p.c , { b 7 9 = @ @ @ : 2 H >.+X@ ) U.i., @ 2 2 H @ X G ! T H 5 q : 1 5 H 5 1 O 2 O -X    ;X  @ @ @ 2 2 2 @ @ 2 7 0 0 2 2 2 2 @ @ @ @ @ @ @ @   =X+ @ O 1 1 O @ @ @ L ^ 2 2 T L H I 5 5 I T T 0 : : 7 0 0 0 0 0 q U ` ` q 0 9 n 9 9 0 9 7 9 9 M n n n q 9 n <.<.<.<.<.t : : > B <.<.<.2.r.k.k.a.+.M 0 7 7 2 : : N ` ` n ` 0 2 @ 2 5 5 7 9 M 9 7 : : @ 7 0 U :.N.0 : ` T 2 2 2 @ @ @ @ 2 2 @ @ 2 @ @ 2 @ @ 2 2 2 2 2 @ @ @ @ @ = h 0 2 2 @ @ : B V 0.@.~ H 4 2 X @ 4 1 O & z w.f.N.",
"7 0 N j - , , : @ @ 2 2 0 0 9 : @ @ : 7 T *.i.x 9 #.O.=.e.: 9 @.E.t.D ` ' , 7 7 = @ @ @ 7 X 5 A.+X7 v.P.S , @ @ @ O X X 2     @ 2 w X O O O O O @ 2 O -X= = ;X  @ @ @ @ @ @ @ @ @ O   7 2 O   , @ @ @ @ @ @ @ @   -XO X X X O O O @ @ @ @ @ @ @ 2 7 7 @ @ 2 2 @ : 9 7 7 2 2 2 2 2 2 2 5 5 5 2 0 I 0 0 0 7 7 0 0 0 U U U U q U @.$.&.-.-.@.0 @ 7 q #.&.&.-.B.T./.N.) T 5 2 2 2 2 2 2 I I I I 5 2 2 @ @ @ @ @ 0 0 0 9 b b : @ 4 5 Y T 7 0 I 2 @ @ @ @ : : @ @ @ @ @ @ @ @ @ @ @ @ @ @ @ > @ 2 @ X = b I 5 @ @ @ > f 0.s.b.Q 5 2 X @ @ @ X = d 0.i.C.v.",
"7 H I q 9 h h , = @ @ 2 0 0 : : : : : 0 R :.i.Z s.g.o.[ h U ] C.!.r.B ' ' , 7 : : @ @ @ @ @ 2 / OX@ ( d.V , @ @ @ X @ X   SX{.  2 0 X X X X X X @ @ O -X0 , <X  X @ @ @ @ @ @ @ O 3.HX  O W.KX  : @ @ @ @ @ @ @   =XO X X O O X @ @ O @ @ @ @ @ @ 7 7 : : : : 7 0 0 7 2 2 2 @ @ @ @ @ 2 @ : 7 7 2 7 7 7 7 7 7 @ ,.2 0 7 0 5 5 H I I I T H 5 2 2 2 5 H H T T T L L H 5 2 2 2 @ @ @ 2 2 2 2 2 @ @ @ @ @ @ @ @ @ @ @ @ 7 ` ] 0 : , 9 I 7 2 2 2 @ @ @ X : , , : @ @ @ @ @ @ @ @ @ @ @ @ @ @ @ @ @ X , , 0 7 @ @ = - g e.n.c.5 0 2 @ @ @ X = - g V %.( H ",
"7 7 0 7 7 9 9 , , , , : 7 7 : 7 7 0 7 0 ~ -.s.J.!.z.{ M M ] #.T.l.z.w X.b 9 7 : : @ : 7 : @ @ E OXX ~ =.Z , @ @ @ X @ @   KX|.  2 @ X @ @ X X X @ @ X -X1 O 5X  , : : > @ @ @ @   5.IX    IX|.@ 7 : : @ @ @ @ @   =X+ X X   O X X X > > @ @ : : 7 0 0 0 0 7 7 2 2 2 2 @ @ @ @ @ @ X X X = = : 7 @ 7 7 7 7 7   nXIXt 7 7 : : : @ : @ @ @ @ O @ @ @ @ : 7 7 7 : : : @ @ 2 @ : @ @ @ @ @ @ @ @ @ @ @ @ @ @ @ @ @ 7 2 @ O 2 H 5 : m A ' 7 @ @ 2 @ @ @ @ @ @ 7 0 7 2 @ @ @ @ @ X @ @ @ @ @ @ @ @ @ : M 0 7 7 2 1 @ , c #.c.H : 9 5 1 @ X : , 9 N R ! H @ ",
"2 7 7 7 0 q 0 9 9 j , , : : 7 7 7 0 9 0 R &.K.).!.e.m M ] [ &.(.l.r.q ` h 7 9 , : : : 7 0 , X E oXX T s.e., : : ; X X @   LX|.  @ @ X @ @ @ @ X @ @ O =XO   ;X  7 9 9 , X @ @ @   5.IX  @XLX  @ @ @ : : @ @ @ @   -XX @ X X O @ @ : n : : : : 9 9 0 0 7 2 2 2 @ @ @ @ @ X @ @ @ X X : = 9 7 7 : 7 : : 7 7 7 @ 3.uXO 7 7 : @ : 7 7 : : 2 2 @ O @ @ : 9 7 2 2 2 2 @ @ @ @ @ @ 2 @ @ @ @ @ @ @ @ @ @ @ @ @ @ @ 2 2 2 @ @ @ @ X @ : ` @.U 7 2 2 : : X X X @ @ 2 7 2 7 : : @ X : @ @ @ @ @ O @ @ X , 0 5 7 : 2 # - g N ) W 2 @ b U H @ X = , M U T H @ @ ",
"2 @ 2 5 7 7 7 0 ` m , : , , 7 : : 7 7 7 q ) T.^.s.N 9 q R ` n.(.p.x q 9 , 0 , : @ @ @ 7 0 - @ E OXX R f.e., 7 9 , > X @   LX|.  @ @ X @ O @ @ @ @ @ O =X    ;X  @ 2 9 9 : @ @ @   5.IX  IX5.O @ @ @ @ : 7 0 7 7   -X+ @ X X X @ @ 0 R 7 : 9 9 9 0 7 7 @   @ @ @ O @ @ @ @ @ @ @ >   X | t   q 7 8   7 7 O 7 7 @ O 0 7 @ O ,.w   0 : @ : @ @ O @ @ 7 0 @ @ 2 @ @ @ @ @ 2 @ @ @ @ @ @ @ @ X X @ @ @ @ @ @ @ @ 2 2 @ @ X @ @ @ @ @ 2 0 H 5 2 2 9 h b , = X @ @ 7 2 @ : : 7 : : : @ @ X @ @ @ X X : 2 2 @ @ X = c S %.( 5 2 @ = 0 0 X = = h U L H 5 @ @ ",
"@ 2 2 2 @ 2 2 I U b , M M b 9 b 9 7 : 9 U &.D.*.M 0 7 0 q I M.L.S b 0 7 7 0 , @ @ @ @ 5 0 , @ y OXb R d.e.b 0 7 7 @ X X   KX|.  @ @ X @ @ @ X @ @ O O =X    ;X  @ 1 5 7 9 b = @ O 5.JX&XVX  : @ @ @ @ 7 7 0 9 7   -X+ @ O O O X : 9 0 9 7 7 7 7 7 2 O W.IXO @ O IX,.X @ @ X O @   zXIXIXIXzX    ZXzX    IX}.  }.LX  @ t IXIXIXZX  : : @ @ @ O X = 7 2 @ @ @ 2 2 @ @ @ @ @ @ @ @ @ @ @ @ @ @ @ @ @ O @ @ @ @ @ @ O @ X @ X @ @ 2 @ : 2 @ O 2 2 9 N N ' b : @ 7 2 @ X @ 7 7 7 7 @ O X X @ @ X : 7 2 @ @ O o g 9.=.n.T 5 @ @ @ M : < ; l N L G @ 2 @ @ ",
"@ @ 2 : @ @ 2 2 2 2 2 0 q q U M m b j N *.:.X. .V , 7 9 0 H n.O.b 9 7 7 7 9 h X o X @ 5 0 7 = E +X' R Z.i.w 2 2 @ @ X X   LX|.  @ @ X O @ @ @ @ X   O =X    ;X  X @ @ 2 0 0 : 7 X 5.JX-XAX  @ @ @ @ @ @ @ 2 0 7   -XX : X @ @ @ 7 : 7 @ @ @ 2 7 7 7 @ O IX,.X 4.IX  @ @ O X - = @ t -   2.IXw 7 t IXr pXGX  @ {.LX    ZXhX  O r @ 7 7 @ @ @ X X 9 7 @ @ @ @ @ 2 @ @ @ @ @ @ @ @ @ @ @ @ @ 7 2 2 @ @ O O O @ @ @ O O X @ @ @ 7 2 : : @ @ @ @ O @ @ 7 U ` ` M 2 2 O X @ @ 2 7 0 7 : X X O @ X , 0 2 @ O + < 8.e.&.&.T H O X @ , w B 8.t.&.! G @ X @ @ ",
"@ 2 5 0 : @ @ @ @ @ 2 @ 2 5 T `  .i.i.O.X.` =.f.Z b N h 2 T *...9 0 7 , 0 N h = > X @ 5 0 0 : E +X0 T C.i.b @ @ @ @ X X   LX|.  @ @ X O @ @ @ @ X X O =X    ;X  @ @ @ 2 @ 2 2 : X h.IX  IXW.X @ @ @ @ @ @ @ 2 @   -XX 9 : @ @ @ @ @ @ @ @ @ @ : : : @   JXOX  0XZX  w B y | h.9 7 N f.@ O IX| :   hXAXIX1.@ @ {.LX    HX@X  O @ 7 7 : : 2 2 : , 7 @ @ @ @ @ @ # e @ @ @ @ @ @ @ @ @ @ @ @ @ 2 2 @ @ O @ O @ @ @ O @ X @ @ 7 2 @ @ @ @ @ @ @ O @ X @ @ 2 7 q ` 0 @ X @ 2 @ @ @ 7 7 7 : X X X : 9 0 @ @ X d e.@.( ` U 5 2 O X : 7 f q.s.b.W 2 X X X @ ",
"@ 2 5 9 : : @ @ @ @ @ @ : q ] -.V.-.] I T #.H.*.` =.e.- 2 &.s.m 7 0 9 9 U  .h , X X @ 2 5 2 @ E OX@ H N.i., : X @ @ X X   LX|.  @ @ X @ @ X @ @ X X O =X    ;X  @ @ : @ @ @ @ 2 @ W.PX  oXJX  @ @ @ @ @ @ @ @ :   -X: q : @ O @ @ @ @ @ 7 @ @ : : : :   fXMX  ZX;X  yXIXLXLXIX5.: w gXVXZXIX} : 0 O IXzX  7 X {.LX    pXIXMXiX8 @ 7 : @ 2 : , M 2 @ @ @ @ @ @ * B 2 @ @ @ @ @ @ @ @ @ @ @ @ @ 2 @ @ O @ @ @ @ @ O X @ @ @ @ 2 @ @ @ @ @ @ @ X @ X @ @ O O @ 7 0 9 : @ @ @ @ @ @ @ @ : : - - , , 0 2 O = g [ v.L h  .0 2 O = , , x S M.c.4 X X @ X X ",
"@ 2 5 7 @ @ @ X = : , b  .X.@.R I 5 2 5 L *.O.R %.f.x : I -..., 7 0 9 0 ] N 7 @ X @ @ X @ @ @ y OXO H M.i.f = : @ @ @ @   LX|.  @ @ X X X X @ @ @ X O -X    ;X  X > @ @ @ @ @ 2 @ W.PX    LX|.O @ @ @ @ @ : : 7 X <X@ 2 O O X X @ @ @ 2 7 @ @ : @ : @ X {.LX  IX1.O           0 O IXMX5.5.IX} : @ <.IXGX  7 @ {.LX  7   oXiXGXLX  : : @ @ , 9 0 2 O @ @ @ @ @ > { I O @ @ @ @ @ @ @ @ @ @ @ @ @ @ @ @ @ @ X X X @ @ X @ @ @ @ @ @ @ @ @ @ @ X X O @ O @ @ X @ @ 7 q q 7 @ @ @ @ O O @ : , m N q 0 2 - c j ^ L 2 h e.R 4 O - j m b T W 4 X = X : 7 @ ",
"@ 2 5 2 @ @ 7 m V m M { M 7 @ @ 2 2 @ 2 R *.b T B.O.M q @.-.x : 0 q : 0 ' h @ X X @ @ X @ @ @ t OXO 5 m.f.D - : @ @ @ @   FX}.  @ @ X @ O @ @ @ @ @ O -X    ;X  7 7 @ @ @ @ @ : @ 5.JXO @ }.LX  @ @ @ : : 7 7 0 O -XO @ O O O O @ @ @ 7 2 @ @ @ @ : : @ # IX7 IXO X @ : 7 9 0 0 t IX8 @ 8 IX} 7   ZX0XJXOXO X {.LX  7 7 @ O # IXt @ 7 @ = 9 q 2 O O @ @ @ @ @ @ Y 5 O @ @ @ @ @ @ @ @ X @ @ @ @ O @ @ X @ O O O X X @ @ @ @ @ @ @ @ @ @ @ @ @ @ O @ @ @ X X @ @ @ 2 0 M 9 7 @ O @ O @ @ : 9 M [ 0 w z 0.[ ( 0 b x e.] H O - x ' I H 4 O > 9 7 2 2 5 ",
"@ @ : , , 9 *.i...N q 7 : @ @ @ 2 7 : 0 ^ M M %.#.U U U m.s.c 2 0 0 7 T N d X X X @ @ @ : @ @ t oXO 5 C.g.z.j = @ @ @ @ >     @ @ @ X @ X X @ @ @ @ @ <X    ;X  0 2 @ @ @ @ @ 7 7 O   7 2 O   n , = : 9 9 0 0 0   -X+ @ O O O X @ @ @ : @ @ @ : : 7 0 :   LXpXSX  : : : 7 7 0 9 # IX3.  W.IX} @ 4.IXO |.IX  @ {.LX  @ y O   5.IX@ : 7 @ : 0 0 @   O @ @ @ @ X 2 H 2 @ X @ @ @ O O O @ @ @ @ @ @ O @ @ X O O O @ @ X @ @ @ @ @ @ @ @ @ @ @ @ 2 @ O @ @ X O @ @ @ @ @ 2 2 7 9 9 : @ X X @ : : 7 0 } n 9.e.%.@.] A p.s.#.H @ d x ^ ~ 0 : X = 0 L 4 2 7 ",
", 7 q N ..d.H.X.9 @ @ @ @ : : 7 7 7 7 0 I M ' ` q U U R C.p.c 7 0 : 7 T N d = @ @ X @ @ X @ : t oXX 5 T.!.k.z , : : @ @ X X @ @ @ , X @ X X X X X @ 3 <X    ;X  @ @   X @ @ : 7 @ @ @ @ @ @ 7 M N n 9 9 0 7 7 2   -X+ @ O X X X @ @ : @ @ @ @ : : 7 0 0   hXIXiX  : 7 : : 7 7 9   iXIXIXZXNX,.  LX0XO   GXiX  }.KX    NXIXIXIX|.O 7 7 : 0 0 : @ @ X X @ @ @ @ @ @ O @ @ @ @ @ @ X X @ @ @ @ @ O O @ O O # X X X @ @ @ @ @ @ @ @ @ @ @ @ @ @ : 2 O X X @ = X @ @ @ 2 @ O @ @ 9 9 9 @ O X , : 7 0 9 0.p.D.v.I U [ O.:.N.H , l A ^ I 7 2 2 2 5 4 1 X , ",
"Z ..d.d.O.[ q : X : @ @ 2 : : 7 7 7 7 7 0 ` ' q 9 0 0 ) D.i.- 0 j B O R ..d : @ X @ = , , : : } oX@ U /.^.g.Z : : : : X X @ X X @ b = X @ @ @ @ @ O @ -X    ;X  O X - = X : 7 : @ @ @ @ @ 7 0 0 U q 0 9 0 2 @ @   -XO @ X X X X @ : 7 @ @ @ : : : 2 7 9 @   FX[.@ 7 7 7 7 7 7 9 q   8 8     7 q     7 0   O 0 @   0 0   o r O O 0 7 7 0 0 2 @ @ @ @ O @ @ @ @ @ @ @ @ @ @ @ O @ @ @ @ @ @ @ @ @ O @ @   = f : @ @ @ @ @ @ @ @ @ @ @ : = @ X @ 2 O O X X 9 9 2 @ 2 2 O @ X X @ 2 0 0 : - , 7 2 7 b ..N.b.T 4 O 9  .:.-.R N m @.~ H 5 4 4 2 @ $ a - X ",
"p.O.&.@.M : : : : : : : 7 7 7 7 7 2 7 7 0 U M 9 9 7 q n.H.V 2 #.e.g @ @.i.d : : : 2 U M 7 7 7 8 &X@ ] T.^.g.j : @ @ : : @ @ @ @ 2 b = @ X X X X = = > <X    0X    , C - : 9 0 @ X X X @ : : 7 7 0 7 7 0 7 : , @   <X  @ @ X X @ @ 7 2 @ @ @ : : 7 : @ 0 ,.oXIX  7 7 7 7 7 7 7 7 9 9 9 9 7 7 7 7 7 7 7 7 7 7 7 7 7 7 : 7 : : @ 7 : : : 0 2 @ 2 @ @ @ X X @ @ @ @ @ O @ @ @ @ @ @ @ @ @ @ @ @ @ @ O @ @ : @ q U 0 2 @ @ @ : @ @ @ @ @ : n 7 @ @ 7 @ X X X @ 0 2 @ @ @ O @ X X @ @ 2 2 9 x m 0 2 = x ` ( / 0 2 X = m S ..] N ] ( H 2 @ O   X @ + < c A ",
"t.C L ^ q : 7 : : : : 7 7 7 7 : 7 7 7 : 7 0 9 9 7 0 U M.s.d H B.e.d M  .V : : : : 2 5 7 @ @ 7   yXO :.C.I.i.- @ @ @ 2 @ @ X X X @ b = X = = - j j Z Q. X= X &Xw m [ ` 7 9 9 , X X X @ @ : : 9 7 7 2 2 2 2 0 9 9 X yX  @ X X X @ @ @ @ @ @ @ : : 7 @ O W.IXJX} X 7 7 7 7 7 7 7 7 7 9 9 q 9 7 7 7 7 7 7 7 0 7 7 7 7 7 : 7 7 7 7 : : , 9 0 2 @ : : : , , @ @ @ @ @ @ @ @ @ @ @ @ O @ @ @ @ @ @ O O @ @ @ @ 2 5 0 5 2 @ @ @ : : : @ @ @ 7 0 0 2 @ : 7 7 2 @ @ 2 2 @ @ @ @ X @ X @ @ @ X = V ' { j 8.x ] 0 v Z q = = c r.i.=.` ^ ~ 2 @ O X = - : @ O j ;.",
"0.h T 0 9 : @ : : : 7 7 7 : : 7 7 : 7 7 7 0 9 , 7 0 R m.S , T B. .q X.i.h : @ : : : @ @ @ = @ 2 XXQ.{ %.I.e., @ @ @ @ X = , - = 9 V d - h m V C N O kX  7 7 r qX: { 9 9 q , h j j h , : : 9 9 7 @ @ @ X 2 2 0 @ *X1., X X X X @ @ @ @ @ @ @ @ : : : 7 @     @ : 7 7 7 7 7 : 7 7 7 9 9 q 9 7 7 7 7 7 7 7 7 0 7 7 7 7 7 7 7 7 2 : , n M 2 7 : : : : 9 { 2 @ @ @ @ @ @ @ @ @ @ @ @ @ @ @ @ @ O @ O @ @ @ @ 2 2 2 2 @ @ @ @ @ @ 2 @ @ @ @ 2 2 @ X : 0 2 2 X X @ @ @ : 7 @ @ @ : : : : , g V  .S w.t.J.g.t.q.t.I.i.0.q.t.j.I.&.R I 0 : @ = h , 7 2 @ X I ",
"9 : 7 7 = 8 @ @ 7 @ @ 7 : : : : @ @ 7 7 7 0 9 , : 9 @.*.j @ ~ *.9 I @. .d , @ @ 7 : : : @ : 2 5   hX} ( U.e., = @ , h m b 9 9 : M ..j b q [ ] 0   qX3.+ @ @ O oX}.O 0 0 0 q `  ...N b , 9 N m , - h h , , 7 O 4.qXX , , X O @ @ @ : @ @ @ @ @ : : , 9 0 9 9 7 7 7 7 7 7 7 : 7 7 7 0 9 0 9 0 7 0 7 7 7 7 7 7 7 7 7 7 7 7 : : : : , { 0 @ : 7 : : 2 0 T 4 X @ @ @ @ @ X @ @ @ @ @ @ O @ @ @ @ @ @ X X @ @ @ @ @ @ @ @ @ @ @ @ @ @ @ @ @ @ @ @ X 7 7 @ @ : h , : : : 7 2 7 : : , , , b N N  .e.p.!.R.!.l.I.g.E.U.g.p.g.^./.C.` 0 q : @ = , 7 5 2 X X @ ",
"7 : b S c < X , @ @ @ @ @ : : : @ : : : : 2 9 9 : M :.e.y.* ) N = 5 T q , j d X 2 0 : , = : @ @ 7 O dX+X:.z =     X @ @ O O     @ : @ X O O   r aX5.  @ X @ @   @X0Xt O O O O O O O O   O @ X O O X = X   # &X;X  U 9 , - - X @ @ : @ @ @ @ @ : : 9 9 7 0 7 : 7 7 7 7 7 7 7 7 7 0 7 0 7 9 0 0 7 7 : 0 7 7 0 7 7 7 7 7 7 : 7 : : 9 q 7 : : @ 2 2 2 2 2 O X @ @ @ @ @ @ @ @ @ X @ @ O X @ @ O @ @ X X @ @ @ @ @ @ @ @ @ @ @ @ @ @ @ @ @ @ @ @ @ @ 0 2 @ ; V U 7 2 : @ 3 + @ @ @ @ @ , M T q S p.L.D.Z.K.D.N.N.v.%.&.B.Z.D.N.U 0 7 3 y , : 1 1 @ X X X ",
"7 T B.g.0.d @ @ @ @ : @ @ @ @ @ 2 7 : : : 7 9 h M *.R.t.y.1 ] b , @ 0 q q M g - = : 7 j g g , : 0 R O Q.aXeXqXqX5X5X5X5X<X<X0X0XqXqX0X0X;X;X<X*X# O X X X @ @ @   } qXqX0X<X0X0XqX0X0X0X0X0X5X0X0XqXqXqX0X0X,.O 7 7 0 9 V C = @ 2 @ @ @ @ @ : 7 9 9 7 0 0 7 7 7 7 7 7 7 7 7 7 7 7 7 9 9 0 9 9 9 9 9 0 7 7 7 : 9 9 : 7 7 7 7 , m M 0 2 7 @ @ @ : 7 7 @ O X @ @ @ O O X @ @ O @ @ @ @ O O O O X O X X @ @ @ @ @ @ 2 @ @ @ X @ @ @ @ @ @ @ @ @ O X 2 5 @ g A H 2 2 # * s a = @ @ @ : , 9 ` j 0.d.S.%.) ) R ) ~ H 0 0 ` R R -.` q b 0 : C q 4 O O X X X ",
"9 ^ v.B.m , : @ @ : : : : : : : 7 7 9 9 9 0 N m [ Z.^.t.v H ` j > 8 0 M 0 U 9 b g h q  .S V h , 0 0 M ] *.8.d                 O O             @ @   X @ @ @ @ X : : X                                       @ : , : 9 9 X.M @ @ @ @ @ @ @ : : 9 9 7 9 9 9 7 7 7 : 7 7 7 7 7 7 7 : 9 9 9 0 9 q 9 9 M 9 0 7 0 7 q 0 7 7 : 7 : h  .q 7 7 7 @ 7 : 9 9 7 2 @ @ @ @ @ @ @ @ @ @ @ @ @ @ X X X O X X X X @ @ @ @ @ @ @ 2 2 @ @ @ @ @ @ O @ @ * $ X @ @ : @ e g ` 5 @ @ : f k v m 7 @ @ , , 0 M V i.V.v.R T 0 7 I T 0 7 b N q 7 b ' M q 5 5 : T H X @ X X X ",
"b q T T 0 : = : 7 7 @ : 7 : , 7 0 0 0 0 0 q ' A *.T.!.0., R ' b , 7 0 9 7 0 I [ 0.h U ] [ N j , 0 I N [ J.t.r.X X , : @ O O   O O X   & $   @ @ X X O @ @ X o # e < #   O X @ O   O O O O + o X X ; a i X X , h b 9 0 N #.7 @ @ X X = , , , 9 9 9 9 9 9 9 9 , 7 : : : : : 7 7 : , : 9 : 0 7 w , q 0 0 7 7 7 0 q 0 7 7 : : , n U 0 : : : : : : 0 0 0 2 @ @ @ @ @ @ @ @ @ @ @ @ O X X @ O X X X X @ @ @ @ @ O @ @ @ @ @ @ @ @ @ > > X o a a 8 @ @ = m d x @.5 9 7 : M @.R %.^ 5 X , : : 0.e.H.C.( T ` 9 0 5 2 7 9 x S ` , j ' U I 5 1   4 4   X X X @ ",
"9 7 : 7 7 7 9 , : : : 7 7 0 9 9 0 0 0 7 0 U ] ..:.T.l.c 0 ] ' 9 , 0 b , : 7 U -.V : 0 q ' A m j q @.A ' wXwXuXuXpXqX-X;X;X-X-X;X-XqX<X1X1X1X$X2.  @ @ X X = , B k o [.&XqX<X;X-X-X;X;X<X<X<XqX,XqX,X1X1X$XW.= n M 0 M [ q @ @ : @ = , 9 9 9 M 9 9 q M b b 9 9 9 9 9 9 : 7 7 7 w w 9 7 , k F 7.F 9 0 : 8 e B 8 7 7 7 7 : : M ` 0 2 # X # * u % 6 3 3 > : @ @ X > X X X @ @ O O X X X X X X X X @ @ @ @ @ @ > > @ @ @ @ @ X X = , 9 9 @ = N [ 0 @ @ q ` [ ~ 4 2 H 4 2 4 G H H 5 = b 0 j 0.s.N.v.~ ` ..] L 2 @ @ 7 j i.=.A m T H 4 @ @ X O O O O O X O ",
", 2 2 9 9 U 0 b , , : 0 0 q 0 7 0 7 7 7 7 I @...:.E.t.g T ] b 7 9 q b : 7 , [ ' - 2 7 T R ] M b M 7 +XaX].g.S o.n # # # X # O O @ ` { f ; > t OXfX@ @ 7 7 9 ` U A.gX}.w @ @ > ; > # X 2 w Y @.T T / $.' C  XhX3.O 9 o.` @ 2 : : : : 7 0 0 0 9 9 q M N M M 9 0 , 9 b 9 9 7 9 b N n b 9 M n o.i.t.S 9 9 b j r.i.7 7 0 7 : 9  .X.m , 8 < < a F F F s s y , @ : , f , ; = X @ @ @ X X : @ @ X X X X @ @ @ @ : : 7 7 @ @ @ @ @ @ @ 2 0 5 5 2 5 L L 2 X 2 I q 5 1 O O O @ @ O @ @ 2 , j 0 m A M.v.! I V A ( 4 @ @ @ @ d S -.] U L 4 @ @ @ O   X X X O X @ ",
", 7 5 I 9 b U 0 , , 7 7 , : 7 7 7 7 : 7 7 0 @.O.Z.I.e.- @.A , 7 0 N h > : M  .m = @ 7 0 0 0 9 b : eX>XM E.!.Y.-.M : : 7 7 : 7 7 0 v.v.] ` : @ @   zX# 7 0 7 5 A.fXO 0 0 0 M  .m 9 7 2 2 5 G 5 7 q #.-.-.^ H   yXh.m ' 2 @ @ : , 9 7 7 7 7 7 0 9 q M ` ` q 9 0 b A A M 0 7 0 q U U U q q ] &.C.D.&.9 0 U ] V.K.0 0 0 0 : N [ ` ;.7 M M N  .O.=.X.B 2.o.U 2 : q A R ' ' @ 7 @ : : @ 7 5 @ = X @ @ @ @ @ @ 2 2 5 5 2 @ @ @ @ @ @ @ @ 2 @ @ @ @ @ @ @ X 7 0 5 O X X O @ O O X X = : 9 0 9 T ^ I L 2 , T Q 2 X X X - l m ^ T H 5 1 @ @ O X X X X X @ X @ ",
"7 : 7 T U b b 9 7 7 , j a < : 7 7 : : 7 7 0 [ =.Z.p.v 0 #.V = 7 0 q 9 : q ` A j = 7 : : b b n { F.eXM *.E.g.~.b 7 , : : @ @ 2 2 0 I 0 ' 9 @ @ X X   fX  , ,   jX  9 : 7 7 0 I 7 2 @ @ @ X = , N  .' I H 5 2 7   aXn 7 @ X = , M 0 @ @ @ : : 7 9 9 q q 0 7 7 7 N O.{ 0 7 : 7 , 9 0 b m 9 9 U ^ ^ U 9 9 0 I ^ ( 0 7 7 7 : N ' T ~ 0 0 I I T ) v.( >.[ m.T 2 2 0 $.L H L H 2 2 2 1 1 2 2 2 @ @ @ @ @ @ @ @ @ @ @ 2 @ @ @ @ @ @ @ @ @ @ @ X X @ @ @ @ = : 9 2 O O O X O O X X X = : : b M U q { 7 2 2 5 2 : @ X - d g U L 5 5 1 O X X @ @ @ X X X O X X ",
"7 : , U R q 9 9 : 0 S w.0., : 9 9 7 7 7 0 U #.=.E.r.F L #.d = 7 0 0 9 9 q ` A b : 7 b A N N q O iXO -.*.E.!.p.m j j h - , = @ @ 2 7 M n , @ @ = , ,  Xh.j , @X,.7 2 2 2 2 2 @ @ @ X X : 9 n N ` 0 5 2 @ @ @ @ n +.4XO : h 0.r.c d d f - - = : 9 , 9 9 9 7 : , N ' q 7 7 7 7 : , b m Z m b m m m m b 9 0 0 7 7 7 7 7 7 : N N 7 7 : 7 2 2 2 2 5 M X.n.Q 2 @ @ 7 R L @ 2 O @ @ O O O O @ @ @ @ @ @ @ @ @ @ @ X @ @ : @ @ @ @ @ @ X @ @ @ X X X @ @ @ = , 9 2 O O X X O X X X > k g j b [ o.q $.` 2 2 7 : , , , = , b U 5 2 1 O   X @ @ O @ @ @ @ X X + ",
"0 0 b N q 7 0 9 b @.Z.t.z g h e @ 9 7 9 q ` #.K.!.w.f ^ M = , : 0 M b n 9 ' V , 9 9 ` ` 7 7 7 X -X2 @.[ T.^.i.M 0 9 , , h f , X X m ' 0 : : 9 9 b b n qX@ O 0X  @ @ @ @ @ @ X @ X - n b M 9 7 2 @ X : @ X = , ' O 0X  : =.I.l.t.t.t.w.9.z l c r.r.f , : - < < 0 0 0 @ : : , 9 9 A A  .m V e.S ..A V m b 9 9 9 7 : : 7 : N [ : 7 7 0 : 7 2 : , q @.~ 0 @ @ @ : I 5 @ 2 O O O O O O X @ @ @ @ @ @ @ @ @ @ @ @ @ @ @ @ @ @ @ @ @ @ @ @ @ X X @ @ @ = , b M 0 O X   . a X = = < v 0.A ] #.#.Q I ^ T 7 : 0 9 n q 5 7 b q 2 2 O O O X @ @ X @ @ @ @ @ @ o ",
"0 0 M b 9 9 0 q M ] %.` V 0.9.v s X 9 0 M ' @.E.l.0.7 ' x , : 7 q N m 9 N i.S , : 0 0 7 : : : B oX4 ] [ N.I.r., 0 7 7 7 9 m d d m i.b 7 : : , 9 q q 2 -X    ;X  @ @ @ @ @ : - - j M ` 0 5 2 @ : @ = = : : , ' ] O <X@ n B.S.T.T.U.I.g.p.p.i.p.j.j.t.0.x 0.y.y.F F B ; ; : - = , b ' ` M A ..O.O.....A A M 9 , : : : : : b ` : 9 , , - , : : 9 I L 5 7 7 @ @ @ 7 7 2 1 X X @ X X X @ @ @ @ @ @ @ @ @ @ @ @ @ : @ @ @ @ @ @ @ @ @ @ @ @ X X X @ X = j N ' 7 O X X X v r.j > F 9.g.N.) ] ^ I b 0 5 0 b q 0 9 H 5 = - I 2 @ @ O O @ @ @ @ @ @ @ @ : @ < ",
"0 M m q 0 M q I 0 9 b R m.p.w.q.v y 7 q { ' %.(.p.y.I i.c = : 7 ` ..V N =.i.j : 7 7 7 , = : : B oX2 ` ` N.g.r.> , , 9 7 0 ' Z A ;.' , , , h b 9 0 7 O =X    ;X  @ @ @ = - h m n q 0 5 2 @ @ = = : : : , , ` ] U   -X, p.=.R n.M.N.K.E.!.!.g.U.R.R.g.s.i.g.j.j.w.r.r.v v l v F F k , < k n ' X.X.......' 0 7 , , , , 7 : b N 9 , - h h x m , 7 0 0 2 7 7 @ @ @ 2 7 @ X X @ @ X = = = = @ @ @ @ @ : : = : : @ @ @ @ @ : @ @ @ @ @ @ X X X X X = = - j N ' 0 @ = = , - i.-.| r.w.L.v.T U R A m I 0 9 b M 0 5 5 @ = , H 2 @ @ @ @ @ X X @ @ @ @ = > : k ",
"I U m q R M , 0 0 I 0 M N.Z.g.w.q.n 0 U ` ' C.^.k.F %.i.d : : U s.s.N ' *.A , : 7 : : 7 9 b , B oX2  ...V.!.e.b 0 9 , X n ' [ U 2 0 9 b j A N b , = X -X    ;X  X = , h e.n q 0 2 :         , , : , M 7 q ` 0 0 X -XV ~.X.q @.] #.m.D./.R.I.U.U.I.f.*.-.Z.(.(.R.I.f.i.e.0.w.w.r.w.9.y.x.x.y.2.} B N M q 9 9 , 9 9 9 7 , b X., j c 0.e.e.A b : 2 2 7 7 2 : : : @ 2 @ @ X X X : d h , , : @ : X @ , h d h : X : , - - , , = X = X = = = = = - = d l V N [ T : , , = 7 0 ) V w.!.T.N.N q  .e.[ ~ 9 b M I 0 2 2 X d 9 5 @ @ @ @ @ @ X X @ @ X @ @ : @ j ",
"0 U M q T 0 : 7 7 I T q ] N.D.g.8.j U U ` #.T.!.z.b N...- , N :.*.` 0 ` o.b = : : , , : b m j r.+X' s.O.Z.I.i.b 7 2 2.kXm ' 2 5.uX  0 q U ` 9 b b V - =X    ;X  , h 9 ` f.9 2 : :   iXGXFXfXX 9 7 0 7 9 U 0 0 9 X -Xs.E.` U M m ` @.&.N.D.Z.T.U.l.p.p.D W.A.A.Y.Y.Y.>.;.P.J.^.!.l.j.j.u.t.r.y.y.y.r.j b , , h     9 : , m X.b Z e.e.i...X.N j , , , : 2 : : @ @ @ @ @ X X v d , n m b , = = m , , j c x h , = - V j , 9 : @ : @ : : : , - , 9 , x  .' [ T @ = : : @ X @ x u.E.D.d.i.' N ' ( T 0 M ] R q 7 2 = k 9 0 X @ @ @ @ @ @ @ @ @ X @ @ @ 7 l ",
"7 0 7 0 I 7 7 7 , , q T M @.M.#.N 9 9 ` { %.(.l.y.` #.b 9 N  .U I : : [  .h - - d j V S o.'  .+.+XR $.' N.I.t.z f = Q.IX@ :   OXHX  9 9 5 2 0 0 U #., <X    <X  M U 0 ( ] : : :   zXSXW.W.BXAX  7 7 9 N 0 7 7 ,   <XJ.V.9 9 Z i.' M ` ] ] ^ M.D.E.E.f.i.a.i.a.Y.Y.h.h.3.W.P.Z.T.T.L.R.^.^.^.!.l.j.j.t.V x z l aXIX8 < k k D f m ' =.*.O... .N 7 9 o.0 : @ @ : : X @ : : X e.o.@ q N m M : : 0 T 7 b m A N 9 : 9 N N b 0 0 @ @ @ : : : : : , ; ; D >.A M R = f g g d d d 8.p.D.N.[ B.n.R R T 7 0 0 T R M N 0 X - o.q O @ @ @ @ X @ @ @ @ X X @ X = 8.",
"7 7 9 9 0 2 7 7 0 9 9 I I q ' M M 0 N S  .N.^.l.C X. .m U M , : , , N i.e.8.Z Z V N ' [ ` U R >.OX5 ` [ N.R.j.w.Z m Q.IXO : X oXHX  7 @ @ 7 7 2 5 I @ -X  X 0XO 0 7 7 I 0 : : ,   IXB @ @ 2 IX+ : 7  .q 7 : 7 9 X eXI.O.N m d.*.` M ` M M q U #.N.B.&.Y.U.I.I.U.R.I.f.=.s.d.:.-.&.&.Z.T.K.D.T.T././.H.' A p.w.wXGXj y.y.y.x.x.y.y.F F B ` R 0 7 7 R 0 : = = = , = X X @ X q M.2 @ 0 q 0 7 @ 2 5 @ : 0 q 0 2 @ @ > e > # : = X = = - - d d z 9.q.w.t.u.t.i.Z 0.w.w.t.Z Z 0.d.v.R ' R R U q 7 2 7 7 0 0 0 U T 5 = b %.L X : @ @ X X X X X X X X O X c ",
"7 9 9 , , > : 7 0 0 9 9 0 0 ` N N ] -.i.e.T.!.i.A O.S j N N j V x N s.i.i...[ q w E 7 0 9 9 q +.OX: [ ..B.R.!.p.e., W.IX  : @ OXHX  : @ @ : : @ @ @ O -X    ;X  @ @ 0 7 , 7 : q X IX| 2 2 w IX> : ` ] 7 : 7 7 9 - wXU.[ [ =.Z.@.` q q N N b M M ' ] >.Q.H T ) ] d.^.J.B.N.&.@.#.' q @ I 2 I #.m.5 H %.]   ] E.*.  i.f.g.S e.8.q.k.r.r.r.e.j , : , 0 9 , : : = , , X @ @ > 2 5 @ @ 2 7 X X = X X X = X < F k ; - d v v z z c j h h j 0.0.t.t.u.j.g.!.!.R.V.-.X.f.Z.&.^ ] s.K.^ n 0.X.I 7 0 5 2 : 7 7 0 2 5 H 0 7 2 H H @ : 2 O X O X X X X O O + = d ",
"0 0 0 9 h ; , : 8 2 : , , 0 T U M %.N.=.g.R.l.e.X...e.e.i.......M #.:.s.` M b b B w 9 9 M N N +.+Xq &.O.U.^.^.g.A , W.IX  : @ OXGX  : @ @ @ @ @ @ @ O -X    ;X  @ @ : @ 7 7 0 I @ IX,.@ @ w IXt 9 ` U 7 : 7 7 : b wXV.T ^ m.@.M ' ' M U U q N ' N M 5.>.AXFXFXAXAXL.J.O.O.' M m X *XHXIXJXOX@ X NX*XX   VX+XT XXCXH C.@.VXIXPXcXU.!.l.j.j.t.l x x , , , , ; < k = X X X X ; ; = X X - k k g d = = d d c 0.9.0.c l 8.0.0.Z V m 9 9 b ' X.&.#.J.U.D.D.T.D.M.~ R @.b.! I b e.B.T Z t.P.( 5 2 2 : 7 7 7 5 2 @ @ X 2 2 @ 2 @ : 2 O O O @ O X O O O X - g ",
"0 0 U b j h h k < y 0 9 b b q q U R %.N.D.E.g.i.=.s.s.s...' ` q q @.=.S n M ` [ N h M M M ] ` +.+X: { J.).).K.=.M @ W.IX  7 O oXGX  @ @ @ @ @ X @ @ O -X    ;X  @ @ : 7 7 2 2 2 O IX,.@ @ w IXB ' q 7 : @ : 7 = i.wXU I q R T U R ` N 9 0 U ` [ ' N W.;.W.Q.3.AXVXc.M.#.X.A Z 0.z ,Xh.B <XIX8 : W.IXX $XIXO 2 oXLX  O nXAXA.].4XM.D.T.T.T.=.m x V j - d l z r.y.c - = = d l c c d = d 0.0.0.c d , h j j V S N 9 : , 9 0 7 2 0 0 7 0 U H H 0 ..g.m.T ] N.^ 0 7 5 H H : h O.N.R Z f.M.! 5 @ @ @ : 7 5 2 @ @ @ @ @ 2 @ @ X @ 2 2 O O O O O O X     = j ",
"9 0 U ] ` ' N m h > I T 0 9 b N 0 U ] %.b.Z.=.=.f.d.=.' M N b N ' X.s...M ` ^ R q b M ` 9 ` [ >.+X0.g.(.T.-.) ` , X 3.IX  @ O oXGX  @ @ @ X 2 X @ @ O -X    ;X  @ @ 7 7 : 7 @ @ O IX,.@ @ 8 IX{ q 7 7 : : : , Z g.eX2 9 N ` 0 U q T U 9 q q U ] ] [ Q.$.0 : | IXw Y 5 O 4 4 , p.j.q.9.g > IXD k = GXuXLX}.X - .XLX= X JX>Xc e.Z i.i.p.i...S e.0.S m g 0.9.0.t.u.t.j , - d x Z V , : , 9 b 9 7 @ @ 2 7 2 2 2 2 2 2 @ @ @ : 7 7 I 0 7 M 0 : = 9.p.m.N V ] T 5 0 2 2 2 @ , [ C.U 9 ) c.H 1 X X X : 0 2 2 2 @ @ @ @ @ @ O X X @ @ X O O O O     . ; = : ",
"9 0 U U R @.] ` b 9 0 0 0 q N b b R ] U %.-.@.m.:.O.' M N A S ..=.d.d. .q M q q q q q b ..X.N a.wXj.U.C.[ m ` q , X 2.IX  @ X |.HX  @ @ @ = X < O : O -X    ;X  X @ 2 7 : : : : O IX} @ @ > IXw 7 7 : 7 : : , I.U.qX> 9 d.U 0 q 9 9 q q 0 0 q ` ` =.U.#.q   GXiX= X iXIXIXIXIX]./.s.~.>X>XIXr.w.w.z.IXDXX 0.9.>XLX8.8.VXDX>X~.8.p.t.j.p.Z x e.Z N b , m N M M ' ` 9 : : 7 7 7 2 2 : : : 2 2 2 @ @ : : : : 7 7 7 7 : : : 7 : 7 0 7 7 9 U 7 ; 9.L.v.N i.^ L 5 @ @ 2 @ , m N ^ U 0 H 4 O O X X @ : 0 2 2 @ X - , @ @ @ @ O X @ @ @ @ O O X     & k c - ",
"9 0 q q U U U 0 0 7 : : 9 ` ` q N M N q ] [ ] @.@.M M ` [ X.=.=.-.:.X.M b q b q q q ` [ =. .p.~.wXK.^ [ N m q ` j = r IX#     pXBX  @ @ @ @ , k X @ O -X    ;X  @ @ , 9 7 7 7 :   LX[.    2.IXO 0 9 7 7 : :  .^.d.-X: ..H.0 9 0 0 9 q 9 0 0 0 q ` =.E.U @  XIX  i.Z n | B B | ^ K VXPXnXmXIX!.!.!.g.IXvX= s.g.wXLXX.J.Y.VXKXIXVX@.-.D.Z.` 9 0 0 0 7 7 7 7 0 0 0 7 7 7 : : 2 7 7 7 : 7 @ : : : : 2 2 2 7 : 7 : : @ : : 7 7 : : 0 , 9 0 U 7 v t.C.~ N f.^ 5 @ : : @ : , b ` 5 5 5 5 O X X X @ @ 7 2 2 2 @ = d 9 2 X @ @ @ @ @ @ O O O   X     < z 8.h ",
"0 9 q q 9 , , 0 0 0 0 0 I I 0 I U N V ` [ ' N ' ` { ` ` ] @.@.*.*.X.N 9 N N N M M M [ [ O.g.!.`.3X7 U ` N b 0 A c X   jXIXGXJXIX} @ @ @ @ 2 ` , X @ O -X    ;X  @ 2 n : @ 7 : : O }.IXSXSXIX-XO 0 0 7 9 9 7 J.).X.<X9 I.X.9 0 0 0 7 0 0 7 : : 0 U &.Z.0 X IX Xm &.@.` N h - , : } IXY K ~ IXA.D.v.mXAXIXF.] %.3XLXK ) v.K H F.IXY U ] U 7 : 7 7 : : : : : 7 7 7 @ @ 2 2 @ @ 2 @ @ 2 2 @ @ @ @ @ @ @ 2 @ : : : 2 2 : : 2 7 : 7 : V ' 0 0 9 8.j.N.L b *.( 5 @ X : , : 2 5 I 2 2 @ 2 @ O O X @ @ 7 7 @ @ @ = j q 5 O O X @ O @ O O O O     O   < 8.c q ",
"9 9 9 q 9 b , , , 7 7 0 0 7 7 0 ]  .N '  .` X.' [ N M U U R ] ..X...N ` ' ' M N ` ` ' i.!.).T.>.+X@ 7 ' m - A g.j = 7   } [.5.o X : @ @ @ 5 I @ @ @ O -X    ;X  @ 7 T 2 : : : @ :   > W.}.w   9 7 7 0 0 0 9 L.(.0 <XM U.U 9 0 0 : 7 7 7 : : 7 0 9 #.%.O jXMX  9 O R T R 9 A A , w IXw O | IXY ~ / IXY pXGX  2 OXLX  0     O | IX8 9 q 7 : 7 2 2 2 2 2 @ : 7 : : @ @ @ @ @ @ @ @ @ @ @ @ @ @ @ @ @ @ @ @ @ @ @ @ @ @ : @ 7 7 7 , S :.T 5 = e.I.b.0 b ` T @ X = , 7 2 1 4 4 @ @ X @ @ X X X X @ : b n @ X = h I 4 O O X O X X @ O   O   O O X - z m 0 ",
"b M M M N m m m , 7 7 : : 7 7 I ] ' R [ N ^ %.@.@.` M q 9 U [ O.X.X.' ] ] ` ` M N S g.).(.-.0 | OX@ *. .x i.I.#.: : @ @ @ O X @ @ @ @ @ @ 2 2 @ @ @ X -X    ;X  @ 2 2 2 : : : @ 7 7 = N : @ 7 7 7 7 7 7 7 M E.Z.O -XX.-.7 9 9 7 7 7 0 7 : : 7 7 0 ] U w IXIXPXPXIX@ q  .' @.^ :   DXLXMXIXIX}   HXzX  O IX@X  $XIX    AXGXMXIXkX  9 0 7 7 @ 7 7 @ @ @ @ @ @ 2 @ @ @ @ @ @ @ @ @ @ @ @ @ @ @ @ @ @ @ @ @ @ @ @ @ @ @ @ : : : : 9 R M.( @ f 0.H.v.2 , I 5 : , , : : 2 1 O O O X @ @ @ X > @ @ @ 2 7 Y H O = , 5 4 @ X X O X @ 1 O   O   O   X - l 9 2 ",
"N M q ` ' A j h - , : 7 7 7 0 T ` q U q 0 R R U U U M M q ` #.[ =.[ U M ' ' 9 V t.l.E.C.] 0 , B OXM *.' d.K.] 2 : @ @ @ @ X @ @ @ @ @ @ X @ @ X X @ O -X    ;X  @ @ @ @ : @ : @ @ : N ` @ @ 7 7 : : : 7 @ d.E.] @ *X=.q 9 9 0 7 7 7 7 @ @ @ : 7 7 U 0 : | } | | | I I [ i.' ` m , @ +XoX# 8 9 9 3.O 7 @ t ,.2 w } : , X W.$XQ.O 0 7 7 : 7 : : : @ @ @ @ @ @ @ @ @ @ @ @ @ @ @ @ @ @ @ @ @ @ @ @ @ @ @ @ @ @ @ @ @ @ @ : : : 7 0 I T L = c t.V.! @ , 0 7 , , 7 5 : @ 1 O   X X @ @ @ @ 2 2 @ @ 2 2 4 H 2 : : 5 1 X @ O O   X 2 O   O       o - d 7 2 ",
"q M ` ] [ ' N b h h , : : , 7 q b q M 9 0 0 0 9 q R ` q U ] #.[ ' M q '  .m y.p.^.E.] 0 9 9 9 B *X0 @.m.%.U 7 : : @ @ @ @ @ @ @ @ @ @ @ @ @ @ X @ @ o -X    <X  @ @ @ @ @ @ : @ = V ' 2 @ 7 7 : : : : 7 7 E.D.q X eX[ 9 0 0 0 7 @ 7 : @ @ : : 7 7 0 : : @ X @ : 9 0 5 L ( U ' e.Z @.U @ 7 @ 7 9 7 2 2 2 7 7 7 7 7 : : : = X U I 2 : : : : : : @ @ @ @ @ @ @ @ @ @ @ @ @ @ @ @ @ @ @ @ @ @ @ @ @ @ @ @ @ @ @ @ @ @ @ @ : : 7 9 0 0 7 : = 9.j.N.H , n 0 @ , 9 5 2 7 2 O O       X @ @ O O 2 @ @ 2 1 O O X : 2 4 O O O X O X = 2 ; = O     + o - = 2 2 ",
"y r q [ [ ' N b b h h , , 7 9 N m b 9 , 9 b 9 q q U q q R ] ] ] N N { ' S p.l.).K.U 0 , - b b X uX9 @.T 0 9 : : : @ @ @ @ @ @ @ @ @ @ @ @ @ @ X @ @ } @XO   ;X+ @ @ @ : @ @ 2 = m o.0 @ @ 7 7 : : : 7 : [ T.^ q   aX@ q 0 7 9 : : 7 : @ @ : : : 7 0 : 7 : : @ 2 5 5 @ @ 5 5 H ) #.` N 9 : 2 0 0 : : @ @ @ : 7 0 0 0 7 7 9 9 ` 7 @ : : : : : @ @ @ @ @ @ @ @ @ @ @ @ @ @ @ @ @ @ @ @ @ @ @ @ @ @ @ @ @ @ @ @ @ @ @ @ @ 7 @ 0 q 0 9 9 : - q.g.b.5 - N U @ @ 0 H @ 2 2 O O O O   O O O O O O @ @ @ O O O X , 2 1   O @ X @ O @ 2 7 9 2 O   . = - : @ @ ",
"r.F s w M ' N M N m h h , 9 M A m m 7 7 q b 9 9 q 9 b M R ] ` ' ' ' N ..!.).(.&.q 9 = h A b 9 ..wX$.0 : 9 9 : : @ @ @ X @ @ @ @ @ @ @ X @ X @ @ @   yXe @ @ 3.|.O @ @ @ : : @ , O.q @ @ @ : : : : : 7 , I.C.T 0 Q.+Xq M 0 0 0 7 7 9 : @ @ : : 7 9 7 0 7 : 2 2 2 @ @ @ @ X @ @ H L H ` 9 @ 2 2 7 X : X > : 7 : 7 7 7 7 7 0 U ' : @ : : : @ @ @ @ @ @ @ @ @ @ : @ @ @ @ @ @ @ @ @ @ @ @ @ @ @ @ @ @ @ @ @ @ @ @ @ @ @ : 7 : 0 T 0 7 9 7 - 0.K.( @ = 0 I @ @ 4 2 X @ O X X O X X     O O   O X @ @ @ @ X : , 0 , - X X O X X X 1 2 5 H O . & = - 7 @ @ ",
"w.q.y.1.y b N N N m m j b U [ o.N b 7 U U 0 9 q q M N N U U ` [ N V p.^.).T.] 9 9 , C s.m A *.m.@ hX  7 : , : X @ @ @ X @ @ @ @ @ @ @ X @ @ @ @   5.$X  @ @   iXr X : : : @ = o.] 2 @ @ @ : : : : : : ..E.@.0 @ lXO ` q 7 7 0 0 0 0 7 : @ : 7 : 9 7 0 7 : 2 @ : @ @ @ @ X X @ @ @ 2 0 6 % . O s a : 7 0 7 7 7 7 7 7 2 @ 2 0  .9 @ @ : : @ @ @ @ @ @ @ @ @ @ : @ @ @ @ @ @ @ @ @ @ @ @ @ @ @ @ @ @ @ @ @ @ @ @ @ @ @ @ 7 : 7 0 7 : 0 3 d i.M.L = 7 5 0 : @ O X O O O O   O O         @ X   X @ @ @ @ X = , 0 , D , O O @ @ @ X X : O O & < - - 2 @ @ ",
"p.w.w.r.D 2.B M X.' ` M M ] [ ' ' , 9 q 0 9 9 M U ` N b b ` [ N i.l.^.T.%.U , 7 , ..d. .a.O.R H 7 y kXy   : : X X X X X X X X X X X X X @ @     }.uX  @ @ @ @   hX5.  = = h N q 2 @ @ @ @ @ @ @ : : , g.J.O 2.lX2 U U 0 7 0 0 9 7 0 7 : @ : 0 9 q 0 7 7 7 = @ @ @ @ @ @ @ X X X @ : < s a & @ f j 7 7 0 2 2 : : : @ @ : @ : ' 9 @ 2 : : @ @ @ @ @ @ @ @ @ @ @ @ @ @ @ @ @ @ @ @ @ @ @ @ @ @ @ @ @ @ @ @ @ @ @ @ @ @ @ 7 : 7 7 7 : 7 < v ..v.H , 0 2 : 7 @ X = @ O O O O O O O O       + & O @ X @ @ X - , 5 2 , R H @ @ O X X - h :   < f c , 2 @ @ ",
"T.l.u.w.w.r.x.<.M ' ' U M ] '  .b 7 0 9 9 9 M M q ` b A ' M  .i.!.^.m.U q , d Z  .&.=.g.X.0 2 7 7 @ X 0X0XOXoXoXoXoXoXoXoXoXoXoXoXoXoXoXoXoX@XuX{.  > @ @ @ @ >   oXiX$X+X>X+XoXoXoXoXoXoXoXoXOXOXoX+XwXeXqX*X  U U 0 0 7 0 q 9 9 0 7 : : @ 7 0 q 7 7 : : @ @ @ X o o X @ X > ; = : n v r.j : $.R 2 2 2 2 @ : : @ @ @ @ @ X N b = @ : : @ @ @ @ @ @ @ @ @ @ @ @ @ @ @ @ @ @ @ @ @ @ @ @ @ @ @ @ @ @ @ @ @ @ @ @ @ @ : 7 7 7 7 : 9 : k 9.=.Q @ : 5 2 2 5 1 X : 2 O   O O O O O O       o < - X X @ + X h 7 4 O @ G 4 @ @ @ X : - j 9 @ k 8.8.9 2 @ @ ",
"D.D.U.j.u.w.w.y.x.F B M M ` [  ., 0 q , 9 M ` M q M O.O.V e.g.E./.@.0 9 , V e... .:.V.@.0 : : 7 : @ : O   ,.2.,.,.,.,.,.,.,.,.,.,.,.,.,.,.,.8 O L @ X @ @ @ @ @ @ @   >.F.3.,.,.,.,.,.,.2.2.2.2.2.2.~.`.>.  : ' M 0 0 7 0 0 q 0 9 0 0 7 , 7 : F r : 7 : = 7 @ @ > < ; o X @ j d , 2 ` #.m.R 2 ~ T 2 @ @ @ @ : : @ @ @ @ @ X h ' 0 @ : : : @ 2 @ @ @ @ @ @ @ @ @ @ 2 @ @ @ @ @ @ @ @ @ @ @ @ @ @ @ @ @ @ @ @ @ @ @ @ @ : 7 7 0 7 0 < k t.Z.T - , 5 2 2 4 O X 7 H O   O O O X O       X = g r.j @ X & < , 5 4 O @ O O O @ @ @ @ , j q 7 g 8.c 0 2 @ @ ",
":.C.D./.I.j.u.w.r.x.F n N ..O.j , 9 q b M ` N b ' :.=.S p.!.E.%.R 9 : , S s.X...f.#.T 0 7 : 7 7 = @ : : : : : @ @ @ @ @ @ @ @ @ @ @ @ @ @ @ @ 2 2 @ @ @ @ @ X = f 9 0 I I 5 @ : 7 , : 0 7 7 9 9 9 ..^.E.U q N o.M 9 7 : 7 0 U 0 7 0 7 7 : 0 : F n , , 7 , j d , , h , , @ @ Y q 2 2 I ! ! K @ 2 2 : @ @ @ @ @ @ @ @ @ @ @ @ 7 ] ~ @ : : : @ 2 @ @ @ : @ @ @ @ @ @ 2 @ @ @ @ @ @ @ @ @ @ @ @ @ @ @ @ @ @ @ @ @ @ @ @ : : 7 7 0 9 7 s v p.S.L j N 0 2 2 O X X 2 4 O O O X O X O       = : , O.$.5 X X f c 7 2 @ @ @ X @ X @ X @ , h q 2 - 0.V 0 2 @ @ ",
"i.=.B.D.D.E.l.j.u.w.r.' A i.S 9 9 b M ` ` M N ' *.X.s.I.^.E.[ 0 9 9 m O.=.X.f.P.^ 5 : : : : 7 7 : : @ : : : : @ @ @ @ @ @ @ @ @ @ @ @ @ @ @ @ @ @ X @ @ @ = h C m 7 5 5 : : : : : 7 7 : 7 7 9 9 9 d.).V.q q f.X.0 0 9 , 7 0 0 e 6 7 7 2 7 : 0 o.M , b 7 :  .' 0 0 0 0 2 @ 2 L L @ X 2 2 2 @ @ X @ @ @ @ @ @ @ @ @ @ @ @ : @ 7 q 5 @ : : : @ 2 @ @ @ : @ @ @ @ @ 2 2 2 @ @ @ @ @ @ @ @ @ @ @ @ @ @ @ @ @ @ : @ @ @ : : : 7 7 0 b 7 7.r.g.v.H b ] H 2 2 X X @ 1 O O O O X X O O     O   2 5 I ! H @ X g S T 4 X @ @ @ O X @ X X , , 0 2 - g 9 5 @ @ @ ",
" .A  .-.N.S./.^.l.t.t.i.f.S j , ` ' U q M M ` ` o.f.^.E.C.[ 9 7 , A =.X.O.P.-.I 7 7 : : 7 7 @ @ @ @ @ @ : : : @ @ @ @ X X X @ @ X @ @ @ @ @ X : @ @ @ X = , N M 2 @ @ : : : : : : 7 7 : 7 0 0 9 M E.E.` q ] Z.` 0 0 7 9 9 7 7 B F @ 7 @ 7 7 0 N.I 7 0 7 2 ) ^ 5 5 5 2 @ @ @ @ @ @ @ @ @ @ X @ @ @ @ @ @ @ @ : @ @ @ @ @ @ X , M @ @ : : @ @ @ @ 2 @ @ @ : @ @ @ @ 2 2 @ @ @ @ @ @ @ @ @ @ @ @ @ @ @ @ @ : 2 2 @ @ 7 : 7 7 0 0 ` q y.u.E.( : , T H 2 @ X @ @ @ O       O X X O   O O   O O @ 4 5 @ = f ` c.4 # O O @ @ X X X = - h # 8 d - 7 2 @ @ @ ",
"#.[ A ..*.N.S.T.E.g.p.j.t.e.C <.n q 9 9 N N B h.g.^.D.@.' j , j ' =.=.f.H.^ 0 0 : : : : : 7 7 @ @ @ @ @ : , : @ @ @ X @ @ @ @ @ @ @ @ @ @ X @ X @ X - , 9 0 0 2 @ @ @ @ @ : : @ 7 7 : : 2 7 0 , ..^.Z.q q ] *.M 9 9 9 0 0 2 0 N A : @ @ 7 2 0 ^ 0 0 7 2 2 ~ H 2 @ @ @ @ @ @ @ @ X @ @ @ @ X @ @ @ @ @ @ @ @ @ @ @ @ @ @ @ X , ` 2 X : : @ @ @ @ 2 @ @ @ @ @ @ @ @ @ @ @ @ 2 @ @ : : @ @ @ @ @ @ @ @ @ 7 7 : : : 7 : 7 7 0 0 9 q w r.j.(.( j b H 2 @ X X @ @ O O       O X X X O O       O @ @ @ @ @ , 0 L 7 = h = X X @ X X - g x ; k l , 2 @ @ @ @ ",
"#.%.*...' ] N.D.N.S.T.g.t.w.t.r.n 9 N X.A Z k.!.E.&.U ' A j S S [ i.J.B.I 0 7 : : : : : : 7 @ O o @ @ : @ X X X @ @ @ @ @ @ X @ @ @ @ @ @ X @ @ = d n e 2 2 @ @ @ @ @ : : : @ @ @ @ e > @ : 7 d g.E.#.M q f.[ M b b 9 0 0 7 0 ) ( 2 : @ @ @ 7 0 : 7 : : : 2 2 7 @ @ @ @ @ X @ @ X @ @ X @ @ @ X @ @ @ @ @ @ @ @ @ @ @ @ @ X , ` @ X : : @ @ @ @ @ @ @ @ @ @ @ @ @ @ @ 2 @ 2 @ @ @ @ @ @ @ : @ @ @ @ 7 7 7 7 7 7 7 : 7 7 9 9 9 0 n 0.!./.~ V N H 2 @ @ X @ @ X X O O O   X X X O O         X X X @ @ : 2 0 , , V +.@ X @ @ @ - 8.0.C c 8.b 2 @ @ @ @ ",
"] #.-.X.b M [ O.O.m.S.T.U.j.u.w.c N #. .p.!.^.L.] q ` X.S S O...g.g.-.7 : : : : : 7 7 : : , ; < < @ @ @ ; < > @ @ @ @ X X ; X X X X @ X X @ : - b N y s * X > X @ : : : : : : : : 9 ; : : 9 9 e.!.L.] M X.d.@.U ` M 0 0 7 7 0 H H @ @ @ @ @ > 7 : 7 : : : 7 7 7 @ @ @ X X @ X X X X @ X @ @ @ @ @ @ @ @ @ @ @ @ @ @ @ @ @ X = ' 7 @ : @ @ @ @ @ @ @ @ @ @ @ @ @ @ @ 2 2 @ 2 @ @ @ @ @ @ @ @ @ @ @ @ 7 7 : : @ @ 7 7 7 7 9 9 0 : v w.!.D.U Z $.H @ @ X @ @ @ X X O X     X X O     O     X X X X @ @ @ 2 2 @ 4 2 T L @ X @ @ - z e.i.0.0.q 2 @ @ @ @ ",
"^ @.X.Z S O.X.A Z O.B.D.S.T.J.e.e.i.O.I.^.).Z.' N 9 ' a.s.*.f.I.d.g.V 7 9 7 : : : 7 : : , , f f ; @ : , h h = X : : : : , , @ : : : : X X - j b M N x f - , , , : : : : 7 7 : : 9 M b 9 , q N !.^.=.` ` B.@.R U U U 0 7 : : 7 7 : : @ : @ & s 8 7 7 : : 7 9 : 7 2 @ @ X = @ X X X X @ @ @ @ @ @ @ @ @ @ @ @ @ @ @ @ @ @ X = - N 7 @ : : 2 @ @ @ @ @ @ @ @ @ @ @ @ @ 2 2 @ 2 @ @ @ @ @ @ @ @ @ @ @ @ 7 7 @ : : @ 7 : : 7 9 7 9 , v w.^.S.q o.v.H X @ X X @ O X X X X O   O O O           X X @ @ @ : @ 1 @ X O O 4 H 2 @ @ @ = g ....e.e.U 2 @ @ @ @ ",
"~ ( ] A e.i.:.#.[ ..=.*.n.v.v.m.=.O.U.(.T.m.] ` 9 N f.=.#.P.K.v.N.O., 7 7 7 7 7 7 7 7 7 0 0 q 9 : @ 2 0 q 9 : @ @ @ @ 7 9 7 @ @ @ @ @ , , 9 0 5 I R ` 0 7 7 7 7 : : 7 7 : : 7 7 I I q 0 7 0 ' ^.E.] ` U %.I 0 0 0 0 0 7 7 @ 7 7 2 2 : , : a 7.X : : 7 : 0 0 7 2 @ @ X @ = : X X X @ @ @ @ @ @ @ @ @ @ @ @ @ @ @ @ @ @ @ X - j N 7 @ : @ 2 @ @ @ 2 @ @ @ @ @ @ @ @ @ 2 @ @ 2 @ @ @ @ @ @ @ @ @ @ @ @ @ @ @ 7 : : : : 7 7 9 9 , - r.u.E.v.0 ] Q 2 X X @ X X O O X X X O O O O O           X X @ @ = , : 2 O X X X O O @ @ @ @ = d V  .e...I 2 @ @ @ @ ",
"0 T ( ) =.S X.&.&.@.' V V  .@.v.v.N.D.m.R T 9 b ` :.=.X.B.M.T T v.I : 7 7 : 2 2 2 2 2 7 0 0 5 5 2 @ 2 5 0 2 @ @ @ @ 2 5 5 2 @ @ @ : , 9 0 5 5 5 H L L 5 2 @ @ @ @ @ 2 7 7 : 7 7 0 0 7 7 7 , f.^.-.` q ` U 2 0 9 9 0 7 7 7 @ : : @ @ @ 7 : F x.; : : 9 : 9 N 9 2 @ X @ @ 2 @ @ @ X @ X @ X X @ X @ X @ @ @ @ 7 @ @ @ @ @ X : ` q 7 @ 2 : @ @ @ @ @ @ @ @ @ @ @ @ @ @ 2 2 2 @ @ @ @ @ @ @ @ @ @ @ @ @ @ @ @ : : : : : : 7 9 9 9 , 9.j./.( b U 5 @ X X > > X O O X X X O O O                 O X X = h 7 2 O O O X X X @ O X @ X - j V 0.N 5 2 @ @ @ @ ",
": 7 T %.m.R q ' [ @.@.' Z Z V ` ( v.~ T 7 , Z  .] d.f.#.R I 7 0 I 7 : @ 7 : @ @ 2 2 2 7 7 2 2 @ @ @ @ 2 2 @ @ @ @ X @ 2 2 @ @ = h h q 5 2 2 @ @ 2 5 2 2 @ @ @ @ @ @ @ : : : : 7 7 7 7 0 7 b !.R.[ M M ' 0 7 9 9 9 7 7 7 : : : 7 @ @ @ 0 0 +.a.l , 9 9 7 U ;.0 @ @ X @ @ 2 @ @ @ @ @ @ @ X @ @ X @ X @ @ X @ 7 @ @ X @ @ @ 2 T M 9 @ : : @ @ @ @ @ @ @ @ @ @ @ @ @ @ 2 2 @ @ @ @ @ @ @ @ @ @ @ @ @ @ @ @ 7 7 7 2 : : : 9 9 b q f 9.j.T.^ n 0 2 X X @ @ 7 - = X X       O O X X   O O       O X X = , 0 1 X O O O @ @ @ X X X o = d j Z ` 5 2 @ @ @ @ ",
": 7 '  .q Q ~ U b b #.B.#.N A V 9 0 0 7 , e.i.' :.J.] 0 b , : : : : @ : @ : : @ @ @ 2 7 : @ @ @ @ @ @ @ : : @ @ @ @ @ @ @ @ - V m 0 2 @ @ @ @ X @ @ 7 : : @ @ @ @ : : : : 7 7 7 : 7 9 9 : s.^.J.' M o.{ 0 0 9 0 0 7 7 : : : : 7 @ @ @ 7 I Z.U..., 0 9 0 ^ ) 5 @ @ @ @ @ @ @ @ @ @ @ @ @ @ @ @ @ @ X @ @ X @ 7 @ @ @ @ @ X : 0 M M : : @ @ @ @ 2 @ @ @ @ @ @ @ @ @ @ 2 2 @ @ @ @ @ @ @ @ @ @ @ @ @ @ : : : 7 7 7 : 7 7 9 9 9 0 B q.!.D.^ b T 2 X X X @ @ , b X O O O     O X X X   O       O O X : 7 5 1 X X O X X @ X @ O . a f d , j 0 4 @ X @ @ @ ",
"7 0  .b : 7 T T R ] O.i.=.#.U : , j d b #.-.R #.Z.] 2 7 j h : @ : : @ : : : : @ @ @ 2 2 @ @ @ @ @ @ X @ : : @ @ @ @ @ X : 7 M q 2 @ @ @ @ @ @ @ @ 2 0 : = @ @ @ @ : : : : 7 7 : : 7 9 0 7 U.).[ ` U *.q 7 0 0 0 7 7 : : : : : 7 @ @ @ : 0 C.N.( , , 0 7 H H 2 @ @ @ @ @ @ @ X X X @ @ @ @ @ @ @ X @ @ @ @ @ 2 @ @ @ @ @ X @ 0 M M : : @ @ @ @ 2 2 2 2 2 @ @ @ @ @ @ @ @ @ @ @ @ @ @ @ @ @ @ @ @ @ @ @ 7 : : 7 7 7 7 7 9 9 9 7 v w.^.N.U q I @ X @ X X @ @ T 4 O   O O   X X   O O         O X X X 2 5 2 : = = X X X X O O $ a z z x j 7 @ @ @ @ @ @ ",
"7 ` N , : , 0 I T %.&. .N '  .` M 0.e.[ n.] ^ ) R 7 7 q j - @ : : : @ @ @ : : : @ @ @ @ @ @ @ @ @ @ X @ : : @ @ @ X - f , 2 5 2 @ X X X X @ @ @ @ 2 2 7 : @ @ @ @ : : : : 7 7 7 : 7 0 7 q (.K.] ` ` ] 0 7 0 0 7 : @ @ @ 7 : @ : @ @ @ 2 5 n.~ 5 9 9 7 7 2 @ @ @ @ @ @ @ X X X X X X X @ @ @ @ @ @ X @ @ @ @ @ @ @ @ @ @ @ @ 2 9 M @ @ @ @ @ 2 2 2 @ @ @ @ @ @ @ @ @ @ @ @ @ @ @ @ @ @ @ @ @ @ @ @ @ @ 7 @ : 7 7 7 7 7 0 9 9 > v p.E.v.N ` H @ @ @ @ O O X 1 G O   O O       O O O O       O X = = 2 4 @ : : , 9 @ O O O   % k 8.e.e.c 9 @ @ @ @ @ @ ",
"0 o.m 7 0 0 7 9 I @.&.( R A 0...&.d.' ] ' U R ` 0 7 7 0 j - = @ : : @ @ 2 : : : @ @ @ X @ @ @ @ @ @ @ @ : : X @ X , n b @ 2 @ @ X @ X X X @ @ @ @ 2 5 7 : @ @ @ @ : 9 , : : : @ 2 7 7 @ #./.@.` M o.q 7 0 0 0 2 2 @ @ 2 2 2 @ @ @ @ @ X 5 R 2 : q q 7 : 7 @ @ @ @ @ @ @ @ @ X X : X X @ @ @ @ @ @ X @ @ @ @ @ @ @ @ X @ @ @ @ b N @ @ @ @ @ 2 2 2 @ @ @ @ @ @ @ @ @ @ @ @ @ @ @ @ @ @ @ @ @ @ @ @ @ @ @ @ @ @ @ : : 7 0 7 9 > 0.p.T.( V { 5 @ X O X O O X O O O O     O     O O O       O X X - h @ @ @ @ @ @ 0 2 @ O O   & l 8.i.i.Z 0 @ @ @ @ @ @ ",
"{ N : 7 5 2 7 , 5 ` ' T ~ ^ ' [ C.^ L ^ U 0 ` q 7 7 0 q n , = 2 @ X X @ 2 @ @ @ @ : , = @ X @ @ @ X @ @ @ X = = , q I 2 @ @ : X X @ @ @ X X @ @ @ @ 2 5 : @ @ @ @ m m : , : : : : 7 7 7 Z.Z.` N N o.9 : 9 7 7 : : @ @ @ @ @ @ @ @ @ = @ 2 0 7 7 0 0 , : 2 @ @ @ @ @ @ @ @ X @ : , = X X @ @ @ @ @ @ @ @ @ @ @ @ X X @ @ @ : , b M @ @ @ @ 2 @ @ 2 2 @ @ @ @ @ @ @ @ @ @ @ @ @ @ @ @ @ @ @ @ @ @ @ @ @ @ @ @ @ @ : @ 7 7 9 0 > 9.I.D.^ m ^ 5 O @ X O O O       O         X X X O O O       X X d j 7 O X O O 1 1 2 1 O     < c 0.*.X.A 5 O @ @ @ @ @ ",
"[ 7 7 2 : 7 0 5 H N h 7 L ! ( ~ H 2 5 0 7 0 M 7 @ 2 I T 0 , : @ @ X X @ @ @ @ @ @ : 9 = @ @ X @ @ @ @ @ = g j 9 5 5 2 @ X : : @ @ @ @ @ X X @ @ @ @ 2 5 7 : @ X @ ;.N : : 7 : : : 7 : N L.=.N  .*.#.7 9 9 7 : : @ @ : @ @ @ @ @ : : : @ @ q 7 7 0 0 9 , : : X @ @ @ @ @ X X X @ 0 @ X @ @ @ @ @ @ @ @ @ @ @ @ @ @ @ @ @ X @ 7 b N @ @ @ 2 2 @ @ 2 @ @ @ 2 2 @ @ @ @ @ @ @ @ @ @ @ @ @ 2 @ @ @ 2 2 2 @ @ : : @ @ : : 7 7 9 0 b 0.E.S.T M ~ 5 X X O O O       O           X X X O O O       O X d n 5 1 X O O O O O O O   + & l e.#.[ N 5 @ @ @ @ @ @ ",
"0 @ = @ 7 2 3 6 0 b , : 2 3 5 2 @ 2 2 2 2 q 9 @ 2 2 5 H 0 : @ @ @ : = X @ @ @ @ 2 2 @ @ @ @ X @ @ @ @ : m C b 2 @ @ @ X 2 I X @ @ @ @ @ X @ @ @ @ @ @ 2 7 : @ @ H ) q 7 7 7 : : 7 : , s.I.....X.:.U 9 9 7 7 : : @ @ @ @ @ @ @ : 7 7 7 @ : 0 7 : : 9 , c 9 2 @ X @ @ : @ X @ X @ H 2 X @ X @ @ @ @ 2 @ @ @ @ @ @ @ @ @ X ; r r b ' @ @ @ 2 2 @ @ 2 @ @ @ 2 2 @ @ @ @ @ @ @ @ @ @ @ @ @ 2 @ @ @ 2 @ 2 @ @ : 7 : 7 7 : 7 7 9 I j t.U.v.I 0 L 1 X X O O O             O O O X @ @ O O         O X , U H 1 @ @ X O O X O O O & ; l A @.` q 5 @ @ @ @ @ @ ",
": 7 : 2 2 X s s w M , ; s p * @ @ 2 O @ 7 q : @ @ @ @ 2 7 @ 2 2 : : : : X X X @ @ @ @ @ X X @ X X - , 9 R R 2 X @ @ X @ 2 2 @ @ @ @ @ @ @ @ @ @ @ @ @ 2 7 : : @ H L 0 0 7 , 7 9 7 : A !.U.O.s.=.=.b , : 7 7 : @ 7 : : : @ : @ 7 2 2 @ @ 2 7 7 7 9 M 9 +.b 2 @ @ @ @ @ @ @ @ @ @ @ @ X X @ @ @ @ @ 2 O O @ @ @ @ @ @ @ = < F 6.B ' @ @ : 2 2 @ @ 2 @ @ @ 2 2 2 @ @ @ @ @ @ @ @ @ @ @ @ @ @ @ 2 2 @ 2 @ @ : 7 7 7 7 7 7 7 9 0 g t.T.( , 9 5 O X O O X O   O     X X O O O O O O O O           X , 0 4 O @ O O O O O O   . & f l  .R M 0 2 @ @ @ @ @ @ ",
"@ : > * = f < : 0 b d d F < o @ @ # * 6 y s + @ @ @ @ 2 7 @ @ @ @ 2 7 : : @ : X @ @ @ @ @ @ X X h V 9 H H 2 @ O @ @ @ @ @ X @ @ @ X X @ @ @ @ @ @ @ @ 2 2 @ @ @ @ 7 : 0 7 9 7 0 7 7 I.^.H.:.O.f.O.N b 9 9 7 O   : 7 : : : : : 2 2 @ @ @ 7 2 7 7 9 M U %.U @ @ @ @ @ @ @ @ @ @ @ X = @ @ @ @ @ @ @ @ O X @ @ @ @ @   O : n D F B N 9 , : 2 @ @ @ 2 @ @ @ 2 2 2 @ @ @ @ @ @ @ @ @ @ @ @ @ @ @ 2 2 @ @ @ @ : 7 7 7 : 7 7 7 0 w c p.T.~ j q 5 X X O O O O O O O     O O O O O O O O O           = , 2 2 @ X @ O @ O O X   o < c 8.X.` m 0 2 @ @ @ @ @ @ ",
"@ < s # ` ` 7 7 0 m m S g : : : = ; 8 B F 6.u @ @ @ @ 2 : : @ @ 2 2 2 : : : : : X X X X O X d C n O     @ :         @ @     > @     @ X @         @ @ 7 O X ,   X @       0   q 9 : ^.E.0 9 ..Y.[ ' N b b X oXGX  7   O 7 @ 7 2 @ @ @ @ : @ : 0 @     H 0 :       : @ X   8         > X                 O     O O LX5.X M X.O.=.' 9 , @ 2 2 @ @ 2 2 @ @ @ 2 2 @ @ @ @ @ @ @ @ @ @ @ @ @ @ 2 2 @ 2 2 @ @ @ @ 2 : 7 7 : 7 7 r r.g.N.T b U 4 O X X X X X O O O O O O O     O O X     O       X > , 2 O X X @ X = X X X X o k 8.9.O. .x 7 @ @ @ @ @ @ @ ",
"b f 7 T T 5 5 2 U ] ) ~ 0 : 2 7 9 b A e.v 6.p + X @ @ : : : @ @ 2 2 2 2 @ 7 7 , : : X = d x A U   iXLXFXe   [.LXLX[.O   zX-X  O }.@X  X O zXAXGXW.  X   uXh.  pX3.| BXAXGX7 zXO @ iX7X*.FXKXcX` U R R ` N B IX- , X LXpX  7 @ : @ @ @ @ @ : :   <XLXKXOXO X zXSXlX  @ 5.yX  $XZXZXzX  e GXJXyX=XAXjXJX4.} JXJX%X  8 IXO ` #.m.B.X.q 0 @ @ 2 2 2 2 2 @ @ @ @ 2 @ @ @ @ @ 2 @ @ @ @ @ @ @ @ @ @ @ @ @ 2 @ @ @ @ : : 7 7 7 2 k q.g.v.0 9 ~ 4 X X X O O O O   O   O X O     O X O         X X X , : 2 @ @ @ @ : , 7 @ O O X k 8.e.O.S c 9 @ @ @ @ @ @ @ ",
"] 0 2 2 2 @ @ 5 I T L 5 2 2 5 5 L T -.s.z F 6.* X : @ : : : @ @ @ @ @ 2 2 7 0 7 : - d x N ` H O {.ZX  <.8 O IX# # X X <.JXLX    <XfX  @ 8 IX# <.X @ @   BX Xt IX  {.ZXt ,.  SX5.O IXU FX X' ].q ' M T ^ 0 }.vXx X @X<X  w       > @     @ : : 1.KXX : IXr > IX> uXzX  }.NX  ZX}.y r   HX5.o > t <.PXr   IXr 8 | @   GX} q @.) %.[ 0 : @ @ @ @ @ @ @ @ @ 2 2 2 2 @ @ @ @ 2 2 2 2 2 2 @ @ @ @ @ @ @ @ @ @ @ : : 7 7 7 7 : 7 k t.R.n.0 0 H O O X X X X X X     O O O O O O X X O O O + o X X = - 7 4 O O @ @ O 2 H G 1 X = l 9.i.O.e.Z 0 @ @ @ @ @ @ @ ",
"H 2 @ @ @ X : 7 0 7 @ @ @ @ 2 5 H T S.m.S v 6.p @ @ @ 2 : : @ @ @ @ @ 2 2 7 0 7 5 9 N N I 5 @   yX0X  O @ <.HX  X @ O 0X@XGX8   ;XpX  @ 8 LX    @ : =   NX3.NX[.  [.BX  X 9 }.zX3.AXO PX9 H.d.N o.b q I @ XXnXH @ JXIX}.@ JXJXhX  B pXJX5.@ @ OXzXX   SXF.8 IX  } HX  {.NX  ZX5.      IXo @ @ @ e LX  # IX  O @ 2   GX,.U ^ I 0 ` 0 7 @ @ @ @ @ @ @ @ @ 2 2 2 2 @ @ @ @ 2 2 2 2 2 2 @ @ @ @ @ 2 2 @ @ @ : 7 7 7 7 7 , 9 7 v p.E.v.2 7 2 X X X X X O O O     O O O O O O X X X X O O o X @ - f 0 4 O O O O O O 4 4 O o - l 0.O.X.Z Z 0 2 @ @ @ @ @ @ ",
"2 @ @ X @ 7 : 2 7 , X @ @ : @ @ 2 Y ) v.[ c F i @ @ 2 2 : @ @ @ 2 @ @ 2 2 0 b 9 H I U 5 2 X X   5.IX;X1.  } HX  @ X   AX1.zX|.  ;XpX  @ > IX@XuX# @ c - NXqXSX  @ W.KX*X<X: O KXaX].0 MXAXwX9 ] #.9 9 0 O |.nX4 O &X-X  lX|.  HX} w IXO O : X OXMXX   GX5.8 IXW.MXoX  {.MX  vXhXyXW.  IXO @ @ @ e LX    LXlX|.  7   GX| I R 0 : M 7 : @ @ @ 2 @ 2 2 @ @ @ @ @ @ @ @ @ @ 2 2 2 2 2 2 2 @ @ @ @ 2 @ @ 7 : : : : : 7 7 : 0 8 y.p.D.( , : 2 O + . $ $ .   O O o O O O X   X X X X X O O X @ @ - j I 1 O O @ O O @ O & & < < g 0.*.] Z x 0 @ @ @ @ @ @ @ ",
"@ @ @ @ 2 2 @ 2 7 : @ 2 2 @ @ @ 0 ` H c.v.Z g * X @ 2 2 : @ @ @ @ @ @ 2 2 U n 7 5 q 7 @ 2 @ X X   1.=XIXF.y HX  @ @   IX  [.zX  ;XpX  @ # IX|.;X7 5 a.= NX-XGX  @ W.HXoX*X: X iXLX[ [ 9 +XlXIXO R 0 7 : @ |.zXO O 0XyX  zX}.  GX2.t LX  : : X OXMX= = HXh.> IX}.pXhX  {.MX  NXpX&Xh.  IXO @ @ @ e LX  :   @XNXZX    HX2.0 q 0 , N : : @ @ @ @ @ 2 @ @ @ @ @ 2 @ @ @ @ @ 2 2 2 2 @ 2 @ @ @ @ @ @ @ @ @ : 7 7 2 : 7 t e 7 n r.!.D.R x : # * u p 6.6.i & X   o X X X X X @ X X : X X O X @ 2 , n H O O O O O O O + & < a a g A @.U m b 5 @ @ @ @ @ @ @ ",
"@ : @ @ 2 @ @ 5 0 : @ @ X @ 2 @ 0 9 @ L b.X.- # # @ 2 @ : @ @ @ @ @ @ 2 5 R 0 @ : A = @ @ @ @ X X     |.jXt GX  X X r IXGXGXGX  ;XpX  X > LX    2 L )   NX3.AX[.O {.BX  : q 9 ].MXU [ ' *.O HX| 0 0 7 7 X oXzX  X 0XyX  zX{.  GX1.t LX  : : : oXMX, l FXh.> PX    IX  {.MX  ZXh.      IX+ @ @ @ e LX  : O O   IXO   HX2.9 q 9 j V @ @ : 2 2 @ @ @ 2 2 2 @ @ 2 2 @ @ @ @ @ @ 2 2 2 @ @ @ : : : @ @ 2 : 7 : : 7 : 7 9 C j f w.!.C.q 0.q # i i a a k k - = = X X X @ @ @ @ O @ : : @ O O O O 7 U G O O O O       + * ; n b x ' ~ 0 , 7 2 @ @ @ @ @ @ @ ",
": , @ @ @ @ 2 2 9 , @ @ X @ 2 7 0 X @ 5 ! T 7 = * . @ 7 : X @ @ @ @ @ 2 0 0 7 @ M V X @ @ @ X O B <.  zX&XO IXO # # &XjX    IX# ;XhXe y > LX8 } w 2 5   VX}.E LX  {.AXw 2.M m >XVX0 N Q.$.8 IX7 9 7 7 7 @ }.zX  O yXiX  fX-X  KXB t LX  X , h 3.JX, i.IX+.8 PX8 }.JX  }.NX  ZX}.t }   KX5.o y @ r LX  7 3.+ 1.PX    GX,.9 0 0 V ' @ : @ 7 @ @ 2 2 2 @ @ @ @ @ @ @ @ @ @ @ @ @ @ @ @ @ : 7 : : 2 : 7 7 7 : 7 7 7 7 9 i.O.j w.^.N.N i.#., - d g z Z V b 7 @ @ @ @ O O O 1 O O @ 1 1 O O O X - 0 4 O O   . % %   X = - N ..S ] L 0 , @ 2 @ @ @ @ @ @ @ ",
": , @ @ @ @ @ 0 : : @ @ @ @ 2 9 7 X @ 2 H 5 : - i u 2 7 : @ @ @ @ @ @ 2 0 7 2 7 ` h @ @ @ @ X   ,.GXKXjX    {.LXKX}.;X5.O   pX,.5.VXZXzX  vXAXFX@XO 2   yXF.  fX5.| BXSXGXh.i.].iX` , aXGXLXQ.@ 0 7 7 7 : t LX  @ |.oXX X VXJX0X  w kX; = 9 M @ eXLXPXwXN > NXDXMX# 8 LXB   &XVXZXZXO r SXHXlX  8 jX    zXHXJXr @ O IX@ 9 y : S ' @ : 7 : @ @ @ 2 2 @ @ @ @ : : @ @ 2 2 @ @ @ @ @ @ @ : 7 7 @ @ 7 @ 7 7 7 7 : 9 9 b [ m.A t.R.N.A O.%.q 9 0 U ] %.v.( L 2 @ O O @ X X X O O O O O O O   = h 7 3 $ o     < < X X = - m ..O.@.L 7 - @ @ @ @ @ @ @ @ @ ",
"7 : @ @ @ @ @ 2 7 : @ @ @ 2 9 9 @ @ @ @ @ 5 7 d a p 6 @ @ @ @ @ @ @ @ 2 7 : 7 0 ` , @ @ @ @ X @ O       : :             @ >   X         :         7 : ,   @ q   X :   X X j !.I.N X.X.:.O   : 9 0 7 7 7 7   &XGX  O O 7 n     O 7 : O B : q U ] 9 b f.^.X.q   X   7 7   : 9         7 @       7 @   7 7       @ @ LX{.b 9 } , O.` @ 7 7 : @ @ 2 2 2 @ @ @ @ : : @ @ @ 2 @ @ @ @ @ @ @ 2 2 2 @ @ @ @ : 7 7 7 : 0 N M ^ ^ A j.T.n...[ ( 0 5 H L ! ! W W G 1 O O O O X : X O O O O O       X - e i u < X X = - 9 2 X , N S O.^ H h d : 2 @ @ @ @ @ @ @ ",
"7 : @ @ @ X @ 7 9 , : : @ 7 M : @ @ @ @ X 5 I b k 6.i @ : @ @ @ @ @ @ 7 7 : 7 0 0 : @ @ @ @ @ @ @ @ X X @ @ @ X X X X @ @ @ @ @ @ @ @ @ @ @ : : : : : : : : 7 0 : 9 M N b i.^.U.O. .:.=.q b 9 9 9 7 7 7 7 7 X   9 : 7 0 R 0 7 7 7 7 ` { 0 0 q ` X.s.^.).[ b b q 9 7 7 7 : : 9 7 : : : : @ @ @ @ @ @ @ @ @ @ @ 7 7   m o.' n b *.q : 7 : : 7 2 2 7 2 2 @ @ @ @ @ @ @ @ @ @ @ @ @ @ @ @ 2 2 @ @ @ @ @ : 7 : : 7 7 U ^ @.w D p.D.( =.&.W H 5 4 1 1 4 1 O O O O   O O O @ 1 O O O   $ % % . o ; 8 > - d h @ O @ I H 2 , N S ..^ 2 d h : @ @ @ @ @ @ @ @ ",
"2 @ @ @ @ - b 0 b , : 7 @ q 9 @ @ @ : : @ 5 Q ] l F i X : @ @ @ @ @ : 7 7 : 7 0 9 @ @ @ @ @ @ @ @ @ X X @ @ @ X X X @ @ @ @ @ @ @ @ @ @ @ : : : 7 7 : : : : 7 0 9 9 N N  .^.).J.=.[ V.` M ' M q 9 7 7 7 7 : : 7 : : 7 0 H 0 9 7 7 7 U ] 0 9 M N  .f.^.^.` V N q 0 7 7 7 7 7 7 7 7 : @ @ @ @ @ @ @ @ @ @ @ @ @ : : N X.*.[ [ ' [ 7 @ 7 : 7 2 @ 2 2 2 @ @ 2 @ @ @ @ @ @ @ @ @ @ @ @ @ @ 2 2 @ @ @ @ @ 7 7 7 : 7 7 I T ^ y r.g.b.T ' v.5 O @ @ X   X X O     X     O O 1 1 O @     $ % & o X = 7 7 b 9 q 5 1 1 G 5 : d x A @.~ 2 d h 2 @ @ @ @ @ @ @ @ ",
"2 @ @ @ : C C 9 b , : 2 2 q @ @ 2 @ , 7 2 2 Q ^ x k s > : @ @ @ @ 7 : 7 7 7 7 q , : @ @ @ @ @ @ @ @ X X @ @ @ @ X X @ @ @ @ @ : : : : : : : : : 7 7 : 7 : : 0 0 0 q N N s.^.R.s.*.[ -.' ' ' U q 0 9 7 7 7 7 7 7 7 9 7 7 : 0 9 7 7 7 T U 9 q ` ....I.^.R.N i.' 0 7 7 7 7 : 7 0 0 0 7 : : @ @ @ : @ @ : @ @ @ @ : w q %.n.^ ^ ' [ 7 : : 7 2 2 @ 2 2 2 2 @ 2 2 @ @ @ @ @ @ @ @ @ @ @ @ @ @ @ @ @ @ @ : : : 7 : 7 0 7 7 H 2.w.g.v.7 N ^ 5 @ X X X @ O   * i % o + # + O O O O X     X ; - - = = 2 2 5 H K K O X @ X - l 8.X.^ L 7 d , 2 @ @ @ @ @ @ @ @ ",
"@ @ X 2 ( ] 7 M j : @ 2 0 7 @ @ 2 5 2 2 @ 2 L v.[ d r > @ @ @ @ 2 : 2 7 : 7 7 b , : @ @ X @ X X X X - = @ @ @ X X @ @ @ @ @ @ : @ : : : : : : 7 0 7 : 7 7 7 7 9 0 M M N I.).L.:.#.*.] [ ] R U 0 7 7 7 7 7 : : , , 9 7 7 7 0 0 7 7 7 0 q 9 M M X.O.I.).U.A I.' 9 , : 7 7 : : 9 0 7 : : : @ : : : @ : : @ @ @ : 7 C N / ( I w [ #.: : 7 7 @ @ @ 2 2 2 2 2 2 2 @ 2 2 @ @ @ @ @ @ @ 7 : 7 7 : : : 7 : : : 7 7 7 7 9 0 7 : D t.R.) 9 9 T 2 @ X X X X X X & a < X X = X X O   O O O O O @ 7 0 2 2 4 4 4 4 4 1 O X = = d z e.X.T 5 = g 9 2 2 @ @ @ @ @ @ @ ",
"@ @ @ 5 Q 5 5 U b : 2 2 0 @ @ @ 2 2 2 @ @ @ H ! R 9 e a o @ @ @ 2 : 7 7 : 7 0 M , @ @ @ X @ X X @ @ , = X @ @ @ X @ @ @ @ @ : : : : : : : : : 7 0 0 : 7 7 7 7 0 b N M ..^.R.:.=.[ -.] ] R U 0 9 7 7 7 7 : 7 9 0 0 0 7 7 7 0 0 7 7 0 9 q q M ' X.s.^.).U...!.M 9 9 9 9 7 7 0 0 0 7 7 7 7 : @ @ : @ @ : @ @ @ : , a.C _ 0 e y ' ` @ : 7 2 7 @ : 2 7 2 2 2 @ @ @ 2 2 @ 2 @ @ @ @ @ @ : 7 7 7 7 @ @ 7 7 : 7 7 7 7 9 9 9 9 0.j.(.) m M I @ @ X X X X X @ X d V b @ : @ @ O   O O O O O O 4 G 5 4 4 O O O O O   X : - g z ..#.T 5 - g , 2 @ @ @ @ @ @ @ @ ",
"@ @ @ @ 5 @ 5 9 , @ @ 0 : @ @ @ 2 2 @ @ @ @ 2 L L 9 , < + @ @ @ 7 : : 7 : 7 M N , @ @ @ @ X X X @ 5 @ @ @ X X @ X @ @ @ @ : : : : : : : : : : 0 0 7 : 7 7 9 9 9 N N M f.^.L.=.X.*.#.U U q 0 9 9 9 9 7 7 7 0 0 I 0 7 7 : 7 7 7 7 7 9 9 q q M [ X.d.^.).J.s.E.M 9 0 0 7 : 7 7 0 9 : 7 7 : , , @ 7 : @ : : : : , x k.+.B , < F m q @ 7 7 7 7 7 : 2 2 2 7 : @ @ 2 2 2 2 2 2 2 @ @ @ @ 7 7 7 2 2 @ @ 7 7 : : 7 7 0 7 7 0 B r.!.G.^ Z [ I : @ @ @ @ @ X O @ : U R 5 2 2 1 O O O O O O O O O @ : @ O   O O     X X = - l Z X.^ T 2 - g 7 2 @ @ @ @ @ @ @ @ ",
"@ @ @ @ @ @ 5 9 , @ @ 7 @ @ @ @ @ @ @ @ @ @ @ 2 L q j = X @ @ @ 7 7 : 7 : 0  .N : @ @ @ X X X X @ 2 @ @ X X X @ @ @ @ @ @ @ : : : : : : : : : 0 7 : : 7 : , , 0 X.N  .^.^.d.=.*.&.U U 9 9 9 0 0 9 9 7 : 7 0 0 0 0 7 : : 7 7 7 7 7 7 9 q 0 M ' X.U.^.).J.H.L.` 9 9 7 7 7 9 0 9 9 9 : 7 : , c - @ : : : : : 9 9 e.!.g.O.M n o.N 0 : 7 7 7 7 7 7 7 7 7 7 @ @ @ @ 2 2 2 2 2 @ 2 @ @ @ @ @ 7 7 7 @ @ 7 7 7 7 7 7 9 0 7 7 B r.I.S.` e.@.I 7 @ @ @ @ @ @ @ @ @ H Q H 4 1 O O O         O     = - @ O O O O     X = - g c ..#.~ H @ - g 7 2 @ @ @ @ @ @ @ @ ",
"= @ @ @ @ @ 5 : : @ 7 @ @ @ @ @ @ @ @ @ @ X X 7 H T 9 = X @ @ 2 2 7 : 7 7 q  .b @ : @ @ X X X X @ @ @ @ @ X X @ @ @ @ @ @ : : : : : : : 7 : 7 0 7 : : 7 , , 9 ` #.` s.^.E.*.[ #.[ q 0 9 9 9 9 9 9 9 7 7 7 7 0 7 : : : : 7 7 7 7 7 7 9 M 0 M ' X.U.^.).d.J.Z.U M n > 7 7 7 7 7 9 9 : : 2 : i.h @ : : : , 7 9 9 ..^.l.=.] N s.] 0 : 0 7 7 7 : 7 7 : : 7 7 7 7 2 @ @ @ : @ @ 2 @ @ @ @ @ 2 7 7 7 : 7 7 7 7 7 7 9 q , : v w.R.b.' O.^ 5 2 @ @ @ @ @ 2 O X X 2 4 1 O O O             O O   = - @ O O O O O X X = d l Z X.%.T 2 X d d 7 2 @ @ @ @ @ @ @ @ ",
"= @ @ O @ @ 5 : @ 7 9 @ @ @ @ @ @ @ @ @ 2 @ @ @ H L 2 @ X @ @ 2 5 7 7 7 7 ] .., @ : @ @ X @ X X X X X @ @ @ X X @ @ @ @ @ : : : : : : : 7 : 7 0 7 9 : 7 9 9 9 ` U ' I.).H.#.[ *.` 9 9 9 q , b , 7 7 7 7 7 7 7 7 7 7 7 7 7 7 7 9 7 9 q M 0 M ' O.R.^.).:.J.:.q 9 n f : 9 9 7 7 9 9 7 : : 2 ) H , , : , : 7 9 M O.).!.:.U M B.^ 7 , 7 7 7 7 @ : 7 7 7 @ : 2 2 2 @ : : : : : : @ @ @ @ 7 7 7 7 7 7 @ : 7 7 7 7 0 @.q 7 v t.E.b.b *.( 5 2 @ @ : @ @ @ @ @ @ @ O O     O O   O     O O     = , 2 O   O O O X ; d g c S #.^ H @ X d d 2 O @ @ @ @ @ @ @ @ ",
"- , : X X 2 2 : : 9 : X X @ @ @ @ @ @ @ @ @ @ @ 2 5 2 : @ @ @ @ 2 : 7 7 5 &.n , : @ @ @ @ X @ @ @ @ X @ X @ @ X @ @ @ @ @ : : : : : : 7 7 7 7 9 9 9 , 9 9 q q w <.i.^.^.*.' X.=.N b q 9 9 b S , 9 9 9 9 7 7 7 9 7 9 7 7 7 9 7 7 7 9 ` ` 9 M ' =.R.).^.=.J.f.n q e.c , 9 9 9 0 0 0 7 : : 5 H 2 , 9 : 7 : 7 0 q =.R.R.Q.M ` &.R 7 : 0 7 7 7 @ 2 7 7 : 2 2 2 2 : @ : : 7 7 @ @ 2 @ : 7 : 7 7 7 7 7 : 2 7 7 7 0 0 ` ` 7 v g.T.v.b #.~ 5 @ @ @ 7 @ O X O @ X O O O   O X   O O O           X 2 1 O O O X X X - l z 0. .@.T 0 @ o d b @ @ @ @ @ @ @ @ @ @ ",
", - - : X 2 2 : 7 , X X @ @ @ @ @ @ @ @ @ @ @ X @ 2 2 @ @ @ @ @ 2 2 7 7 I #.b : : @ @ X @ @ @ X X X @ @ @ @ @ @ X @ @ : : @ : : : : : : : @ : 7 , , 7 , , , f y.r.I.^.~. .N =.[ M M 9 q 9 M o., 9 9 9 9 7 7 7 9 9 7 9 7 9 9 7 0 9 9 ` ` 9 M [ s.^.).^.=.L.g.S ` P.[ 9 0 b 9 7 7 7 7 7 : 7 7 : 0 0 7 0 0 0 9 q -.U.R.l.S q #.R 7 7 0 7 7 7 7 7 7 7 7 2 2 7 7 7 7 7 7 2 2 7 2 7 7 7 7 7 7 : 7 7 7 : 7 7 : 7 7 9 9 ` 0 8.g.D.^ m @.L @ @ X @ @ @ O @ X O   < X   O O X O O   O O O       X @ 1 O O O X X X d c 8.S  .R I 2 # < g , 2 @ @ @ @ @ @ @ @ @ ",
"9 , , , X @ @ h n = X O O @ @ @ @ @ @ @ @ @ @ X X 2 2 @ @ @ @ @ 2 2 7 : T ' , : @ @ @ @ @ @ @ X X X @ @ @ : @ @ : @ : = = : : : : :   | oX@XOX+X+X+X+X+X+X$X,X>X>XwXwXwX,X+Xa.: M N b q q ^ @.9 9 9 9 0 7 7 7 9 9 7 9 9 9 9 9 9 9 0 ` ` q ' X.s.^.).^.O.U.g.O.U v.^ 0 0 M 9 7 : : : : : 7 : : 0 0 7 7 0 0 0 ` #.L.E.^.p.9 [ ` 7 7 0 7 7 7 7 7 7 7 7 2 2 @ 7 7 2 7 7 2 : 7 : 7 7 : 7 7 7 : 7 7 : 7 : 7 9 9 9 , 9 ] ` 8.I.D.R N ^ H X X @ @ @ @ O O X X X = r.-     O X     O         X X @ O O O O X X = d x S =.&.] q @ o f z h 2 2 @ @ @ @ @ @ @ @ ",
"0 0 7 X X @ h Z h X O O O @ @ @ @ @ @ @ @ @ @ @ @ 2 @ @ @ @ X # @ 7 7 : U n : : @ @ @ X @ @ @ X X @ @ @ : : @ @ @ @ : , , , , : @ t pXOX3.| 2.2.2.+.+.2.h.z.k.].Y.].`.~.a.].eXpX7 N b 9 0 T R 9 9 9 9 7 7 7 9 9 9 9 7 9 9 7 9 9 9 0 U q M ' X.f.^.^.^.i.R.D.%.U R T 0 0 q 0 7 : , , , : 7 7 7 5 2 2 : 7 7 , Z ..K.T.(.!.V ' ` 7 7 0 7 7 7 7 7 7 7 : 7 2 : 7 2 2 7 7 2 @ 2 2 7 @ 2 7 2 @ : 7 7 7 7 7 9 ` q 9 b N M e.t.U.S.U ` T 2 @ X O O @ O O O   X O X j V X   O O O     O O O   X = @ O O   X X = - h b [ %.) R 0 2 @ d 8.b 2 @ @ @ @ @ @ @ @ @ ",
"7 7 : : : 0  .C = X X O @ @ @ @ @ @ @ @ @ @ @ @ @ 2 @ @ @ = > e @ : 7 0 ` b : : @ @ @ @ @ @ @ X @ @ @ @ @ @ @ @ @ : : 0 9 , : @ 2.fX  : 9 9 9 M N m B y.r.l.^.T.B.E.(.g.a.J.M 7 MXw M 9 9 9 9 , 9 9 9 7 7 7 q 9 9 9 9 9 9 9 9 9 9 9 q q M  .X.g.^.^.^.g.R.B.R q 9 0 0 0 0 0 7 7 9 9 7 @ 9 @ 7 7 7 7 @ 7 7 h p.i.:.H.E.^.e. .q 0 7 0 7 7 7 7 7 7 7 7 7 2 7 7 2 2 7 7 @ @ 2 2 2 @ @ 2 2 @ : 7 7 7 7 7 9 ] U q N B j 0.g.T.N.q ` L @ @ X     X O O O O O O O @ A.G       O             X @ O O     X = - d m M R T T T 0 2 @ - c M 2 @ @ @ @ @ @ @ @ @ ",
", : : 9 7 U [ , X @ X @ @ @ @ @ @ @ @ @ @ @ 2 @ @ @ @ : @ , ; # @ : 7 0 ` b : : @ @ @ @ @ @ @ @ @ @ @ @ @ @ @ @ @ : 7 I I 9 : X hX  9 , , 9 b A b 4.x.t.!.E.D.n.=.E.T.!.k.J.' M X fX  q 9 9 9 0 0 9 9 7 7 9 M 0 9 9 0 9 q 9 9 9 9 9 M q N  .X.I.^.^.^.g.U.[ b 9 0 9 9 0 : : 7 0 0 0 0 : w : : : 7 7 : : : 9 f.s.-.d.L.R.g...q 9 7 7 7 7 7 7 7 7 7 7 7 2 @ 2 2 2 7 7 7 : @ 2 2 2 : 7 : 7 7 7 7 7 7 7 9 ] ] q y 5...i.Z.D.B. .q H @ X @ X   X X O O O     O 1 W W O     O O O   O     X X O O   o & = d x m M U T I 0 7 @ + = d 7 5 @ @ @ @ @ @ @ @ @ ",
": @ @ 7 H ( T @ X O @ @ @ @ @ @ @ @ @ @ @ @ @ @ X 2 2 @ @ 7 , : @ 5 7 0 N 9 @ : @ @ @ X X @ X @ @ @ @ @ : : : @ : : 7 0 0 0 X -X| 9 , h b m ' N a.z.t.!.T.N.%.' d.Z.D.^.!.W.b N M }.{.9 9 9 9 9 9 9 9 , 7 9 M q 9 9 0 0 0 9 9 9 9 q M M M X.O.R.^.).R.U.U.' b 9 q 9 , 0 7 7 7 0 7 7 7 , q : : 2 : : : 2 7 0 m.B.*.d.L.T.!.i.9 7 9 7 7 7 7 7 7 7 7 7 7 7 2 2 7 : 7 7 @ : : : 7 : : 7 : : 7 7 7 7 : 9 M ` ] 0 5.r.j.g.N.n.[ ..M 2 2 X X X X X X O O O     X O O O O O   X     O O       O O   X - c l l z m ] U q 9 9 : @ o - - 2 2 @ @ @ @ @ @ @ @ @ ",
": @ 2 @ 5 H 2 @ X X @ @ @ @ @ @ @ @ @ @ @ @ @ @ @ 2 7 : 7 0 : @ @ 7 0 U N : : : = @ @ @ X X X X X X @ : : : : @ : : : 7 7 7   qX  m N ` M N +.a.p.l.^.D.n.] N =.Z.=.K.).!.x.n N M @ qXX 9 9 9 9 9 b 9 9 9 q ` q 9 9 9 9 q 9 9 9 q q M M ' X.=.^.).^.R.U.E.[ M q 0 9 9 0 0 7 7 0 7 7 : 0 I 7 : 7 @ : : 7 : 0 @.%.=.=.L.B.E.!.b 0 7 : 7 7 7 7 7 7 7 7 7 2 7 2 7 @ @ @ : : : : 7 7 7 7 7 7 7 , , 9 b q ` [ ] | r.u.l.L.m.[ ..f.] 5 @ X X X X X X X X X O O     O O O   X @ X   O       X X O   X = 8.0.0.Z ..' M m m b 9 @ > d d @ @ @ @ @ @ @ @ @ @ @ ",
"X @ 2 7 2 1 @ @ @ @ @ @ O @ @ X @ @ @ @ @ @ @ @ @ 2 2 : 0 H : @ @ : 0 ] b , : : = @ @ @ @ @ X X X X @ @ : : : : : : = , 9 9 , <X: ` M ' N ' a.p.!.(.D.@.M A ..=.s.i.H.(.!.z.F N N = qXX 9 0 9 9 b b 9 9 9 U U 0 9 9 9 9 q 9 9 9 9 q M M ` [ :.^.).).R.U.L.[ ` 0 0 9 9 9 9 7 7 7 7 : : 7 I 0 : : 2 @ : : : 7 U R X.:.K.&.C.^.S : 7 7 7 7 7 7 7 7 7 7 7 2 7 7 7 7 2 : : : : : 7 7 9 9 7 9 , b b N q q R ] / C w.u.E.N.%...e.f.%.5 @ @ @ X X X O X X X X X X         X X @ O O O O     X O O   X = j O.=.X.#.' A Z e.Z m , ; g d @ @ @ @ @ @ @ @ @ @ @ ",
"X = , @ O @ @ @ @ @ O O O @ @ @ 2 @ @ @ @ @ @ @ 2 2 7 : 2 5 @ @ 7 : 0 { 9 : : @ : X X X @ @ @ @ @ @ @ : : : @ : : , , , 9 q q 4X5 ` N n C t.j.^.(.D.] N A ..=.=.g.p.V.T.^.k.h.m N : qXX 9 0 9 9 q M 9 9 0 U I 0 0 9 9 9 0 0 0 0 0 q M q ` ' d.^.).^.R.U.K.] U 0 9 : 7 9 9 7 7 7 7 : : 7 0 7 : @ : : 7 7 : 7 M M [ :.-.@.] R.p.d 0 0 7 7 7 7 7 7 7 7 7 2 2 7 7 7 7 7 7 7 7 7 7 : 9 M 9 b b M ` U T T ` n 1.8.u.!./.C.@.A i.V.v.5 = X @ X @ @ X X X X - = X   O     X X X O O O O O O X O O   X = , R n.^ R ` A S e.e.A , - z h 2 2 @ @ @ @ @ @ @ @ @ ",
", b = O O O @ @ @ @ O O O @ @ @ 2 @ @ : @ @ @ @ @ 2 0 7 @ @ 2 @ @ 7 I ` 9 , X > X @ @ X @ @ @ @ X X @ : @ : : : : : : 9 q 0 0 -X, m D h.e.l.R.D.N.@.m Z ..=.V.V.K.g.:.T.).l.z.V N , qX= , 9 9 0 U U 9 , 0 q 0 0 9 9 9 9 9 0 9 0 0 9 q q ` ' d.^.^.).R.L.K.` q 9 n , 0 9 9 7 : 7 7 7 7 7 7 : : : , , 7 7 : 7 M M ' :.*.] ` T.!.A 0 0 7 7 7 7 7 7 7 7 7 7 7 7 7 7 7 7 7 7 7 7 7 7 q ] 0 q ` ] R T I H , 1.r.w.p.E./.Z.] N :.C.^ 5 : X X X O O X O X X = : X = O   X = X X O O O     O X O   X X = - q T T I U ' ..O.O.X.q , c b 2 2 @ @ @ @ @ @ @ @ @ ",
"b : O O O O @ @ @ @ O O @ @ @ @ @ @ @ , @ @ @ @ @ 7 0 2 @ X 2 2 : 7 I M : , B < X @ @ @ @ X X X : = @ : @ : : : , , 9 0 0 0 , *X= y.y.t.g./.S.%.N V e.=.O.d.f.&.C.f.O.K.).!.z.D N , qX: b q 9 9 q q 9 , 0 9 7 9 0 9 9 9 9 9 0 9 9 9 q q ` ' d.^.^.R.R.E.U O U b C , 0 0 0 7 : 7 7 7 7 7 2 : @ : h : 7 : : 9 M M N :.s.` ' &.(.s.0 , 0 7 7 7 7 7 7 7 7 7 7 7 7 7 7 7 7 7 7 7 7 7 U ^ 1 O ] R T H 7 , k y.w.t.L.D.S.n.@.U %.v.T 2 = ; X X #   X X     @ 7 X = @     = X O O O         X O   = = , 9 9 0 q 9 9 ` ` #.@.R I : g 9 2 @ @ @ @ @ @ @ @ @ @ ",
"7 @ O O X @ @ @ @ = X @ @ @ @ @ @ @ : : X @ @ @ 2 0 7 @ @ @ @ : : 0 N A , z r.- @ X @ X @ X = , , = @ : : : : : , 7 9 9 9 h > 1XF r.p.I.D.S.] N S i.*.B.X.*.&.@.m.J.i.V.(.^.k.h.N , qX: b 9 9 9 9 9 9 7 7 7 7 0 9 9 9 9 9 7 0 9 0 9 q 9 ` ` J.).R.^.U.*.mXzX  q  .0 : 0 0 7 7 : : 7 7 7 2 @ : : 9 0 : : : 7 q I N s.d.A ' R S.D.0 7 7 7 7 7 7 7 : : 7 7 7 : 7 7 7 7 7 7 7 7 7 0 I 4 dXBX1 H 2 , g c 8.q.u.I.D.N.N.( ( T R R I 0 , z d   * o X O X   X , : @ 5 O O O @ O O O           O X = = 9 0 U q b j b N ` ] ] T H : - 7 2 @ @ @ @ @ @ @ @ @ @ ",
"@ O X @ O @ @ @ : , X @ @ @ @ @ O @ @ @ @ @ @ @ 2 9 : @ @ @ @ : 7 0 ..h 0 i.c = @ @ @ X @ X @ 7 , = : : : : : : 9 7 9 , h w F 1X0.l.E.D.) ` b i.i.=.-.] 3XXXT ` %.H.i.H.T.^.l.a.N , qXX M 9 9 9 9 9 9 7 9 7 7 7 7 9 9 q 9 9 0 7 b 9 9 9 ` ' I.^.R.^.U. .FXDX  U %.0 , : : 7 7 7 7 7 2 : : : : 7 0 7 7 7 7 7 9 0 M =.V.O.N I ~ D.M 7 7 7 7 7 7 7 7 7 7 7 7 7 7 7 7 7 7 7 2 7 7 0 0   NXJX  : , d z 8.0.u.!./.S.n.m.I I I 0 0 0 9 , j n X = f X X X   O = : O 1 O O O O O O           @ O o = , 0 I U q N b M U ` ` ` 0 5 : - @ @ @ @ @ @ @ @ @ @ @ @ ",
"@ O X O O O @ @ : , X X O X X @ @ @ @ @ @ @ @ @ 2 9 : X @ @ @ 2 7 ` ..t ( -.- : @ @ X @ @ X 2 0 : : @ : , , : : : , 9 b f F y.,Xg./.C.[ b m S s.=.:.#.4 KXnXO ` @.C.g.s.T.).!.t.N , 0X@ M q 9 9 9 9 9 9 9 7 : 7 9 0 0 q 9 9 7 9 C b M 9 M ' R.).R.^.L.E.m = b q 5 9     X 9 7 7 7 O     X :   7 O   0 0 O     2 q :.&.[ -   O m.O.9 @     O 7 7 0 @     O 0 7 0 7 7 2 7 O     O 0 0     f j = = = h e.l.E.G.L O 5 5 0 2 , q 0 n , 9 ) @ = j , O O   O @ H 4 O O O + O O             O O X = 9 U I 0 0 ` R R U U ` M 0 2 = - @ @ @ @ @ @ @ @ @ @ @ @ ",
"= X O X   O @ 2 2 : @ O O O O @ @ @ @ @ @ @ @ @ 2 7 X @ @ @ : 7 2 [ A r ! Q @ @ @ @ X @ @ @ 7 7 : : : : , : : : , 9 , k r.t.j.wXT.C.] m A ..=.:.d.@.R O FXjX  7 U N.J.g.Z.(.!.a.2.X qX@ M q 9 9 9 9 , 9 9 9 , 7 9 9 0 q 0 0 7 9 A b M 9 q ..!.).R.E.U.d.eXqXX X qX| VXGXfX  7 7 O jXGXVX2.  yX  iXVX  O hXGXVX3.@ *.A.gXDXZXoXO d.h h.SXZXdX@ 7 O W.ZXGXfX  9 7 7 0 0   &XSXVX*XO X  X<Xd - aXkXkXgXgXU./.~ fXGXSXQ.X 7 , b 7 9 M 0 Q 5   5 T 1 O   O O 4 4 O       X X     O       O O X = 7 I I 0 I I ~ ~ H T U U I 2 = - @ @ @ @ @ @ @ @ @ @ @ @ ",
"= X O X   X @ 2 2 @ @ X O O @ @ X X : @ X @ @ @ 2 : X @ @ @ @ 7 5 @.x < P 5 2 X X @ X X @ X @ : : : : : : : : 9 9 ; F r.j.!.E.eX( ` j S ..#.#.:.#.XXXXh.HXMXW.}.Q.%.L.g.:.T.^.p.x.X qX@ q M 9 9 7 7 7 q 9 9 : 7 7 9 0 0 0 9 0 I ] 9 <.7 9 O.^.).R.R.J.[ MXVX    MXIX{.W.IX&XO   ZXvX4.@X|   AXIXzX}.  NXVX3.qXIX8 ] OXfXXXqXIX3.&.a.IX$XoXzXt 2 ,.IXOX5.JXkX  q 0 2 O @XIX{.@XjX  X fXSX= 9 eXiX*XAXKX) ( nXGXW.+XIX2.: , m , 0 0 9 2 4 O 4 K 1   O O   O O O     X X X O           O X = = 0 I I 0 0 T T H I 2 0 R I 2 : , 2 @ @ @ @ @ @ @ @ @ @ O ",
"=   O X X # O 1 @ @ X X O O O @ X : : X X @ @ @ 2 : X @ @ @ @ : 0 #.x d r 2 7 X X @ @ : : = : : = : : : : , , 9 - y.r.u.^./.M.4X: Z i.O.*.:.#.n.O IXIXIXIXIXIXIXSX4 T.g.=.T.).l.x.- qXX q 9 9 9 9 7 0 U 0 9 7 7 7 7 7 0 0 9 9 T ( E 7.7 9 s.^.R.R.R.K.^ zXMX    MXhXO O zXzX  O IXB O O @   VXpX  X O IX,.@ O IX5.` 2 5 ^   KXXX4 wXSX  @   7 O 0XZX  O $XGX  9 2 2   NXuX      , X aXAX1 ^ 4 5 h IXQ.b.4 PXQ.- O LXoX@ = V 9 0 7 0 @ X X @ O O O       O X       O O O O O O     O O   = : 0 I 0 0 0 0 0 0 w 7 0 U U 5 : : 2 O @ @ @ @ @ @ @ @ @ O ",
"X X @ X , @ O O @ @ X X O O X O @ : @ X @ @ : 2 2 : @ @ @ @ @ 7 U ;.m d < 6 @ @ : X = : @ : : : , : : : , h h - 8.w.j.E.D.n.U <Xl p.X.#.=.[ ) ^ q w 8 X FXjX@ w 9 @.D.I.s.D.E.!.k.d qXX q 9 9 9 9 , 0 R I 0 : 7 7 9 7 7 0 0 0 9 0 n h.: b J.(.U.I.R.B.L lXMX  O MXlXO O MXlX  @ IX,.; X :   VXpX  @ O IXy   <.IX} ` @ @ >.+.IX|.1 3XIX,.t   7 O iXZX    MXVX  0 5 2   zXGXr >   , X dXAX4 T H   vXNXG ( O IXh.  J IX5.4 @ m q 5 2 2 @ @ X X O   O O         X     O O O O O   O O   O   @ 0 I 7 7 0 0 0 0 0 0 q 9 7 I 2 : : 2 @ @ @ @ @ @ @ @ @ @ @ ",
"X X @ 9 , = X O O @ X X X X O O @ @ X @ @ @ @ @ 2 : X @ @ @ @ 7 ] &.U b ; s * X = X = : : : : , , : : - j h h c j.l.E.S.( q , ,XZ :.@.@.&.R R q 9 q q   FXkX  9 q ] C.J.f.V.E.^.j.v <XX M 9 9 9 9 9 0 0 0 7 : 7 7 9 9 7 7 0 8 9 9 ..+.9 N J.E.U.^.I.*.5 lXMX    MXlXO   vXlX  > IX2.g , :   VXpX  @ O IXIXPXIX;X  7 oXIXJXDXIX|.O G VXIXIXFXO O yXIXLXIXHXr 4 4 2 X X w GXIXIXzX  O dXVXO 3 @ 2.IX/ c.5 O LXIXPXIXdX  2 @ b U 5 : @ @ @ @ O O O O O O       X X     O O O       O O O   X 7 0 0 5 5 5 5 5 5 5 0 0 0 5 2 : : @ @ @ @ @ @ @ @ @ @ @ @ ",
"@ : H T : X X @ O @ @ X X O X O @ @ @ @ @ 2 @ @ 7 , X @ @ @ : 0 ` R ~ 9 d s i X @ @ : : : : , , : @ = m b j 8.p.^./.M.T n , b eX] #.] ^ ^ q q 0 q q U   KXvX  q q ` m.L.p.:.T.).l.y.1X: M M 9 9 9 9 9 9 7 7 , 7 9 9 9 , , : s : b ;.;.9 N J.R.R.^.R.s., lXMX    MXkX    vXzX  # IX2.9 9 7   VXpX  @ O IX1.#     7   PX$X    LX|.  4 4 @ e PX@X  uXZXO O   O @ @ X = - -     3.IX| O pXZX. s   GXdXK Q 2   IX}.G O   @ @ X 7 H 2 : @ @ @ @ O O O O O         O X O               O O O X - , 7 2 5 5 5 5 5 4 5 5 0 5 5 2 : @ @ @ @ @ @ @ @ @ @ @ @ @ ",
"7 5 K 4 @ X O X O @ @ @ X @ X X @ : X @ @ @ @ 2 7 , X X @ @ : 0 N 0 T 0 g a s o @ @ : : , : , , , , h m Z w.p.T.S.v.9 d x m ] eXU ] U T 0 b M q q 9 q 0 | { q q q N #.L.g.s.T.).!.r.uX= b b b b 9 9 9 9 9 9 , 9 9 9 9 9 9 x C b M B.:.N  .R.R.^.^.R.i.l lXMX    MXkX    MXlX  O IX} 5 O O   VXpX  @   IX}       7   LX{.    PX|.O   O 0   FX-X  -XFX  O     X = - - j     O   IX3.  pXZXu v >XHX  4   2   LXW.O     X X O @ 5 @ @ @ @ O O O O O   O O O       O O O O           X O   X - , 7 2 5 5 2 2 @ @ 2 2 2 w 8 = = @ @ @ @ @ @ @ @ @ @ @ @ @ ",
"7 : 5 @ X X X X X @ @ = X X X X @ : X @ @ 2 : @ 9 h X X @ @ : 0 n , 0 T m f a o @ @ 7 7 : : , , = ; M e.u.p.C.v.~ 0 d 0.S N { qX5 T 0 7 0 M b 9 0 0 9 0 0 0 q q q M ] K.I.i.K.).^.0.uX- Z V m m b b b h 9 9 , 9 9 9 9 b b Z e.M q Z.:.` O.!.^.^.).R.f.V NXVXX X VXzX    VXMX    zXLX4XnX}.  SXjX  @   kXKX0XhXKXO   zXJX;XNXIX$X  |.ZXiXlXIXr @ 8 IXzXyXSX0X  d f b O hXNX0XAXJX    jXHX- 9.IXGXVXAXZXX   yXIXyXfXIXe X X X 2 X @ @ @ @ O O O O   O O           O O           X X O     = 9 0 7 2 2 2 @ @ O @ @ @ : h g = 2 @ @ @ @ @ @ @ @ @ @ @ @ ",
", - - = = = = = = : : - = = X X @ : X @ @ : : : 9 - X X @ @ : q b , 0 ( ` g ; * @ @ : : : , , ; s F 0.p.U.N.~ I h j A ..S ..` 4X1 0 7 7 0 0 q 7 7 9 7 0 0 0 q q q ` ] C.U.g.K.(.^.p.eXl t.e.Z V m m m b b 9 , 9 9 9 q 9 9 [ X.q q -.-.U =.^.^.^.(.R.J.:.Q.Q.b j Q.h.= X h.5.X ,   @XlXyXw O W.2.X @ 7   @XjXiXr X q X qXjX}.3 3.= ; +XkXgXw O 2 O E pXjX}.  , b 9 I H | *XjXyXO @ X 4.{.9.u.>XXXXXXXXX@ 0   }.jXpX} O @ X X @ @ @ @ @ O O O O                       . $ .     X X O O X X 2 5 2 2 2 @ @ O O @ O @ = g c - @ @ @ @ @ @ @ @ @ @ @ @ @ ",
"- = = = : = - - - , , d d d - , 7 = @ @ @ 7 : 7 0 : X X @ : 7 ` h , 7 ( R h - i O : : : : , > F y.q.p.T.S.T : - 8.S @.-.O.#.I 5X  : 7 0 0 0 0 : 9 0 7 7 0 0 0 0 M M ] N.T.g.K.T.).g.wXZ i.e.e.S A S V m b b 9 9 q 9 <.7 0 v.^ 9 q &.%.M d.^.^.E.T.R.J.m.R I R ` V z V , = @ : X : O     @ @ O @ @ @ @ : O     @ @ 0 M O   X : 9 m h = O I M @ @ o = X   X @ 2 I L H H 2 O     @ = = > g w.I.D.L 5 H @ : 2 @       @ X X X X @ @ @ @ O O O O         O       $ % u u % % $       X X   = : 2 2 2 2 2 1 O O @ X O O X d j , @ @ @ @ @ @ @ @ 2 @ 2 @ @ ",
"7 @ @ @ # + 7 7 , : 9 j d d d h - = = : 7 0 , 0 9 - , : @ 7 0 N b , 7 T ~ 9 d < = : 7 , - < F r.w.g.D.v.T : g 0.i.M ] #.@.T   yX  : 7 0 7 0 7 7 : w : 7 7 0 0 q U M ` n.D.U.d.T.).I.wXs.:.#.O...S S A m b b b b q 9 B , 9 ^ U 9 U >./ q :.^.).T.K.R.U.#.] R ~ ) [ S Z m , , = : 2 @ @ @ @ @ @ @ @ @ @ @ @ @ @ @ @ : M : @ X , N n N 5 5 T  .f = - h g h 7 2 2 5 5 2 @ @ X X @ @ X & ; 8.p.D.b.L 2 9 : @ 2 O X @ @ , =   X X @ @ X X O O           O O O   $ p i u & o o o X     O O   X @ 4 O @ O O O O O O O O O X = , 2 2 2 @ @ @ @ @ @ @ @ @ @ @ ",
"2 1 1 O o # 2 5 2 2 H 0 0 0 7 , , = : : 7 7 , 9 j d , : @ 7 M S h , 7 7 T q d - : 7 9 - f y.w.l.R.N.) 9 - g Z *.R U R ^ R 0 @ $X2.: 7 0 7 : : 7 b V , : 7 7 0 0 U q ` @.C.J.s.K.E.wX].P.#.%.#.X.O.=.[ ' N b b b b V Z V V x j b M 2.n ` :.^.).K.L.R.!...m M q I R @.@.M h g g h = = @ X @ @ @ @ @ @ @ @ @ @ @ @ @ : M : X = , 0 U X.0 @ 4 #.0.g h h ` T 5 2 @ @ @ @ @ @ X X X X & < g 0.Z.b.! 2 , , 0 @ @ @ X @ @ 0 7 @ O O @ O X X         . $ .   O O     X ; - - - - - = X X O O O O 4 4 1 O O O O O O O O O X X @ @ 2 2 @ @ @ @ @ @ @ O @ @ @ @ ",
"X X   c C = 1 4 @ 2 4 H 5 5 5 2 7 @ @ 2 2 0 7 9 b h , : : 0 [ S g , 7 : 0 T 9 - e t : g r.u.!.(.C.' b j V X.%.( I U ^ T , 9 0   hX  9 7 0 : , h V 0., : 7 7 7 0 q ` M ] B.K.s.H.K.mXi.Q.+.] ^ @.&.*. ...N N b q 9  . .m x Z V m V e.S A f.).(.V.K.L.!.i.A m j b U ( ( T q m j j g g - X X X X @ @ @ @ @ @ @ @ @ @ : { : X 2 5 H L O.x X 1 T p.0.q I Q L 5 2 @ @ @ = X X @ X = X < v 8.X.S.( 5 : h 7 H 4 O X O O @ 5 5 O   O X O O O O         o X           = - d , : : 2 2 2 @ O O O O O O O O O O O O O O O   X = = @ @ @ @ @ @ @ @ @ @ @ @ @ @ @ ",
"X   - r.- O O 4 @ @ 1 2 : 7 2 2 @ @ @ @ 2 5 5 0 N 9 : : : I &.S h : : : 0 I 0 , < s k 0.j.!./.M.` x c x  .^ ~ 0 0 0 7 7 9 7 7 : B lX@ @ : 0 9 , o.V : : : : 7 0 q M M U &.C...P.mXI.!.a.h.b U R %.#.' ..S A N M q @.@.' X. .A e.e.i...A g.(.Z.-.B.Z.^.s.[ b m m N U I I 0 U ] N j x g - = = X X X @ @ @ @ @ @ @ @ 7 ` 9 , 2 5 5 2 ` i.= @ 5 f.p.U H H 5 2 @ @ @ @ > = X @ , : = c w.e.-.B.I 2 , 9 H 5 O + . O   + 3 1 O X X X X O X O X X X X X = X   O     X 7 0 L K G G 4 4 7 X O     O O O O O O O O O O O O X - = @ @ @ @ @ @ @ @ @ @ @ @ @ @ @ ",
"@ 4 T 7 X O O @ @ @ @ @ = = @ @ X @ @ @ 2 2 2 0 N , @ 2 2 T %.A h , : 7 : 0 9 9 k F 9.j.E.S.v.^ N 0.e.X.@.U 0 0 7 7 7 : 7 7 : : : > pX-Xh.5.W.W.Q.F.h.5.h.h.h.W.Q.Q.Q.Q.Q.].wXeXm.^.!.l.a.h b U @.@.@.X...A A m A #.@. .X.X...i.s.Z.R X.L.T.V.=.:.C.E.d.^ R ] N N b , 9 9 T I U M ' m d - - = = X X @ @ X @ @ @ @ 2 I 0 , , @ @ @ I -., X @ &.~.' 2 2 @ @ X @ @ @ @ @ @ @ : 7 , q.w.s.V.X.0 2 9 I H O . * % o . + # O X X X X X X O O   O O   X @ @ O O O O O 4 K K G 4 1 O O @ @ O       O O O O O O O O O     X = : @ @ @ @ @ @ @ @ @ @ @ @ @ @ @ ",
"X G W 1 O   O O O O O @ = - : @ @ @ X @ 2 @ 2 U m , @ 2 : I ^ N b , , : : : 7 j 8.w.g.D.b.( q b ..i.=.X.N b 0 7 2 7 7 7 7 : : : : ,   w W.|.XXXXXX}.}.}.}.}.}.}.XXXX}. XXX].:.` D.R.^.l.a.m b U ] ] ] @.@.[ X.V e.i.....A  .O.f.#.M.T :.C.C.=.i.s.m.Z.g.M T R R ] M , , m M 0 0 R ^ R 0 9 , d d d = @ X # @ : @ X 2 5 0 9 j - @ @ 2 ( q X @ I E.f.- X @ @ = @ @ @ @ 2 @ X @ w g w.p.C.#.@.T @ 2 G 4 O o & & ; X X = = X X X X X O O O O O O O O 4 1 O O       O 1 1 O O       @ O O         O O O O O O O O   o = = @ @ @ @ @ @ @ @ @ @ @ @ O @ @ @ ",
"X 1 4 O     O O O O O 2 : , : , = X X X @ @ 2 q N , @ : : I R M 9 7 , - , ; B e.t.U.N.v.q w b ..O.-.*.N j , 7 : : @ 7 7 7 : : : : : : : , 9 9 9 9 , 7 7 7 7 7 0 0 0 9 9 U #.:.X.Z.E.).^.p.V b M ] ` ] ^ ^ @.[ O.i.e.e... .X.:.C.v.^ M P.&.n.:.g.i.[ B.!.V 0 q R ^ R 0 9 N m h q R R T T T q j l z d - - ; 2 @ @ @ @ 2 2 5 9 h , X @ H ` , @ 5 C.l.8.X @ : @ @ X X @ @ @ X o ; z e.K.M.R ) T X 4 4 O X X - d - = X = : X @ @ @ O O O O O O O O O O O O O O O                   X O         O O O O O O O O O   X = = @ @ @ @ @ @ @ @ @ @ @ @ @ @ @ @ ",
"X O   O   O O O O O O 4 7 : , , = @ @ @ @ @ 0 ` n = @ 7 7 0 R q b , 9 , f c t.I.T.S.T b x d m *.V.O.' ' b , - : : : 7 2 : : 7 7 : : X   } 2.+.+.+.| | <.,.,.| | | | | | 2.>.H  .H./.(.^.j.Z b M ` M ` U U ] ] :.s.s.s.=.X.=.B.n.( I M H.] ] :.R.J.' &.!.S 9 0 I U I I U R U q 9 M b q q ` M N A N d g z l j , X @ @ @ 2 5 H 0 - - : 2 U 9 X @ R !.t.- @ : @ @ X X = = , X > c 8.#.D.&.T U b @ 1 @ O O X : : : @ @ @ 5 2 @ O O O O O O O O O O   O O         O         O       X X         O O O O O O O O O   = - = @ @ @ @ @ @ @ @ @ @ @ @ @ @ @ @ ",
"=         O O O O O O 4 2 7 : , = @ @ @ = : q ' b @ 2 0 7 7 I q b , , k 9.u.g.D.M.I 9 x 0.V O.s.=.X.' M q 9 - , = : : @ : : : : :   $XqX*X$X*X*X+X+XOX+XOXOXOXOXOXOX@X@X+X4XdX+X' T.R.^.l.e.b M q M ` b N ` ] :.-.V.V.=.O.=.&.R q q ` B.U R B.E.J...#.R.i.9 0 7 0 0 0 T ^ R I 0 M m j x Z S ' #.@.N c 0.q.8.g = : X X @ @ 5 5 0 9 , & 3 5 * i 3 T.!.g X : : @ @ @ = - - = - 0...&.=.-.U , 9 2 O O O X @ 2 0 H G 1 1 5 2 O O O O O O O                                   O     X @ O     O O O O O O O       X = = @ @ @ @ @ @ @ @ @ @ @ @ @ @ @ @ @ ",
"=       X X X   O X   1 2 7 0 9 X O @ = h 9 U ' : 2 5 7 7 7 q q b j c q.j.I.N.v.0 , Z i.A S f.=.*.[ N b q 0 , - , : : : : : : : o kX,.  7 U I M j h d h = X @ @ @ @ : 7 0 0 1 ].gXT E.^.!.e.b ' ` U ` N N ` [ -.&.B.V.&.=.=.] b V x X.#.q q ) D.d.O.] L.f.h 7 9 q 0 9 0 q q I U ] ` N e.0.e...` ` ..e.i.i.e.j h d d - = X @ 2 5 2 w p s P s s e %.^.i.X 7 : @ @ @ = , : : g A &.%.[ -.` 7 H 4 O O O @ @ 2 5 4 4 O O @ X O O O                             X X   O O O         X @ O   O O O O O O O O       X = : 2 @ @ @ @ @ @ @ @ @ @ @ @ @ @ @ @ ",
"= O O X = X   X X X X @ 2 2 0 : X @ : , 9 7 U q @ @ 2 7 7 0 q 0 j 8.w.l.T.v.~ I : V p.:.X.i.d.&.] M M b , , : : , = , = : : :   jXO 2 0 T I T q m m b b - : : 2 : 7 7 9 9 q R %.3.iXK.^.R.i.' ` M U U ' ' ' *.-.*.d.=.-.-.#.M m Z 0.[ #.M 9 ^ N.K.O.[ Z.I.j , b 9 9 9 9 q q q q ] @.] -.s.i.X.` ' S i.s.V.&.U m l z z g = , @ X @ 3 a k , h f h ` T.I.- @ : : @ @ : # t h x ) v.( ~ %.] 5 K 4 O O O O X @ 4 O O     O O O O     O O                     X X =   O O             @ O     O O O O   O       X X = @ 2 @ @ @ @ @ @ @ @ @ @ @ @ O @ @ @ ",
"X   X f X O X = = X O 4 4 5 0 = = , 7 0 5 5 q 7 @ @ 2 @ 7 9 7 b 0.t.I.D.%.M b h j X.:.s.X.&.%.` M N q 0 : : 0 : = d g = : = = |.5.@ @ 2 H 5 0 0 q q R q : 7 : @ : : 7 7 9 9 R X. .qX`.R.U.p...] M q R [ [ ' *.#.s.s.s.i.d.R U ' O.s.] [ A b ` &.K.s...:.I.Z , b q 9 9 b q q 0 0 T U R &.B.B.@.M N ....=.m.) ~ R N Z 8.z g d d = = : j g g x x m 0 N.E.S X 2 2 @ : > } w Z N c.! L L H ~ 4 4 O O O O   O O O O O   +   O   O o   O X                     X = X O O               @ O     O O   O   O   X   X = = @ @ @ @ @ @ @ @ @ @ @ @ @ @ O @ @ @ ",
"X O : , X O @ 7 @ O 4 4 1 2 7 , - 7 5 4 1 7 0 @ @ @ 2 : 9 = d i.g.E.N.&.m z x j N &.-.=.&.^ U 9 N ..9 0 9 : 7 7 : n - : , :   yX  @ @ @ 2 2 2 0 0 I R 0 : : : : : : : 9 , 9 ` O.i.;.wXZ.U.g.e.' ` U R @.[ X.=.O.s.g.f.f.s.] ` [ B.N.@.*.S x N [ d.f.i.s.U.e.b M U q 0 q U I 0 0 I U U R ) ) ^ q M X.*.&.n.R U U #.=.O.N j l c g d h b N 0 ` [ R I ~ D.g.d @ : , = , j 0.V v.! 4 5 1 6 K 4     O       O O O O O   . o O     - =   X X                   O @ @ O O               O @ X X X X X O O O   X X X - : @ @ @ @ @ @ @ @ @ @ @ @ @ O O @ @ @ ",
"X 4 5 O O 1 5 5 2 @ O O X : : 7 2 2 O O @ 0 7 X @ @ @ 0 , l t.f.T.C.@.N x x m x s.&.^ ] R 0 0 0  .b : X > 7 7 X 3 ^ : = : 3 . =X  @ @ @ X @ @ 7 0 0 0 7 : = @ @ : : : 7 9 M U B.V.[ wXm.U.g.p.' ] U R ^ ] =.s.s.f.g.U.H.*.U N i.B.v.] @.[ A A ' :.J.i.i.U.i.N ` U 0 0 q U 0 0 0 M M N U T T I 0 U ] @.%.^ U ' N R %.n.^ U A Z z z z ..%.L Q ( ) I H ( E.S = : , : , 9.w.#.v.G O @ o s 3 O   X         O O O O O     o X O   d f     X X           X X   O O O O O                 @ X X X X X O O X X X X X = @ @ @ @ @ @ @ @ @ @ @ @ @ @ @ @ @ @ @ ",
"@ 5 4 O O 4 4 O @ O X X @ 7 0 2 O O X X : 9 : X X @ 2 5 m t.p.H.-.i.i... .' S t.t.X.#.M 9 h m ` #.9 - f - : = d r U = = < a i #X  @ : X @ @ @ @ @ 7 7 w * * # X : : : 7 9 M U M.S.] eX&.L.R.g.O.U q U U ` O.=.f.g.!.U.Z.-.U A f.&.T T ^ %.@.' A -.Z.J.f.H.f. .0 0 0 0 0 I 0 7 9 b N m 0 0 5 2 0 I R ^ ^ U q N ' U ^ ) ^ I @.[ N e.9.0.i.N 0 T T 0 7 5 C.P., : : 7 j q.i.S.) @ O = X < - X O O       X X O O O O     # @ O   = M O   X @ O       X X X     O O O O                 X X @ O @ @ O O X : X X = = @ @ @ @ @ @ @ @ @ @ @ @ @ @ @ @ @ @ @ ",
"X @ @   O O O X X = - : 2 2 2 @ X X @ @ 9 , X X X : 0 I s.U.U.=.X.t.t...X...p.g.e.0.0.V j z 9.e.O.j z 0.c d l 9.9.8.l z z 9.c ,XX , , = = = = : = , - k F a o X : : : 0 q U M %.%.U eX@.L.T.g.i.M b b 9 N O.=.L.I.R.K.H.#.T -.B.R 0 U ` ] ^ [ i.*.B.K.f.J.I...I 0 0 0 0 0 0 0 0 M ` M 0 2 @ 2 2 7 q I I ` M ` ] q U ` M 0 T ~ ^ [ i.e.0.8.d 7 0 0 , : ( C.b : 7 : d O.N.v.T , - = @ , j O   O O     X X O O         # O O   O 4 G   X @ O O       @ @ O     O O                 X = @ 2 O @ 1 O O X : X X - = @ 2 @ @ @ @ @ @ @ @ @ @ @ @ @ @ O @ @ ",
"= X X     O   = d f , @ 1 @ @ X X O @ : b , X = : : : ^ D.C.#.U &.O.A N X.X.H.V...Z x b j c 8.0.z g q.0.g z q.w.w.q.9.q.w.w.w.,X- 9 - d g d d d g l 9.q.q.9.g , , , 9 9 N A V  .O.X.eX] K.K.J.t.m m b 9 ..O.d.K.R.T.V.H.R 0 n.v.T 0 9 N ` U X.f.=.&.B.H.I.!.p.0 2 2 0 5 5 5 0 0 I T T 0 2 @ @ 2 2 0 0 0 q ` U T I q M b h 0 H T ] %.C.-.' b , 9 q , d 0 %.o.o @ , - &.S.Q L b g = O 2 Y 1     O   X X O O       O   e @ O     1 1   O O O O       O O O O                       X - : 4 O @ @ 1 o = = @ : - @ @ @ @ @ @ @ @ @ @ @ @ @ @ @ @ @ @ @ @ ",
"= O O O O X = , , 7 @ O O X O O X X @ 9 9 @ : : 7 7 5 c.M.n.T ~ v.) X.=.^ v.b.v.) T T I ~ @.@.` q R *.` 0 ' X.i.i.Z V e.t.t.0.,XX 9 - g d d d g g z w.w.w.q.l h 9 9 9 j Z e.S i.p.i.wX..U.L.L.p.Z m b b s.O.d.L.T.B.V.m.T q @.T 0 7 0 U U q X.f.O.] m.B.L.R.g., F.| 2 2 5 2 2 5 5 5 5 2 2 @ @ @ 2 5 5 5 0 q 0 H 0 I I R 0 2 2 0 q ] v.v.( T 0 7 q b m h ' a.F , h 9 *.$.H H b n 2 O @ L 1 <.yX    X @ @ O       O   > @ O     O O   O O O O       O O O                         X h : 4 O X X + X - X 8 : = @ 1 O @ @ @ @ @ @ @ @ @ @ @ @ @ @ @ @ @ ",
"- X     X = , 0 2 1 O     O O   X @ : M : @ 2 5 5 5 4 Q [ ' 0 I T $.=.@.Q Q Q Q Q L H 5 Q ! ! L I ! c.L L ! c.v.( ( ( v.S.m.Y 4XO 2 0 0 0 0 0 9 7 ` s.g.p.Z d , 7 0 , j A O.X.i.p.i.wX..I.d.L.g.e.A m m :.=.d.K.D.@.n.( 0 I T 5 6 6 5 T 0 0 #.B.O.N #.%.N.D.V.  GX<X  @ @ @ @ 2 2 2 2 2 2 @ O O 2 4 4 4 5 H 5 2 2 5 H ( T 2 2 2 0 ` U Q W L H 2 0 N m N Z p.w.l h U [ ` 5 @ 7 ~ G O O I   pXIX<.    O O O       O   = 7 O       O     O O           O O                           - 9 4 O X o o = - 8 r - = @ @ @ @ @ @ @ @ @ @ @ @ @ @ @ @ @ @ @ @ ",
"- X = d = : 5 4 1 O O     O O   @ @ 9 n @ 4 5 5 5 2 O L  .g = : ' { @.L 2 @ 7 7 2 @ @ @ 2 2 5 7 7 5 G 4 1 G W W K K W c.c.c.I 5X  2 4 H H H H H L ! b.b.b.~ 2 2 2 7 0 R %.@.] V.K.*.wXX.L.d.T.I.t...b N =.s.L.N.M.( v.T 7 I H 3 s p 6 H 7 q &.M.] N ' ] v.b.v.  SX$X  @ @ O   O 2 O @ @ O     O @ O O 1 O 4 4 O   O 2 5 0 2 2 O O q 0 2 2 2 O O 5 `  .q A g.t.9.` R ` ~ H = 5 K O     2 2 + <.      O O         O     @ O                                                         = M 1 O X & ; - = r , - @ @ @ @ @ @ @ @ @ @ @ @ @ @ @ @ @ @ @ @ @ ",
"- = d h @ 4 1 O O   O O   X X @ O 2 9 : O 4 2 2 1 @ O ~  .x , q ^ ~ T : X 2 2 @ X X @ 2 @ X @ 2 @ @ @ O @ X @ @ O O @ 2 2 2 n &X  X O @ O 1 2 2 5 H Q ! ! H @ 2 2 : 0 R ^ R ] V.N.%.wX@.K.:.L.R.p.i.D o.s.J.C.v.^ T / b 0 5 7 , f F i 5 7 b [ %.) ] ] ' 2 / 3X3.SX&X  7   h.yXoX  @ @   <.yX@Xy   <.+ > =X#   y ;X%Xy O 2 O y %X5X3.O 2 @   |.0XW.0 X.` O qXgX+XT T T ~ 2 @ 1 O =X%X<.  O # 5.O   <.5.4.4.5.o     e -X-X<.  X   X X           X                               O   X q 2 O + ; d d , w d d 2 @ @ @ @ @ @ @ @ @ @ @ @ O @ @ @ O @ @ @ ",
"- : 0 2 O O O     O       X X O 4 0 q @ O O @ X @ X : ^ ' 0.h U Q H : = X @ @ @ X X @ @ @ X 2 2 @ X X O X X X X X X X X @ 0 I &X  X O X X X X X @ O             , h b b 9 0 ` -.) ^ eXT V.-.L.R.l.a.x.h.s.L.n.^ U b V b 7 7 : , x v p + 2 U ` M ^ v.^ N Q.IXBXSXIX$XO   fXIXhXFXLX    [.IXkXNX<X  hXNXIXSX  h.IXlXNXIXE O 1.IXNXNXIX{.O   AXHXNXIX}.]   SXJXbXIXMXO I 0 : 2 O IXSXBXIXe O {.IX    jXHXGXGXIXB   <.IXzXMXIX5.    X =           X                                     7 @ + $ - c g 9 j z , 2 @ @ @ @ @ @ @ @ @ @ @ O O @ @ O O @ @ @ ",
", 5 4 O O   O O     O O O @ O O 1 0 9 O O @ @ @ O @ b %.S 0.m 0 2 5 7 , X @ @ @ X X X @ @ X @ 2 2 X   X X O X X X X O X @ 5 H &X  X O X @ @ X X O <.ZXNXNXNXNXVX; , b b 9 9 ] ^ @.R eXU -.-.J.R.!.a.x.r.I.Z.#.` b Z e.M 7 : : 0 ' Z F i 5 T ~ U 0 T R @ DX5X    HX&XX O IX<.    IX<.  SX@X        ;XLX      ZX<X    HX;X  X       NXjX  } IX      @ R Q.IX1 L Q.IX@ 0 , @ O %XGX      O O W.IX  O       fXzX    zXlX    NXjX      @ O O       O O                                   : @ $ % - g N 0 g c , 2 @ @ @ @ @ @ @ @ @ @ @ @ @ O @ @ @ @ @ @ ",
"2 1 O O   X X X   O O @ O O O O 7 N : O @ @ @ X @ 2 C @.i.q.v - @ 5 : , X @ @ @ : X X @ X X @ 2 2   X X X X X X X X O X @ 2 @ &X  O X X X X X X X | NXzXzXzXzXvX7 9 q 0 0 0 ^ T ` ` eX` #.:.J.E.R.l.t.l.U.-.X.N N O.[ q 7 : 0 I ) *.k a 2 T ~ T 0 I T 1 KX*XO 0 KX&X  3 IXe   O IX<.  HX%X  X X   0XSX      GX$X    GX;X  >       zXjX  ,.IXB   X 0 H ].IXX 2 Q.IX1 0 7 5 O %XJX      @   W.IX  O O   1.IX+     BXpX    BXhX  O   4 1 O     O O O O                                 - : o f g g ` { d j 7 2 @ @ @ @ @ @ @ @ @ @ @ @ @ @ @ @ @ @ @ @ ",
"O         = X X O O @ O O O O @ 9 b X O @ @ X X @ U V R f.w.y.< X 2 7 , = @ @ @ : X X @ X X @ 2 @ X X X X X X X X O X X X X o &X  O X X X = = = , =             H I I 0 0 0 I 0 ' 7 eXN [ d.K.T.E.!.!.^.K.#.[ M [ m.( I 0 7 0 T ( n.A k @ 5 0 5 0 0 I 4 KX*XO G KX*XO 8 IXzXzXIXNX    JX$X  X X   <XFX      FXSXzXHXLXO @ O zXPXIXIXfX    AXIXLXBX7 H Q.IXlXVXIXeXO 2 L 4 1 # IXIXJXiX  O W.IX  O O   JX=X      NXHXjXGXIXr O O O 1 O O     O O                                     = , X g 8.x U N z , 5 2 @ @ @ @ @ @ @ @ @ @ @ @ @ @ @ @ O @ @ O ",
"    O O X @ O O O O X O   O @ 7 M , X X @ @ X X 5 ~ M ~ H.t.y.< X 7 7 , , X @ @ @ X X X X X @ @ @ X X X X X X X X O   X X X o %X  @ X = - = = X : : : @ 7 7 2 5 5 H H 0 7 7 7 9 ' 2 eX' ` :.Z.D.E.^.^.E.m.@.#.] ^ ) T q 0 0 7 7 T v.[ j X @ , 7 7 7 0 4 KX&XO G JX%XO > IXoX{.,.  v   JX&X  X O   0XSX  O   GXfX[.4.  O   hXGX#   zXjX  5   >.Q.LXkX  Q.IX+XXX>.q 7 5 G 5 O O O <.|.IX{.  W.IX  O   @XLX  O O   BXxX[.5.    O O   O O         O           O O X                   O X j : g c A U V z , 2 @ @ @ @ @ @ @ @ @ @ @ @ @ @ @ @ @ @ @ @ O ",
"    O O 2 O O O + + X X X @ 2 0 M @ O X X @ @ @ 5 ~ 0 T J.t.r.; : 7 0 , : @ @ : @ X X X X X @ X X X O O X X X X O   O O X X X &X  = - - , = @ @ @ 2 @ 2 2 2 2 2 @ 2 2 7 7 7 7 I @.4 eX] ] B.B.B.T.).).D.) [ O.` ^ I 0 0 0 5 2 @ 5 ~ ( U X @ @ 7 7 : 2   JXoX    GX&XO # IX8   =   e.  GXoX  O O   yXSX  O   GXoX      O   NXpX    zXjX  5 4 K O qXVX  F.IXH K H N , 4 4 4 O O O     SX=X  h.IX  @   IX4.        xXpX  X     O O                     O O     O           O O       O   k 7 d m @.T , j 0 2 @ @ @ @ @ @ @ @ @ @ @ @ @ @ @ @ @ @ @ @ O ",
"X O   h : O O   o O X X @ 1 2 U 9 X X X X @ @ @ 5 I , @.E.j.9.- : 7 0 , : : : : @ X   X X X X X O O O O O X X X X   O @ X = = &X  = : @ @ @ @ @ 2 2 @ 2 2 2 2 @ @ 2 2 @ 7 7 3 I ^ O eXU @.B.-.=.L.E.(.m.` i.s.] q 0 0 5 5 2 2 2 2 0 ! H i + 2 7 7 : 2   MXBXr [.IX$XO   JXhXB 5.jXU O jXGX} 1.W.  yXGX  O   hXSXy 1.pXB   iXJXy 5.IXhX  w 4X1.} LX0XO 3 IX3X>.XXfXO 1 O 1 O 1.@X<.5.IX4.  [.IX    zXHX[.oX%Xe   %XLX<.2.yX4.  O           O       O       O     O O     O           o B b - U ( I : 9 5 @ @ @ @ @ @ @ O @ @ @ O @ @ @ @ @ @ O O @ O ",
"O O X D =   X = X X @ @ O 1 2 M :   X X X X @ 2 5 0 m *.E.l.0.d : : 0 7 , : : @ @ X O X X X X X X X O O X X   X X X X X = g > &X  @ 2 1 X @ @ @ 2 2 @ @ @ @ @ @ @ @ @ @ 2 @ < r q O eX0 ] -.=.s.L.T.E.{ A g.-.T 7 7 5 5 2 @ @ @ 2 2 H 5 s i @ 2 : : : ; # ZXPXZX5.OXO @ t ZXLXJX5XK G   zXLXLX&X  |.hX  X X   zXLXKXhXX X   NXIXFX,.0X  3 MXJXLXfX  2 O F.GXLXSXXXG O O O   3.ZXLXLX|.  O 1.zX    fXzXNXNXZX<.    pXLXLXlX#   O O O     O O O   O O O         O O O               X ; g e.j 5 L 0 : 2 2 @ @ @ @ @ @ @ @ @ @ @ @ @ O O @ @ @ O O O O ",
"X O M = X   X X @ @ O O O O 0 q X O X X X X @ 2 5 0 m -./.l.Z d : @ 0 7 , : : : @ X O X X X X X X O   O X X X X X X X X : j X &X  @ @ @ @ @ @ @ 2 2 @ @ X X @ @ O @ @ @ @ , f h N = eX7 @.-.d.f.J.E.L.A ..K.) I 7 7 2 2 @ @ @ @ @ 2 2 : v k X : : @ : , e       O O 2 @ O       O L 4 O         @     X @ X X         X X @       O   @ O         @ O 1 O O     4 G O O O   O         @ O     + @               @       O O   O O O     O O                   O O O           X X X - l 0.A 5 7 , , @ 2 @ @ @ @ @ @ @ @ @ @ @ @ @ @ O @ @ @ O @ O O ",
"  G ! O   O @ O O 1 O O O @ q :     O O O O O @ 5 H ' n.D.f.V d @ @ 7 7 h , : : : = @ : @ X X X X X = = = = X X = X X @ 5 2   0X  O O O @ @ O @ @ @ X X @ X X X > X @ @ = d z V N : eX2 ) m.H.J.I.E.B.e.f.M.L 0 7 @ @ @ X @ @ @ @ @ @ , 0.g X : : @ 7 : < <   O 2 0 @ O @ 7 @ @ O 1 O O X @ @ O O O O O 2 O     X X @ @ @ O O O O O O O O O O O O O O O O O O X O O   X     O O 1 O O @ O O   O O O O X X   X X X + s 5 4 O   O                                               - - = - z e.#.T , d = @ @ @ @ @ @ @ @ @ @ @ @ @ @ @ @ O O O @ @ @ O O ",
"O K K O O 1 4 O O O O   O 2 9 X   O O   O O O O 4 Q R c.S.*.N - @ @ : 7 j j : : : X O : X X X X = - - = = X X O @ X O O 5 4   ;X# X O O O O O O O O O @ O O X = = X @ = , M m ' ` Q.+XI R n.Z.J.R.D.n.p.H.( 0 2 @ @ @ @ @ X @ O @ 2 @ 5 f.j X @ : 2 2 5 , > X O @ 2 @ O @ 5 @ O O X O O O @ O O O   O O 1 O O O X @ 4 4 1 O O O O X O O O O O O O O O O O   O O   O O O X     O O O O @ X O O   O O O O @     X O   ; 9 4 O   O O O                                           d , = - V s.%.Q , d : @ @ @ @ @ @ @ @ @ @ @ @ @ @ @ @ O @ O @ @ @ O O ",
"O O     O O O O O       O 0 :     O O   O O O @ 5 L 5 L v.*.N = X @ : 0 N h : 7 : X # @ = = = = = = = X X X O O 1 O O O 1 O X > yX  O O O O   O X O O @ @ O X = - @ : , 0 ( ( %.O lX2 0 ` &.D.L.T.n.%.I.-.H 2 2 @ @ @ @ O @ @ O @ 2 O G v.w * @ @ @ 2 5 q 9 O X O 2 @ @ @ 2 O O @ X O O O O O O O X   O O O O O   O 4 4 O O O O O O   O O O O O   O O O O O O O   O O O O O           > @ O O           @ O O O O   - M 1     O O O                                           X 0 0 - N -.) L , , 7 2 @ @ @ @ @ @ @ @ @ @ @ @ @ @ @ @ @ O O @ @ O @ ",
"        O O           O @ 9 X     O O   O O @ X 2 G 2 q ( =.A = X @ 2 I N , : 7 , = 8 X - = = @ @ @ @ O O O O O O O O O O X O   [.&X          O O O X X O @ @ 7 : @ , 7 L ! ! 1 fXA.I 7 N =.C.T.N.R @./.R 6 O @ @ @ X X O O X O @ @ O 4 c.J i X @ @ 2 2 0 7 O   O 2 @ @ @ O X O X X O O O O O O O O     O O   O O O O O O O O O O O O   O O O     O     O X     O     O O O O         @ @ O O       X X   O O 4 4 O @ U 4 O   O     O                                         O G W @ 9 ^ ! H h , 5 @ @ @ @ @ @ @ @ @ @ @ @ @ @ @ @ @ @ O O @ @ @ @ ",
"  X O O O O         O   7 : X     O O O O O @ @ @ 2 , V ) =.V = X @ 2 I U , 7 , , - , : : @ @ @ @ O O X O   O O O O   O       X   5.pX5.o + + + + + o + + o O @ O O + 1 + 3 }.fX+.` 0 9 ..X.m.D.) M #.S.T 6 + @ @ @ X X X O O O @ @ O O G 0 < X : @ @ @ L 3   O O @ : @ @ O O O O O O   O O O     O O   O O   O O O O   O O O O       O     O O O O O     X     O       O O O         @ 2 O O O X X X = O O O O O   O H 4 O                                                 . . 6 4 1 H ! W 5 , 7 2 2 @ @ @ @ @ @ @ @ @ O O O O @ @ @ O O O @ @ @ @ ",
"O X   O O         O   O 7 @     O O O O O O @ @ O 2 n m ( =.x = X @ 2 I I 9 9 , , - = 7 @ @ @ @ @ X O O   X   O   O O                 {.&X;X;X;X;X<X<X<X;X;X5X5X5X5X5X5X;X&XW.  A { 2 M =.#.n.M.R M @.( 9 e O @ @ @ X X X O O O X @ O O O 9 ; X @ @ @ @ 5 8 + O O @ 7 @ @ O O O O O O O O O O O   O O O O O O O O O O O O O O O   X     X X O O           X             O O O         @ 1 O O O O @ X = O O O O O   O 5 4 O     O                                           % u u & & * _ P @ : @ @ @ @ @ @ @ @ @ @ @ @ @ @ O O @ @ @ O O O @ @ @ @ ",
"O O     O       O   X 2 2 O       O O O   @ @ X O H ` b v.=.c ; X @ @ 5 0 q 9 , 9 , e 2 @ @ O O       O                                           - X X O O O O O O O O     = V  .9 : ' &.@.) ^ q ' R H , h X X @ @ O O O O O X X : X O O 7 b X # X @ @ @ , X   X @ 2 @ @ O O O O O O O O   X     O O O         O   O O O O O   X X O   X O O O           X O O                       O O O O O O 1 @ : 1 O     O     @ O O   O O                                         . u a a k < i a f - = @ @ @ @ @ @ @ @ @ @ @ @ @ @ @ @ @ @ @ @ @ @ O O @ @ ",
"O O O           X X = 0 O           O O O @ O O O L T b v.=.c ; X @ @ 2 0 0 0 0 q : r + X X X O         O O                               X O   = m : 2 2 4 4 1 O @ @ @ 2 @ ,  .' 7 b [ @.R R I 0 U 0 5 0 9 X @ @ @ O O O O O X @ : X   O 5 M - - - @ X X , = O O 2 2 4 1 @ O   O O O O O   X X         O         *   O O O O   X X X X O O O O   O   O O O O O               O       O O       O O 2 5 1           X X O     O O                                   .     . & f z c l k g z g = @ @ @ @ @ @ @ @ @ @ @ @ @ @ @ @ @ @ @ @ @ @ O O @ @ ",
"O   O       X X = = , @   O O       O O O O O   @ L I m ) =.0.- X @ @ @ 5 0 0 0 q , r O X X X O O       O                   O O O         O     H ~ 4 5 4 1 @ X @ @ @ @ @ @ M O.` 7  .] T U 0 7 0 I 2 2 L 0 @ @ X @ X X X O O X : 7 X   O 4 U , l b X X @ 7 : O X @ 2 1 O X O O O O O O O O : X   X               ; X     O O   @ O O O O O O O O O O O O O O O           O O O O     O O         O 2 0 4 O O       X @ O     O                                       ;   . ; l 8.z 8.8.8.z j : @ @ @ @ @ @ @ @ @ @ @ @ @ @ @ @ @ @ @ @ @ @ O @ @ @ ",
"          X = - = 2 2 O O O   O       O O O   X 2 H 0 V ) O.0.- @ @ @ @ 5 I 7 0 0 b - X X X X O                             O O O     O O   O O G G 4 O O O O X @ @ @ X = : ' O.9 b X.T 0 0 0 7 0 0 2 @ H H O @ @ @ @ X O O X O : : O   X O I , m , @ @ 2 I @ O X : 7 @ O @ X   O O O O O @ @ @ O X X   O     O X c d           O O O O O O O O O       O O O           O O O O O O   O O       X   X b 1 O O         O O O         O                               X c ; % < g Z V ..Z z l M 5 @ @ @ @ @ @ @ @ @ @ @ @ @ @ @ @ @ @ @ O O O O O @ @ ",
"O     X = - - : 2 4 O           O O   O O   X X X 5 R m ^ d.0., = @ @ @ 2 0 2 7 I M , X X X O O X O O                   O                   O O O O O O O X X @ @ @ @ @ @ @ ] ..j A R H 2 7 0 , 0 2 @ @ 2 2 @ @ @ O O @ X O X X 0 5 O O O O H I T 5 @ @ 2 H 1 O X , : X @ X X     O O O O O 2 @ X X O     O O   X x d   O     O O O O O O O O O O         O     X O O O O O   O O     O O       X X X 9 @ O O O     O O O           O       X X X X X   O       . $ . ; f & - l S [ ] ' N q I 5 @ @ @ @ @ @ @ @ @ @ @ @ @ @ @ @ @ @ O O O O O O @ @ ",
"  O X - h , 2 O O O O       O O O O   O   X : @ X 2 ~ b ^ V.0.< = @ @ @ 2 5 2 0 I q = X X X O O O O O                                   O O O O O O X X O X @ @ @ @ @ @ 2 2 ] ..Z  .0 : : 0 0 9 7 2 @ @ @ 1 @ O O O @ @ X X O X 0 2 O O   O H L ~ 2 @ @ @ 4 3 O @ @ @ O @ X X O O O O O O O @ @ X O O O     O     U T     O   O O O O O O O O O O O         O   O O O O O O   O O   . . O       X O O H G O O O     + O +                 X X X               . u p u < b d g z A ` I 0 0 5 5 1 @ @ @ @ @ @ @ @ @ @ @ @ @ @ @ @ @ @ O O O O O O @ @ ",
"X X = , : @ 1 O O     O       O     X   X = : O O 4 Q 9 ( -.8.F ; @ @ @ 2 2 7 0 I 0 , X X X X X O O O                 O O               O O O       O   X O @ @ O O @ @ @ @ [ ....U 9 f , 0 9 7 7 @ @ @ @ O @ + * O O @ O X O @ 2 O O O O @ 2 5 5 @ @ @ @ 1 X O O 2 2 O @ @ X   O   O O O O @ @ X O O O     O O O K W O         O O O O       O O       X X   O O O @ O O         X & .         > O O 4 4 O     + + o O   X   X X X X X O O O O O O O O     . % i a f d j Z g g b 0 2 2 4 4 2 @ @ @ @ @ @ @ @ @ @ @ @ @ O O O O @ @ @ @ @ @ O O @ O ",
"= X 7 2 1 O O                   X X X X @ : @ 1 @ 4 L 9 ~ *.q.y.; X @ @ 2 2 7 9 0 7 , = X X X X X O O           O O O                             O O     O O O O O @ X @ : X.O.] I b c , 0 0 7 2 @ @ @ O O O * i O O @ X @ @ @ 2 O + O O X X @ = @ @ @ X O X o O 1 @ @ @ : X X       O O O O @ @ O O O         O 4 4   O         O           O O       X X O O O O O O           X < &   O     : O O   O     O X X X X X X X X X X   O O O O O O O O O + $ $ $ ; z 8.z l z h 0 0 5 2 @ @ @ @ @ @ @ @ @ @ @ @ @ @ @ @ @ O O O O @ @ @ @ @ @ @ @ @ @ ",
"- 7 5 1 O             o   X X   X , X @ 5 5 @ @ X 2 I 9 T =.w.y.; X @ @ : 2 7 7 0 7 , : = X X X X O O   X                                       O O       O O O O O @ X X 9 ;.[ L 0 M N : 0 0 @ @ 2 @ @ @ O @ ; i   O O @ @ X : @ =     O O @ 2 2 @ @ @   O X * O O @ @ @ : @ @       O O O O : : O O O         O       O       O O           O O O O O O O O O O O O O           O e e O       O 1 O X   O X X X X X @ @ @ @ @ X O O O O O O O O O O   . & & = l 8.9.z g , 7 5 5 2 2 @ @ @ @ @ @ @ @ @ @ @ @ @ @ @ @ O @ @ @ O O O O O O O @ @ @ @ ",
", 9 @ o X X     O   = f = X O X : @ O 5 4 1 X X X 2 Q 9 U f.u.0.= @ @ @ : 7 7 : q , , , = X X X X X O   X X     O           O                         O O O O O O O @ @ 2 0 &.T 5 7 T I 2 5 2 @ @ 2 @ @ @ @ X - a   O O @ @ , = X j =   O O @ 2 @ @ X @ X O @ < O O X @ 2 7 2 @ O   O   O O O : , X         O     O         X X   O         X X O O O O O O O O     O O O         O e w X       O 4 X X   X X X X @ @ O O O O O O 1 O O O O         . . X ; - - g l V b 0 5 5 2 2 @ @ @ @ @ @ @ @ @ @ @ @ @ @ @ @ @ O @ @ @ O O @ @ O O @ O @ @ @ @ ",
"d d - = = X       X v - X   @ 2 2 O @ 2 O X X X @ 2 I 0 @.U.j.r.= = @ @ : : 2 0 b , : , = = = X X   O O O O             O   O O                     O O O O O X O O X @ 7 T ^ 0 7 H T H 2 2 @ @ @ @ @ @ @ X O b f X   O 1 2 : @ X g = O O X = @ @ @ @ O X X 2 , O O X @ 2 0 2 @ X             : 0       O O               O X X X O O     O O O O O O O O O O O                     i w @           O X O O X O O @ 7 O 1 1 1 1 O O O             $ & o = d g d - 9 T L 5 5 2 @ @ @ @ @ @ @ @ @ O @ O @ @ @ @ @ O @ @ @ O @ @ @ @ @ @ @ @ @ @ @ @ @ ",
"h j d d , X   O   0 n @ O O O 4 4 O X X O O X X @ 2 5 0 ) E.l.v ; X @ @ : @ 2 0 b , : , , = = X X   O O O O O           O O O     O O                   O O O     O X : 7 H I 7 2 2 5 5 2 2 @ @ @ @ @ @ @ O 1 U b   O O O @ 2 @ : 9 O   O = f X @ X @ O O O 2 9 X @ @ @ 2 0 7 @ X     O O     @ 2 O       O         X O   O X > X       O O O O O O O O O O O O       o     O       p } 2         O O O O O @ O O O 2 O O O O O O O           . . & & ; - d d - : 0 H H 2 2 @ @ @ @ @ @ @ @ @ @ @ @ O O O @ @ @ O @ @ @ @ @ O @ @ @ @ @ @ @ @ @ @ @ ",
"b j d g -   O O 1 Q 5 O O O O O O O X   O O O X @ 2 5 0 ( T.j.v & X @ @ : @ 2 0 9 , 7 : : , = X X   O O O O         O O O O                 O O O         O O     O X : 7 2 5 @ : 2 2 2 @ @ @ @ @ @ @ @ @ O 4 L w X O O O 1 2 2 2 G 1   O = f X @ @ @ O X O 5 0 @ X @ 2 2 7 7 @ @     O O   O O 2 O O               X O O O O @ @       X O O O O O O O O O   O   O   X X   O O O   p <.5 O       O O O O O O O O O 1 O O O O O O O . .   X X & & o f g d - , 7 5 5 2 2 @ @ @ @ @ @ @ @ @ @ @ @ @ @ @ O O O O O @ O O O O @ @ @ O @ @ @ @ @ @ @ O O ",
"0 - x j X   O   4 K O   O O     O O O O O O O X @ @ 5 0 ) D.p.v < X @ @ @ @ 2 5 0 9 : @ 7 : X X X X O O   O           O O O                 O O   O     O   O O O O O 2 2 2 @ @ @ 2 2 @ @ @ @ @ @ @ @ @ O O O K H X O   O 4 1 1 5 6 O O O 2 q @ @ @ @ X O O 5 5 @ X @ 2 @ 7 7 @ @ X           O 2 O O   O           O O O O O 2 2 O   X O O O O O     O O         O   = - X   O O   a B 2 O O       O O O O O O   O 1 O     .   O O o o X = ; < ; - l z g : 5 2 2 2 @ @ @ @ @ @ @ @ @ @ @ @ @ @ @ @ @ O O O O O @ @ @ O O @ @ @ O O @ @ @ @ @ @ O O ",
"H 0 n =         O O   O O O O O O O O     X X X @ @ 2 b #.D.p.r.< X X @ : @ @ 5 0 9 : 8 2 7 X X X X X                                             O   O         O O O 5 2 @ @ @ @ @ @ @ @ @ @ X : @ @ @ O O O 4 4 @     O 1 O O 3 >   O O 5 H @ @ @ @ X X O 1 5 @ @ @ 2 2 7 0 2 @ X     O   O O O O O O O           O O O O O O 2 O O O O O O O       O X   X X     X = ,       O   a D 0 O                 O + $   O O   $ $ .     X - - = < ; l g g g , 2 2 @ @ @ @ @ @ @ @ @ @ @ @ @ @ @ @ @ O O @ O O O @ @ @ @ O O @ @ O @ O O O O @ @ @ @ O O ",
"G T q   O O       O   O X O O   O O O O   O X X X @ 5 N X.C.p.9.< X X @ : @ @ 2 0 7 : e 2 2 X X X X                                               O O O             O 4 @ @ 1 2 2 @ @ @ @ O O X : = X O O O O O 4 O o   O O O O - d X O O 2 5 @ @ @ @ @ O O O 2 @ @ @ 2 2 2 0 2 2 @     O O O O O O O O O           O O O   O O @ O   O O O O X X X         X X   O O @ 7 O O   O   a | T O         . . .   O $ u . O   . . o X X X X - - = d z c g - 9 0 2 @ @ @ @ @ @ @ @ @ @ @ @ @ @ @ @ @ @ O @ O O @ @ @ @ @ @ O @ @ O @ @ O O O @ @ @ O O O O ",
"2 R 2   O             O X X   O O O O O O X X @ X @ H ` X.C.j.q.- ; X : : @ X 2 5 0 , 7 2 : @ X X X   O O                                           X       X X - = X X @ O @ @ , = @ O O X O X : @ X O O O O O O O * .     O X d h X O O O @ @ @ @ @ O O O O @ @ 7 @ @ 2 2 0 7 @ 2 X   O O O O O O X @ O   O     O O O O   O O X @ O O O O   X O O O O O O X X O O O O H 4         < $.Q 1     . $ u i u %   . < ; O     = - - = X o , - = j l l h : 5 2 2 @ O O O @ @ @ @ @ @ @ @ @ @ @ @ @ @ O @ @ @ @ @ @ @ @ @ O O O @ @ @ O O O O @ @ @ O O O ",
"7 0 O   O O     O O X = X   O O O O O O O X X @ X @ H ] =.C.l.9.- ; @ : @ @ X @ 5 0 9 7 @ @ @ X X X         O                 O     X X X o   O O O X X     X X f = = X @ @ X @ 9 X O O O O O O 2 @ X O O O O O O   & . O     X 0 0 X   O O @ @ @ @ @ X X X X @ @ 7 @ @ 2 2 0 0 7 @ X   O O O O X O X = X       O O O   O   X   O O O O O O O O O O O O O O O X O O O O 4 @ . $ $ % a $.P i % $ $ % % u & &     g c     X = - = X O o - m , - d j 7 2 2 2 @ @ O O O @ @ @ @ @ @ @ @ @ @ @ @ @ O @ @ @ @ @ @ @ @ @ @ O O O O @ @ O O O O @ @ @ @ O O ",
"7 @   O O O O O     - =     O O O O O O O   X X @ @ L ^ O.C.!.8.g f O @ @ X X @ 5 0 9 9 @ @ @ X X X X       O                 O   X = X = X   O O O @ O   X X X , X @ @ @ X O @ 2 @ O O O O O O 2 O O O O O O O O X ; $   O   2 Q K O   O O @ @ @ @ @ X X X X @ 3 3 2 2 @ 2 5 0 7 @ @ O O O O O     X - =     O O O       X = X O @   O O O O O O O O O O O O O O   . $ $ < p 6.p p 6.,.P i $ . o = f f - - =   d x = X X X = # 6 O = d l d = 7 0 2 2 2 @ @ @ @ @ O O @ O @ @ @ @ @ @ @ @ @ @ O O O @ @ @ @ O @ @ @ O O @ @ @ @ O O @ @ @ @ @ @ O O ",
":   O     O O O   X , X       O O O O O O   O O X O H %.*.M.L.z c f O @ @ X @ @ 2 0 9 9 @ @ @ X X X                               X =   @ X   O O O @ O   X @ 2 I 4 2 O O X O 4 2 @ O   O O O O O @ O O     O O O X = u $   O 4 K 4 O   O O X @ @ @ @ X X @ : @ 6 s O @ @ 2 5 I 0 @ @ X O O       O O = X O   O   O       = - X O O X O O O O O O O O O O   O O   $ i p p p p p i i 6.2.0 ; - = d d g g d - X X : ` 7 X & % 6 6 8 X = d g - @ 5 2 1 2 @ @ @ @ @ O O O @ O O @ @ @ @ @ @ @ O O O O @ @ @ @ O O O @ @ @ O @ @ @ @ @ @ @ @ @ @ @ @ O O ",
"X O O   O O O O O @ @   O     O O O O O O   O @ X @ H ^ ` S.B.r.y.f . @ @ @ @ @ 2 5 0 9 @ @ @ X X # oX4.    y     r o o   [.|.e   2 y O 1 y     # e O O O @ @ J J 4 2 @ r O O E 2 @ t O # <.1.y   X O <.<.1.O O O O } i %   e 3 4   5.|.<.  X y @ @ y X <.<.| 3.s % |.W.2 @ 5 I 5 @ 2 @ X O X X     O @ @ O O O O O O O   X , X O O O   O O O O X O   O O + . + + u p p a a k f g - y.D M g d - d - h b 0 7 @ @ 2 T 5 $ u u & : , - = - , 7 2 @ @ @ @ @ @ @ @ @ O O O O O @ @ @ @ @ @ @ @ O O @ O O @ @ @ @ O @ @ @ @ @ @ O O O @ @ @ @ @ @ @ @ O @ ",
"    O O O O O   1 4 O     O O O O O O O O     @ X @ H T ' m.B.p.r.f + X X @ @ @ 2 5 0 : : @ @ X 8 IXyXZXy # IX    HX[.  NXvXyXIXr e IX  O IX5.  zX;X  O O @   IX3 @ O [.SX    IXO <.LX  yXLXzXKXpX  %XIXzXBX+ O O   IX& u   nX=X  lXZXuXjX  y IX    IXe lXGXIXBX. LXfXNX{.O 2 H 5 @ 2 @ @ X X X X   O 4 1 O O   X O O O O @ 7 @ O O O   O   O     . * .   + * .   & a k c g x l l g v e.N h , @ 5 5 H Q L L 4 @ @ H 6 u i k g d d - : : 2 2 2 @ @ @ @ @ @ O O O O O O O O @ @ @ @ @ @ @ @ O O @ O O @ @ @ @ O O @ @ @ @ @ O O O @ @ @ @ @ @ @ @ @ @ ",
"  O       O O O O O O O   O X X       X X X X X @ @ 5 R Z [ f.l.w.f < @ @ @ X @ @ 5 I , = : @   yX0X      o IX    SX5.+ IX    @XfX  IX+ <.PXyX  FX<.O O O O 5.NX  = X h.BX    IXO } HX  yXyX    IX  @XhX    + O O   IX= ;   jX@X  IX      @ r LX    JX}   W.nX  h.SX  O O 2 2 2 2 2 @ @ X X O @ O O O O O O O   O O O O O 1 K 4     X O O   O O O & p %   X ; X X = g z 8.x m j h 9 o.f.R H L G G Q ( ( L 4 4 O o 6 6 < l z z d - : 2 @ @ @ @ @ @ @ @ @ @ O @ @ @ @ @ @ @ @ @ @ @ @ @ @ O O @ @ O O @ @ @ @ @ @ @ @ @ @ @ @ @ @ @ O O O @ @ @ @ @ @ ",
"  O         O O O O X X X X O X   O X X X X @ @ @ @ 2 ] V [ I.l.t.v > @ = X X @ @ 5 5 , j , @   $XNX    O O IX    ZX5.# IX    @XjX  HXy %X&XZX  IX+     O   VX1.. , @ W.NX    IXo B GX  0XpX    IX  %XhX    #   O   IX, =   jX@X  IXO     O r KX    HX} O }.MX  2.LX.   O 2 2 7 7 2 2 @ @ @ O O X O   O O O O O O O O O   O 4 1 X O O         O     < o   X f - X = d j A ` T Q ! W A.D.( K W G 7 q q 7 @ O O + % * ; z 8.8.l - 7 2 2 @ @ @ @ @ @ @ @ @ @ O O O @ @ O @ @ @ @ @ @ @ @ @ O O @ @ O O @ @ @ @ O O O @ @ @ @ O O O O O O O O O @ @ @ @ ",
"      X X   O O O       X O O O O O X X X X X X @ @ 5 @.N &.^.I.t.c o : : @ @ @ @ 2 7 9 V , @ : O BXIXGXo + IXGXGXIX1.# IX    @XjX  jX[.zXr LX  IX      O   LX  > 7 O 4.IXGXGXIX+ 2.GX  0XpX    IX  |.IXHXNX    O   IX2 =   jX@X  IX  iXNX# r IXGXGXIXy @ }.NXO @ zXIXIX<.@ : 7 7 2 2 @ @ @ O O X         O O O O O O     O + + O O   O       X O X , d X X j d X @ 0 ~ c.c.! c.c.W _ N.~ 5 2 , - = = = X     + > - l z z z b 0 5 2 @ @ @ @ @ @ @ @ @ @ @ @ @ @ @ @ @ @ @ @ @ O O O @ @ @ @ @ @ O O O O @ @ @ O O O @ @ @ @ @ O @ @ @ @ @ @ O @ @ O ",
"      X X     O O O O O O O O O O O O X X X X X @ @ 5 @.` n.E.U.e.g X @ @ @ @ @ @ 2 2 0 m , : : :     pXpXo IX    ZX5.# IX    @XjX  @X$XSX  AX<.SX  O O   ;X;X- b G O h.zX    IXo 2.GX  0XpX    IX  %XfX    >   O   IX4 2   jX@X  IX    GXB r JX    HX<.X }.MXO #.V X 5.GX  7 7 7 2 2 2 2 @ O O X X X   O O O O O O     . . % %   O X       X X O X , d X O 0 0 2 4 W c.c.c.K G G 6 6.A.T : = = = = @ O + +   X d l z l j 9 5 2 2 2 @ @ @ @ @ @ @ @ @ O @ @ @ @ @ @ @ @ @ @ O O O O @ @ @ @ @ @ O O O @ @ @ @ O O O @ @ @ @ O O @ @ @ @ @ @ O O O O ",
"    X X     O O   O O O O O O O O O O O O O X X @ @ H R U b.D.J.p.g X @ @ @ X @ @ 2 5 U m , : : X     @XhX+ IX    SX5.o IX    %XpX  2.NXVX  pXhXpX  O O   IX  c N 4 O 5.NX    IXO 2.GX  yX0X    IX  @XfX    X   O   IXO     kX@X  IX    SXy r LX    JX<.O }.MX  R A = } HX  2 0 0 2 2 2 @ @ O X X X O O O O O   +     . & . & &   O O O O   O X X X 7 0 1 1 K K 5 2 4 G G G O O O $ 6.>.I : X X @ O + * $ . X = g l g h 0 5 2 @ @ 2 @ @ @ @ @ @ @ @ @ O @ @ @ @ O O @ @ @ @ @ @ @ @ @ @ O @ O O O O @ @ @ @ O O O @ @ @ O O O O @ @ O O @ O O O O @ ",
"X O X X                       O O O O O O O X X @ @ H T U v.D.I.e.g = X = X X @ @ 2 5 T b b , X [.HXjXIXe # IX    JXh.  jXSXjXIXr   X IXfX  5.IX[.      [.BX  n 7 O   [.ZX    IX@ 1.KX  ;XIXGXIX=X  @XIXSXLXB   O   IXSXLX4.lX=X  pXHXfXIXe y IX    LX7.* oXVX  >.PXkXIX[.O 5 5 5 2 @ 2 : @ X X @ X X O O O   . &     X & X = - =   O O O O O X @ @ 4 W 4 4 4 4 4 X   O O O     X o 7.o.0 X @ @ 1 6 i % ; - = = - h 7 0 2 2 2 @ @ @ @ @ @ @ O O @ @ @ O @ @ O @ O O O @ @ @ @ @ @ @ @ @ O O O O @ O @ @ @ @ O O @ O @ @ @ O O O O O O O O O O O @ @ ",
"X O 1 O     O             X O O O O O O X X X X @ @ H I 0 ) Z.l.p.l ; X = X X X @ 2 5 I 0 h : :   t 5.o O X # O X o   o   <.5.+ O   : w X X   8   X     # O H ~ O O O O # X @ # 4 K # o O # e #   o O # e e O     O O e e $ + O +   } 5.# O @ # > : # s s 2 # 7 I A.XXe O 2 2 5 2 2 2 @ 2 @ X X O @ O O O O O   o   O X = = = - =   O O O O @ X X @ 4 4 1 O   O O + .   X X = = = o F e.0 1 @ 1 $ u i ; d g = = : 0 2 2 @ @ @ @ @ @ @ @ @ @ @ @ @ @ @ O O O O @ O O @ @ @ @ @ @ @ @ @ @ @ @ O O @ @ @ @ @ O O O @ O O O @ @ @ @ @ @ O O O O O O @ @ ",
"X O O   X X           O O   O O O O O O X X X X @ @ 5 I 0 R K.!.i.c ; @ : X X X @ @ 5 H 0 , : : @ @   X X X X   X                 O L L 4 O     @ X O O O O K W O O O O O   O O O 4 O O O O X @ X O O O O O O O   O O O O % .   X v X   O @ @ @ @ : : F s 2 7 2 T v.4.* 2 2 2 2 2 2 7 2 2 @ @ X O O O O       X = X X X : X @ 0 2 O O O X X X @ @ O 1 1 O O   O O + o X = - = = X o F a.0 O + + & ; l c g d = X @ 2 2 2 @ @ @ @ @ @ @ @ @ @ @ @ @ @ @ O O O O @ O O @ @ @ @ O O @ @ O O @ @ O @ @ @ @ @ @ @ O O @ O O @ @ @ @ @ @ @ O O O O O O @ @ ",
"X O O X X X X         O O O       O O O X X @ X @ @ 2 5 9 #.T.R.i.z ; @ @ X @ @ X @ 2 5 E : : @ @ @ X X X X X X X                 O W W 4 O   O @ O O O   O 4 4     O O O O O O O O O O O O O @ O O O O O O O O O   O O   i $   = 0.X O O @ @ @ 2 7 7 D F @ 2 2 H v.5.i 3 3 2 @ @ 2 2 2 2 @ @ @ O O O       X X X X X @ 2 2 2 L 4 O O O X X X @ 1 1 O O       O O X - - - - = X @ + F :.T . % & = d z z d , @ @ @ 2 @ @ @ @ @ @ @ @ @ @ @ @ @ @ @ @ @ O @ @ @ @ @ @ @ @ O O O O O O O O @ @ @ @ O @ @ @ @ @ @ @ @ @ O @ O @ @ @ @ @ @ @ O @ O @ @ @ ",
"X O O X X X X       O O O O X X     O O X O X X X @ 2 2 j =.G.U.i.z = @ @ X @ X X @ 2 7 P 3 : @ @ X X X X X X                 O   O 4 O O   O O @ O O   O O O         O O O O O     O O O O O @ @   X   O O O O           & &   = Z   O O O O @ 2 7 0 ..j : 2 2 5 T 4.a i 6 6 @ @ 7 2 2 @ @ @ @ X O O         O @ @ O O 4 4 5 G 1 X O O @ O O 2 1 1 O       O   X = d d - = : X O 3 <.-.L . & - - d l g , 2 2 2 2 @ @ @ @ @ @ @ @ @ @ @ @ @ @ @ @ @ @ O @ @ @ @ @ @ @ @ O O O O O O O O @ @ @ @ O @ @ @ @ @ @ @ @ @ O @ O @ @ @ @ @ @ @ @ @ @ @ @ @ ",
"X O O O @ O X   O     O O   X X   X       X X X X @ @ 0 V =.M.J.p.z = @ X X @ X X @ @ : _ + h = X X = X X X X X                 O   O         O O O     O O O         O O O   O O X O X   O O @ @ X X X       O       O O ; o   @ $.  O O O O @ 2 2 0 -.' @ 2 2 7 U o.k * s # @ 7 7 7 2 @ @ 2 @ X X X   O O O O 4 1 O O 4 1 O O @ X @ X @ O O @ O O O O     X = X = = = @ @ O + + + y &.H X g l d - , 9 2 1 @ @ @ @ @ @ @ @ @ @ @ @ @ @ @ @ @ @ @ @ @ @ @ O @ @ @ @ @ @ @ @ @ @ O O O O @ @ @ @ O O @ @ @ @ @ @ @ @ O @ O @ @ @ @ @ @ @ @ @ @ @ @ @ ",
"O O O O O O           O   X     X O O X   X X X X @ @ U ..' n.J.p.c = X X X X X X @ @ , r # d = = = X = X X X X . .       O     O   O   O     O O O O O       O X X   X O O   X O O O X O O O @ X O X O O O         O O O 9 X   4 ! O O O O O O 3 4 5 v.@.2 2 @ 7 0 s.b ; , , : 2 2 2 2 2 @ 2 @ X O X X O O O O 1 O O O O   O O X @ X X @ O O @ X X   O X X - = X X @ 3 6 6 6 u % % a [ 0 - l g - = 7 5 2 @ @ @ @ @ @ @ @ @ @ @ @ @ @ @ @ @ @ O @ @ @ @ O @ @ @ @ @ @ @ @ @ @ @ O O O O @ @ @ @ O O @ @ @ O @ @ @ @ O O O O @ @ @ @ @ @ O O @ @ @ @ ",
"O O O @ O O       X X X   O     O     O X X X X X @ 2 ( ` A &.I.a.F = = : X X X X X 2 b < 6 , = : @ @ @ : X X X ; .     X X                 O O O O     O O     X X   X O O O X X X X O O   O O O O O O O O O   O   O   O U X   4 W     O O O   6 + 4 c.( @ 2 2 2 I B.` - j , : 2 2 2 2 2 2 2 : X O X O           O O O O O X X O X - - X @ O X X   . $ o < < a % * 6 i p i u i u & d  .b = d h 7 2 2 2 @ @ @ @ @ @ @ @ @ @ @ @ @ @ @ @ @ O O O @ @ O O O O @ @ @ @ @ @ @ @ O O O @ O O @ @ O @ @ @ @ @ O O O O @ @ O O @ @ @ @ @ @ O O O O O O @ @ ",
"O X X O             X X   O X O O X X X X X X X X X 5 ( ` o.B.I.a.F = = = X X @ : @ 5 9 < s : - : @ : = : : = = f X   X                     O O O O   O O     O O     O O     X X X O O O O O O O O O O O O     O   O   O 0 @ O O * u .     X X ; : 4 Q Q 1 1 1 2 H v.| : q 7 2 5 2 2 2 2 2 2 @ @ X X           O X X     X X X X X - d X X X & & . % u a a a a a * * a a k f k - d c S 9 = = 7 2 2 2 @ @ @ @ @ @ @ @ @ @ @ @ @ @ @ @ @ @ O O O @ @ @ @ @ @ @ @ @ @ @ @ @ @ O O @ @ @ @ @ @ O O @ @ @ @ @ O O O @ @ O O @ @ @ @ @ @ @ O O O O O @ @ ",
"O X   O         O X X   O O O X X X X X X X X X X @ 5 ~ `  .C.!.k.7.= , = = X = d : H 9 k s : j , : @ = : , = d c X   X O O       O O O O   O O O   O O   O O O O   O O O O X X X X X @ O O O O O O O O O     O O   O O O H @     u p $   X X - c - @ G H O O O 4 H ( A.5 T H 5 2 2 2 2 2 2 2 @ @ X X           O X X X X X X X @ O @ , o $ & p i % < a F k f c l d d z 8.8.8.l g d z V 9 @ 2 2 2 @ @ @ @ @ @ @ @ @ @ @ @ @ @ @ @ @ @ @ @ @ @ @ @ @ @ @ @ @ @ @ @ @ @ @ @ @ @ O @ @ @ @ O O O O @ @ @ @ @ @ O O O @ @ @ @ O O O O O O O O O O O @ @ ",
"X X   O         O @ X     O X X X X X X X X X X @ @ 2 L @.` D.!.r.y.= : : = : - f : H b f 8 7 m h : @ : : , = j x     X O O O O O O O O O           O O       O O   O O O X X X X X O O     O O     O O             O O O H X     & < X X X X - 9.d X O 2 @ @ @ 1 4 T $.K W H 2 @ @ 2 2 2 2 2 @ : X X X     X   O X X X @ @ @ o O * 3 P i p p 6.a f g z 9.9.8.9.9.z z 9.9.9.8.z g d j M 7 2 @ @ @ @ @ @ @ 2 @ @ @ @ @ @ @ @ @ @ @ @ @ @ @ @ @ @ @ @ @ @ @ @ @ @ @ @ @ @ @ @ @ @ @ @ @ @ @ @ @ @ @ @ @ @ @ @ @ @ @ @ @ @ @ O O O @ @ O O @ O O O O @ ",
"X X O           O @ O   O   X X @ @ X X X X X @ @ @ 2 L @.U N.!.w.y.; : : = : b d @ H N x : 0 m d : @ 2 7 : 7 R 9 X   X O X O O O O O O O           O         O O   O O O X @ O O X O . u %   O   X X               O   O 5 @   X d d = X @ @ , s.: @ O @ O O O O O 0 { 4 4 4 2 @ @ 2 2 2 2 2 : : = X X X X X X X   o o @ @ * i i i s _ s F F y.9.8.8.9.q.q.9.9.9.8.z 9.q.9.c j , 7 0 I 2 @ @ @ @ @ @ @ @ @ @ @ @ @ @ @ @ @ @ @ @ @ @ @ @ @ @ @ @ @ @ @ @ @ @ @ @ @ @ @ @ @ @ @ O @ @ @ @ @ @ @ @ @ @ @ @ @ @ @ @ @ @ @ @ @ O O @ @ @ @ @ @ O O O O ",
"O X     O O     O O O   X X   X @ @ @ @ X X X @ @ @ @ 0 ] ` S.^.u.y.; ; : > 7 { : 2 H ` m 2 5 N j : @ 7 2 2 H ( 2 X X O O O O O   X X O           O               O O O O O O O   X   u 6.p   O X X X X         X X O O X 2 @   X - - X @ 1 4 H v.5 O O @ O O O O O 2 ` O O O 1 1 1 2 2 2 2 2 : , , = X X X X = X o * * O @ a a a F f c 9.q.q.w.w.q.8.8.0.0.Z e.e.0.0.0.e.S M q 0 2 2 5 2 @ @ @ @ @ @ @ @ @ @ @ @ @ @ @ @ @ @ @ @ @ @ @ @ @ @ @ @ @ @ @ @ @ @ @ @ @ @ @ @ @ @ @ @ @ @ @ @ @ @ @ @ @ @ @ @ @ @ @ @ @ @ @ @ @ @ O @ @ @ @ @ @ @ @ O O ",
"O       O + $ % u $ +     O O O O O @ X X X X @ @ @ : 0 ` ` N.^.u.z < ; 7 7 I Q @ @ L ) 0 @ 5 U h , @ @ @ @ 5 L @ X X   O O O O X X O O           O O             O O O O O O + X @   & a &   O X X X X X X     X       O 2 X   @ 0 0 O O O 4 L c.5 @ X O O O O   O 3 / O O O O O O O @ @ 2 2 : , , & u & & = = X & a < = = z 9.9.q.q.w.w.w.w.w.w.0.Z ..O.=.*.*.s.i.S A [ ] I 5 5 2 @ @ @ @ @ @ @ @ @ @ @ @ @ @ @ @ @ @ @ @ @ @ @ @ @ @ @ @ @ @ @ @ @ @ @ @ @ @ @ @ @ @ @ @ @ @ @ @ @ @ @ @ @ @ @ @ @ @ @ @ @ @ @ @ @ O O O O O O O O O O O @ @ @ @ ",
"O O   X   & u p p u . + O       + O X X X X @ @ @ @ @ 0 M U S.^.u.8.v ; @ : I H @ @ Q v.7 2 5 I b , : @ @ @ @ 2 X X           O O O     .   . $ . O     +           O O     o X X X = c l = X @ X X X X   X     X     O O @ X O 4 K K 1 O O @ 5 L 2 @ O @ O O     O 8 P O   O O O O O O @ @ 2 7 , : p p a < - = = g 8.8.g d q.w.w.w.w.q.w.w.w.t.p.X.[ ] n.-.#.*.=...A M U I 5 2 2 @ @ @ @ @ @ @ @ @ @ @ @ @ @ @ @ @ @ @ @ @ @ @ @ @ @ @ @ @ @ @ @ @ @ @ @ @ @ @ @ @ @ @ @ @ @ @ @ @ @ @ @ @ @ @ @ @ @ @ @ @ @ @ @ @ @ O O O @ @ O @ O O @ O @ @ @ @ ",
"O   X X X = < < i & . + o X   o o   X X X X @ @ @ @ @ I q U S.^.t.8.0.< @ : 2 2 X @ K Q 2 2 5 I 7 , : @ @ @ X X X O + o +     O O O   X o   o & .     X X       O O O O X X X X @ X - 8.g = X X @ : X X O O   O O O O O O 2 O   1 K G O O O O @ 2 2 @ O X O   X   O r E O   X O O O O @ @ @ 2 2 e s 7.F g z l d g 8.q.w.z g 9.w.w.w.q.0.t.p.s.V.D.m.@.R #.=.A m N M q 0 5 5 2 2 @ @ @ @ @ @ @ @ @ @ @ @ @ @ @ @ @ @ @ @ @ @ @ @ @ @ @ @ @ @ @ @ @ @ @ @ @ @ @ @ @ @ @ @ @ @ @ @ @ @ @ @ @ @ @ @ @ @ @ @ @ @ @ @ @ @ @ O @ @ @ @ @ @ @ @ @ @ @ @ @ @ ",
"  X X X = - d d - = X o X X X o + O O X X X X @ @ @ 2 H 0 0 N.(.i.0.v < @ @ X X X X 2 2 @ @ 2 5 7 , ,   O 1.4.4.4.4.4.4.4.4.4.4.4.4.4.h.4.4.4.4.4.4.4.4.4.4.4.4.4.4.4.4.4.4.4.4.4.4.5.Q.h.4.4.4.4.4.4.4.<.    O O O O O O 2 O   O O O O O   O @ @ @ O X X   O O O   s _   X X   X   X X X @ X * 6.s r.q.q.w.9.x g 8.q.q.8.l 0.p.i.i.s.&.N.S.M.M.M.&.N M m j j , 9 0 5 2 2 @ @ @ @ @ @ @ @ @ @ @ @ @ @ @ @ @ @ @ @ @ @ @ @ @ @ @ @ @ @ @ @ @ @ @ @ @ @ @ @ @ @ @ @ @ @ @ @ @ @ @ @ @ @ @ @ @ @ @ @ @ @ @ @ @ @ @ @ @ @ @ @ @ @ @ @ @ @ @ @ @ @ @ O @ ",
"  X X X = d g d - = X X X X = X X O O X O X X X @ X @ 5 2 b D.D.s.e.0.< @ X X X o @ @ @ @ X @ 5 7 h > yX-X|.}.}.}.}.}.}.}.}.}.}.{.{.{. X}.}.|.|.}.{.{.}.}.}.{.{.{.{.{.{.{.{.}.}.}.}.XXXXXX}.}.}.}.}.}.}.}.yX;X  O     O O @ O         O     O @ @ X O X X X     O   F y   X X X   X X X = = = F F r.w.w.w.q.0.x j Z e.i.V h X.B.V.D.N.( v.v.v.%.[ S x d d d , 7 2 2 2 @ @ @ @ @ @ @ @ @ @ @ @ @ @ @ @ @ @ @ @ @ @ @ @ @ @ @ @ @ @ @ @ @ @ @ @ @ @ @ @ @ @ @ @ @ @ @ @ @ @ @ @ @ @ @ @ @ @ @ @ @ @ @ @ @ @ @ @ @ @ @ @ @ @ @ @ O @ @ @ @ @ @ @ @ O O ",
"O 1 O @ 7 0 9 , X X X X X X = X X X X X X X X X X @ @ 2 0 Z K.S.:.p.8.; @ X X @ X @ @ @ @ @ @ 2 2 +.jX>   X X X X X X X X       O   X -   X : X X     O O       O O     O O O O O O K c.K 1 O O O O O O     B lX# X     O @ O O O   O O O O X @ X X O X X X     O X B w O X X X X X X = = ; k c w.w.w.t.0.e.i.m m ..:.C.#.m @.n.m.m.) / T T U N Z z g , 7 0 5 2 2 @ @ @ @ @ @ @ @ @ @ @ @ @ @ @ @ @ @ @ @ @ @ @ @ @ @ @ @ @ @ @ @ @ @ @ @ @ @ @ @ @ @ @ O O @ @ @ @ @ @ @ @ @ @ @ @ @ @ @ @ @ @ O O O O @ @ @ @ @ @ @ @ @ @ O O O O @ @ @ @ @ @ O O ",
"O 1 4 H K W K 5 1 O @ O O X @ X O     X X X X X X X X 2 q e.d.n.f.p.9.= @ @ = = = X X @ @ @ @ 2 2 lX  , @ @ X @ X X @ @ X   O   O O H 7 O 2 5 @ X   O O O O   X @ O O   O O 1 O O O 5 L 4 O O O O @ O O O       hX  O O O : X   O   O O O   X @ @ @ X @ X X     X X N M   X X X X X X = = a F 9.w.w.p.T.B.V.Z.' ' #.B.-.X.N U ~ ) ^ R n M 9 , g g j , 7 2 2 2 @ @ @ @ @ @ @ @ @ @ @ @ @ @ @ @ @ @ @ @ @ @ @ @ @ @ @ @ @ @ @ @ @ @ @ @ @ @ @ @ @ @ @ @ O @ @ @ @ @ @ @ @ @ @ @ @ @ @ @ @ @ @ @ @ @ @ O O O O O O @ @ @ @ O O O O O O O O @ @ @ @ O O ",
"O O 1 G K W K 4 1 1 1 O 1 1 O O O O O O @ X X X X X @ @ ] i.e.] g.p.q.- = = = = X X @ @ @ @ @ O qXE : : @ @ @ @ 2 @ @ O O O O   O O W G 1 4 H 4 @ O O O O     X X O O   O O O O X X @ 2 O     O O @ O O         5.}.O O O , =   O O O O O O X @ @ X O # X     O O X M M     X X X X X = a F z w.w.p.T.b.S.N.V. .' ` [ X.A N 0 0 I U N c g - - , 9 0 7 2 @ @ @ @ @ @ @ @ @ @ @ @ @ @ @ @ @ @ @ @ @ @ @ @ @ @ @ @ @ @ @ @ @ @ @ @ @ @ @ @ @ @ @ @ @ @ @ O @ @ @ @ @ @ @ @ @ @ @ @ @ @ @ @ @ @ @ @ @ O O O O O O O O O @ @ @ O O O O O O O @ @ @ O O O ",
"O O O O O 1 O O O O O O 1 4 O O O O X @ @ @ @ X X X @ 5 ) i.0.` !.j.8.- = : : @ @ X @ @ @ @ @ O qXO 7 : @ @ @ @ 2 2 @ O O O O O   O K 4 O 4 4 1 O   O O       @ O       O O   X X X @ O O     O O O O         X   0X  O X 7 X   O O   O O O X X @ X   >     O O O @ ^ T   O X X X X X < F v q.t.I.T.b.b.) ] ' N N M N  .A m b , 9 9 g z g - , 7 0 5 2 2 @ @ @ @ @ @ @ @ @ @ @ @ @ @ @ @ @ @ @ @ @ @ @ @ @ @ @ @ @ @ @ @ @ @ @ @ @ @ @ @ @ @ @ @ @ @ @ @ @ @ O O O O @ @ @ @ @ @ @ @ @ @ @ @ @ @ @ @ @ @ @ @ @ O O O @ @ @ @ @ @ O O O @ @ @ O O O O ",
"O   O +   X   O O     O O O O O O X O X O @ X @ X X @ H v.i.Z #.^.p.v ; @ 2 2 2 @ @ @ @ 2 @ @ r OX1 2 , = @ @ @ @ X @ O X     O O O O   O O O O O           O 2 O           O X X X 1 O O O O O O O         X X   ;XO O O 5 O O O     O O O X @ @ X   8         O 1 ! Q   X X X X X o F y.q.w.d./.S.b.L q ` U q 9 q M N V V l l g d d j , : 7 2 2 @ @ @ @ @ @ @ @ @ @ @ @ @ @ @ @ @ @ @ @ @ @ @ @ @ @ @ @ @ @ @ @ @ @ @ @ @ @ @ @ @ @ @ @ @ @ @ @ @ @ @ @ @ O O O O @ @ @ @ @ @ @ @ @ @ @ @ O O @ @ @ @ @ @ @ @ O O @ @ @ @ @ @ O @ @ @ @ @ O O O O ",
"  X > O   X   O O O       O O O       O O O X X @ X @ H v.O.V N.^.p.7.i : 2 @ @ X X X X @ @ @ y oXO @ , h X @ X X X X X O   O           O O O O             O 1 O     O X   O O @ O O O X     O O X     X X X @   =X+ O 1 K 1           O O @ @ @ X   r         O O L G O X X o X = - v q.w.i.D.D.S.T , j M 3 P y b 9 N A Z z l d , , 0 5 2 2 2 @ @ @ @ @ @ @ @ @ @ @ @ @ @ @ @ @ @ @ @ @ @ @ @ @ @ @ @ @ @ @ @ @ @ @ @ @ @ @ @ @ @ @ @ @ @ @ @ @ @ @ @ @ @ O @ @ @ @ @ @ @ @ @ @ @ O O @ O O O O O @ @ @ @ @ @ O O O @ O O O O O @ O @ @ @ @ O O O ",
"  = ; X O O     O O O   O O O       X   O X X X X X @ 5 v.=.S S.E.p.x.p @ 2 @ X X X X X O X X r oXO @ - j = @ X X X X O O O O         O O O O O O   O       O O       O X   O O O O     X       O X X X X O O O   =X+ O 1 4 O           O X X O @ @ O e O O     O X 5 2 X X X ; - - g q.w.p.Z.N.B. .h g g w 6 s F d m m A x l h , 7 7 2 2 @ @ @ @ @ @ @ @ @ @ @ @ @ @ @ @ @ @ @ @ @ @ @ @ @ @ @ @ @ @ @ @ @ @ @ @ @ @ @ @ @ @ @ @ @ @ @ @ @ @ @ @ @ @ @ @ @ O @ @ @ O @ O O O O O O O O O O O O O @ @ @ @ @ @ @ O O @ @ O O O O O O O @ @ @ O @ O O ",
"X - X O O O X X         O     O X = X X X X X X X X X 2 ! *.e.S.T.t.y.a o @ X X X X X X X X X r oX  7 h g = X X X X X   X           X X   O O               O O         X X O O O O   O @       X X X O O O O O   =X+   O O O             O O X O O X : X O     X X @ O   X = - - ; l w.p.J.D.-...c g d f y < v z z x m m m b 9 7 2 7 O O @ @ @ @ @ @   O @ @ @ @ @ @ O @ @ @ @ @ @ @ @ @ @ @ @ @ @ @ @ @ @ @ @ @ @ @ @ @ @ @ @ @ @ @ @ @ @ O O O O O O @ @ O @ @ @ O O O O O @ @ @ @ O O O O O O O @ @ @ @ O O O O O O O @ @ @ @ @ @ @ @ @ O @ @ @ ",
"@ : O O O O X X             X O = f X X X X X X X X @ 2 ! *.e.M.K.u.q.l = @ = = X X X X @ X X r oXX 9 0 j X X @ O + B   X     +   X X   +   O O   o y + o   + + + O   o     @ O O     @ 1   +     @ O O O O O O   =X+     O               O O X X X X 7 X X     X X @ 3 |.X , F k d z t.I.D.V...S Z h ; { m l 9.9.z g 9 q q 0 7 O 8 @ [.,.@ @ @ @ @ O hXW.O @ @ @ @ @ oX@ @ @ @ @ @ @ @ @ @ @ @ @ @ @ @ @ @ @ @ @ @ @ @ @ @ @ @ @ @ @ @ @ @ @ O O O O O @ @ O @ @ @ O O O O @ @ @ @ @ O O O O @ O O @ @ @ @ O O @ O O O O @ @ @ O O @ @ @ @ O @ @ @ ",
"K O   O O O X X               X - = X     X X X X X X 2 ! &.e.&.E.j.w.8.- @ = = X X X X @ X X t  X- 9 I : = X O 1.IXZXSX  [.IXGXGX    5.IX@X    [.IXZXzX  ZXJXJXhX  GXGXIX|.  O y IXpX    iXLXKXMX  O O O O       =X    X X     O         O O O O X + _   X X X   O @ } IXO < F f l Z J.D.C.O.m X. .B f e.0.9.9.8.j 9 0 7 0 7 O @XJX  GXyXO @ @ @ @ r IXzX  @ @ @ @ O IXE O @ @ @ @ @ @ @ @ @ @ @ @ @ @ @ @ @ @ @ @ @ @ @ @ @ @ @ @ @ @ @ @ @ @ @ @ @ @ @ @ @ @ @ @ @ @ @ @ @ @ @ @ @ @ O O @ @ O @ @ @ @ O O O @ @ O O @ @ @ @ @ @ O O @ @ @ @ @ @ ",
"K O   O O O O               X X X O O X O O X X X X X 2 ! n.A #.E.l.q.8.= @ : = X X X X @ @ X t oX- 7 H 2 = X   GX<.      }.zX  <XfX  hXuXSX    JX>       LXe       IX    IX    =XpXLX    lX|.  SXF.O O O         =X+ X = X               O O O O X 6 _   X       O @ B IXo < g x V ..C.S.` - 0 [  .V c 0.9.l j A q 5 O 7 @ @   KXW.  AX;X  O O @ @ O r O @ @ @ O O O IXy O @ @     O @ @ @ @ @ @ @ @ @ @ @ @ @ @ @ @ @ @ @ @ @ @ @ @ @ @ @ @ @ @ @ @ @ @ @ @ @ @ @ @ @ @ @ @ @ @ @ @ @ @ O @ @ O O @ @ @ O O O @ @ O @ @ @ @ @ @ @ @ O O O @ @ @ @ ",
"O O     O O O O O             4 2 X O O O X X X @ @ @ @ Q v.N #./.!.t.z ; @ : : X X X X @ X X t oX1 2 4 @ = =   HX<.      {.vX  {.NX  LX+ IX    LX>       LXe       IX+   IX    ZX<.LX#   jX@X  lX|.  O           =X+ X = X               O O O X   s 6.  + yXpX[.@ , B IX> ,X,Xx  .=.%.>.aXkX}.- e.k. Xl l +.+X0 5 7 oX@ @ @ 1.IX    SXoXW.;X<.  @ O }.E @ 2   {.0XW.IXy O @ O 0XhXOX  2 @ @ @ @ @ @ @ @ @ @ @ @ @ @ @ @ @ @ @ @ @ @ @ O O @ @ @ @ @ @ @ @ O @ @ @ @ @ @ O O O O O @ @ @ @ @ @ @ @ @ @ O O O O @ @ O O O O @ @ @ @ @ O O O O @ @ @ ",
"        O O O   O       O O O 4 4 O   O O O X X X O X @ H ( ' %.G.U.p.8.- 2 @ @ X X X X X X @ y %X4 O 1 @ - d X [.IXHX@X  }.zX  zX;X  IX  JXy   LXe       ZXLXLX}.  JXkXLX;X    IX  BX[.  hXiX<.IXr           O   =X+ @ X O                 O O X   s 7.  PXZXjXJX3.- B IXIXvXJXDX@ *.>.IXkXiXIXeXz z.IX> @ zXIXF.O oXIX  @   zXfX    BXIXNXzXIX4.O   IXoXO   NXJXjXZXIXy O   IXBXyXLXlX  @ @ @ @ @ @ @ @ @ @ @ @ @ @ @ @ @ @ @ @ @ @ @ @ @ @ @ @ @ @ @ O O @ @ @ @ O @ @ @ O O O O @ @ @ @ @ @ @ @ @ @ O O O @ @ @ O O O O @ @ @ @ @ @ O O O @ O O ",
"O   O O   O O       o   O   O O O O   O O O O X X O X O 5 ~ ' #.S.L.p.8.- @ @ @ X X X X @ O @ y #X+ O O @ , g -     e IXr [.IXGXpX  1.JX4.VX@X  LXe       JXy O     IX8 O IXo e IX4.hXpX  pXVXHX@X          O     =X+ O + O               $ O O X   F F 5.IX      = - <.IX; g e.IX{ b aXVX  @ }.LX- , IXA.  JXzXqX  pXNX  @ O IXr @   ZXhX    ZXpX    LX}.O # IX8   O IXy O F.IX    W.PX  @ @ @ @ @ @ @ @ @ @ @ @ @ @ @ @ @ @ @ @ @ O @ @ @ @ @ @ @ @ @ O O O O O O O O @ @ @ @ @ @ @ @ @ @ O O @ @ @ @ O O @ @ @ @ @ O @ @ @ @ @ @ @ O O O O O O O ",
"  X X     O O   X = o                 O O O O O X @ X X 2 ~ N ..S.U.j.9.- 2 @ @ X X X X X O @ y #X  O O 2 7 g d       ZX1.}.lX      yXBXpXjXMX  LXo       JXy       IXO   JXy {.GXpXiXGX  kX|.r LX          O     =X+ O 6     X           %   X X X F F 5.IX8     ; e <.IXv Z P.IX+.g gXVXX : oXPXO O JXoXO IX5.ZX  SX0X  O OXSX  @   ZXiX    NXpX    LX}.O r IXt @ 8 IXy   |.LX    |.LX  @ @ @ @ @ @ @ @ @ @ @ @ @ @ @ @ @ @ @ @ @ O @ @ @ @ O @ @ @ @ O O O O O O O O @ @ @ @ @ @ @ @ O O O O O O @ @ @ O @ @ @ @ @ O @ @ @ @ O @ @ @ O O O O O O ",
"X X       O     = f X   O             O O O O X O @ X X 2 T A e.N.U.p.8.- X @ @ X X X X O O X B @X  O O 4 0 j = yX;X@XIX  |.BX  O   PX<.  + IX  pXNX|.uX  LXhXpXiX  IXpXhXHX  ZX[.    IX+ zX;X  JX5.              =XO O 6 +   X X       X ; X @ O X 2.D   SXIXIXVX& w +.IXC [ A.IXe.g vXVX  @ oXIXO O zXhXy JX# LX  IX3.O   HX{.O @   ZXpX    NXpX    LX}.O y IXy O 8 IXy   |.IXNXHXIX|.O @ @ @ @ @ @ @ @ @ @ @ @ @ @ @ @ @ @ @ @ @ O @ @ @ @ @ @ @ @ O O O O O O O @ @ @ O @ @ @ @ @ @ @ @ O O O O O O @ @ @ @ @ @ @ @ @ O O O O O O @ O O O O @ @ ",
"X X   O   O   X d g X   O O   O O       O O O X X X @ @ 2 L  .0.-.T.g.v a X @ @ X X X X O X = D  X  O O 1 H b d y &XyX+   e 1.      h.      5.O   {.iX[.  <.{.{.[.  1.{.[.    5.      4.# <.r   r ,.              =X    e     X X       d c X O O @ o. .;   r 1.PXuX- r.IXC &.>.IXe.d kXVX  @ XXIXO O @XZX5.NX  IX  IX8 @ <.IX  @ @   ZXpX    NXpX    LX}.O y IXy @ 8 IXy   |.IX1.,.O   2 @ @ @ @ @ @ @ @ @ @ @ @ @ @ @ @ @ @ @ @ @ O @ @ @ @ @ @ @ @ O @ O O O @ @ @ @ @ O @ @ O @ @ O @ @ O O O O O O @ @ @ @ @ @ @ @ @ @ O O @ @ O O @ O O O @ @ ",
"X O O O     O @ 9 =             O     O O O O X X X X X 2 Q *.0.B.S.d.F p o @ @ X X X X O O : D  X    O O H I , =     X X     X   O           O O       X                 X O       O   O   O O                   =X    ;     X O O   X d 0.X O X , *.*.=   %   vXlXg r.IX+. .+.IXn , fXBX  O {.LX  @ 3.JXiX&X  LX{.IX    zXjX  @ @   ZXpX    BXpX    LX}.O e IX8 O O IXy O [.LX    O   2 @ @ @ @ @ @ @ @ @ @ @ @ @ @ @ @ @ @ @ @ @ O @ @ @ O @ @ @ @ @ @ @ O O @ @ @ @ @ O O O O O O O @ @ @ @ @ @ @ @ @ @ O O O O @ @ @ @ O O @ @ @ @ @ @ O O O O ",
"X X O       O L I   O                 O O O X X X X X X 2 Q &.0.&.S.s.y.6.o @ @ X X X X X O L | oX    O O 4 H , - = X X X X           X               O O                             O O     O O O               =X    ,   O O O     O - m X @ - , -.[ ,.sX[.{.IX Xl a.IXC j | IXY 0 F.IX[.3.ZXzX  @ O IXIX1.  hXJXZX  O IX} @ @ @   AXfX    ZXhX    IX|.O   IXiX,.zXIXy O # IX@X5.;XpX  @ @ @ @ @ @ @ @ @ @ @ @ @ @ @ @ @ @ @ @ @ @ @ @ @ @ @ @ @ @ @ @ @ O O @ @ @ @ O O O O O O O O @ @ @ @ @ @ @ @ O O O O O O @ @ O O O O @ O @ O @ @ O O O O ",
"X X O X     O W 4 O X X O     O X X X X O X X X X X X X @ Q m.Z #.m.g.r.7.o X X X X X X X @ Q | oX    @ X 4 H : - - @ X X X X O X X X               X X O O                           O       O O O               =X  X 9   O O O       I ^ X X d b *.U _ zXFXGX>Xl V +.zXA b w lXw 0   }.SXHXpX  7 @   uXhXX O 5.zX{.  3.pX  @ @ @   0X|.O   -X|.    hX3.O O <.AXHXOX|.y @ O 1.ZXHXzX<.O @ @ @ @ @ @ @ @ @ @ @ @ @ @ @ @ @ @ @ @ @ @ @ @ @ @ @ @ @ @ @ @ @ @ @ @ @ @ @ O @ @ @ O O @ @ @ @ O O @ @ @ @ O O O O O O @ O O O O O @ @ O O O O O @ O O ",
"O X X X   O O G 4 X X X   O   X X X X X X X X X X X X X @ Q n.Z N -.j.w.v & X = X X X X X @ W | |.  + X X 1 5 7 d - X X X X X X X X X O           X X X O O             X           X X   X     X X               =X  O 0   O O O   O O K W @ = d , ^ P s ; g d l A ` ` @ ` 0 2 O 2 2 7 O       7 @ @ 7     @ 2 O   O 2 O   @ @ @ @ @ O O 2 2 O O @ @   O @ @ O     O O O @ @ O       O @ @ @ @ @ @ @ @ @ @ @ @ @ @ @ @ @ @ @ @ @ @ @ @ @ @ @ @ @ @ @ @ @ @ @ @ @ @ @ @ @ @ @ @ O O @ @ @ O O O @ @ O @ O @ O O @ O @ O O O O O @ @ @ @ @ @ O @ @ @ ",
"O O X X O O O O O @ X X X O X X X X X X X X X X X X X X X L v.S A V.l.w.r.< X = = X X X X @ 5 # -X  & O X @ 2 5 h d = o X X X X X   + O O     .   X X X O O             X X       X X X X = X   O X               ;X  O J O O O       O 5 I = - , 7 ~ } v 9.9.l N ] q 0 0 I 5 2 2 2 @ 2 @ @ @ @ 2 @ @ @ @ @ @ @ @ @ @ @ @ @ @ @ @ @ @ @ @ @ @ @ @ @ @ @ @ @ @ @ @ @ @ @ @ @ @ @ @ @ @ @ @ @ @ @ @ @ @ @ @ @ @ @ @ @ @ @ @ @ @ @ @ @ @ @ @ @ @ @ @ @ @ @ @ @ @ @ @ @ @ @ @ @ O @ O O @ @ @ @ O O O O O O @ @ @ @ @ @ @ @ O @ @ @ @ @ O O @ O @ @ @ @ ",
"  X X O O O X   @ @ X X X X X X X X X X X X X X X X X X @ H v. .b D.!.u.0.a X = = X X X X @ @   yX+ *   X X @ 5 9 d = ; X : X X X X o         # O X O O   X           X X X   X   X X X X ; X   O X           O y =X  + 6             X - - - - 2 6 } l q.q.c M R U 0 7 7 7 2 @ 2 2 @ @ @ @ @ @ @ @ @ @ @ @ @ @ @ @ @ @ @ @ @ @ @ @ @ @ @ @ @ @ @ @ @ @ @ @ @ @ @ @ @ @ @ @ @ @ @ @ @ @ @ @ @ @ @ @ @ @ @ @ @ @ @ @ @ @ @ @ @ @ @ @ @ @ @ @ @ @ @ @ @ @ @ @ @ @ @ @ @ @ @ @ @ @ O O @ @ @ @ O O O O O O @ @ @ @ @ @ @ @ @ @ @ @ @ O O O O O @ @ @ O ",
"X   X   O O X O @ @ X X X X O O O O X X X X X X X X @ X @ 5 ( ' ' D.^.j.r.F X X : X X X X @ X @ B :X. X @ X @ 4 7 - , = X = X X X X X   X X X X O O O O X X           X X X X X X X X O X = X O O O         X   fX+   # s       . o X = d - , 7 r s k 8.q.c ' T 0 0 2 @ 2 2 @ @ @ @ @ @ @ @ @ @ @ @ @ @ @ @ @ @ @ @ @ @ @ @ @ @ @ @ @ @ @ @ @ @ @ @ @ @ @ @ @ @ @ @ @ @ @ @ @ @ @ @ @ @ @ @ @ @ @ @ @ @ @ @ @ @ @ @ @ @ @ @ @ @ @ @ @ @ @ @ @ @ O @ @ @ @ @ @ @ @ @ @ @ O O O O O @ @ @ @ @ @ O O @ @ @ O O @ @ @ @ @ O @ @ @ @ @ O O O @ O O @ O O ",
"X X X O O O O @ @ @ X X X O O O O O X X X X X X X X @ X @ 5 ~ ' ..D.(.p.q.F X @ : X X X X @ @ @   .X@X  X X @ 5 H , d - @ : : @ X - -   O X = : O O O   X o X         X X X     X X X X O 2 X             O   uX1.  O # <       o = - d - , : e s F l 9.0.' T 0 7 2 @ @ @ @ @ @ @ @ @ @ @ @ @ @ @ @ @ @ @ @ @ @ @ @ @ @ @ @ @ @ @ @ @ @ @ @ @ @ @ @ @ @ @ @ @ @ @ @ @ @ @ @ @ @ @ @ @ @ @ @ O O @ @ @ @ @ @ @ @ @ @ @ @ @ @ @ @ @ @ @ @ @ @ @ @ @ @ @ @ @ @ @ @ @ @ @ @ O O O O O @ @ @ @ @ @ @ @ @ @ @ O O @ @ @ @ @ @ O @ O @ O @ O O @ O @ O O O ",
"= = = X X X   X X O X X X O O O O X X X X X X X X X @ X @ 2 T ' ..N.E.l.w.v X @ : X X X X X @ @ = X h.pXW.8 > 8 8 8 n w 8 8 > 8 > f 8 > # > 8 8 # # > > > > # # # > > > > > > > > 8 8 8 8 8 8 # > > > # e [.pXB   X X = <   X X - d - - , : < a k z 9.0.' T 5 2 @ @ @ @ @ @ @ @ @ @ @ @ @ @ @ @ @ @ @ @ @ @ @ @ @ @ @ @ @ @ @ @ @ @ @ @ @ @ @ @ @ @ @ @ @ @ @ @ @ @ @ @ @ @ @ @ @ @ @ @ @ @ @ O @ @ @ @ @ @ @ @ @ @ @ @ @ @ @ @ @ @ @ @ @ @ @ @ @ @ @ @ @ @ @ @ @ @ @ @ @ @ @ O @ @ @ @ @ @ @ @ @ @ @ @ O O O @ @ @ O O @ @ O O @ @ @ @ @ @ O O O O ",
"= - = = = X X X X O O O X X X O O X X X O X X X X X @ @ @ 2 T  .e.N.T.l.w.z = : @ = @ X X X X : , j X   W.$X=X&X&X*X<X*X*X&X&X&X&X<X&X&X&X&X=X&X%X%X%X&X&X=X%X%X%X%X&X&X&X&X&X&X&X&X&X&X&X&X&X&X&X&X&X=X@X5.  o   X X , - o o & < < < 6 r e < k 8.q.8.N T 5 2 @ @ @ @ @ @ @ @ @ @ @ @ @ @ @ @ @ @ @ @ @ @ @ @ @ @ @ @ @ @ @ @ @ @ @ @ @ @ @ @ @ @ @ @ @ @ @ @ @ @ @ @ @ @ @ @ @ @ @ @ @ @ @ @ @ @ @ @ @ @ @ @ @ @ @ @ @ @ @ @ @ @ @ @ @ @ @ @ @ @ @ @ @ @ @ @ @ @ @ @ @ @ @ @ @ @ @ @ @ @ @ @ @ @ @ @ @ O O O @ @ @ O O O O O O @ @ @ @ O @ O O O O ",
", = = - - X @ @ X @ O O O X X O O O O X X X X X X @ X @ @ 2 T *.e.N.T.l.w.l , : : = X X @ @ X 2 0 h X X       O O 2 : = X O O O 2 7     O O 1 O         O O                                   . . . . $ $ u i p % . o , , = < a a a a r < < - z 9.z b I 5 @ @ @ @ @ @ @ @ @ @ @ @ @ @ @ @ @ @ @ @ @ @ @ @ @ @ @ @ @ @ @ @ @ @ @ @ @ @ @ @ @ @ @ @ @ @ @ @ @ @ @ @ @ @ @ @ @ @ @ @ @ @ @ @ @ @ @ @ @ @ @ @ @ @ @ @ @ @ @ @ @ @ @ @ @ @ @ @ @ @ @ @ @ @ @ @ @ @ @ @ @ @ @ @ @ @ O @ @ @ @ @ @ O O O @ @ @ O O O O @ @ O O @ @ @ @ O O @ @ @ O O O O O ",
"@ : = = = X @ @ = X O @ X X X O O O O X X X X X X @ X X @ @ T %.A &./.!.w.g = @ @ = @ X @ @ @ 5 H : X X X O @ O 4 L 0 , , : @ 2 L H @ O O 4 4 O O   X O @ O     X   X X X o $ & % % u i u i % u i i i p p p p p & o ; , h d d g l c x g g d l 9.8.N q 0 @ @ @ @ @ @ @ @ @ @ @ @ @ @ @ @ @ @ @ @ @ @ @ @ @ @ @ @ @ @ @ @ @ @ @ @ @ @ @ @ @ @ @ @ @ @ @ @ @ @ @ @ @ @ @ @ @ @ @ @ @ @ @ @ @ @ @ @ @ @ @ @ @ @ @ @ @ @ @ @ @ @ @ @ @ @ @ @ @ @ @ @ @ @ @ @ @ @ @ @ @ @ @ @ @ @ @ O @ @ @ @ @ @ O O O @ @ @ @ O O O @ @ O O @ @ @ @ O O @ @ O @ O O O O ",
"4 2 @ : X O @ : - = X O X X X O X X X X X X X X X @ X @ @ : T %.N -.T.^.0.F ; @ @ = @ X @ @ @ H Q 2 @ X X @ @ @ 2 H H , h : @ 2 L H X   O O O O       X X       X o & % u p p p p p p p p < < a a a < F F a k v d d g b j l z 8.0.0.8.z l g l 8.V R 0 2 : : @ @ @ @ @ @ @ @ @ @ @ @ @ @ @ @ @ @ @ @ @ @ @ @ @ @ @ @ @ @ @ @ @ @ @ @ @ @ @ @ @ @ @ @ @ @ @ @ @ @ @ @ @ @ @ @ @ @ @ @ @ @ @ @ @ @ @ @ @ @ @ @ @ @ @ O @ @ @ @ @ @ @ @ @ @ @ @ @ @ @ @ @ @ @ @ @ @ @ @ @ @ @ @ @ O O O O O O O O O O O @ @ @ @ O O O O O O @ @ @ @ O O O @ @ O O O O O ",
"5 4 2 2 X   X = - = @ @ : X X O   X O X X X X X X X @ X : : T v.N *.D.^.r.7.* @ @ : @ @ @ @ @ 5 L 2 X X @ @ @ @ @ 5 5 , g 7 @ @ 2 @ X X O O O     X X X X X   . % u u i p p a a a F F v v c l 8.8.8.8.9.9.9.q.9.l g l V j l 8.8.9.9.8.z g d g N R 0 2 7 @ @ @ @ @ @ @ @ @ @ @ @ @ @ @ @ @ @ @ @ @ @ @ @ @ @ @ @ @ @ @ @ @ @ @ @ @ @ @ @ @ @ @ @ @ @ @ @ @ @ @ @ @ @ @ @ @ @ @ @ @ @ @ @ @ @ @ @ @ @ @ @ @ @ @ @ @ @ @ @ @ @ @ @ @ @ @ @ @ @ @ @ @ @ @ @ @ @ @ @ @ O O @ @ @ @ O @ @ O O @ @ O O O O @ @ @ @ O @ O O O O O @ @ @ O O O @ @ O @ O O O ",
"@ 2 5 2 @ X @ : = X X = , @ X X X O O O X X X X X X @ X @ : I ( N X.S.R.r.7.& @ @ : : X X X X 2 5 @ @ X X O X X @ 2 5 9 j , : : : X X X O O   X X X X X o & & % i p a F 0.9.9.q.q.q.w.w.q.9.9.q.w.q.9.q.q.q.q.q.z g j m 9 g z z z c x g , , q U 0 7 7 : : @ @ @ @ @ @ @ @ @ @ @ @ @ @ @ @ @ @ @ @ @ @ @ @ @ @ @ @ @ @ @ @ @ @ @ @ @ @ @ @ @ @ @ @ @ @ @ @ @ @ @ @ @ @ @ @ @ @ @ @ @ @ @ @ @ @ @ @ @ @ @ @ @ @ @ @ @ @ @ @ @ @ @ @ @ @ @ @ @ @ @ @ @ @ @ @ @ @ @ @ @ @ @ @ @ @ @ @ @ O O O O O O @ O O @ @ @ @ @ O O @ @ O O O O @ @ @ @ O O @ @ O @ ",
"X @ 2 : : 7 2 2 @ X = = : X = = X   X o   X X X X X @ @ @ : 0 ~ ' O.S.L.w.y.= : : : : X X X X X @ X X X X X X X X X 2 0 h h , X X = X X X X X X X X = < i i a a k v 8.q.w.w.w.w.w.w.w.w.q.9.9.q.q.9.9.q.q.8.9.8.g h b q 0 M N M ' ` U 0 0 I I 0 7 7 7 : : @ @ @ @ @ @ @ @ @ @ @ @ @ @ @ @ @ @ @ @ @ @ @ @ @ @ @ @ @ @ @ @ @ @ @ @ @ @ @ @ @ @ @ @ @ @ @ @ @ @ @ @ @ @ @ @ @ @ @ @ @ @ @ @ @ @ @ @ @ @ @ @ @ @ @ @ @ @ @ @ @ @ @ @ @ @ @ @ @ @ @ @ @ @ @ @ @ @ @ @ @ @ @ @ @ @ @ @ @ @ @ @ @ @ @ @ O @ @ @ @ @ @ O O @ @ O O O O @ @ @ @ O @ @ @ O @ ",
"X = = = = 7 0 2 @ O : : @ X = = X = = = X X X X o X @ @ @ : 7 ~ ' S N.g.u.9.; = @ : : X X X X = X X X X X X X X X X 2 H 9 j , = = = = X X X X X X ; < a a F v z 8.q.w.w.w.w.w.q.q.w.w.w.i.S S e.i.....f.O.' =.' U 0 I 0 9 U R T T T H 5 5 2 7 7 7 7 7 : @ @ @ @ @ @ @ @ @ @ @ @ @ @ @ @ @ @ @ @ @ @ @ @ @ @ @ @ @ @ @ @ @ @ @ @ @ @ @ @ @ @ @ @ @ @ @ @ @ @ @ @ @ @ @ @ @ @ @ @ @ @ @ @ @ @ @ @ @ @ @ @ @ @ @ @ @ @ @ @ @ @ @ @ @ @ @ @ @ @ @ @ @ @ @ @ @ @ @ @ @ @ @ @ @ @ @ @ @ @ @ @ @ @ @ @ @ @ @ @ @ @ @ O O O @ @ @ @ O @ @ @ O O O O @ @ @ @ ",
"X X = - - , 7 7 @ @ 2 @ @ @ = = = - d - = = = = X X @ @ @ @ 7 ~ [ e.-.I.u.9.F = : : : X @ X @ @ X @ X X X X X X X X 2 H 0 j d = = = = = = = o & & & k v 0.9.q.9.q.q.q.w.t.t.t.e.e.i.f.f.-.^ &.-.N.n.n.M.v.v.v.~ I H I 7 9 q I 0 0 5 5 2 @ 2 : : : 7 7 @ @ @ @ @ @ @ @ @ @ @ @ @ @ @ @ @ @ @ @ @ @ @ @ @ @ @ @ @ @ @ @ @ @ @ @ @ @ @ @ @ @ @ @ @ @ @ @ @ @ @ @ @ @ @ @ @ @ @ @ @ @ @ @ @ @ @ @ @ @ @ @ @ @ @ @ @ @ @ @ @ @ @ @ @ @ @ @ @ @ @ @ @ @ @ @ @ @ @ @ @ @ @ @ @ @ @ @ @ @ @ @ @ @ @ @ @ @ @ @ @ @ @ @ O O O @ @ @ @ @ @ @ @ @ O O O @ @ @ @ ",
"@ 2 2 : - = = = : 7 7 : @ : : = = d g - = - - - = X X @ @ @ : ~ ] 0.m.R.j.y.a o 7 @ @ @ @ X X 2 @ @ X o * O O X X X @ 5 0 j g - = o & & o X < a = d 8.q.w.w.q.9.0.e.e.s.L.Z.C.n.M.M.b.b.v.Q v.v.v.v.v.v.( Q Q L 7 7 7 : : 0 7 2 7 2 : 2 @ : 2 7 7 7 7 @ @ @ @ @ @ @ @ @ @ @ @ @ @ @ @ @ @ @ @ @ @ @ @ @ @ @ @ @ @ @ @ @ @ @ @ @ @ @ @ @ @ 2 @ @ @ @ @ @ @ @ @ @ @ @ @ @ @ @ @ @ @ @ @ @ @ @ @ @ @ @ @ @ @ @ @ @ @ @ @ @ @ @ @ @ @ @ @ @ @ @ @ @ @ @ @ @ @ @ @ @ @ @ @ @ @ @ @ @ @ @ @ @ @ @ @ @ @ O O O O O O @ @ @ O O O O O O O O O O @ @ @ O O O ",
"@ 2 5 2 7 = = = = , , = : 0 : = = d h = , - d d = = = , = : : T @.e.m.(.l.y.7.o : @ X @ @ @ @ @ @ @ @ o u   X X X X @ 2 0 b g = < p 6.p & = g l l 9.w.w.w.q.0.i.*.m.N.S.b.b.c.c.c.v.v.v.~ I R R R U I I 0 7 7 : : : , : : 7 @ @ @ @ @ @ @ @ @ 2 2 2 @ 2 2 @ @ @ @ @ @ @ @ @ @ @ @ @ @ @ @ @ @ @ @ @ @ @ @ @ @ @ @ @ @ @ @ @ @ @ @ @ @ @ @ @ @ @ @ @ @ @ @ @ @ @ @ @ @ @ @ @ @ @ @ @ @ @ @ @ @ @ @ @ @ @ @ @ @ @ @ @ @ @ @ @ @ @ @ @ @ @ @ @ @ @ @ @ @ @ @ @ @ @ @ @ @ @ @ @ @ @ @ @ @ @ @ @ @ @ @ O O O O O @ @ @ @ O O O O @ @ O O O O @ O @ O O O ",
"O 1 5 5 2 @ X = = = = - : 7 : : q 9 : : = d d - = - - , - , : T %...n./.l.r.F & @ @ X @ @ @ @ @ @ @ @ # *   X X X X @ @ 5 q f s p 6.F k d l 9.9.8.9.q.w.t.i.-.v.b.b.b.b.b.( ~ T R R ] q 9 , b b h , , : : , , : : : : : @ @ @ @ @ @ @ @ @ @ @ @ @ @ @ @ @ @ @ @ @ @ @ @ @ @ @ @ @ @ @ @ @ @ @ @ @ @ @ @ @ @ @ @ @ @ @ @ @ @ @ @ @ @ @ @ @ @ @ @ @ @ @ @ @ @ @ @ @ @ @ @ @ @ @ @ @ @ @ @ @ @ @ @ @ @ @ @ @ @ @ @ @ @ @ @ @ @ @ @ @ @ @ @ @ @ @ @ @ @ @ @ @ @ @ @ @ @ @ @ @ @ @ @ @ @ @ @ @ @ @ @ @ @ @ O O O O @ @ @ @ @ @ @ @ @ O O @ @ @ @ @ @ O O ",
"O @ 2 5 7 : : : = = = - , , , 9 U T 2 @ : , , - = - - - - , , I %. .&.D.l.w.0.< X @ X X X X @ X @ @ X , ;   X X @ @ # * s _ F F F r.9.q.z 8.q.9.z S s.J.C.N.v.c.c.^ ] ` q b h h h g g g d d h h d - - , , , : : : @ @ @ @ @ @ @ @ @ @ @ @ @ @ @ @ @ @ @ @ @ @ @ @ @ @ @ @ @ @ @ @ @ @ @ @ @ @ @ @ @ @ @ @ @ @ @ @ @ @ @ @ @ @ @ @ @ @ @ @ @ @ @ @ @ @ @ @ @ @ @ @ @ @ @ @ @ @ @ @ @ @ @ @ @ @ @ @ @ @ @ @ @ @ @ @ @ @ @ @ @ @ @ @ @ @ @ @ @ @ @ @ @ @ @ @ @ @ @ @ @ @ @ @ @ @ @ @ @ @ @ @ @ @ @ @ @ @ O O O O @ @ @ @ @ @ @ @ @ @ @ @ @ @ @ @ @ O O ",
"@ @ : 7 : : : : : 7 7 , , , , b q 0 2 7 0 0 0 @ X = - - - , , 0 ) A :.D.l.w.9.k X : = X X X @ @ @ @ = , = X X . # * u i s _ F r.w.w.w.q.z z 0.V ' %.M.b.b.M.) Q U b j g g g g g g g g g - - h , , , , : : : @ @ 2 @ @ @ @ @ @ @ @ @ @ @ @ @ @ 2 @ @ 2 2 @ @ @ @ @ @ @ @ @ @ @ @ @ @ @ @ @ @ @ @ @ @ @ @ @ @ @ @ @ @ @ @ @ @ @ @ @ @ @ @ @ @ @ @ @ @ @ @ @ @ @ @ @ @ @ @ @ @ @ @ @ @ @ @ @ @ @ @ @ @ @ @ @ @ @ @ @ @ @ @ @ @ @ @ @ @ @ @ @ @ @ @ @ @ @ @ @ @ @ @ @ @ @ @ @ @ @ @ @ @ @ @ @ @ @ @ @ @ @ O O O @ @ @ @ @ @ @ @ @ O @ @ @ @ @ @ @ @ @ @ ",
"@ : : : : : : 7 7 0 0 7 7 : , b 9 , : 7 0 5 5 2 @ 7 7 : , : : 0 ^ S s.K.!.u.q.v = : = = X @ @ @ X @ X , = & u i i & ; v v e.9.w.w.w.q.9.j X.X.R ! c.c.c.( ] , , d g g d d g g d d d h - = : 7 7 7 7 : : @ @ @ @ @ @ @ @ @ @ @ @ @ @ @ @ @ @ @ 2 @ @ 2 2 @ @ @ @ @ @ @ @ @ @ @ @ @ @ @ @ @ @ @ @ @ @ @ @ @ @ @ @ @ @ @ @ @ @ @ @ @ @ @ @ @ @ @ @ @ @ @ @ @ @ @ @ @ @ @ @ @ @ @ @ @ @ @ @ @ @ @ @ @ @ @ @ @ @ @ @ @ @ @ @ @ @ @ @ @ @ @ @ @ @ @ @ @ @ @ @ @ @ @ @ @ @ @ @ @ @ @ @ @ @ @ @ @ @ @ @ @ @ @ O @ O @ @ @ @ @ @ @ @ O O @ @ @ @ @ @ @ @ @ @ ",
"= : : @ @ @ @ : 7 2 2 2 2 7 9 9 , = = , 9 7 0 7 2 5 5 2 8 @ @ 7 U S e.K.^.j.9.l - , = = > @ : X # & 3 , & i p a ; c q.w.q.q.w.w.w.t.i. .T b.c.! Q ( ^ U q b = - g V N h d h , , , 9 0 0 7 7 0 7 2 2 2 @ @ @ @ @ @ @ @ @ @ @ @ @ @ @ @ @ @ @ @ 2 : 2 2 2 @ @ @ @ @ @ @ @ @ @ @ @ @ @ @ @ @ @ @ @ @ @ @ @ @ @ @ @ @ @ @ @ @ @ @ @ @ @ @ @ @ @ @ @ @ @ @ @ @ @ @ @ @ @ @ @ @ @ @ @ @ @ @ @ @ @ @ @ @ @ @ @ @ @ @ @ @ @ @ @ @ @ @ @ @ @ @ @ @ @ @ @ @ @ @ @ @ @ @ @ @ @ @ @ @ @ @ @ @ @ @ @ @ @ @ @ @ @ @ O @ @ @ @ @ @ @ @ O O O O O @ O O @ O @ @ @ @ ",
"@ 2 2 4 1 2 2 @ 2 2 2 2 2 7 9 9 : @ = - = , , , : 7 0 7 : @ : 7 T X.i.D.E.p.9.g - : , = - = & * u i P 8 < k z z z 9.q.q.q.9.t.p.g.T.n.Q ! c.T 0 , h g l N q - g z S N 9 0 0 0 0 0 0 0 0 7 7 7 7 2 2 2 @ @ @ @ @ @ @ @ @ @ @ @ @ @ @ @ @ @ @ @ 2 2 2 @ @ @ @ @ @ @ @ @ @ @ @ @ @ @ @ @ @ @ @ @ @ @ @ @ @ @ @ @ @ @ @ @ @ @ @ @ @ @ @ @ @ @ @ @ @ @ @ @ @ @ @ @ @ @ @ @ @ @ @ @ @ @ @ @ @ @ @ @ @ @ @ @ @ @ @ @ @ @ @ @ @ @ @ @ @ @ @ @ @ @ @ @ @ @ @ @ @ @ @ @ @ @ @ @ @ @ @ @ @ @ @ @ @ @ @ O O @ @ @ @ @ @ @ @ O @ @ @ @ O O O O O O O O O @ @ @ @ ",
"4 4 4 4 1 1 1 1 1 2 @ 2 @ 2 0 0 @ : , , = = = = = = , h - , , 0 R X.i.N.T.g.0.- = = = - - ; i p p a 8 , d z q.9.8.9.q.9.Z ..Z.D.S.b.v.J 5 5 9 j g g g g h 0 - g Z V 9 0 0 7 7 7 7 7 7 7 7 7 7 7 7 2 @ @ @ @ 2 @ @ @ @ @ @ @ @ @ @ 2 2 @ @ @ @ 2 2 2 @ @ @ @ @ @ @ @ @ @ @ @ @ @ @ @ @ @ @ @ @ @ @ @ @ @ @ @ @ @ @ @ @ @ @ @ @ @ @ @ @ @ @ @ @ @ @ @ @ @ @ @ @ @ @ @ @ @ @ @ @ @ @ @ @ @ @ @ @ @ @ @ @ @ @ @ @ @ @ @ @ @ @ @ @ @ @ @ @ @ @ @ @ @ @ @ @ @ @ @ @ @ @ @ @ @ @ @ @ @ @ @ @ @ @ @ @ O @ @ @ @ @ @ @ @ @ @ @ O O O O O @ @ @ @ @ @ @ @ O O ",
"6 3 1 O O O O 1 O O @ @ 2 2 2 2 @ 7 9 7 @ @ @ X = = - d d d d b &.X.i.S.D.g.0.f ; = - - < a a F v g h h z 9.9.z z e...[ ) v.b.b.b.) w , : = g g d g g d h 9 , m V j , 7 7 7 7 7 7 7 2 @ 2 2 @ @ @ @ @ @ @ @ @ @ @ @ @ @ @ @ @ @ @ @ 2 @ @ @ @ @ 2 2 @ @ @ @ @ @ @ @ @ @ @ @ @ @ @ @ @ @ @ @ @ @ @ @ @ @ @ @ @ @ @ @ @ @ @ @ @ @ @ @ @ @ @ @ @ @ @ @ @ @ @ @ @ @ @ @ @ @ @ @ @ @ @ @ @ @ @ @ @ @ @ @ @ @ @ @ @ @ @ @ @ @ @ @ @ @ @ @ @ @ @ @ @ @ @ @ @ @ @ @ @ @ @ @ @ @ @ @ @ @ @ @ @ @ @ @ @ @ @ @ @ @ @ @ @ @ @ @ @ O O O O O @ @ @ @ @ @ O O O O ",
"u &   + + + + O O O O @ 2 2 2 O @ 9 7 @ 1 2 2 @ X = - d d - - d [ ..e.m.B.g.e.k < > , - f v c 9.9.8.g g z 9.8.j ` %.b.c.c.c.c.v.U j g f X - g d d g m b b 9 : b M 9 7 : : 7 7 : @ @ @ @ @ @ @ @ @ @ @ @ @ @ @ @ @ @ @ @ @ @ @ @ @ @ @ @ @ @ @ @ 2 2 @ @ @ @ @ @ @ @ @ @ @ @ @ @ @ @ @ @ @ @ @ @ @ @ @ @ @ @ @ @ @ @ @ @ @ @ @ @ @ @ @ @ @ @ @ @ @ @ @ @ @ @ @ @ @ @ @ @ @ @ @ @ @ @ @ @ @ @ @ @ @ @ @ @ @ @ @ @ @ @ @ @ @ @ @ @ @ @ @ @ @ @ @ @ @ @ @ @ @ @ @ @ @ @ @ @ @ @ @ @ @ @ @ @ @ @ @ @ @ @ @ @ @ @ @ @ @ @ @ @ @ @ @ @ @ @ O O O O O O O O ",
"< o o & & % $ &   . $ + O @ + # @ , @ @ @ 2 1 6 i s > - - ; < F B  .x $.-.g.c k < ; d d z 9.q.9.8.l = d N X.R L ! c.c.! T R Y r d l l k o X = d j Z N 9 9 @ @ 7 2 0 2 : : : : : : @ @ @ @ @ @ @ @ @ @ @ @ @ @ @ @ @ @ @ @ @ @ @ @ @ @ @ @ @ @ @ 2 2 @ @ @ @ @ @ @ @ @ @ @ @ @ @ @ @ @ @ @ @ @ @ @ @ @ @ @ @ @ @ @ @ @ @ @ @ @ @ @ @ @ @ @ @ @ @ @ @ @ @ @ @ @ @ @ @ @ @ @ @ @ @ @ @ @ @ @ @ @ @ @ @ @ @ @ @ @ @ @ @ @ @ @ @ @ @ @ @ @ @ @ @ @ @ @ @ @ @ @ @ @ @ @ @ @ @ @ @ @ @ @ @ @ @ @ @ @ @ @ @ @ @ @ @ @ @ @ @ @ @ @ @ @ @ @ O O O O O O O O O ",
"d = = ; ; < & & o & i & X X * * = , # o @ @ # s p s 6 r < a F F 2.X.x +.;.i.z l g g g z 9.q.9.8.g B yXXX~ ! F.}.XX>.2 3.- j l a.{. Xz.f   $XqXa.h.}.h.}.: ,.[.{.F.@ 1.{.{.@ @ : : 7 @ @ @ @ 2 2 2 2 @ @ @ @ @ @ @ @ @ @ @ @ @ @ @ @ @ @ @ @ @ @ 2 @ @ @ @ @ @ @ @ @ @ @ @ @ @ @ @ @ @ @ @ @ @ @ @ @ @ @ @ @ @ @ @ @ @ @ @ @ @ @ @ @ @ @ @ @ @ @ @ @ @ @ @ @ @ @ @ @ @ @ @ @ @ @ @ @ @ @ @ @ @ @ @ @ @ @ @ @ @ @ @ @ @ @ @ @ @ @ @ @ @ @ @ @ @ @ @ @ @ @ @ @ @ @ @ @ @ @ @ @ @ @ @ @ @ @ @ @ @ @ @ @ @ @ @ @ @ @ @ @ @ @ @ @ @ @ @ O O O O O @ @ O @ ",
"g d g d d d - = = - f = = = - - , = = = = = = k k f 9 b h j x c ..X.c e.V.e.9.9.8.z l z 9.9.e.S | IX%XnXA.5 IXpXzXh.B IX  z d LXzXvX,X  SXkXqXh.uXVXIXjX  IXjXzX@X  IXpXlXIX# @ 7 : : @ @ @ @ @ 2 @ @ @ @ 2 2 @ @ 2 2 @ @ @ @ @ @ @ 2 @ @ @ @ @ 2 2 2 @ @ @ @ @ @ @ @ @ @ @ @ @ @ @ @ @ @ @ @ @ @ @ @ @ @ @ @ @ @ @ @ @ @ @ @ @ @ @ @ @ @ @ @ @ @ @ @ @ @ @ @ @ @ @ @ @ @ @ @ @ @ @ @ @ @ @ @ @ @ @ @ @ @ @ @ @ @ @ @ @ @ @ @ @ @ @ @ @ @ @ @ @ @ @ @ @ @ @ @ @ @ @ @ @ @ @ @ @ @ @ @ @ @ @ @ @ @ @ @ @ @ @ @ @ @ @ O @ @ @ @ @ @ @ @ @ @ @ @ @ O @ ",
"g g l l l c g g g l z d - d l d h d - - d d g z z c x l z z e.e.i...0.e.:.e.9.8.z g j x S O.*.T iXqXO O 7 # IX    = B JX  z d KXB j 0.j IX  - d = W.BX    IX#   O   IX    pX&X@ 2 : 7 7 @ @ @ @ @ 2 @ @ @ @ @ @ @ 2 2 @ @ @ @ @ @ @ @ @ @ @ @ 2 2 2 @ @ @ @ @ @ @ @ @ @ @ @ @ @ @ @ @ @ @ @ @ @ @ @ @ @ @ @ @ @ @ @ @ @ @ @ @ @ @ @ @ @ @ @ @ @ @ @ @ @ @ @ @ @ @ @ @ @ @ @ @ @ @ @ @ @ @ @ @ @ @ @ @ @ @ @ @ @ @ @ @ @ @ @ @ @ @ @ @ @ @ @ @ @ @ @ @ @ @ @ @ @ @ @ @ @ @ @ @ @ @ @ @ @ @ @ @ @ @ @ @ @ @ @ @ @ @ @ O @ @ @ @ @ @ @ @ @ @ @ @ @ @ @ ",
"d l g g l l g g z z l d d g l d d d d d d d l z z z l l z 8.8.0.S A 0.e.*.i.c z g 9 q ` #.#.^ 0 $XZXX   - > IXX 8 = B JX  b = KX+.C 0.c IX  , 9 2 W.VX    IXt 8 @   IX    fX0XO 7 7 7 @ @ @ @ @ @ 2 2 @ @ @ @ @ @ @ 2 2 @ @ @ @ @ @ @ @ @ @ @ @ 2 2 2 @ 2 @ @ @ @ @ @ @ @ @ @ @ @ @ @ @ @ @ @ @ @ @ @ @ @ @ @ @ @ @ @ @ @ @ @ @ @ @ @ @ @ @ @ @ @ @ @ @ @ @ @ @ @ @ @ @ @ @ @ @ @ @ @ @ @ @ @ @ @ @ @ @ @ @ @ @ @ @ @ @ @ @ @ @ @ @ @ @ @ @ @ @ @ @ @ @ @ @ @ @ @ @ @ @ @ @ @ @ @ @ @ @ @ @ @ @ @ @ @ @ @ @ @ @ @ @ @ @ @ @ @ @ @ @ @ @ @ @ @ @ @ @ ",
"h h d d g g d g l l d - d g g d d d - - - d l l l g d g l z z x m N V V [ X.M b 9 0 T ~ R U 9 h X vXLXIX; = IXSXLXr B JX  I   SXGXJX X; IX  2 5 @ W.BX    HXGXLXW.  IX    fX0XO : 7 : @ @ @ @ 2 @ @ 2 2 @ @ @ @ 2 2 2 2 @ @ @ @ @ @ @ @ @ @ @ @ 2 2 @ 2 @ @ @ @ @ @ @ @ @ @ @ @ @ @ @ @ @ @ @ @ @ @ @ @ @ @ @ @ @ @ 2 @ @ @ @ @ @ @ @ @ @ @ @ @ @ @ @ @ @ @ @ @ @ @ @ @ @ @ @ @ @ @ @ @ @ @ @ @ @ @ @ @ @ @ @ @ @ @ @ @ @ @ @ @ @ @ @ @ @ @ @ @ @ @ @ @ @ @ @ @ @ @ @ @ @ @ @ @ @ @ @ @ @ @ @ @ @ @ @ @ @ @ @ @ @ @ @ @ @ @ @ @ @ @ @ @ @ @ O @ @ @ ",
"9 9 9 9 b h h h m m , , , b , , , , , , , 9 M N b , , 9 b N N M q ` ` N ] ] T I 0 0 0 I 0 0 9 , h X   yXfXX IX    > } JX  I   LXw   0 8 IX  2 2 @ W.BX    IXo   O   IX    fX;XO : : : @ @ 2 2 2 2 2 @ @ @ @ @ @ 2 2 2 2 @ @ @ @ @ 2 2 @ @ @ @ @ 2 @ 2 2 @ @ @ @ @ @ @ @ @ @ @ @ @ @ @ @ @ @ @ @ @ @ @ @ @ @ @ @ @ @ @ @ @ @ @ @ @ @ @ @ @ @ @ @ @ @ @ @ @ @ @ @ @ @ @ @ @ @ @ @ @ @ @ @ @ @ @ @ @ @ @ @ @ @ @ @ @ @ @ @ @ @ @ @ @ @ @ @ @ @ @ @ @ @ @ @ @ @ @ @ @ @ @ @ @ @ @ @ @ @ @ @ @ @ @ @ @ @ @ @ @ @ @ @ @ @ @ @ @ @ @ @ @ @ @ @ @ @ O @ @ @ ",
"q q 0 q q q 9 q M q 0 0 9 9 9 9 9 0 0 9 9 q U U 0 0 0 I T T I U 0 T U U U T I 0 0 7 7 0 0 0 0 9 @     =XhXO IX      } HX      LX8   O O IX      @ W.BX    IXO     O IX    zXOX@ : 2 : @ 2 2 2 2 2 @ @ @ @ @ 2 2 2 2 @ @ @ @ @ @ 2 2 2 @ @ 2 @ @ 2 @ 2 @ 2 @ @ @ @ @ @ @ @ @ @ @ @ @ @ @ @ @ @ @ @ @ @ @ @ @ @ @ @ @ @ @ @ @ @ @ @ @ @ @ @ @ @ @ @ @ @ @ @ @ @ @ @ @ @ @ @ @ @ @ @ @ @ @ @ @ @ @ @ @ @ @ @ @ @ @ @ @ @ @ @ @ @ @ @ @ @ @ @ @ @ @ @ @ @ @ @ @ @ @ @ @ @ @ @ @ @ @ @ @ @ @ @ @ @ @ @ @ @ @ @ @ @ @ @ @ @ @ @ @ @ @ @ @ @ @ @ @ O @ @ @ ",
"9 9 9 q q q q q q q 0 0 0 0 0 9 9 9 9 9 0 0 0 0 0 7 7 0 0 0 0 0 0 0 0 0 0 0 7 7 7 7 7 2 7 7 7 @ W.LXNXIX@ @ IXHXLXuXe IXHXIXO GXKXKXNX  jXHXZXfX  [.ZX    JXJXLXNX  LXLXLXGX  @ 2 2 : @ @ @ @ @ @ 2 @ @ @ @ @ @ @ @ @ @ @ 2 @ @ @ @ 2 2 @ @ @ 2 2 2 2 2 @ @ @ @ @ @ @ @ @ @ @ @ @ @ 2 @ @ @ @ @ @ @ @ @ @ @ @ @ @ @ @ @ @ @ @ @ @ @ @ @ @ @ @ @ @ @ @ @ @ @ @ @ @ @ @ @ @ @ @ @ @ @ @ @ @ @ @ @ @ @ @ @ @ @ @ @ @ @ @ @ @ @ @ @ @ @ @ @ @ @ @ @ @ @ @ @ @ @ @ @ @ @ @ @ @ @ @ @ @ @ @ @ @ @ @ @ @ @ @ @ @ @ @ @ @ @ @ @ @ @ @ @ @ @ @ @ @ @ @ @ @ @ ",
"9 9 9 9 9 9 9 9 9 9 9 9 9 9 9 9 9 9 9 9 9 9 9 0 0 0 7 7 7 7 0 7 7 0 0 9 9 7 : : : @ : : 7 7 7 7 O @ ,.O @ 7 O O O O 7 O O O 7 O O O @ w   t } O 7 @ O 7 7 O O O O w O O O   7 @ 2 2 @ @ @ @ @ @ @ @ @ @ 2 2 2 2 @ @ @ @ 2 @ @ @ @ @ @ @ 2 @ @ 2 2 2 2 2 @ @ @ @ @ @ @ @ @ @ @ @ @ @ @ @ @ @ @ @ @ @ @ @ @ @ @ @ @ @ @ @ @ @ @ @ @ @ @ 2 @ @ @ @ @ @ @ @ @ @ @ @ @ @ @ @ @ @ @ @ @ @ @ @ @ @ @ @ @ @ @ @ @ @ @ @ @ @ @ @ @ @ @ @ @ @ @ @ @ @ 2 @ @ @ @ @ @ @ @ @ @ @ @ @ @ @ @ @ @ @ @ @ @ @ @ @ @ @ @ @ @ @ @ @ @ @ @ @ @ @ @ @ @ @ @ @ @ @ @ @ @ @ ",
"b b b b b b b b b 9 b b 9 9 9 9 9 9 9 9 9 9 9 7 9 0 7 7 7 7 7 7 7 7 7 9 9 7 : : @ @ @ 2 7 7 7 : @ @ @ @ @ 2 2 2 @ @ @ @ @ 2 : : : : : : @ @ @ @ @ @ @ @ 2 @ @ @ @ @ @ @ 7 7 @ @ 2 2 @ @ @ @ @ @ @ @ @ @ 2 2 @ @ @ @ @ @ 2 @ @ @ @ @ @ @ @ @ 2 7 2 2 2 2 @ @ @ @ @ @ @ @ @ @ @ @ @ @ @ @ @ @ @ @ @ @ @ @ @ @ @ @ @ @ @ @ @ @ @ @ @ @ @ @ @ @ @ @ 2 @ @ @ @ @ @ @ @ @ @ @ @ @ @ @ @ @ @ @ @ @ @ @ @ @ @ @ @ @ @ @ @ @ @ @ @ @ @ @ @ @ @ @ @ @ @ @ @ @ @ @ @ @ @ @ @ @ @ @ @ @ @ @ @ @ @ @ @ @ @ @ @ @ @ @ @ @ @ @ @ @ @ @ @ @ @ @ @ @ @ @ @ @ @ @ @ @ ",
"M M M M M M M M M b b b b 9 9 9 9 9 9 9 9 9 9 9 9 9 7 7 7 7 7 7 7 7 7 9 9 7 7 : 7 2 @ 2 : 7 7 2 @ 2 @ 2 2 2 @ @ @ @ @ @ 2 2 @ 2 : : : @ @ @ @ @ @ @ @ @ 2 2 2 @ @ @ @ @ 7 7 : : : : @ @ 2 @ @ @ @ @ 2 2 2 2 2 @ @ @ 2 2 2 @ @ @ @ @ @ @ @ 2 2 2 2 2 2 2 2 @ @ @ @ @ @ @ @ @ @ @ @ @ 2 @ @ @ @ @ @ @ @ @ @ @ @ @ @ @ @ @ @ @ @ @ @ @ @ @ 2 @ @ @ 2 2 2 @ @ @ @ @ @ @ @ @ @ @ @ @ @ @ @ @ @ @ @ @ @ @ @ @ @ @ @ @ @ @ @ 2 @ 2 @ @ @ @ @ @ @ @ @ @ @ @ @ @ @ @ @ @ @ @ @ @ @ @ @ @ @ @ @ @ @ @ @ @ @ @ @ @ @ @ @ @ @ @ @ @ @ @ @ @ @ @ @ @ @ @ @ @ @ @ ",
"N N N N M M M N N N N M M q M b M M b b b b 9 9 9 9 0 7 7 7 7 0 7 0 0 0 0 7 7 7 2 2 2 @ @ : : 2 @ 2 @ @ @ @ @ @ @ @ @ @ 2 2 @ 2 7 : @ 2 @ @ @ @ @ @ @ @ 2 @ @ @ @ @ @ @ 7 7 : : : : @ @ @ @ @ @ @ @ 2 2 2 2 2 2 2 2 2 2 2 @ @ 2 2 @ @ @ @ 2 2 2 2 2 2 2 2 @ @ @ 2 2 2 2 @ @ @ @ @ @ @ @ @ @ @ @ @ @ @ @ @ @ @ @ @ 2 2 @ @ @ @ @ @ @ 2 2 2 @ @ @ 2 2 2 @ @ @ @ @ @ @ @ @ @ @ @ @ @ @ @ 2 @ 2 @ @ @ @ @ @ @ @ @ @ @ @ @ 2 @ 2 @ @ @ @ @ @ @ @ @ @ @ @ @ @ @ @ @ @ @ @ @ @ @ @ @ @ @ @ @ @ @ @ @ @ @ @ @ @ @ @ @ @ @ @ @ @ @ @ @ @ @ @ @ @ @ @ @ @ @ @ ",
"M N N N M M M M M M M M M M M M M M M M M M b 9 9 9 9 7 7 7 7 7 7 7 7 0 7 7 : : : : : : @ : 2 2 @ @ @ @ 2 @ @ @ @ @ : @ 2 2 : 7 2 : @ 2 @ @ @ @ @ @ @ @ @ @ @ 2 @ @ @ : : : : @ 7 : : 2 2 @ @ @ @ 2 2 2 2 @ 2 @ @ 2 2 2 2 @ @ 2 2 2 @ @ @ 2 2 2 7 2 2 2 2 2 2 2 @ @ 2 2 2 @ @ @ @ @ @ @ @ @ @ @ @ 2 2 @ @ @ @ 2 2 2 2 2 @ @ @ @ @ 2 2 2 @ @ @ @ @ 2 @ @ @ @ @ @ @ @ @ @ @ @ @ @ @ @ @ 2 2 @ @ @ @ @ @ @ @ @ @ @ @ @ @ @ @ @ @ @ @ @ @ @ @ @ @ @ @ @ @ @ @ @ @ @ @ @ @ @ 2 @ @ @ @ @ @ @ @ @ @ @ @ @ @ @ @ @ @ @ @ @ @ @ @ @ @ @ @ @ @ @ @ @ @ @ @ @ ",
"N N N N N N N N ` ` ` M M q M M M N M M M M b 9 9 9 9 7 7 7 7 7 7 7 7 7 7 7 : : 7 7 : : : @ @ 2 @ @ @ @ 7 @ @ @ @ @ @ @ @ @ 2 2 @ @ : : @ @ 2 2 2 2 2 2 @ @ @ @ @ @ 7 : : : @ @ @ @ @ @ 2 @ @ 2 2 2 2 2 2 @ @ @ 2 2 2 2 2 @ @ 2 2 2 2 2 @ 2 2 2 7 7 @ 2 2 2 2 2 2 @ 2 2 @ @ @ @ @ @ @ @ @ 2 2 @ @ 2 2 2 2 2 @ @ @ @ @ 2 @ @ @ @ @ @ @ 2 @ @ @ @ 2 2 @ @ @ @ @ @ @ @ @ @ @ @ @ @ @ @ @ @ @ 2 2 @ 2 2 2 2 2 2 @ @ @ @ @ @ 2 2 @ @ @ @ @ @ @ @ @ @ @ @ @ @ @ @ @ @ @ @ @ @ @ @ @ @ @ @ @ @ @ @ @ @ @ @ @ @ @ @ @ @ @ @ @ @ @ O @ @ @ @ @ @ @ @ @ @ @ @ ",
"' ' ' ' ' ' ` ` ` ` ` U U q U U q M M M M M b 9 9 9 9 7 7 7 0 0 7 7 7 7 7 : : 7 7 2 @ @ : : @ 2 @ @ 2 @ 7 7 @ @ @ : : @ @ @ 2 7 2 @ @ 2 @ @ 2 2 2 2 2 2 @ @ @ @ @ 2 7 7 2 @ @ @ @ @ @ @ 2 @ @ 2 2 2 2 2 @ @ @ @ 2 2 @ @ @ 2 2 @ @ @ 2 2 @ 2 2 2 2 : 2 2 2 2 2 @ @ @ 2 2 @ @ @ @ 2 @ @ @ @ 2 2 @ @ @ @ @ @ @ @ @ @ @ @ @ @ @ @ 2 2 @ @ 2 @ @ @ @ 7 @ @ @ @ @ 7 7 @ @ @ @ @ @ @ @ @ @ @ @ @ 2 2 2 @ 2 2 2 @ 2 @ @ @ @ @ @ 2 2 2 @ @ @ @ @ @ @ @ @ @ @ @ 2 @ @ @ @ @ @ @ @ @ @ @ @ @ @ @ @ @ @ @ @ @ @ @ @ @ @ @ @ @ @ @ @ @ @ @ @ @ @ @ @ @ @ @ @ @ @ ",
"' ' ' ' ' ` ` ` ` ` U U U U U U q U M M M M M b 9 9 9 7 7 7 7 7 7 7 7 7 7 7 7 7 2 2 2 2 : : 2 2 : @ 2 2 7 7 @ @ @ @ : @ @ @ 7 7 2 2 2 2 @ @ 2 2 2 2 2 2 2 2 2 2 2 2 7 7 2 2 @ @ @ @ @ @ 2 @ @ 2 2 2 2 2 2 @ @ 2 2 2 @ @ @ @ 2 2 @ @ @ @ @ @ 2 2 7 7 : @ 2 @ @ @ @ @ @ @ @ 2 2 2 2 2 @ @ @ @ @ @ @ @ @ @ @ @ @ : @ @ 2 2 2 @ @ @ 2 @ 2 2 2 : @ @ 7 : @ @ 7 7 : : @ @ @ @ 7 7 7 : : 7 : @ @ 2 @ @ @ 2 2 2 @ @ @ @ @ @ @ @ 2 2 2 @ @ @ @ @ @ @ @ @ @ @ @ @ @ @ @ @ @ @ @ @ @ @ @ @ @ @ @ @ @ @ @ @ @ @ @ @ @ @ @ @ @ @ @ @ @ @ @ @ @ @ @ @ @ @ @ @ @ O ",
"[ [ [ [ ` ` ` ` ` U U U U U U U U U U U M M M q 9 9 9 7 7 7 7 7 7 7 7 7 7 7 7 2 @ @ 2 @ 7 7 @ @ : 7 2 2 7 : @ @ @ @ @ 2 @ @ @ @ : : : @ @ @ 2 @ 2 2 2 2 2 2 2 2 2 2 @ @ 2 7 7 7 : @ @ 2 @ @ @ 2 2 2 2 2 2 2 @ 2 2 2 2 2 2 2 2 2 2 2 2 @ @ @ 2 7 7 7 7 2 @ @ @ @ @ @ @ @ 2 2 2 @ @ @ @ @ 2 2 @ @ @ @ @ @ @ @ @ @ @ : @ 2 2 @ 2 @ 2 : : 2 @ 2 @ @ @ @ @ @ : : 7 : @ @ @ @ @ @ @ @ 7 7 : : @ 2 2 @ @ @ @ @ @ @ @ @ @ @ @ @ @ @ @ 2 2 2 @ @ @ @ @ @ @ 2 @ @ 2 @ @ @ @ @ @ @ @ @ @ @ @ @ @ @ @ @ @ @ @ @ @ @ @ @ @ @ @ @ @ @ @ @ @ @ @ @ @ @ @ @ @ @ @ @ ",
"[ [ ] ` ` ` ` U U U U U U U U U U U U U U U q q 0 9 9 7 7 7 7 7 7 7 7 7 7 7 7 7 @ @ @ @ 7 7 7 @ : 7 2 7 7 : @ @ @ 2 @ 2 @ @ @ @ 7 : : @ @ 2 2 @ 2 2 @ @ @ @ @ @ 2 2 @ @ 7 7 7 7 7 7 7 2 @ @ @ 2 2 2 2 @ 2 2 @ 2 : @ @ @ @ @ @ @ @ @ @ 7 @ : 7 7 7 7 7 2 @ @ @ @ @ @ 2 @ 2 2 @ @ @ @ @ : : : 7 : @ @ @ @ @ @ @ : : 7 7 7 @ 2 2 2 7 : : 7 7 7 2 7 : : : @ 7 7 7 7 7 : @ @ : : @ @ 7 7 : 7 @ @ 2 @ @ @ 2 @ 2 2 @ @ 2 @ @ 2 @ @ @ 2 2 2 @ @ @ @ @ @ 2 2 @ 2 2 2 @ @ @ @ @ 2 @ @ @ @ @ @ @ @ @ @ @ @ @ @ @ @ @ @ @ @ @ @ @ @ @ @ @ @ @ @ @ @ @ @ @ @ @ @ ",
"] ] ` ` ` ` U U U q U U U q q q U U U U U q q q 0 0 9 7 7 7 7 7 7 7 7 7 7 7 7 : @ @ 7 7 7 7 : @ @ @ 7 7 7 7 @ @ @ @ @ @ 2 2 @ @ : : 7 @ @ @ @ @ 2 @ @ @ @ @ @ @ 2 2 @ @ : 7 7 7 7 7 7 7 @ @ : 2 7 @ @ : 2 2 2 @ : : 7 : @ @ @ @ @ @ @ 7 7 7 7 7 7 7 7 2 7 @ @ @ @ @ @ @ @ 2 @ @ @ @ @ : : @ @ : : @ 7 : @ : : : 7 7 7 7 2 2 2 2 2 @ : 7 7 7 7 7 : : 2 2 7 7 2 : 7 7 7 7 7 : @ @ @ @ : 2 2 2 2 2 @ @ @ @ 2 2 @ 2 2 2 2 2 @ @ @ @ @ 2 @ 2 2 @ 2 2 2 2 2 2 @ 2 @ 2 2 2 2 2 @ @ @ @ @ @ @ @ @ @ @ @ @ @ @ @ @ @ @ @ @ @ @ @ @ @ @ @ @ @ @ @ @ @ @ @ @ @ ",
"] ` ` ` ` U U q q q 0 0 q 0 q q q q U U U U U q 0 9 0 7 7 7 7 7 7 7 7 7 7 7 7 : 7 7 7 7 7 7 7 7 7 2 @ @ : 7 7 7 2 @ : : @ 2 : : : : @ @ 2 2 2 2 2 @ : : : 2 2 2 2 2 @ @ : 7 7 7 7 7 7 7 @ @ 2 2 7 : : : @ 2 @ @ : 7 7 7 2 2 : 7 7 7 7 7 7 7 7 7 7 7 7 7 7 7 : @ 7 7 7 7 7 7 2 2 @ @ : 7 7 7 7 7 7 7 7 7 7 7 7 7 7 7 7 7 7 7 2 7 7 7 7 7 7 7 7 : : 7 2 7 7 7 7 7 7 7 7 7 7 7 7 2 2 @ 7 7 @ @ @ @ : @ : 7 7 7 @ : 2 2 2 7 @ @ @ @ @ @ @ 2 @ @ 2 2 2 2 @ 2 @ @ 2 2 2 2 2 2 2 2 2 2 2 2 @ @ @ @ @ @ @ @ @ @ @ @ @ @ @ @ @ @ @ @ @ @ @ @ @ @ @ @ @ @ @ @ ",
"` ` ` ` M q q q q 0 0 q q q 0 0 q q U U U U q q 0 9 7 7 0 0 7 7 7 7 7 7 7 7 7 7 : : : : 7 7 2 @ @ @ @ @ 7 7 2 2 2 @ @ : @ @ @ @ : @ @ @ 2 @ 2 2 @ @ @ @ @ 7 2 2 2 7 2 7 : 2 @ 2 7 7 2 2 @ @ 7 7 7 7 : @ @ @ @ : : 7 2 2 2 : : : 7 7 : : 7 7 7 7 7 7 7 7 : : : 7 7 7 2 @ @ @ @ @ 7 : : : 7 7 2 2 2 2 @ : : 7 : 7 7 7 : : : : 7 7 7 : 7 2 2 @ 7 7 : : : : 7 : 7 : : : 2 7 2 @ @ @ 2 2 2 2 2 @ 7 2 @ @ @ 2 @ @ 7 : @ @ 2 7 @ @ @ @ @ @ @ @ 2 2 @ 2 @ @ @ @ @ @ 2 2 2 2 2 2 2 2 2 @ 2 2 @ @ @ @ @ @ 2 @ @ @ @ @ @ @ @ @ @ @ @ @ @ @ @ @ @ @ @ @ @ @ @ @ ",
"` ` M M M q q q q 0 0 9 0 0 q 0 0 q q q q q q q 0 9 0 0 0 0 7 7 7 7 7 7 7 7 7 7 : : : : 7 7 2 2 @ @ 7 7 : : @ @ 2 @ : : @ @ 2 @ 7 7 @ 2 @ @ 7 7 : @ @ @ @ 2 7 2 2 2 2 7 7 7 : @ 2 7 2 2 @ @ 7 7 2 7 7 7 2 @ @ : @ 7 2 2 : : : : 7 2 : : : 7 7 7 7 7 7 7 : : : 7 7 7 7 7 : : 7 : 7 7 7 7 : : : 7 7 7 7 : 7 : 7 7 7 7 : : : 7 7 7 7 7 7 7 7 @ 7 : 7 7 7 : 7 7 7 7 7 : 7 7 7 7 @ @ 2 7 2 @ @ @ 7 7 @ @ 2 2 7 : 7 @ @ 2 2 7 @ @ @ @ 2 @ @ @ @ 2 @ 2 2 2 2 2 @ @ 2 2 2 @ 2 2 2 2 @ @ 2 @ @ @ 2 @ @ 2 @ @ @ @ @ @ @ @ @ @ @ @ @ @ @ @ @ @ @ @ O O @ @ @ @ ",
"M M M M M M q q q q 0 0 0 0 9 9 0 0 q q q q q q 0 9 9 0 0 7 7 7 7 7 9 9 7 7 7 : : : 7 7 7 7 7 7 : 7 7 7 : 7 7 : 7 7 7 7 7 7 7 7 7 7 2 @ @ @ 2 7 7 7 @ : 2 2 2 @ 7 7 2 7 7 7 7 7 7 7 7 7 : : 7 7 @ @ 7 7 7 7 : : @ : 7 7 7 7 7 : 7 7 : 7 7 7 7 7 7 7 7 7 : 7 7 7 7 7 7 7 7 7 7 7 7 7 : : 7 7 : 7 : 7 7 : : : 7 7 7 7 7 : 7 7 7 7 7 7 7 7 7 7 7 7 7 7 7 7 7 7 7 7 7 7 7 : 7 7 7 : 7 7 7 7 : : 7 7 7 @ 2 2 2 : @ @ @ @ : 7 @ @ 2 2 2 @ @ @ @ @ 2 2 2 @ 2 2 @ 2 2 2 2 @ 2 2 2 2 @ @ @ @ @ @ @ @ 2 2 @ @ @ @ @ @ @ @ @ @ @ @ @ @ @ @ @ @ @ @ @ O @ @ @ @ ",
"` M M M M M q q q q 0 0 9 0 9 9 0 0 0 0 0 0 q 0 0 9 9 7 7 7 0 0 7 9 9 9 9 7 7 : 7 7 7 7 7 7 7 7 7 : 7 7 : : 7 : 7 7 7 7 7 7 7 7 7 7 7 @ 2 7 7 7 7 7 : : : @ 2 2 7 7 7 7 7 7 : : 7 7 7 : : : 7 7 7 : 7 7 7 7 : 7 7 : 7 7 7 7 7 7 7 7 : : 7 7 7 7 7 7 7 7 7 7 7 7 7 7 7 : 7 7 7 7 7 7 7 : 7 7 7 7 7 7 : : : 7 7 7 7 7 7 7 7 7 7 7 7 7 7 7 7 7 7 7 7 7 7 7 7 7 7 7 7 7 7 7 7 7 7 7 7 7 7 7 : : 7 7 7 7 7 7 7 7 @ @ @ @ : @ 7 7 7 7 7 2 @ @ @ @ @ 2 2 2 2 2 2 2 2 2 2 2 2 2 2 @ @ @ @ @ @ @ @ 2 2 2 2 @ @ @ @ @ @ @ @ @ @ @ @ @ @ @ @ @ @ @ @ @ @ @ @ @ ",
"` M M M M M q q q q q 9 0 0 0 9 0 0 0 0 0 0 0 0 9 9 9 9 9 9 9 9 9 9 9 9 7 7 7 7 7 7 7 7 7 7 7 7 7 : 7 7 7 7 : 7 : 7 7 7 7 : 7 7 7 7 : : : : : : 7 7 : 7 7 2 2 2 2 2 7 7 7 7 7 7 : : : : 7 7 7 7 7 7 7 7 7 7 7 7 7 7 7 7 7 7 7 7 7 7 7 7 : 7 7 7 7 7 7 7 7 7 7 7 7 7 : : 7 7 7 7 : : : 7 7 7 7 7 7 7 7 7 7 7 7 7 7 7 7 7 7 7 7 7 7 7 7 7 7 7 7 7 7 7 7 7 7 7 7 7 7 7 : 7 7 7 7 7 7 7 : : 2 2 : : 7 7 7 7 7 @ : @ @ @ @ : 7 7 7 : 7 7 @ @ @ @ @ 2 2 2 2 2 2 2 2 2 2 2 2 2 2 @ @ 2 @ @ @ @ @ 2 2 2 2 2 2 2 @ @ @ @ @ @ @ @ @ @ @ @ @ @ @ @ @ @ @ @ @ @ ",
"` M M M M M q q q q q 9 0 0 0 9 0 0 0 0 0 0 9 0 9 9 9 9 9 9 9 9 9 9 9 9 9 7 7 7 7 7 7 7 7 7 7 7 7 7 7 7 : 7 7 7 7 7 7 7 7 7 : 7 7 7 7 : : : : 7 7 7 : : 7 7 2 2 2 7 7 7 7 7 7 7 : : 7 : 7 7 7 7 7 7 : 7 7 7 7 7 7 7 7 7 7 7 7 7 7 7 7 7 7 7 7 7 7 7 7 7 7 7 7 7 7 7 7 7 7 7 7 7 7 7 7 7 7 7 7 7 7 7 7 7 7 7 7 7 7 7 7 7 7 7 7 7 7 7 7 7 7 7 7 7 7 7 7 7 7 7 7 7 7 7 7 7 7 7 7 7 : : 7 7 7 2 2 : 7 7 7 7 2 @ 2 2 2 2 7 7 7 : 7 7 2 2 : : @ @ @ @ : : 2 2 2 2 2 2 2 2 2 2 : : 7 2 2 2 @ @ @ 2 2 2 2 2 2 @ @ @ @ @ @ @ @ @ @ @ @ @ @ @ @ @ @ @ @ @ @ @ ",
"` M M M M M M q q q q q q q q 0 q q 0 0 0 0 0 0 9 9 9 9 9 9 9 9 9 9 9 9 9 9 7 7 7 7 7 7 7 7 7 7 7 7 : 7 7 : 7 7 7 : 7 7 : 7 : 7 7 7 7 7 : 7 7 7 7 7 7 : 7 7 2 7 7 7 7 7 7 7 7 7 7 7 7 7 7 7 7 7 7 7 7 7 7 7 7 7 7 7 7 7 7 7 7 7 7 7 7 7 7 7 7 7 9 0 7 7 7 7 7 7 7 7 7 7 7 7 7 7 7 7 7 7 7 7 7 7 7 7 7 7 7 7 7 7 7 7 7 7 7 7 7 7 7 7 7 7 7 7 7 7 7 7 7 7 7 7 7 7 7 7 7 7 7 7 7 7 7 : 7 7 7 7 7 7 @ @ 7 7 @ @ 7 7 7 7 7 7 @ : @ 2 7 2 7 7 2 2 2 2 : : 7 7 @ @ 2 @ 2 7 2 2 @ @ : 7 2 2 @ @ @ 2 2 2 2 2 2 2 @ @ @ @ @ @ @ @ @ @ @ @ @ @ @ @ @ @ @ @ @ @ ",
"` ` M M M M M M q q q q q q q q q q q q 0 q q q q 9 9 9 9 9 9 9 9 9 9 9 9 9 9 9 7 9 9 9 9 9 9 9 7 7 9 9 9 9 9 7 7 : 7 7 7 : 7 7 7 7 7 7 7 7 7 7 7 7 7 7 7 7 7 7 7 7 7 7 7 7 7 7 7 7 7 7 7 7 7 7 7 7 7 7 7 7 7 7 7 7 7 7 7 7 7 7 7 7 7 7 7 7 7 9 9 0 0 7 7 7 7 7 7 7 7 7 7 7 7 7 7 7 7 7 7 7 7 7 7 7 7 7 7 7 7 7 7 7 0 0 0 0 7 7 7 7 0 7 7 0 7 7 7 7 7 7 7 7 7 7 7 7 7 7 7 7 7 7 7 7 7 7 7 7 7 7 7 2 7 7 2 : 7 7 7 7 7 7 @ @ @ @ 7 : 2 7 2 2 2 2 : 7 : 7 : @ 2 @ 2 2 2 2 @ : 7 2 2 2 2 2 2 2 2 2 2 2 2 2 2 2 @ @ @ @ @ @ @ @ @ @ @ @ @ @ @ @ @ @ @ @ ",
"` M M M M M M M q q q q q q q q q q q q q q q q q q 9 9 9 9 9 9 9 9 9 9 9 9 9 9 9 9 9 9 9 9 9 9 9 9 9 9 9 9 9 9 7 7 7 7 7 7 7 7 7 7 7 7 7 7 7 0 7 7 7 7 7 7 7 7 7 7 7 7 7 7 7 7 7 7 7 7 7 7 7 7 7 7 7 7 7 7 7 7 7 7 7 7 7 7 7 7 7 7 7 7 7 9 0 9 9 9 9 9 0 7 7 7 7 7 7 7 7 7 7 7 7 7 7 7 7 7 7 7 7 7 7 7 7 7 7 7 7 7 7 7 7 7 7 7 7 7 7 7 0 0 7 7 7 7 7 7 7 7 7 7 7 7 7 7 7 7 7 7 7 7 7 7 : 7 7 7 7 7 : : : : : 7 7 : @ : 7 7 2 2 7 7 @ @ 2 7 7 7 : 7 7 7 7 7 @ 2 2 2 2 2 7 7 2 2 2 @ @ @ 2 2 2 2 2 2 @ 2 2 2 @ @ @ @ @ @ @ @ @ @ @ @ @ @ @ @ @ @ @ @ ",
"' M M M M M M M M M M M M q q q M M q q q q q q q q q 9 q 9 q 9 q 9 q 9 9 9 9 9 9 9 9 9 9 9 9 9 9 9 9 9 9 9 9 9 7 7 7 7 7 7 9 7 9 7 7 7 7 7 9 0 7 7 7 7 7 7 7 7 7 7 7 7 7 7 7 7 7 7 7 7 7 7 7 7 7 7 7 7 7 7 7 7 7 7 7 7 7 7 7 7 9 9 9 0 0 0 9 9 9 9 9 9 9 9 0 0 7 7 7 7 7 7 7 7 7 7 7 7 7 7 7 7 7 7 7 0 7 7 7 7 7 0 7 7 9 7 7 7 7 7 7 7 0 0 7 7 7 7 7 0 7 7 7 7 0 0 7 7 7 0 7 7 7 7 7 7 7 7 7 7 7 7 7 7 7 7 2 2 2 @ @ @ 7 7 7 7 7 : : 7 7 7 7 7 : : 7 2 7 2 2 2 2 2 2 2 2 2 2 2 @ @ @ : @ @ 2 2 2 2 2 2 2 2 @ @ @ @ @ @ @ @ @ @ @ @ @ @ @ @ @ @ @ @ ",
"' ' M M M M M M M M M q M M q q M q q q q M M q q q q q q 9 9 q 9 q M q q 9 9 9 9 9 9 9 9 9 9 9 9 9 9 9 9 9 9 9 7 9 9 9 9 9 9 9 9 9 7 7 7 0 0 0 7 7 7 7 7 7 7 7 7 7 7 7 7 7 7 7 7 7 7 7 7 7 7 7 7 7 7 7 7 7 7 7 0 7 0 0 9 9 9 9 9 9 9 9 9 9 9 9 9 9 9 9 9 9 0 9 0 0 7 7 7 7 0 0 7 7 7 7 7 7 7 7 7 7 0 0 7 7 7 7 7 7 7 7 0 0 7 7 7 7 7 0 0 0 0 7 7 7 0 0 0 0 7 7 7 7 7 7 7 0 7 7 7 7 7 7 7 7 7 7 7 7 7 7 7 7 2 2 @ : : : 7 7 7 7 7 @ @ : 7 7 7 7 : : 2 2 2 2 2 2 7 2 2 2 2 2 2 2 2 2 @ @ @ @ : @ @ 2 2 2 2 2 @ @ @ @ @ @ @ @ @ @ @ @ @ @ @ @ @ @ @ @ ",
"' ' ' N N M M M M M M M M M M M M M M M M M M M q q q q q M 9 q q q M M M 9 9 9 9 9 9 9 9 9 9 9 9 9 9 9 9 9 9 9 9 9 9 9 9 9 9 9 9 9 9 7 7 0 0 0 7 7 7 7 7 7 7 7 7 7 0 7 7 7 7 7 7 7 7 7 7 7 7 7 7 0 0 7 0 0 0 7 7 7 0 9 9 9 9 9 9 9 9 9 9 9 9 9 9 9 9 9 9 9 9 9 9 9 7 7 0 0 0 0 7 7 7 7 7 7 7 7 7 9 9 9 7 7 0 7 7 7 7 0 0 0 0 0 7 7 7 7 0 0 7 7 7 7 0 0 0 0 7 7 7 0 0 7 0 0 7 7 7 7 7 7 7 7 7 7 7 7 7 7 7 7 2 7 : : : : 7 7 7 7 7 2 : : : 7 7 7 2 2 2 2 2 2 2 2 7 2 2 @ 7 7 @ 2 2 2 2 2 @ @ : : @ 2 2 2 7 2 @ @ @ @ @ @ @ @ @ @ @ @ @ @ @ @ @ @ @ @ ",
"' ' ' ' N N N N N M M M M M M M M M M M M M M M q M q q M M q q q M M M M 9 9 9 9 9 q q q q q 9 q 9 9 9 9 9 9 9 9 9 9 9 9 9 9 9 9 9 9 9 9 0 0 0 7 7 7 7 7 7 7 7 7 0 7 7 7 7 7 7 7 7 7 7 7 7 7 7 9 0 0 0 0 7 0 9 9 9 9 9 9 9 9 9 9 9 9 9 9 9 q q q q 0 9 9 9 9 9 9 9 0 0 7 0 0 0 0 0 7 7 7 7 7 0 7 9 9 9 7 7 0 0 0 0 7 7 0 7 0 0 7 7 7 0 0 7 0 7 0 0 0 0 0 0 7 0 0 0 0 7 0 7 7 7 7 7 7 7 7 7 7 7 7 7 7 7 7 7 7 7 7 7 7 7 7 7 7 7 : : 7 2 @ @ @ 2 7 2 7 2 2 7 2 2 7 7 2 2 : : 2 2 2 2 7 2 2 @ @ : @ 2 2 2 2 @ @ @ @ @ @ @ @ @ @ @ @ @ @ @ @ @ @ @ @ @ ",
" .' ' ' ' N N N N N N M M M M M M M M M M M M M M q M M M M M q q M M M M b M M q q q q q q q M q q q 9 q q q 9 9 9 9 9 9 9 9 9 9 9 9 9 9 9 7 7 7 7 0 7 7 7 7 7 7 0 7 7 7 7 0 7 7 0 7 7 7 7 9 9 9 0 0 7 0 0 7 9 9 9 9 9 9 9 9 9 9 9 q 9 9 9 q q q q q q 0 9 9 9 9 9 9 9 9 0 0 0 0 0 7 7 0 7 0 9 7 9 9 9 9 9 7 0 0 0 0 7 7 0 0 0 0 7 0 0 0 0 0 0 0 0 9 9 0 0 0 0 0 0 0 0 0 0 7 7 0 7 7 7 7 7 7 7 7 7 7 7 7 7 7 7 7 7 7 7 7 7 7 7 : 7 7 7 @ @ 2 2 7 2 7 2 2 7 2 2 2 7 2 2 7 2 2 2 7 7 2 2 @ 2 @ : 2 2 2 2 2 2 @ @ 2 @ @ 2 @ @ @ @ @ @ @ @ @ @ @ @ @ @ ",
".. . . . . . . .'  .' ' ` M M M M M M M M M M M M q M M M M M M M M M N M M M M M M q M M M M M M M M q q q q q 9 9 9 9 9 9 9 9 9 9 9 9 9 9 9 9 7 7 0 9 7 7 7 7 7 0 0 7 9 7 9 9 0 9 9 9 7 0 9 9 9 9 9 9 9 9 9 9 9 9 9 9 9 9 9 q 9 9 q q q q q q q q q q q q 9 9 9 9 9 9 9 9 9 0 9 9 9 0 0 9 9 9 9 9 9 9 9 9 9 9 9 0 9 7 7 9 9 9 0 9 9 9 0 9 0 0 0 0 9 9 0 0 0 0 0 0 0 0 0 0 7 7 7 0 0 7 7 7 7 7 7 7 7 7 7 7 7 7 7 7 7 7 7 7 : 7 : : 7 7 7 7 @ 2 7 7 7 2 2 7 2 2 2 2 2 2 7 7 2 2 7 7 7 2 @ 2 2 : 2 2 2 2 2 2 2 2 2 @ @ @ @ @ @ @ @ @ @ @ @ @ @ @ @ @ ",
".......... . . . . .' ' ' ' ' ' ' N M M M M M M M M M M M M M M M M N M M N N M M M M M M M M M M M M M M M M M q q q q q 9 9 q 9 9 9 9 9 9 9 9 9 9 9 9 7 7 7 7 7 0 7 9 9 9 9 9 9 9 9 9 0 0 9 9 9 9 9 9 9 9 9 9 9 9 9 9 9 q q q q 9 q q q q q q q q q q q 9 9 9 9 9 9 9 9 9 9 9 9 9 9 9 0 9 9 9 9 9 9 9 9 9 9 9 9 0 9 9 9 9 9 9 9 9 9 0 0 0 0 0 0 9 9 0 0 0 0 0 0 0 0 0 0 0 7 7 7 0 0 7 7 7 7 7 7 7 7 7 7 7 7 7 7 7 7 7 7 7 7 : : : 7 7 7 7 7 7 7 7 7 2 2 7 2 2 7 7 7 7 7 7 7 2 7 7 7 2 2 : 2 7 2 2 2 2 2 @ 2 2 @ 2 2 @ @ @ @ @ @ @ @ @ @ @ @ @ @ @ ",
"O...................' ' ' ' ' ' N N N N M M M M M M M M N N M M M M M N N N M N M M M q N N N N N N M N N N M M q q 9 q 9 9 M M M q 9 9 b 9 9 9 9 9 9 0 9 0 0 7 0 0 9 9 9 9 9 9 9 9 9 9 0 0 7 0 9 9 9 9 9 9 9 9 9 9 9 9 q 9 9 9 q q q q q q M M q q q q q q 9 9 q 9 9 9 9 9 9 9 9 9 9 7 9 9 9 9 9 0 0 0 9 9 9 9 9 0 9 0 0 9 9 9 9 9 9 0 0 0 0 9 9 9 0 0 0 0 0 0 0 0 0 0 0 0 0 0 7 7 0 0 7 7 7 7 7 7 7 7 7 7 : : 7 7 7 7 7 7 7 7 : : : 7 : : 7 7 7 7 7 2 2 : : : 2 2 2 2 7 2 7 7 7 7 2 2 2 2 7 2 7 2 2 2 2 @ @ @ @ @ 2 2 @ @ @ @ @ @ @ @ @ @ @ @ @ @ ",
"O.O.O.O.............' ' ' ' ' ' ' ' ' ' N N N N N N N N N N N N M M N N N N N N N M M M N M N N N N N N N N N M M M 9 9 b M N M M M b b b 9 9 9 9 9 9 9 9 0 0 7 9 9 9 9 9 9 9 9 9 9 9 9 9 9 9 9 9 9 9 9 9 9 9 9 9 9 q q 9 q q q q M M q M q q M M M q q q q 9 9 q 9 9 9 9 9 9 9 9 9 9 9 9 9 9 9 9 9 9 9 9 9 9 9 9 9 9 0 0 0 0 9 9 9 9 9 0 0 0 9 9 9 0 0 9 9 9 0 0 0 0 0 0 0 0 0 7 7 0 7 7 7 7 7 7 7 7 7 7 7 7 : 7 : 7 7 7 7 7 7 7 7 7 7 7 7 7 7 7 7 2 7 7 7 : : 2 2 2 2 7 7 7 7 7 7 7 2 2 7 7 7 2 2 2 @ 2 2 @ @ @ @ @ @ @ @ @ @ @ @ @ @ @ @ @ @ @ @ ",
"*.O.O.O.O.X.O.X.X.X. .' ' ' ' '  . . .' ' ' ' N  . .A A A A N N N N N N N N N N N M M M N N M M N N N N N N N M M M M M M N N M N N b b b b 9 9 9 9 9 9 9 9 9 9 9 9 9 9 9 q q q 9 9 9 9 9 9 9 9 q q 9 9 9 q q q q q q q q q M M M M M M M M M M M M M M q q q q q q 9 9 9 q 9 9 9 9 9 9 9 9 9 9 0 9 9 9 9 9 9 9 9 9 9 0 0 0 0 0 9 9 9 9 0 9 9 9 9 9 0 0 9 9 9 9 0 0 0 0 0 0 0 0 7 7 0 7 7 7 7 7 7 7 7 7 7 7 7 7 7 7 7 7 7 7 7 7 7 7 7 7 7 7 7 7 2 2 2 7 7 7 7 7 7 7 7 2 7 7 7 7 7 7 7 7 2 7 7 2 2 2 2 2 2 2 2 @ @ @ @ @ @ @ @ @ @ @ @ @ @ @ @ @ @ @ ",
"*.=.X.=.X.X.X.X.X.X.X.[  .X. . . . . . .'  . ....... .A A  . .N N N '  .' ' N N N N M M ' ' M M N N m N A N N M N M N N N N N N N N N m b b b b b b b 9 9 9 9 9 b b 9 9 9 9 q 9 9 9 9 9 9 9 9 9 q 9 9 b M M M q q q q q M M M M M M M M M M M M M M M M M M q q q q 9 q q q 9 9 9 q q q 9 9 9 9 9 9 9 9 9 9 9 9 9 9 9 9 9 0 0 0 9 9 9 9 9 9 9 9 9 9 9 9 9 9 9 9 0 0 0 9 9 0 0 0 7 7 0 7 7 7 7 0 7 7 7 7 7 7 7 7 7 7 7 7 7 7 7 7 7 7 7 7 7 7 7 7 7 7 7 7 7 7 7 7 7 7 7 7 7 7 7 7 7 : : 2 7 7 7 7 2 2 2 2 2 2 2 @ @ @ @ @ @ @ @ @ @ @ @ @ @ @ @ @ @ @ ",
"*.*.=.=.*.*.X.=.X.X.X.X.X.[ [ X.X.X. . . . .........A  . ... .' ' ' '  . .' ' ' ' M M ` ' ' ` ` M ' N N A N N M M M N N N N N N N N N A N b b b b b b 9 9 9 9 9 b b b 9 9 9 9 9 b b M M b b M b M M b b b M M M q M M M M M M M M M M N N M M M M M M M M M M M M M q 9 q q q 9 q M M q q 9 9 9 q 9 9 9 9 9 9 b b 9 9 9 0 0 0 0 0 0 0 0 9 9 9 9 9 9 9 9 0 0 0 0 9 9 9 9 9 9 9 0 7 7 7 7 9 0 0 0 7 7 7 7 7 7 7 7 7 7 7 7 7 7 7 7 7 7 7 : 7 7 7 7 7 7 7 7 7 7 7 7 7 7 7 7 7 7 7 7 7 7 : : 7 7 7 2 2 2 2 2 2 2 2 @ @ @ @ @ @ @ @ @ @ @ @ @ @ @ @ @ @ @ ",
"*.*.*.*.*.*.*.*.*.X.X.X.[ [ [ [ [ X.X.X.X.X.O.X............. .' ' '  .' ' ' [ ' ' ` U ` ` ` ] ] ` ` ` ' ' ' ` M M ` ` ` ` ' ` ' ' '  . .M M b b N M b 9 9 9 9 9 b b b b 9 b b b b M M N N M N N N N b N N M N M M M N N M N N N N N N N N N N N ' M M M M M N M M M M M b q 9 9 M M M b 9 9 9 9 b b b b b M M b b M 9 q q 9 9 q 0 0 0 0 9 9 0 9 9 9 9 0 0 0 0 q 9 9 9 9 0 0 9 9 9 9 9 9 9 0 9 0 0 0 0 0 7 7 7 7 7 7 7 7 7 7 7 7 7 7 7 7 7 7 7 7 7 7 7 7 7 7 7 7 7 7 7 7 7 7 7 7 7 7 : 7 7 7 7 7 2 2 2 2 2 2 2 @ @ @ @ @ @ @ @ @ @ @ @ @ @ @ @ @ @ @ ",
"*.-.*.*.#.*.*.*.#.[ [ [ [ [ [ #.#.#.X.X.X.X.=.=.X.X.X.X.X.X.' ' ' ' [ [ [ [ [ [ ' ` ` ` ` ` ] ] ] ` ` ` ` ` ` U U U ` ` ` ` ` ` ` ' ' ' ` M M M N M b 9 9 9 9 b b b N b b b b b b M N N N N N N N N N N N N N M M M N N N N N ' ' ' ' N N N N ' ' ' M M M M M M M M M M M M M M M M M M M 9 9 9 b N N b b b b N b M b 9 q 9 9 9 q q 0 9 9 0 9 9 9 9 q q q q 9 q q 9 9 9 q 9 9 9 9 9 9 9 9 9 9 9 9 9 0 0 0 7 7 7 7 7 7 7 7 7 7 7 7 9 9 9 7 9 7 7 7 7 7 7 7 7 7 7 7 7 7 7 7 7 7 7 7 7 7 7 7 7 7 7 2 2 2 2 2 2 @ @ @ @ @ @ @ @ @ @ @ @ @ @ @ @ @ @ @ @ ",
"*.*.*.*.#.#.*.#.#.[ [ [ [ [ ] #.#.#.#.X.X.*.*.*.*.X.X.X.X.X.[ [ [ [ [ [ [ ' [ [ ` ` ` ` ` ` ` ] ] ] ] ] ] ` U U U U U U ] ] ] ` ` ] [ [ ` q M M M M q q 9 9 q q M M M M b b b M M M N N N N N M N N N N N N N M M M N N N ' ' '  . . .'  . .' ' ' ' ' ' ' ' M M N M M M M M M M M M M M M M q M M M N N b m b N N b b b M M M b M q q q 9 0 9 9 9 q q q q q q q q 9 9 9 q q 9 9 9 9 9 9 9 9 9 9 9 9 9 9 9 7 9 9 9 0 7 7 9 9 9 9 9 9 9 9 9 9 9 9 7 7 7 7 7 7 7 7 0 7 7 7 0 7 7 7 7 7 7 7 7 7 7 7 2 2 2 2 2 2 @ @ @ @ @ @ @ @ 2 2 @ @ @ @ 2 @ @ @ @ @ ",
"*.#.*.*.#.[ [ [ [ [ [ [ ] ] ] #.#.#.#.#.*.*.#.*.*.*.X.X.X.[ [ [ [ [ [ [ ' ' [ ] ` ` U ` ` ` ` ` U R U R R U U U U U U U R ] ] ] ] ] @.] U q q q q q q 0 9 9 0 q q q q q q q q M M M ` M M M M M N N ' N ' ' ' M M N M N ' '  . . . . .' '  . .' ' ' N ' ' ' ` M M M M M M M M M M M M M M q q M M N N N N N N N N N b b b N M M M M q 9 9 q q q 9 9 9 9 q q M q M M 9 9 q 9 9 9 9 9 9 9 9 9 9 9 9 9 9 9 9 9 9 9 9 9 0 0 9 9 9 9 9 9 9 9 9 9 9 9 9 9 9 9 7 7 7 7 9 9 7 7 0 7 7 7 7 9 9 9 9 7 7 7 2 2 2 2 2 2 @ @ @ @ @ @ @ @ 2 @ @ @ @ @ @ @ 2 @ @ @ ",
"#.#.*.*.[ [ [ [ [ [ [ [ ] ] ] @.#.#.[ #.#.#.#.#.#.*.[ [ [ [ [ [ [ [ [ [ ` ` ] ` ` ` ` ` ` U U U U U U U U U U U U U U U U R R R R ] @.R U q q q q q 0 0 0 0 0 q U q q 0 0 q q q q ` ` ` ` ` ` M ' ' ' ' ' ' ` ` M M ' ' ' ' '  . . . . . . . . .' ' ' ' ' ' ` ` M M M M M M M M M M M M M q q q M N ' N N N N N N N m b N N N N N M M q q q q 9 M 9 9 M q M M M M M b M 9 9 q 0 q q q q q q 9 b 9 9 9 9 9 9 9 9 9 9 9 9 9 9 9 9 9 9 9 9 9 9 9 9 9 9 9 9 9 9 7 9 9 9 7 0 0 0 7 7 7 9 9 9 9 9 7 7 2 2 2 2 2 2 @ @ @ @ @ @ @ 2 2 @ 2 2 @ @ 2 @ 2 2 @ @ ",
"#.#.#.#.#.[ [ [ [ [ [ [ ] ] ] ] ] ] ] [ #.#.#.#.#.[ [ [ [ [ ' ' ' ' ' [ ` ` ` ` ` ` ` ` ` q q q U q U U U U U U U U U U U U U U U ] R U 0 0 0 0 0 0 0 0 0 0 0 0 q q q 0 q q q U U U ` U U U ` ` ' ' ` ' ' ` ` ` ` ` ` ' ' [ [ [ X.X.X.X.X.X.X. . . .' ' ' ' ` ` ` ` M ` ` M M ` M ` ` M q q q q ` ` ' ' ' ' ' ' ' ' N N N N N N M M M M M q M M M M M M M M M N N N N N M M q q q q q q q q M q 9 q 0 9 9 9 9 9 9 9 0 0 0 0 0 0 0 0 9 9 9 0 0 0 9 0 9 9 9 9 9 9 9 9 9 9 9 7 9 9 9 9 9 9 9 9 7 7 2 2 2 2 2 @ @ @ @ @ 2 2 @ 2 2 @ 2 2 2 @ @ @ @ @ @ @ ",
"@.@.#.#.[ [ ] ] [ [ [ ` ` ` ] ] ] ] ] ] ] [ #.[ [ [ [ [ [ [ ' ` ' ' ` ' ` ` ` ` ` M U ` q q q q q q q q q q q q q q q q q q U q q U U 0 9 9 0 0 0 0 0 0 0 0 0 0 0 0 0 0 q q q U U U U U U U U ` ` ` ` ] ` ` ` ` ` ` ` [ [ [ [ [ X.X.X.X.X.[ [ X...X.' ' ' ' ` ` ` ` ` ` ` ` ` ` ` ` ` q q q q U ` ] ` ` ` ' ' ' ' ' ` M N M M M M M M M M M M M M M M M M M M N N N N N N M q q q q q q q q q q q q 0 0 9 9 0 0 9 0 0 0 0 0 0 0 0 0 9 9 0 0 0 0 0 0 0 0 0 0 9 9 0 0 0 0 9 9 9 9 9 9 9 9 9 9 9 7 2 2 2 2 2 @ @ @ @ @ 2 2 @ 2 2 @ 2 @ @ @ @ @ @ @ @ @ ",
"R R ] ] @.] ] ] ] [ [ ` ` ` ` ` ` ` ` ` ] ] #.[ [ [ [ [ ` ` ` ' ' ` ' ` ` ` ` ` ` q M q q q q q q q 0 0 q q q q 0 0 0 0 0 q q 0 0 0 0 0 9 9 0 9 9 0 9 0 0 0 0 0 0 0 0 0 0 q q q U U U U q q U ` ` ` ` ` ` ` U U ` ` ` ] ] [ [ #.#.[ [ X.[ [ X.X. . .' [ ' ' ` ` ` ` ` ` ` U U U U U ` q q q q U U R ] ] ] ] ] ] ] ` ` ` M N N M M M M M M M M M M M M M M N N M M M M M M M q q q q 0 q q q q q q q q 0 9 9 0 0 0 0 0 0 0 0 0 0 0 0 0 0 0 0 0 0 0 0 0 0 0 0 0 9 9 0 0 0 0 9 9 9 9 9 9 9 9 9 9 0 2 2 2 @ @ @ @ @ @ @ @ 2 @ 2 @ @ 2 @ @ @ @ 2 @ @ @ @ ",
"R R R R R R R ] ] ] ` ` ` ` ` ` ] ` ` ] ] ] [ [ [ [ [ [ ` ' ' ` ' ' ' ` ` ` ` ` M M M q q q q q q 0 0 0 q q 0 0 0 0 0 0 0 0 0 0 0 0 0 0 9 9 0 0 9 9 9 0 0 0 0 0 0 0 0 0 0 0 0 q U U U q q q q q U U U U U U U q q U U ` ] ] [ [ [ [ [ [ [ X.X.X... .' [ ' ` ` ` ` ` ` ` U U U U U U U q q q q q q U R R R R ] ] ] ` ` ` M M M M M M M M M M M M M ` M M M M M M M M M M M M q q q q q q q q q q q q q 0 0 0 0 0 0 0 0 0 0 0 0 0 0 0 0 0 0 0 0 0 0 0 0 0 0 0 0 0 0 0 0 0 0 9 0 9 9 9 q q q 0 0 7 2 2 2 @ @ @ @ @ @ 2 @ 2 @ @ @ @ @ @ @ @ @ 2 @ @ @ @ ",
"U U R R R R R R ] ] ] U ` ` ` ` ] ` ` ] ] ] ] [ ' ' [ ' ` ' ' ' ' ' ` ` ` ` M M M q q q q q q q q 0 0 0 0 q 0 0 0 0 9 0 0 0 0 0 0 0 0 9 9 9 9 0 0 0 0 0 9 9 9 9 0 0 0 0 0 0 0 q q q q q 0 0 0 q q U U U U q q q q U U U ] ] ] ] [ [ [ [ [ X.X.X. . .[ ' ' ` M ` ` q ` ` U U U q U U U q q q q q q U U U R R U R R U U U U ` ` U ` ` ` M M M M M N ' M M M M M ' ` ' ` ` M M q q q q q q q q q q q q 0 0 0 0 0 0 0 0 0 0 0 0 0 0 0 0 0 0 0 0 0 0 0 0 0 0 0 0 0 0 0 0 0 0 0 0 9 9 9 9 q q 0 0 0 2 2 2 @ @ @ @ @ @ 2 2 2 2 2 2 @ 2 @ @ @ @ @ 2 2 @ @ @ ",
"U U U U U R R R R R R U U ` ` ` ` ` ` ` ] ] ` ' ' ' ' ` ` ' ' ' ' ' ` ` ` M M M M q q q q q q q 0 q 0 0 0 0 0 0 9 9 9 9 0 0 0 0 0 0 9 9 0 0 9 0 7 0 0 0 9 9 9 9 0 0 9 9 9 0 0 0 0 q q 0 0 0 0 q q q q U q q q q q U U U ` ] ] ] [ [ [ [ [ X.X.O.X..... .' N M M M q q q q U q q U U q q q q 0 q q U U U U U U U U U U U U U U U U U U ` U q M M ` ` ` ` ` ` ` ' ' ' ' ` ` ` M q q q q q q q q q q 0 0 0 0 0 0 0 0 0 0 0 0 0 0 0 0 0 0 0 0 0 0 0 0 0 0 0 0 0 0 0 0 0 0 0 0 0 9 9 0 0 q q q 0 5 5 2 2 @ @ @ @ @ @ 2 2 2 2 2 2 @ @ 2 @ @ @ @ 2 2 @ @ @ ",
"q q U U U U U U U U U U U U U U U ` ` ` ` ` ' ' ' ' ' ` ' ' ' ' ' ' ' ` ` M M M M q q q q q q q 0 0 0 0 0 0 0 0 9 9 9 9 0 0 0 0 9 0 0 9 9 9 0 0 0 0 9 9 9 9 9 9 9 9 0 0 0 0 9 9 0 0 0 0 0 0 0 q q q q q q q q q q U U ` ` ` ] ] [ [ [ [ [ X.X.O.O.........A N M M M M q M q q q q q q q 0 0 0 0 q q q q U U U U U U U U U U U U U U U U U U q ` ` ` ` ` ` ` ` ` ` ` ` ` ` ` M M M q q q q 0 q 0 0 0 0 0 0 0 0 0 0 0 9 0 0 7 0 0 0 0 0 0 7 7 7 7 7 7 0 0 0 0 7 7 7 7 0 0 0 0 9 9 9 9 0 0 0 0 5 5 2 @ : @ @ @ @ @ 2 2 2 @ @ 2 2 @ @ @ @ @ @ 2 2 @ @ @ ",
"q q 0 0 0 0 I U U U U U U U U U U U U U ] ` ` ' ' ' ' ' ' ' ' ' ' ' ' ' ` M M M M M q q q q q q q 0 0 0 9 0 9 0 0 0 9 0 0 0 0 0 0 9 9 9 9 9 9 0 0 0 0 0 9 9 0 9 9 9 0 0 0 0 9 9 9 0 9 0 0 9 0 0 0 q q q q q q q 0 q ` ` ` ` ` ' ' [ [ [ [ X.O.=.O.O.O..... .' M M M M M M q q q q q q 0 0 0 0 q 0 q 0 q 0 q q q U U U U U U U U U U U U U q q q M ` ` ` M ` ` ` ' ' ' ` ` M M M M M M q q 0 0 q 0 q 0 0 0 0 0 0 9 0 9 0 0 0 0 0 0 7 7 7 7 0 7 7 7 7 7 0 0 7 7 7 7 7 7 0 0 0 9 0 9 0 0 q 0 5 5 5 7 7 : : @ 2 2 2 2 2 2 2 2 2 2 2 @ @ @ @ @ 2 2 @ @ @ ",
"0 0 0 0 0 0 0 q q U q q U U U U U U U U U ` ` [ ' ' ' ' ' '  .' ' ' ' ' ' ' M M ` ` q U q q q q q q 0 0 0 9 9 9 9 9 9 9 9 0 0 0 0 9 9 9 9 9 0 0 0 0 9 0 0 9 9 9 9 9 9 0 0 0 9 9 0 0 0 9 9 9 0 0 0 0 q q q q q q q q M M M ` ` ' ' ' ' [ [ X.=.=.=.O.O.O... .' M M M M M M q q q q q q q 0 q 0 q q 0 0 0 0 0 0 q q q q q q 0 0 I 0 0 U U q q q q q q M M M M ` ` ` ' ' ` ` ` ` M M M M q 0 0 0 q q 9 0 0 9 0 0 0 9 9 0 0 0 0 0 0 0 7 7 7 0 7 7 7 7 7 7 7 7 7 7 0 0 7 0 7 0 0 0 9 9 0 q 0 5 5 5 7 : : : : 7 7 @ 2 2 2 2 2 2 2 2 2 @ @ @ @ @ 2 2 @ @ @ ",
"0 0 0 0 0 0 0 0 0 0 0 0 0 I I U U U U U U ` ] [ [ ' ' ' '  . .X.X.' ' ' ' ' M M ` ` q q q q q q q q q 0 0 0 9 9 9 9 9 0 0 0 0 0 0 0 9 9 9 9 9 9 0 0 9 0 0 9 9 9 9 9 9 0 0 0 9 0 0 0 0 9 9 0 0 q q q q 0 q q q M M M M M M ` ' ' ' ' ' [ [ X.=.=.=.=.O.O.X. .' ' ' ' M M M q q q q q q q 0 0 0 0 0 9 0 0 0 0 0 0 0 0 0 0 q 0 0 0 0 0 q q q q q q q q q M M ` ` ` ` ' ' ' ` ` ` M M M M q 0 0 0 0 q 9 9 9 9 9 0 0 9 9 0 0 0 0 0 0 0 0 7 7 0 0 0 0 7 7 7 7 7 7 7 7 0 0 0 0 0 0 0 9 9 0 0 5 5 5 2 7 , : : : 7 7 : 2 2 2 2 2 2 2 2 2 @ @ @ @ @ 2 2 2 @ @ ",
"0 0 0 0 0 0 0 9 0 0 0 0 0 0 0 0 U U U U U R ] ] ] [ ' ' '  ... . . .' ' ' N M N N M M M M M M M M M q q 0 0 9 9 9 9 0 0 0 q q 0 0 0 9 9 9 9 9 9 9 0 0 0 0 0 0 9 0 0 0 0 9 0 0 0 9 9 0 0 0 0 q q q 9 9 9 q q M M M M M M M ` ' ' ' ' [ [ [ [ *.=.=.=.=.O.X. . .' ' ' ' M M M M q q q 0 0 0 0 0 0 0 9 0 0 0 0 0 0 0 0 0 0 0 0 q 0 0 0 q 0 0 q q q q q q q ` ` ` ` ` ' ' ' ' ` ` M M M M q q 0 0 0 9 q 9 9 9 7 0 0 9 9 9 9 0 9 9 0 0 0 7 7 7 7 0 7 7 7 7 7 7 7 7 7 0 0 0 7 0 0 0 9 9 9 0 5 5 5 7 , , : : : 7 7 : 2 2 2 @ 2 2 2 2 2 2 @ @ 2 @ @ @ @ @ @ ",
"0 0 0 0 0 0 0 0 0 0 0 0 0 0 0 0 0 I U U U R R ] ] ] ` [ [ X.X.X. . .' ' ' N N N N N N N N N N N N M q q q 0 9 9 9 9 0 q q q q q q q 0 9 9 9 9 9 0 0 0 9 0 9 9 9 9 9 0 0 9 9 0 0 9 9 9 9 q q q q 9 9 q 9 M M M N M M M M M ` ` ' ' [ [ ] ] #.&.-.:.=.=.=.X.X.' ' ' ' N N M M M q q q q 0 0 0 0 0 0 0 0 0 0 0 0 0 0 0 9 9 0 0 0 0 0 0 0 0 0 0 0 q q q q q M ` ` ` ` ` ' ' ` ` ` ` M ` ` q 0 0 0 q 9 9 9 9 9 0 0 0 9 9 9 q 0 0 9 0 0 7 0 0 7 7 0 7 7 7 7 7 7 7 7 7 0 0 0 7 0 0 0 0 0 0 5 5 5 7 , , , , 7 7 7 7 2 2 2 2 2 2 2 2 2 2 2 2 2 2 @ @ @ @ @ @ ",
"0 0 0 0 0 0 0 0 0 0 0 0 0 0 0 0 0 0 0 I U U R R R ] ] ] ] [ X.X.X. . .' ' ' ' A N N N N N N b N N N M q q 9 9 9 9 9 9 q q q q q q q q 9 0 9 9 0 0 0 9 9 9 9 9 9 9 9 9 9 9 9 9 9 9 9 9 9 9 q M M b M M M N N N M M q q U U ` ` [ [ [ ] ] ] @.@.&.-.-.*.*.X.X.[ '  ... .' N M M M M q q q q q 0 0 9 9 0 0 0 0 0 0 0 0 9 0 0 9 9 0 9 0 0 0 0 0 0 q q q q q q M M ` ` ` ` ` ` ` ` ` M ` ` q 0 0 0 9 0 q 9 9 0 0 7 7 9 9 q q q 0 9 9 0 0 0 7 7 7 7 7 7 0 7 0 7 7 7 0 7 7 0 0 0 0 0 0 0 0 5 2 2 7 , , , 9 0 0 7 7 2 2 2 2 2 2 2 2 2 2 2 2 2 @ @ @ @ @ @ @ ",
"0 0 0 0 0 0 0 0 0 0 0 0 0 0 0 0 0 0 0 0 q U U R R R ] ] ] [ [ X.X. .X. . .'  .A N N N N N N N N N N M M q 9 9 9 9 9 q q M b b M M M q 9 9 9 9 0 9 0 9 9 9 9 9 9 9 9 9 9 9 9 9 9 9 9 q 9 9 b M N N N N b b N N M M q U U U U ` ` ] ] @.@.^ @.@.@.&.&.&.*.*.[ [ ' '  . . .' M M M M M q q q q q 0 9 9 9 0 0 0 0 0 0 0 0 0 9 9 9 0 9 0 0 0 0 9 0 q q q q q q q M ` ` ` ` ` ` ` ` ` U q ` q 0 9 9 0 9 0 0 9 9 0 7 7 9 9 9 q 0 0 0 9 0 0 7 7 7 7 0 0 7 0 0 0 0 0 7 0 0 7 0 0 0 0 0 7 7 5 5 2 7 , , , 9 9 0 0 7 2 2 2 2 2 2 2 2 2 2 @ 2 2 2 2 2 @ @ @ @ @ ",
"0 0 0 0 0 0 0 0 0 0 0 0 0 0 0 0 0 0 0 0 0 q U U U U R ] @.@.[ [ [ [ X. . . . . .N N N N N N N N N N M M M M 9 9 9 9 q M N M N b b b M 9 9 9 9 9 9 9 9 9 9 9 9 9 9 9 9 9 9 9 9 9 9 9 9 9 b M N N N N N N N N N M M U U U U U ` ] ] ] R R R R ] @.%.#.#.&.#.#.[ [ [ X. . .' N N N N M M M q q q q 9 9 9 0 0 0 0 0 0 0 0 0 9 0 9 9 9 9 9 0 9 9 9 q q q q q q q M M U ` ` ` ` ` ` U U q ` q 0 0 0 9 0 0 0 0 0 0 0 0 9 0 0 0 0 0 9 9 9 0 7 0 7 7 9 9 9 9 9 0 0 0 0 0 0 0 0 7 7 7 0 0 5 5 2 7 : , , 9 9 9 9 0 7 7 2 7 2 2 2 2 2 2 2 2 2 2 2 @ 2 @ @ @ 2 @ ",
"0 0 0 0 0 0 0 0 0 0 0 0 0 0 0 0 0 0 0 0 0 0 q U U U R R ] ] ] [ [ [ [ X.X.X.X.X.' N N N N N N N N M M M M M M M M 9 b N M M b m m b N b 9 9 9 9 9 9 9 9 9 9 9 9 9 9 9 9 9 9 9 9 9 9 b b b N N N N N N N N N ' ` ` U U U U U U ` R R U R U U R ] @.@.#.#.@.] ] ] [ X.X. .' ' ' N N N M M q q q q 9 9 9 0 0 0 0 0 0 0 0 0 0 9 9 9 9 9 9 9 9 9 q q q q 0 q q q q q q ` U ` ` ` U U U q U q q 0 0 0 0 0 q q 0 0 0 0 0 0 0 0 0 0 0 0 0 0 0 0 7 7 9 9 9 9 9 7 0 0 0 0 0 0 0 7 0 7 7 0 5 2 2 7 , , , 9 q 9 0 0 7 7 2 7 2 2 2 2 2 2 2 2 2 2 2 @ 2 2 @ @ 2 2 ",
"0 0 0 0 0 7 7 0 0 0 0 7 0 0 0 0 0 0 0 0 0 0 0 q U U U R R ] ] ] [ [ [ X.[ X.O.X.' ' ' ' ' ' ' N M M M M M M M M M M N N N N N N m m m b b b b b b b b b b b 9 9 9 9 9 9 b b b b b b b b b N N N N N N N ` ` ` ` U U U U U U U U U U U U q U U R ] @.@.@.@.] ] ] [ [ [ [ [ ' ' ' N M N M M M M M q 9 9 9 0 0 0 0 0 0 0 0 0 9 9 9 9 9 9 9 9 9 q q q q 0 0 q q q q q U U U U U U U U U ` q q 0 0 0 0 0 0 0 0 0 0 0 0 0 0 0 0 0 0 0 0 0 0 0 0 0 0 0 9 9 9 9 0 0 7 0 0 0 0 0 0 0 7 5 5 2 : : : , 9 9 q q 0 0 7 7 2 2 2 2 2 2 2 2 2 2 2 2 @ @ @ @ @ @ @ @ ",
"0 0 7 7 0 7 7 7 0 0 0 7 0 0 0 0 0 0 0 0 0 0 0 q q q U U R ] ] ] ] ] [ [ [ X.=.X.' ` ` ` ` ` ` ` ` M M M M M M M M N N N N N N N N N m b b b b M b b b b N M b 9 9 9 b b M N b b b b b b N N M M M M ` ` ` ` U U U U U U U U U q U q q q 0 q U U U R R ] ] R R ] ] @.[ [ [ ' ' ' N N M N M N M M M 9 9 9 9 0 0 0 0 7 7 7 0 9 9 9 9 9 9 9 9 9 q q q q 0 0 0 0 q q q U U U q q q q q q U q q 0 0 0 0 0 0 0 0 0 0 0 0 0 0 0 0 0 0 0 0 0 0 0 0 0 0 0 0 0 0 0 0 0 0 0 0 0 0 0 0 7 5 5 2 2 : : : 9 9 q q q q 0 0 7 2 7 2 2 @ 2 2 2 2 2 2 @ @ @ @ @ @ @ @ @ ",
"7 7 7 7 0 0 7 7 7 7 7 0 7 0 0 0 0 0 0 0 0 0 0 q q q q U U U R ] ] ] [ [ [ X.=.[ [ ` ` ] ] ] ` ` ` ` ` q q M M q M M M M M M ` ` ' N N N N M M M M M N N N N M b 9 9 b N N N N N N N N N N M M ` ` ` ` ` U U U U U q q q U q q q q q q 0 0 q q U U U U ] R U U ] ] @.@.] ] ] [ ' ' ' M M N N N M M 9 9 9 9 0 0 0 7 7 7 7 9 9 9 9 9 9 9 9 q q q q q 0 0 0 0 0 0 0 q q q q q q q q q q q q 0 0 0 0 0 0 0 0 0 0 7 0 0 0 0 0 0 0 0 0 0 0 0 0 0 0 0 0 0 0 0 0 0 0 7 0 7 0 0 7 0 5 5 5 2 : : : : 9 0 q q q q 0 0 7 7 7 2 2 @ @ 2 2 @ @ @ @ @ @ @ @ @ @ @ @ ",
"7 7 7 7 0 0 7 0 7 7 7 7 7 7 7 0 0 0 0 0 0 0 0 0 q q q q U U U ` ] ] [ [ [ =.=.[ ` ] R R R R R U U U U U U q q q U U M ` ` U U ` ` ` M M M M M M M M M N N N M M 9 b N N N N N N N N N ' M M U ` ` ` U U U U U U q q q q q 0 0 0 0 0 0 0 0 q q q q q ` U U U U U ] ] ] ] ] ] [ ' ' ' ` ` ' N N N N b 9 9 9 0 0 0 7 9 9 9 9 9 9 9 9 9 b M M q q q q 0 0 0 0 0 0 0 q q q q q 0 0 0 0 q q q 0 0 0 0 0 0 0 0 7 7 7 0 0 0 0 0 0 0 0 0 7 0 7 0 7 0 0 0 0 7 0 0 0 7 0 7 7 0 7 7 0 0 5 5 2 : : : 7 9 q q q q q 0 0 7 7 7 2 2 @ @ 2 2 @ @ @ @ @ @ @ @ @ @ @ @ ",
"7 7 7 7 7 7 7 7 7 7 7 7 7 7 7 7 7 0 0 0 0 0 0 0 0 q q q q U U ` ` ] [ [ [ =.X.' ` U U R R R U U U U U U U U U U q U U U U U U U ` ` ` U q q q q q M M M M N M M b M N N N N N N N N ' ` ` U U U U R U U U U U q q 0 0 q 0 0 0 0 0 0 0 0 0 q q q q q U ` U U q U U R R R R ] ] ] ' ' ' ' ' N N N N N M 9 9 9 9 9 9 9 9 9 9 9 9 9 9 9 q q M q q q q 0 0 0 0 0 0 0 q q q 0 q 0 0 0 0 0 q q 0 0 0 0 0 7 0 7 7 7 7 7 0 0 0 0 0 0 7 7 7 7 7 7 7 7 7 7 7 7 7 7 7 7 7 7 0 7 0 0 5 5 5 2 : : : : 7 0 0 0 q q q 0 0 0 7 7 2 2 2 2 @ @ @ @ @ @ @ @ @ @ @ @ @ @ ",
"7 7 7 7 7 7 7 7 7 7 7 7 7 7 7 7 7 7 0 0 0 0 0 0 0 q q q q U U ` ` ` ] [ [ =.X.' ` U U U U U U U U U U U U U U U U U U U R R U U U U U U q q q q q q q M M M M M M M M M M N ` M M ` ` ` U U U U U U U U U q q 0 0 0 0 0 0 0 0 0 0 0 0 0 0 q q q q q U U U q q U U U U U U R ] ] ] ` ` ' ' ' ' N N N N M 9 9 9 9 9 9 9 9 9 9 9 q q q q q q q q q q 0 0 0 0 0 0 9 0 0 0 0 0 0 0 0 0 0 q q 0 0 0 0 0 7 0 7 7 7 7 7 0 7 0 7 7 7 7 7 7 7 7 7 7 7 7 7 7 7 7 7 7 7 0 7 7 7 7 0 5 2 2 2 : : : 7 0 0 0 0 0 q 0 0 0 7 7 7 2 2 2 2 @ @ @ 2 2 @ @ @ @ @ @ @ @ @ ",
"7 7 7 7 7 7 7 7 7 7 7 7 7 7 7 7 7 7 7 0 0 0 0 0 0 0 q q q q U ` ` ` ] [ [ =.X.` ` U U U U U U U q U U U q q q 0 U U U U U U U U U U U U U q q q q q U q U q q q q M M ` ` ` ` ` ` ` U U U U U U U U U q 0 0 0 0 0 0 0 0 0 0 0 9 0 0 0 0 0 q q q q q U U q q q q q U U U U R R ] ] ] ] [ [ ' ' ' N N N N q 9 9 0 9 9 9 9 9 9 9 9 q q q q q q q q q 0 0 0 0 0 0 0 0 0 9 0 0 0 0 0 0 q q q 0 0 0 7 0 7 0 7 7 7 7 7 7 7 7 7 7 7 7 7 7 7 7 7 2 7 7 7 7 7 0 7 7 7 7 7 2 2 2 5 5 2 @ : : : 7 7 0 0 0 0 0 0 0 0 0 7 2 7 7 2 2 @ 2 2 2 2 @ @ @ @ @ @ @ @ @ @ ",
"7 7 7 7 7 7 7 7 7 7 7 7 7 7 7 7 7 7 0 0 0 0 0 0 0 0 q q q q U ` ` ` ] [ [ =.X.' q q U q q q q q q 0 0 0 0 0 0 0 0 U I U U U U U U U U U q q q q q U U U U U q q q q U ` ` ` ` U U U U U U I U U q q q 0 0 0 0 0 0 0 0 0 0 0 0 0 0 0 0 0 0 0 q q q q U U q q q 0 q q q U U U U R R R ] ` ] [ ' ' ' N N N M q 9 9 9 9 9 9 9 9 9 q q q q q q q q 0 0 0 0 0 0 0 0 0 0 0 9 9 9 0 0 0 0 0 q q 0 0 7 7 7 7 7 7 0 7 7 7 7 7 7 7 7 7 7 7 7 7 7 7 7 7 7 7 2 7 7 2 7 7 7 7 2 2 2 2 2 2 : : : 7 7 0 0 0 0 0 0 0 0 0 0 7 7 7 7 2 2 2 2 2 2 @ @ @ @ 2 @ @ @ @ @ @ ",
"7 7 7 7 7 7 7 7 7 7 7 7 7 7 7 7 7 7 0 0 0 0 0 0 0 0 0 q q q q U ` ` [ [ *.=.[ ` q q q q q q q 0 0 0 0 0 0 0 0 0 0 0 0 0 0 0 q q U I 0 0 0 0 0 q q q U U U I U q U q U U U U U U U U U U U 0 0 0 0 0 0 0 0 0 0 0 0 0 0 0 0 0 0 0 0 0 0 0 0 0 0 0 q q q q q 0 0 0 0 q q q q I U U U U U ` ] ] ' ' ' N M M M 9 9 9 9 9 9 9 9 9 0 0 q q q q 0 0 0 0 0 0 0 0 0 0 0 0 0 0 9 9 0 0 0 0 0 0 q 0 0 0 0 0 7 7 7 7 7 7 7 7 7 7 7 7 7 7 7 7 2 2 7 7 7 7 7 7 2 2 2 2 2 2 7 2 2 2 2 2 2 2 : : : 7 7 7 7 7 0 0 0 0 0 0 0 7 7 7 7 7 2 2 2 2 @ @ @ @ 2 2 2 2 @ @ @ @ ",
"7 7 7 7 7 7 7 7 7 7 7 7 7 7 7 7 7 7 0 0 0 0 0 0 0 0 0 0 0 q U U ` ` [ [ *.=.' M q q q q q q 0 0 0 0 0 0 0 0 0 0 0 0 0 0 0 0 0 0 0 q 0 0 0 0 0 0 0 0 U I I I q I I q U U U U U U I U I q q 0 0 0 0 0 0 0 0 0 0 0 0 0 0 0 0 0 0 0 0 0 0 0 0 0 0 0 q q q q q 0 0 0 0 0 q q 0 0 U U U U U R ] ] ` ` ` M M M q 9 9 9 9 9 9 9 0 0 0 q q 0 0 0 0 0 0 0 7 7 0 0 0 0 0 0 0 0 9 9 9 9 9 0 0 0 q 0 0 0 0 0 7 7 7 7 7 7 7 7 7 7 2 7 7 7 7 7 2 2 7 7 7 7 7 7 2 2 7 7 2 2 2 2 2 2 2 2 2 @ : : 7 7 7 7 7 7 0 0 0 0 0 0 0 7 7 7 7 7 2 2 2 2 2 @ @ @ 2 2 2 2 2 @ @ @ ",
"7 7 7 7 7 7 7 7 7 7 7 7 7 7 7 7 7 7 0 0 0 0 0 0 0 0 0 0 0 q q q U ` ' [ *.=.' M q q q 0 q 0 0 0 0 0 0 0 0 0 0 0 0 0 0 0 0 0 0 0 0 0 0 0 0 0 0 0 0 0 0 0 0 0 0 0 0 q U U U I 0 0 0 0 0 0 0 0 0 0 0 0 0 0 0 0 7 0 0 0 0 0 0 0 0 0 0 0 0 0 0 0 0 0 q 0 q q q 0 0 0 0 0 0 0 0 0 0 q q q U U U R ` ` ` ` ` ` q q 9 9 9 9 9 9 9 0 0 0 0 0 0 0 0 0 0 0 7 0 0 0 0 0 0 0 0 9 9 9 9 9 9 0 0 0 0 0 0 0 7 7 0 7 7 7 7 2 7 7 2 7 2 2 7 7 7 7 2 2 7 7 2 2 2 7 2 2 7 7 2 7 2 2 2 2 2 2 @ : : : 7 7 7 7 7 7 7 0 0 0 0 0 0 0 7 7 7 2 2 2 @ 2 @ @ @ @ 2 2 2 2 @ @ @ @ ",
"7 7 7 7 7 7 7 7 7 7 7 7 7 7 7 7 7 7 7 0 0 0 0 0 0 0 0 0 0 q q U ` ` [ [ =.O.' M q q q 0 0 0 0 0 0 0 0 0 0 0 0 0 0 0 0 0 0 0 0 0 0 0 0 0 0 0 0 0 0 0 0 0 0 0 0 0 0 0 0 0 q 0 0 0 0 0 0 0 0 0 0 0 0 0 0 0 0 0 0 0 0 0 0 0 0 0 0 0 0 0 0 0 0 0 0 0 0 0 q q 0 0 0 0 0 0 0 0 0 0 0 0 q q q U U U U U ` ` ` ` q 0 9 0 0 0 0 0 0 0 0 0 0 0 0 0 0 0 0 0 0 0 0 0 0 0 0 0 0 9 0 9 9 9 9 0 0 0 0 0 0 0 7 7 7 7 7 7 7 7 7 7 7 7 2 2 7 7 7 7 2 2 7 7 2 2 2 7 2 7 7 7 7 2 2 2 2 2 2 2 @ : : : 7 7 7 7 7 7 7 7 0 0 0 0 0 0 7 7 2 2 2 @ @ @ @ @ @ 2 2 2 @ @ @ @ @ @ ",
"7 7 7 7 7 7 7 7 7 7 7 7 7 7 7 7 7 7 7 7 0 0 0 0 0 0 0 0 0 q q U ` ` ] [ =.O.' M 0 0 q 0 0 0 0 0 0 0 0 0 0 0 0 0 0 0 0 0 0 0 0 0 0 0 0 0 0 0 0 7 0 0 0 0 0 0 0 0 0 0 0 0 0 0 0 0 0 0 0 0 0 0 0 0 0 0 0 0 0 0 0 0 0 0 0 0 0 0 0 0 0 0 0 0 0 0 0 0 0 0 q q 0 0 0 0 0 0 0 0 0 0 0 0 0 0 0 q U U U U U U U U q q 0 0 0 0 0 0 0 0 0 0 0 0 0 0 0 0 0 0 0 0 0 0 0 0 0 0 0 0 0 0 0 0 0 0 0 0 0 0 0 0 7 7 7 7 7 7 7 7 7 7 7 7 7 7 7 7 2 2 2 7 7 2 2 2 2 7 2 2 2 7 2 2 2 2 2 @ @ @ : : : 7 7 7 7 7 7 7 7 7 0 0 0 0 0 7 0 7 2 2 2 2 2 @ 2 2 2 2 2 2 2 @ @ @ @ @ ",
"7 7 7 7 7 7 7 7 7 7 7 7 7 7 7 7 7 7 7 7 0 0 0 0 0 0 0 0 0 q q U ` ` ] [ =.X.' q 0 0 0 q 0 0 0 0 0 0 0 0 0 0 0 0 0 0 0 0 0 0 0 0 0 0 0 0 7 7 7 7 7 7 7 0 0 0 7 7 0 0 0 0 0 0 0 0 0 0 0 0 7 0 0 0 0 0 0 0 0 0 0 0 0 0 0 0 0 0 0 0 0 0 0 0 0 0 0 9 9 0 q q 0 0 0 0 0 0 0 0 0 0 0 0 0 0 0 0 q U U U U U U q q 0 0 0 0 0 0 0 0 0 0 0 0 0 0 0 0 0 0 0 0 0 0 7 7 7 7 0 0 0 0 0 0 0 0 0 0 0 0 0 0 0 7 7 7 7 7 7 7 7 7 7 7 2 7 7 2 2 2 2 2 2 7 2 2 2 2 7 7 2 2 2 2 2 2 2 @ @ @ @ : : 7 7 7 7 7 7 7 7 7 7 7 7 0 0 0 0 7 7 2 2 2 2 @ 2 2 2 2 2 2 2 @ @ @ @ @ @ ",
"7 7 7 7 7 7 7 7 7 7 7 7 7 7 7 7 7 7 7 7 7 7 0 0 0 0 0 0 0 0 q q ` ` ] #.=.X.` q 0 0 0 0 0 0 0 0 0 0 0 0 0 0 0 0 0 0 0 0 0 0 0 0 0 0 0 7 7 7 7 7 7 7 7 7 7 7 7 7 7 7 0 0 0 0 0 0 7 0 0 0 0 0 0 0 0 0 0 0 0 0 0 0 7 0 0 0 0 0 0 0 0 0 7 0 0 0 0 9 0 0 q 0 0 0 0 0 0 0 0 0 0 0 0 0 0 0 0 0 0 0 0 U U U U q q 0 0 0 0 0 0 0 0 0 0 0 0 0 0 0 0 0 0 7 0 7 7 0 7 7 0 0 0 0 0 0 0 0 0 0 0 0 0 0 0 7 7 7 7 7 7 7 7 7 7 7 7 2 2 7 7 7 2 2 2 7 7 2 2 2 2 7 2 2 2 2 2 2 2 2 @ @ @ @ : : 7 7 7 7 7 7 7 7 7 7 7 7 0 7 7 7 7 7 7 2 2 2 2 2 2 2 2 2 2 @ @ @ @ @ @ @ ",
"7 7 7 7 7 7 7 7 7 7 7 7 7 7 7 7 7 7 7 7 7 7 0 0 0 0 0 0 0 0 q q M ` ] [ =.X.M q 0 0 0 0 0 0 0 0 0 0 0 0 0 0 0 0 0 0 0 0 0 0 7 0 0 0 7 7 7 7 7 7 7 7 7 7 7 7 7 7 7 7 0 7 7 0 0 0 0 0 0 0 7 0 0 0 0 0 0 0 0 0 0 7 7 0 0 0 7 7 0 0 0 0 7 0 0 0 0 9 0 0 q 0 0 0 0 0 0 0 9 9 0 0 0 0 0 0 0 0 0 0 0 0 q q U 0 0 0 0 0 0 0 0 0 0 0 7 0 0 7 0 0 0 7 7 7 7 7 7 7 7 7 7 0 0 0 0 0 0 0 0 0 0 0 0 0 0 7 7 7 7 7 7 2 7 7 7 7 2 7 2 7 7 7 2 2 2 2 2 2 2 2 7 7 2 2 2 : 2 2 2 @ @ @ @ : : 7 7 7 7 7 7 7 7 7 7 7 7 0 0 7 7 7 7 7 7 2 2 2 2 2 2 2 2 2 2 @ @ @ @ @ @ @ ",
"7 7 7 7 7 7 7 7 7 7 7 7 7 7 7 7 7 7 7 7 7 7 0 0 0 0 0 0 0 0 q q ` ` ] [ =.[ ` q q 0 9 0 9 9 0 0 0 0 0 0 0 0 0 0 0 0 0 7 7 0 0 0 0 0 0 7 7 7 7 7 7 7 7 7 7 7 7 7 7 7 7 0 7 7 7 7 0 0 0 7 7 0 0 0 7 7 7 0 7 0 0 0 0 0 0 0 7 0 0 0 0 0 0 0 0 0 9 9 0 9 0 0 9 0 0 0 0 0 0 0 0 0 0 0 7 0 0 0 0 0 0 0 0 q 0 0 0 0 0 0 0 0 0 0 7 7 7 0 0 7 0 0 0 7 0 7 7 7 7 7 0 0 0 0 0 0 0 0 0 0 0 0 0 0 0 0 0 7 7 2 7 7 2 7 7 7 7 7 2 2 7 2 7 7 7 2 2 2 2 7 7 7 7 7 @ 2 2 2 2 2 2 @ @ @ @ : : 7 7 7 7 7 7 7 7 7 7 7 7 7 7 7 0 7 0 7 7 2 2 2 2 2 2 2 @ @ @ @ @ @ @ @ @ @ ",
"7 7 7 7 7 7 7 7 7 7 7 7 7 7 7 7 7 7 7 7 7 0 0 0 0 0 0 0 0 q q U M ` [ [ =.[ M q q 0 0 0 9 9 0 0 0 0 0 0 0 0 0 0 0 7 7 7 7 7 7 7 7 0 7 7 7 7 7 7 7 7 7 7 7 7 7 7 7 7 7 0 7 7 0 7 7 0 7 7 7 0 0 0 7 7 7 7 7 7 0 7 0 0 0 0 0 7 7 0 7 7 0 0 0 0 0 9 0 9 0 0 9 0 0 0 0 0 0 0 9 0 0 0 0 0 0 0 0 0 0 0 0 0 0 0 0 0 0 0 0 0 0 0 7 7 7 7 7 7 7 7 0 0 7 7 7 7 7 7 7 0 0 0 0 0 0 0 0 0 0 0 0 0 0 0 0 7 7 7 7 7 2 2 2 7 7 7 2 7 7 7 7 7 7 7 2 2 2 2 2 2 7 7 2 2 2 2 2 2 @ @ @ @ @ : : 7 7 7 7 7 7 7 7 7 7 7 7 7 7 0 0 0 7 7 7 7 2 2 2 2 2 2 @ @ 2 2 2 @ @ @ @ @ ",
"7 7 7 7 2 2 2 2 2 2 7 7 7 7 7 7 7 7 7 7 0 7 0 0 0 0 0 0 0 q q q M ` [ X.=.' M q 0 0 0 0 9 0 0 0 0 0 0 0 0 0 7 7 7 7 7 7 7 7 7 7 7 7 7 7 7 7 7 7 7 7 7 7 7 7 7 7 7 7 7 7 7 7 7 7 7 7 7 0 0 0 7 7 0 0 0 7 7 7 7 0 0 0 0 0 0 0 7 7 7 7 7 7 7 0 0 9 0 9 9 0 0 0 0 7 0 0 0 0 9 0 0 0 0 0 0 0 0 0 0 0 0 0 0 0 0 0 0 0 0 0 0 0 7 7 7 7 7 7 7 7 7 7 7 7 7 7 7 7 7 7 0 7 0 0 0 0 0 0 0 0 0 0 0 0 0 7 7 7 7 7 7 2 2 2 7 7 7 7 7 7 2 7 7 7 7 7 2 2 2 2 2 2 2 2 2 2 2 2 @ @ @ @ @ : 2 7 7 7 7 7 7 7 7 7 7 7 7 7 0 0 0 0 0 7 7 7 7 2 @ 2 2 2 2 2 2 2 2 2 2 @ @ @ ",
"7 7 7 7 2 2 2 2 2 2 7 7 7 7 7 7 7 7 7 7 7 0 7 0 0 0 0 0 0 0 q q M ` [ *.=.' M q 0 0 0 0 9 9 0 0 0 0 0 0 0 0 7 7 7 7 7 7 7 7 7 7 7 7 7 7 7 7 7 7 7 7 7 7 2 7 7 7 7 7 7 7 7 7 7 7 7 7 7 7 7 7 7 7 0 7 0 7 7 7 7 0 0 0 0 0 7 0 7 7 7 7 7 7 7 0 0 0 0 9 0 0 0 0 0 7 0 0 0 9 9 0 0 0 0 0 0 0 0 0 7 0 0 0 0 7 0 7 0 0 0 0 0 0 0 7 7 7 7 7 7 7 7 7 7 7 7 7 7 7 0 7 7 7 0 0 0 0 0 0 7 0 0 0 0 0 0 7 7 7 7 2 7 2 2 2 7 7 7 7 7 7 7 7 7 7 7 7 2 2 2 2 2 2 2 2 2 2 2 @ @ @ @ @ @ @ 2 7 7 7 7 7 7 7 7 7 7 7 7 7 0 0 7 7 7 7 7 7 2 2 @ 2 2 2 2 @ @ @ @ @ @ @ @ @ ",
"7 7 7 7 7 7 2 2 2 2 7 2 7 7 7 2 7 7 7 7 7 0 0 0 0 0 0 0 0 q q q ` ` [ *.X.' M 0 q 0 9 9 9 0 0 0 0 0 0 0 0 7 7 7 7 7 7 7 7 7 7 7 7 7 7 7 7 7 7 7 7 7 2 7 7 7 7 7 7 7 7 7 7 7 7 7 7 7 7 7 7 7 7 7 7 7 7 7 7 7 7 7 0 0 0 0 0 0 7 7 7 7 7 7 7 0 0 0 9 9 0 0 0 0 0 0 0 0 9 9 9 9 0 0 0 0 0 0 0 0 0 0 0 7 7 7 7 0 7 0 0 0 0 0 0 0 7 7 7 7 7 7 7 7 7 7 7 7 7 7 7 0 0 0 0 0 7 0 0 7 0 7 0 7 0 7 7 7 7 7 7 7 7 7 7 7 7 7 7 7 2 2 7 7 7 7 7 : @ 2 7 2 2 2 2 2 2 2 @ @ @ @ @ @ @ 2 2 7 7 7 7 7 7 7 7 7 7 7 7 7 0 0 7 7 7 7 7 2 7 2 2 2 2 @ 2 2 @ @ @ @ @ 2 @ @ ",
"7 7 7 7 7 7 2 2 2 2 7 2 7 7 7 7 0 0 2 2 7 0 0 0 0 0 0 0 0 q q U ` ` [ =.X.' M 0 0 0 9 9 9 0 0 0 0 0 0 0 0 0 0 0 7 7 7 7 7 7 7 7 7 7 7 7 7 7 7 7 7 7 2 2 2 7 7 7 : 7 7 7 7 7 7 7 7 7 7 7 7 7 7 7 7 7 7 7 7 7 7 7 0 0 0 0 0 0 0 7 7 0 7 0 0 0 0 9 9 9 0 0 9 0 0 9 9 9 9 0 7 9 9 9 0 0 0 0 0 0 0 0 0 0 7 7 7 0 7 7 7 7 7 0 0 0 0 7 7 7 0 0 7 7 7 7 7 7 7 0 0 0 0 0 0 0 7 7 0 7 7 7 7 0 7 7 7 7 7 7 2 7 2 7 7 7 7 7 2 2 2 @ 2 2 7 7 : @ 7 7 7 7 2 2 2 2 2 2 @ @ @ @ @ @ 7 2 2 7 7 7 7 7 7 7 7 7 7 0 7 7 0 0 0 0 0 7 7 7 7 2 2 2 2 2 @ 2 2 @ @ 2 2 2 2 @ "
};
