/* XPM */
static char *_4cdca77afb34dd190377edc594c44ecVph2AOfHJfAmzlHx[] = {
/* columns rows colors chars-per-pixel */
"133 400 256 2 ",
"   c #000304",
".  c #0B0202",
"X  c #010A05",
"o  c #0B0B03",
"O  c #000509",
"+  c #0B040B",
"@  c #000B0C",
"#  c #0B0C0C",
"$  c #130202",
"%  c #1C0202",
"&  c #170807",
"*  c #011304",
"=  c #011B04",
"-  c #0B1805",
";  c #00120D",
":  c #0B130C",
">  c #011B0C",
",  c #161705",
"<  c #000413",
"1  c #000D12",
"2  c #0B0C14",
"3  c #00031B",
"4  c #000C1B",
"5  c #150814",
"6  c #001313",
"7  c #0D1313",
"8  c #001A14",
"9  c #0B1816",
"0  c #00141A",
"q  c #001B1B",
"w  c #0C1B1B",
"e  c #121414",
"r  c #131A15",
"t  c #161618",
"y  c #131B1B",
"u  c #1B1D1D",
"i  c #270503",
"p  c #370302",
"a  c #271605",
"s  c #2C1312",
"d  c #022303",
"f  c #0B2707",
"g  c #012B03",
"h  c #02230B",
"j  c #022A0C",
"k  c #172505",
"l  c #023302",
"z  c #023C02",
"x  c #053809",
"c  c #153606",
"v  c #012314",
"b  c #022B14",
"n  c #01231B",
"m  c #0A2718",
"M  c #012B1C",
"N  c #16251A",
"B  c #023313",
"V  c #063915",
"C  c #02331B",
"Z  c #023B1C",
"A  c #133916",
"S  c #2B2C0F",
"D  c #000423",
"F  c #0A0624",
"G  c #010C23",
"H  c #00022B",
"J  c #000C2B",
"K  c #011423",
"L  c #001C23",
"P  c #0D1925",
"I  c #00142B",
"U  c #011C2B",
"Y  c #171A23",
"T  c #010735",
"R  c #140D30",
"E  c #011432",
"W  c #011C33",
"Q  c #02143B",
"!  c #011B3B",
"~  c #29132C",
"^  c #012323",
"/  c #0A2627",
"(  c #012B23",
")  c #01232B",
"_  c #012B2C",
"`  c #172627",
"'  c #1E2322",
"]  c #013323",
"[  c #023B24",
"{  c #01332B",
"}  c #0A3629",
"|  c #023B2B",
" . c #012433",
".. c #022B33",
"X. c #0A2A33",
"o. c #01243B",
"O. c #022B3B",
"+. c #023333",
"@. c #093537",
"#. c #023B34",
"$. c #02333B",
"%. c #043B3C",
"&. c #173132",
"*. c #222424",
"=. c #252827",
"-. c #242B2B",
";. c #2A2C2C",
":. c #26342C",
">. c #36332B",
",. c #282C34",
"<. c #243333",
"1. c #2D3333",
"2. c #283938",
"3. c #323435",
"4. c #333837",
"5. c #343C3B",
"6. c #3A3C3C",
"7. c #491E16",
"8. c #034606",
"9. c #184D0E",
"0. c #025705",
"q. c #044718",
"w. c #055717",
"e. c #2B490C",
"r. c #026404",
"t. c #0A6618",
"y. c #044728",
"u. c #174C2D",
"i. c #055629",
"p. c #034334",
"a. c #054A37",
"s. c #02433B",
"d. c #035838",
"f. c #2C4E2C",
"g. c #274538",
"h. c #36433D",
"j. c #076728",
"k. c #066539",
"l. c #156932",
"z. c #2F6627",
"x. c #434F37",
"c. c #010846",
"v. c #011945",
"b. c #011154",
"n. c #012C43",
"m. c #012848",
"M. c #013343",
"N. c #033C43",
"B. c #04394A",
"V. c #18384C",
"C. c #012955",
"Z. c #023857",
"A. c #2A3847",
"S. c #383D43",
"D. c #023962",
"F. c #034343",
"G. c #054A46",
"H. c #03444C",
"J. c #034B4C",
"K. c #154B4E",
"L. c #045748",
"P. c #034857",
"I. c #035353",
"U. c #055858",
"Y. c #354343",
"T. c #3B4444",
"R. c #394848",
"E. c #3D4B4B",
"W. c #2F504B",
"Q. c #394955",
"!. c #3A5554",
"~. c #046547",
"^. c #046657",
"/. c #146A53",
"(. c #326C52",
"). c #054C65",
"_. c #045A63",
"`. c #2F5768",
"'. c #036667",
"]. c #067175",
"[. c #346F69",
"{. c #434445",
"}. c #434B4B",
"|. c #464949",
" X c #46534A",
".X c #545349",
"XX c #444C55",
"oX c #445353",
"OX c #4C5353",
"+X c #495A59",
"@X c #555859",
"#X c #694D4B",
"$X c #4A6A55",
"%X c #58635B",
"&X c #455865",
"*X c #595B66",
"=X c #4E6E6E",
"-X c #5C6263",
";X c #586667",
":X c #66696A",
">X c #686F6F",
",X c #677576",
"<X c #6C7373",
"1X c #757979",
"2X c #328576",
"3X c #528A65",
"4X c #73877A",
"5X c #087B85",
"6X c #376786",
"7X c #597B88",
"8X c #767C82",
"9X c #028892",
"0X c #07A0AA",
"qX c #7B8384",
"wX c #718F91",
"eX c #659995",
"rX c #00C4D0",
"tX c #858989",
"yX c #8A918F",
"uX c #8C9494",
"iX c #969999",
"pX c #A29B9E",
"aX c #96A49C",
"sX c #959DA4",
"dX c #9CA5A5",
"fX c #93AFB0",
"gX c #A4A7A7",
"hX c #ABADAD",
"jX c #ABB0AF",
"kX c #ACB3B3",
"lX c #B2B4B4",
"zX c #B6BABA",
"xX c #BABDBC",
"cX c #94C2A3",
"vX c #B2C5B8",
"bX c #C6C2BE",
"nX c #B6BBC3",
"mX c #BCC3C3",
"MX c #B9D3CA",
"NX c #C4C7C6",
"BX c #CACCCC",
"VX c #CDD2CF",
"CX c #CAD3D5",
"ZX c #D2D4D4",
"AX c #D4D9D8",
"SX c #DBDCDC",
"DX c #D7E4DB",
"FX c #DADCE2",
"GX c #DCE4E3",
"HX c #E3E4E4",
"JX c #E6E8E9",
"KX c #EAEBEB",
"LX c #EEF1F0",
"PX c #F3F3F3",
"IX c #F6F9F6",
"UX c #FDFDFD",
/* pixels */
"O O O O O O O O O O O O O O O O O O O O O O O O O O O O O O O O O O O O O O O O O O O O O O O O O O O O O O O O O O O O O O O O O O O O O O O O O O O O O O O O O O O O O O O O O   O O O O O O O O O O O O O O O O O O O O O O O O O O O O O O O O O O O O O O O O O O O ",
"O O O O O O O O O O O O O O O O O O O O O O O O O O O O O O O O O O O O O O O O O O O O O O O O O O O O O O O O O O O O O O O O O O O O O O O O O O O O O O O O O O O O O O O O O O O O O O O O O O O O O O O O O O O O O O O O O O O O O O O O O O O O O O O O O O O O O ",
"O O O O O O O O O O O O O O O O O O O O O O O O O O O O O O O O O O O O O O O O O O O O O O O O O O O O O O O O O O O O O O O O O O O O O O O O O O O O O O O O O O O O O O O O O O O O O O O O O O O O O O O O O O O O O O O O O O O O O O O O O O O O O O O O O O O   O ",
"O O O O O O O O O O O O O O O O O O O O O O O O O O O O O O O O O O O O O O O O O O O O O O O O O O O O O O O O O O O O O O O O O O O O O O O O O O O O O O O O O O O O O O O O O O O O O O O O O O O O O O O O O O O O O O O O O O O O O O O O O O O O O O O O O       O ",
"O O O O O O O O O O O O O O O O O O O O O O O O O O O O O O O O O O O O O O O O O O O O O O O O O O O O O O O O O O O O O O O O O O O O O O O O O O O O O O O O O O O O O O O O O O O O O O O O O O O O O O O O O O O O O O O O O O O O O O O O O O O O O O O O O O O O O ",
"O O O O O O O O O O O O O O O O O O O O O O O O O O O O O O O O O O O O O O O O O O O O O O O O O O O O O O O O O O O O O O O O O O O O O O O O O O O O O O O O O O O O O O O O O O O O O O O O O O O O O O O O O O O O O O O O O O O O O O O O O O O       O O O O O O O ",
"O O O O O O O O O O O O O O O O O O O O O O O O O O O O O O O O O O O O O O O O O O O O O O O O O O O O O O O O O O O O O O O O O O O O O O O O O O O O O O O O O O O O O O O O O O O O O O O O O O O O O O O O O O O O O O O O O O O O O O O O O O O O O O O O O O O O O ",
"O O O O O O O O O O O O O O O O O O O O O O O O O O O O O O O O O O O O O O O O O O O O O O O O O O O O O O O O O O O O O O O O O O O O O O O O O O O O O O O O O O O O O O O O O O O O O O O O O O O O O O O O O O O O O O O O O O O O O O O O O O O O O O O O O O O O O ",
"O O O O O O O O O O O O O O O O O O O O O O O O O O O O O O O O O O O O O O O O O O O O O O O O O O O O O O O O O O O O O O O O O O O O O O O O O O O O O O O O O O O O O O O O O O O O O O O O O O O O O O O O O O O O O O O O O O O O O O O O O O O O O O   O O O O   O ",
"O O O O O O O O O O O O O O O O O O O O O O O O O O O O O O O O O O O O O O O O O O O O O O O O O O O O O O O O O O O O O O O O O O O O O O O O O O O O O O O O O O O O O O O O O O O O O O O O O O O O O O O O O O O O O O O O O O O O O O O O O   O   O O O O O O O O O ",
"O O O O O O O O O O O O O O O O O O O O O O O O O O O O O O O O O O O O O O O O O O O O O O O O O O O O O O O O O O O O O O O O O O O O O O O O O O O O O O O O O O O O O O O O O O O O O O O O O O O O O O O O O O O O O O O O O O O O O O O O O O O O O O O O O O O O O ",
"O O O O O O O O O O O O O O O O O O O O O O O O O O O O O O O O O O O O O O O O O O O O O O O O O O O O O O O O O O O O O O O O O O O O O O O O O O O O O O O O O O O O O O O O O O O O O O O O O O O O O O O O O O O O O O O O O O O O O O O O O   O   O O O O O O O   O ",
"O O O O O O O O O O O O O O O O O O O O O O O O O O O O O O O O O O O O O O O O O O O O O O O O O O O O O O O O O O O O O O O O O O O O O O O O O O O O O O O O O O O O O O O O O O O O O O O O O O O O O O O O O O O O O O O O O O O O O O O O O O O O O O O O O O O O O ",
"O O O O O O O O O O O O O O O O O O O O O O O O O O O O O O O O O O O O O O O O O O O O O O O O O O O O O O O O O O O O O O O O O O O O O O O O O O O O O O O O O O O O O O O O O O O O O O O O O O O O O O O O O O O O O O O O O O O O O O O O O O O O O O O O O O O O O ",
"O O O O O O O O O O O O O O O O O O O O O O O O O O O O O O O O O O O O O O O O O O O O O O O O O O O O O O O O O O O O O O O O O O O O O O O O O O O O O O O O O O O O O O O O O O O O O O O O O O O O O O O O O O O O O O O O O O O O O O O O O O O O O O O O O O O O O ",
"O O O O O O O O O O O O O O O O O O O O O O O O O O O O O O O O O O O O O O O O O O O O O O O O O O O O O O O O O O O O O O O O O O O O O O O O O O O O O O O O O O O O O O O O O O O O O O O O O O O O O O O O O O O O O O O O O O O O O O O O O O O O O O O O O O O O O ",
"O O O O O O O O O O O O O O O O O O O O O O O O O O O O O O O O O O O O O O O O O O O O O O O O O O O O O O O O O O O O O O O O O O O O O O O O O O O O O O O O O O O O O O O O O O O O O O O O O O O O O O O O O O O O O O O O O O O O O O O O O O O O O O O O O O O O O ",
"O O O O O O O O O O O O O O O O O O O O O O O O O O O O O O O O O O O O O O O O O O O O O O O O O O O O O O O O O O O O O O O O O O O O O O O O O O O O O O O O O O O O O O O O O O O O O O O O O O O O O O O O O O O O O O O O O O O O O O O O O O O O O O O O O O O O O ",
"O O O O O O O O O O O O O O O O O O O O O O O O O O O O O O O O 0 9X].].5X..O O O O   $.q L ^ ) 1 O O O O O O O O O O O O O O O O O O O O O O O O O O O O O O O O O O O O O O O O O O O O O O O O O O O O O O O O O O O O O O O O O O O O O O O O O O O O O O O O O O O O ",
"O O O O O O O O O O O O O O O O O O O O O O O O O O O O O O   1 _.1 0 w # _.O   O   _./ K._.N.K.H.  O O O O O O O O O O O O O O O O O O O O O O O O O O O O O O O O O O O O O O O O O O O O O O O O O O O O O O O O O O O O O O O O O O O O O O O O O O O O O O O O O O O ",
"O O O O O O O O O O O O O O O O O O O O O O O O O O O O O N.U.X.0 / _ ) / 0 L U.H.L O / ].'.N.) @ O O O O O O O O O O O O O O O O O O O O O O O O O O O O O O O O O O O O O O O O O O O O O O O O O O O O O O O O O O O O O O O O O O O O O O O O O O O O O O O O O O O O ",
"O O O O O O O O O O O O O O O O O O O O O O O O O O   .._.@ ....L @ O @ q %.H.+.O H.H.  7 @ O O O O O O O O O O O O O O O O O O O O O O O O O O O O O O O O O O O O O O O O O O O O O O O O O O O O O O O O O O O O O O O O O O O O O O O O O O O O O O O O O O O O O O O ",
"O O O O O O O O O O O O O O O O O O O O O O O O @   U.0 ....O O @ q q ^ _ _ / / G.%.O _.  6 O O O O O O O O O O O O O O O O O O O O O O O O O O O O O O O O O O O O O O O O O O O O O O O O O O O O O O O O O O O O O O O O O O O O O O O O O O O O O O O O O O O O O O O ",
"O O O O O O O O O O O O O O O O O O O O O O O O 6 '.0 '.O @ q 0 L ) ^ ..%.N.X./ / / '.L U._ O O O O O O O O O O O O O O O O O O O O O O O O O O O O O O O O O O O O O O O O O O O O O O O O O O O O O O O O O O O O O O O O O O O O O O O O O O O O O O O O O O O O O O O ",
"O O O O O O O O O O O O O O O O O O O O O O O   _.0 U.  q q _ _ L 0 0 ^ ..N.N.@./ X./ _.) _.  O O O O O O O O O O O O O O O O O O O O O O O O O O O O O O O O O O O O O O O O O O O O O O O O O O O O O O O O O O O O O O O O O O O O O O O O O O O O O O O O O O O O   O ",
"O O O O O O O O O O O O O O O O O O O O O O O N.0 '.  q 6 _ 6 @ q ^ ^ ..%.N.@./ %.@.X.X.].6 U.  O O O O O O O O O O O O O O O O O O O O O O O O O O O O O O O O O O O O O O O O O O O O O O O O O O O O O O O O O O O O O O O O O O O O O O O O O O O O O O O O O O O O O ",
"O O O O O O O O O O O O O O O O O O O O O O @ P.+.  L L ..0 ^ ..L 0 0 6 %.F.@.@./ @.%.H...P._ L O O O O O O O O O O O O O O O O O O O O O O O O O O O O O O O O O O O O O O O O O O O O O O O O O O O O O O O O O O O O O O O O O O O O O O O O O O O O O O O O O O O O O ",
"O O O O O O O O O O O O O O O O O O O O O O J.1 ) @ 6 _ @ ^ q @ ^ ^ @ q X.G./ / F.X.H.H.J.I.0 _.  O O O O O O O O O O O O O O O O O O O O O O O O O O O O O O O O O O O O O O O O O O O O O O O O O O O O O O O O O O O O O O O O O O O O O O O O O O O O O O O O O O O O ",
"O O O O O O O O O O O O O O O O O O O O O q U.+.  O ..6 ^ L 0 +.@     6 / / N.X.@.U.P.'.U.F.I.) N.O O O O O O O O O O O O O O O O O O O O O O O O O O O O O O O O O O O O O O O O O O O O O O O O O O O O O O O O O O O O O O O O O O O O O O O O O O O O O O O O O O O O ",
"O O O O O O O O O O O O O O O O O O O O O P.6 _   q ^ 0 _ 6 )   O 0 @ L @.@._ J.I.U.U._._._.].O ].  O O O O O     O O     O O       O O     O       @       O O   O O     O O O O O     O O   O   O     O     O O O     O O O O O O O O O O O O O O O O O O O O O O O O O ",
"O O O O O O O O O O O O O O O O O O O O O @ ) 6 1 ^ 6 ^ 6 ^ O O 6     # / @.N.%.'.I.'.U.'.'._.X.0 O O O O O =.KXBX    BXKX4.  {.hXJXO   xXAX  6.pXlX  uXSX8X  T.3.O   zXKXT.O O O ' KXZX  # 1X  iX  4.6.  jXZX|.O 7 KXHX  O O O O O O O O O O O O O O O O O O O O O O O O ",
"O O O O O O O O O O O O O O O O O O O O O 6 ..O q _ 0 _ 0 ..6 6   O I.].@.%.H._.].'.].].5X]._.F.0 O O O O   KX  <X@XOX:X  IX  BXu =.uXO ZX    gX3.BX  BX  SX  -XOX  3.tX  UX  O   FX  @X<Xe lX  KX  @X@X  HX  KX  xX# *.iXO O O O O O O O O O O O O O O O O O O O O O O O ",
"O O O O O O O O O O O O O O O O O O O O O 0 /   6 ^ @ L 6 q q O   ..J.U.].H.U.].].].].].5X].].U.0 O O O O   SX  Y t OX-X  KX  BX# 1.tX  AX    gXu   # BX  BX  -XOXO   UX  ;.O O   ZX      e lX  JX  OX@X  HX  AX  lXu 3.iX  O O O O O O O O O O O O O O O O O O O O O O O ",
"O O O O O O O O O O O O O O O O O O O O O 0 &.  q _ q ) L ^ ) 6 O +.^ '.rX0X5X9X9X9X9X9X9X9X]._.0 O O O O   SX      OX-X  JX  BX# 1.tX  AX    gXu O # BX  BX  -XOXO O   UX@ O O   BXe IX6.e lX  JX  OX@X  HX  AX  iXiXiX-.  O O O O O O O O O O O O O O O O O O O O O O O ",
"O O O O O O O O O O O O O O O O O O O O O 0 _   q ) 6 ) 6 ^ 6 1 L L %._ O q '.0X0X9X0X9X9X9X9XU.0 O O O O   SX  *.Y OX@X  KX  BX# 1.tX  ZX@X{.gXu O # NX  BX  -XOXO *.>X  PX  O   ZX  3.:Xt hX  SX  OX@X  HX  ZXO zXe @ 3.O O O O O O O O O O O O O O O O O   O O O O O O ",
"O O O O O O O O O O O O O O O O O O O O O @ ..O q ) 6 ) 6 _   ^ 6           1   H.9XrX0X0X0X9XH.6 O O O O   NX{.NX4.-.NX1.SX  SX# 4.iX  PXiX3.zX' O   UXY UX  -XgX:Xe HX*.KX  O   xX{.ZXOX# KX6.UX  -X:X  UX|.IX  yX:XyX>X  O O O O O O O O O O O O O O O O O O O O O O O ",
"O O O O O O O O O O O O O O O O O O O O O L q L 6 ^ L ^ L ^ O O +.L q q   L O O @ O 6 H.0XrXrX0 ..  O O O O   :X3.O O 3.<X  O t     7 O u OX  e O O o 7 1X# O o 3.4.  =.1X  X   O   1X@ #   =.-X    # # O *.S.  @   @XOX  O O O O O O O O O O O O O O O O O O O O O O O O ",
"O O O O O O O O O O O O O O O O O O O O O _._ @.O 6 ) @ _   1 q @ q ^ @ 1   O q   ^ 6 L O @ ].  9X  O O O O O     O     O O         X                                     O           O O O O   O O O O O O O O O O O O O O O O O O O O O O O O O O O O O O O O O O O O O ",
"O O O O O O O O O O O O O O O O O O O O O   _.) O L ^ L q ^   ^ _ L 6   6 6 0   @ q q _ L   ..I.O O O O O O             X O         X                             .     O             O   O O O O O O O O O O O O O O O O O O O O O O O O O O O O O O O O O O O O O O O O ",
"O O O O O O O O O O O O O O O O O O O O O O ..6 %.  6 _ q   q 6 6 q ^ L L 0 6 ) 6 6 ..0 O _ O J.          X             . @         $ .     . . . $ .   . .       .           . .         X   O O O O O O O O O O O O O O O O O O O O O O O O O O O O O O O O O O O O O O ",
"O O O O O O O O O O O O O O O O O O O O O O   '.L q   6 q O   ^ _ q 0 q L ^ _ 0 6 +.0 6 O %.U.O O O O     0 3 O         . 6     O O .         . . .                     .             .   X X X       O O O O O O O O O O O O O O O O O O O O O O O O O O O O O O O O O O ",
"O O O O O O O O O O O O O O O O O O O O O O O 6 N.'.O     6 6 O 0 0 ^ ^ q 6 6 ^ _ 0 6   ].q _ O < O   O   6 1 O           >     O O   O 3 O 3 O             O         O . O 3 O   O .     $   X         O O O O O O O O O O O O O O O O O O O O O O O O O O O O O O O O O ",
"O O O O O O O O O O O O O O O O O O O O O O O O ) ) '.6       L _ 1 q 0 ^ L ) 6 6 @   ].6 N.  @ @ 0 O O O 8 8 X           =     X   O   D O O       O O O   O O O O   O + 3 T     O O     . $ .         X O     O O O O O O O O O O O O O O O O O O O O O O O O O O O O O ",
"O O O O O O O O O O O O O O O O O O O O O O O O ..N...H._   O       L ^ L L q q   ^ I.0 F.N.  # # w O O   , i .           %     .       8 X *   O O O       O     O   X   = d     O         . .     . . * *   X @   X O   O O O O O O O O O O O O O O O O O O O O O O O O ",
"O O O O O O O O O O O O O O O O O O O O O O O O O   L _.O $._ O   O O O O   O ^ @.# K...      $ & , X X   & i .           .     .       d . $               O         @   g d   O X                   . i X   . X   *         O O O O O O O O O O O O O O O O O O O O O O ",
"O O O O O O O O O O O O O O O O O O O O O @ 0XL     O   H.J.6 ) _ _ ) ^ / _ _ # %.U.@ O O     . o & .     $ % .                     O O = . .                             $ . O 3                       % .   o X                     O O O O O O O O O O O O O O O O O O ",
"O O O O O O O O O O O O O O O O O O O O O q rX$.].5X6 ..q O %.).. 4 O O 1 . G.B.1   X < O       % % $ O O . .                   O O O   X   .         O O                     O 4 3 3 H 3 O       O     <   < 5 .   .   O O O O O       O O O O O O O O O O O O O O O O O ",
"O O O O O O O O O O O O O O O O O O O O O 0 H.q @.G.@./       > 5X5X5X5X].0X  O X   O O O       +   O O O                       O       .                             .       X * O 1 T T 3 O     O   O O   6 . .           < O           X   O O O O O O O O O O O O O O ",
"O O O O O O O O O O O O O O O O O O O O O O @ @ @ > O *       8.X @ O O 1   O < @ O O O 6 3 O O O     O O             O O             .                                       o o X = g 8 3 < O   O   O     j               X O O       X X     O O O O O O O O O O O O O ",
"O O O O O O O O O O O O O O O O O O O       *   O O <   O O O - = O O   O   O O O   O O 4 H D O O     O T H 3 D 3 O O                                                         . $ . i - d X O O O O O O     *           . X X       O     O O       O O O O O O O O O O O ",
"O O O O O O O O O O O O O O O O O O         + 3 H H 3 O O 3 H   - H <   O X O X X   O X * > *   O O     0 4 3 T T H 3 3           O <                   3 O     3                   i p i   X O O O H O   X               $ .     3 3   O 4           O O O O O O O O O O ",
"O O O O O O O O O O O O O   X   X X         + O L 6 8 O O @ n O % 4 ;     $   .     O < < t #     O     d d * g h 8 O 4   O O O O   O                   1       @                   . $ $ $ .   X O ; O                       .   ; X O @ X     O   X O @ O O O O O O O O ",
"O O O O O O O O O O O   O O X O @ X     O   O @ V q P 2 O O 8.X   K g     .     .   O O   % % .   X     i i . , - d X =         3 3 X                   -       *                               . O d       O O                   =   O : . O O O     * X     O O O O O O ",
"O O O O O O O O O O     O < O @ X         O   & * s s P <   : @   0 :     O               *             $ % . i p p . %         * X   O 3 O             X       X                                 o i         D 3                 .   X .   O O       o O       O O O O O ",
"O O O O O O O O O O O   O ; X O @   < O   O O & O P P L @ O + @ O X =                 H   i $ .               . $ 5 . $ O O D   o X 3   O O O O                               O O               . . . O     O 4 3 3       O <         .   O 3     O < 3 O O     O < O O O ",
"O O O O O O ; O   O O O O X o   . . O < O O O   + @ , - * O O X X   =                 J O .                       < O   O O G   $ . 4   X X         O O O                     O O               . .   O     1 h X O < O   O O         .   O O     O 1 0 O O 3   * X O O O ",
"O O O O O   = * X O O O   . i O       6 O O O O O X = & %     X     $                 l =         O               X     O   V       f   $ .         O O 3 O O                 X                             * & X X O <   >             O * .     X d + @ 4 O X = *     O ",
"O O O O O O   * X O o     O + O O O O O O O O X     & % $                             X o       O                 X O   O   -       X   . .         X   @ < H O O                                           o $ %   *       O           X   O     . o o < >   o .         ",
"< <       @ O + O   .     3 O X O O O O O O O O =.>X  {.<X# t ;.  <X;.  >X=.{.|.    4.  >.  {.<X  OX@X  OX:X          O     o                     O .   * * *   3 <       O                                     . . .     O T H               O   5 $ X 4 % < O   3 .   O ",
"@ 1 O O O 1 + O O O   .   < @ O O O O O O       gXu @XzX  {.hXiX1.6.zX*.{.  nX*X;.  BXY PX  iX6.A.jX{.3.nX+         O O                           O O . $ & o   *     O   H O   O                                   .     X o.c.H O   O         O < . @ :   4 O O O   O O ",
"l X d O O O 6 O     O O O O ; O O O O O O       uXgX*.BX1X{.tXtX;.4.iX7 VXt NXzX    1XhXyXe tX;.(.pX*.4.DX<X                                              $ $   .         h   O                                       O   * w.h T H           < @ O O &   X X 3 d     O ; ",
"o & *   X O @ X   O O O O O 4 @ O O       O     hX4.;.NXt :Xt IX;.@XNX*.@X  jX4X#   zX;. Xu gX|.g.NXOX3.NXr                                               .     $ .       =   O O         O O                             a c g j 1   3       @   O . $   * O 4 O     *   ",
". $   # O O O X O   O O O O @ O X         O O   u   u ;.@X# O ;.  @Xt . OX;.u o e   Y   e # ;.@X  6.|.  3.@X                                              .               .     3   O       O                             % p p - X O J O   O X     .       ; @ 3 O   X   ",
"O   O 3 3 X 3 H   O   O O O   * D     O O O O       O O                   O   <   O O O O                               O O                                               <       O         D O             O           O + . 5 p   * *   O T             . & O < O       ",
"O O D D 6 X   C   O       O     6   O O O O O         O                   O O O       O O                               O                                                 O   .           . ;                           O     ; .   &     d @             . O X X     O + ",
"< 3 3 M * * O d * O       O   O X @   O O O O                         O       X                                                                                           X   . .       O   =                           X   O X     i     g                   X       O . ",
"< G O l o %     %   O   O   O O   6   O                                   O                                                                                       O O                     3 3                               X     .     . . O   O                     X 3 ",
"O ; * o % O O     O O O O O   < O @ O O             O O                 O       O         3         O                       <                         O       O O O         <       3 O O 1 <         O         3     O       3     O O   .       O   O   O     3 O . O H ",
"O X & . . O O     < O O O O O < < O @ O O   O       O O           # ;.;.A.;.;.;.,.;.;.o   T O       <                       H               O 3       3     O O   O     O O 3       3 O 3 d   O O     O         <     O       <     O O           O 3 O   X   < >     j   ",
"O   $ .     X   O O @ O O O 3 O d O X < O O           =         6.1.# # e # # # 7 : # 6.;.j         X                       >                         =   O O     .       * *       d   X p   X O O             X           X X     X             X O O       ;     X *   ",
"X O O O O < H 3 O O @ O O O @ @ X   X   X                     u =.                      3.k                                 X                         o       .           X         o     $   X   O O                                           . o X O <   X       o     ",
": O O 3 3 3 G 1 O < O O O < D 1       . $ .           O 3 O   {.                          {.                                .                         O   .                                   $                                       O         O $ O 1 O               O ",
"~ 3 < O 1 @ > h @ 3 D O < < @ * O O     . .       O     X X   {.D 3 O                     6.    O O                                   O O                 3       O O                             .     3                             O         O   4 @                 O ",
"& * ; O @ @ + i & O v < @ O X o   O                     . o   {.X 6 O   O   nX            6.                                3.      <X          ;.        O       X O                                   X                                       X   d .               O   ",
"% * O O O + O + + O ; @ O X . $ O O                       $   T.  - X     PXSXFX  <       6.                            O   LX    O @X          BX        *                 O                                                                                         O   ",
"% O O O O O @ @ < 1 < X X     O O O                           {.  p .   UX  KXN KX      3 S.  O                             HXhXiX  BX  NXlXgX  IXBX@X    *.BX:XtXxXiX  PXZX                                    O                                       O     O           ",
"$ 3 O O O O O @ < @ X X O O O O O O O       O O     O O   O   {.      +     KX    o O   X R.  O O O                     O   JX  KX  SX  NX  SX. BX  SX    ;.1X  KX  UX|.<X  + 3         O         O   3 O O 3     D 3       3 O D               O O O   D   O O           ",
". 4 1 O O O O O @ O X O O O O O O O O         J       O   O   {.      O 3   UX  . $       x.    O   O O O               H   JX  KX  SX  BX. SX  VX  ZX    ;.yX  PXtXe   <XUXo 3         <         O   G     G     0 T       @   1               X     X X   O             ",
"+ O ; O O O @ O O     O O O O O O O O O       d     O         {.        >   u   O       . #X          O 3 T O         O =   UX  UX  IX  KX1XBX  JX  KX    ;.iX  JX{.-Xr OXHX. =         =             d   X *   O l q O     * X                 X     o                   ",
"O O O O O O O O   O O O   O O O O O O O         .             {.        X                 6.            X h O           X   #   # o # O     KX  #   #     O # O   |.#   6.e o                         .           p *     .   .                                           ",
"O O O O O O O     O O O O O O O O O O O O                     4.# O       O           O t =.            . ,                 O O         1XBX=.                                                  O                 p .   O       O     3 3     <     O     D O           O ",
"O O O < O   <   O O O O O O O O O O O O O O                     :X          O           :X          O 3 3 i .       O     O O               O       3                       < O         3 O     T D       3                     <   O K 3     <         X q             O ",
"O O O @ X     O O O O O O O O O O O O O O O O         O       O   {.{.{.{.|.OX{.{.{.|.6.              K < O         O H                             @                       *           X     X f X                             X   * x     X           f X             X ",
"O O O X       O   O O O O O O O O O O O O O O                       t e t e r e t t t                 d = X           K 3   .                       X                       *           X     - X                           O O     X                   $             . . ",
"O O O O   O O   O O O O O   O O O O O O O O O O                 =.{.Y ' *.*.*.*.' ' u OXt             .               - K O                                                                   $                               O                     < O       O O       + ",
"O O O O O O O O O O O O O O O O O O O O O O O O               e 4.                  O   {.  O O   O                   i - O                               O O                       < 3                                               D <           c.3       3 O     O O ",
"O O   O O O O O O O   O O O O O O O O O   3 O 3 O             {.              O O O O     6.    3 O   O       O     O   s O                   3       O   < D   O O   O O           I 3 O O           O O O                 O   O O   B           * w.        *     O O O ",
"    O O O O O   O   O O O   *   O O O O O   *   *     O O O   {.      O O                 6.O O X * O                   > .                   o           * * O O                   8.                O O                   O   O O   *           a X             O O O O ",
"  O O O O O O   O O O O O O   O O O O O O         O           {.            hX            6.      X                   O X   t                                                       i                                           X   .             .       O O     O < O   ",
"  O   O O       O O     O O O O O O O O           O           {.  O         KX            6.                                UX                      O                                 .                               O       . .   O O                           1 3 O + ",
"      O     O O O O O O O O O O O O O       O O   O   O       {.  O O   1X  LX  tX        S.    O <   O                     KX  1XAXOX6.{.@X@XS.{.    1XSX  HXZX  1XJX>.H       3                   O       O O     O <       O     O                             1 4 4 < ",
"O     O O O O O O O O O O O O O O X         O O       O O     {.  O O   1X1XzXiX@X        S.    O 1                         KX  HX  PX# iXtXtXtX'     IX  iXe qXu KX    C       >                   O               *             .   O                         O @ 6 4 < ",
"  O O O O   O   O O O O O O O O O         O       O O         {.          :XUX|.          6.    X d                         JX  HX  PX  lXtXtXhX      JX  1XlXiX  @XKX%X*       X                                                 .     O                       O @ ; 0 4 ",
"  O   O   O         O O O     O                         O     {.            t             6.      .                         UX  IX# KX  ZX1X>XZX      UX  <X@X{.  6.3.lX                                                            O                 O O < < O 3 3 1 K 4 ",
"O O O O O O H O O O O O O O <     O O O O O O O O O O O O O   {.  O           O   O O     6.        O   O                   ;.. t tX  O *.# # *.O     ;.    :X@X  OX1X        O O   O O O           O < 3   3 <   O O     O   O   3 c.O H O   O O O O < T J J @ I 4 6 0 0 ",
"X O   O @ O U ; O O O O O < G O O O O O O O O O O O < D   3 < 6.  O 3 O O O O T 3 O c.T R A.3 O < D T c.c.H O       D 3   O 3 O O   O < c.H 3 3 H < O O O 3 3 O O O O <       O O O O O O O O     O O 1 G   6 O   O               q.b * =             d d d X , d O : ; t ",
"&   O   X . * k     O O O   = o   O     X   X X   O   = O   d   :X  *         = =   x * 3XX * X X * l 8.z g X       = =     X X     O X q.n X = = X     X * *         X       X     X             O X , o . ,                 O . S . i       . .   $ p i i . p O 1 # @ e ",
"~         .   % $ O O O     $ i         O     . O   O $ % O . O   @X{.{.|.{.{.{.#X{..X#Xi i $ .   $ p p p p $       % %     . .       . a ~ . % i .     . % $ .     . .       $     .     O O       . i . $ $                 O . . . .                     O O 1 @ @ @ 6 ",
"K 4   O O   O O O   O O   O       O       O   O           O O O O                       . .         . . . .           .                 % f                                                         O O                         O       3 O O O O           O @ @ @ @ @ 6 ",
"K K O   O O O   D O O   O         O O   D O O   3 O O   O O   O O   O     O         O     O O 3               3 O         < O   O         p       O           D       3 O             O     O D   3 D D                       < O       I o     3 O       O @ @ @ O @ @ 6 ",
"K K I   O O O     h       O       O O   O h   O O @   O O O O   O   O   O <         O     O O )               ^ @         0     O     O       O   @           6       m                     j X   B   =     O                 *       d X X     ; 3       O 1 O O O O @ 6 ",
"K K I 0     O O O     O O   O   O O O     -   O   * O O O X   O O O     O X         X   O     8.  O           d =         f                       X           -       -                     -     a                       O O         $       % * 3 3     @ @ O O O @ O 1 ",
"K K I U 1   O O       O O   O   O O O O O     O     O   O     O O O                     O O   $               . .         .                                           .                       O             O                                 . $ = 3     @ O < O J < D 4 ",
"I I K I U O O O   O O 3   O   3   O   O   O   O           O O O   O O                       O O                                                 O O                                             O O O       O             < 3                   $ ,     3 G J 4 * / O > ; ",
"I ^ I I I I       O @ D O O   J 0       O O   O O       O     O 3     < O                             O             O O   O             <       O O O     O O         O     O O   O               1 O                     ; X                   . $ O   ( 8 > O - X @ O @ ",
"I ^ I I L 8 *       X   x       8.      O       *       O       h       o                             O               O   X             o O     X   O   O   X             O O                   O f                       X                   O       K K @ O O O O O O @ ",
"I I q 8 9 , %   O O O           . .                 O   O O O O             O                                         O                             3 <       O         O O                                                                 O O   O X Z.4 @ O O @ O O O @ ",
"q 8 9 e e & .     O O                                       O                       O   @   O   O   O   O   O           O               O           -                     .                               O   O                 O           X   O   d.v E @ @ @ @ @ @ @ @ ",
": e e 4 @ . . O     O O       O       O O O   D |.hX  zX:X@X  S.hXt iX:XtXlX    jX@X# zX  gX  pX      :X  1X  :X  hX:X1.t :XOXzX*.O . @X  <XhXe yXiX  1X  O         O         O <           O         O O     O                 O         O O   O ; C B D X O @ @ @ O O @ ",
"5 2 4 6 * .   O               O   O     O       AX  e 1X  gX  1Xr e 1X  u OX  6.T.  -XhX  AXe IX    OX;.  lX  iX=.6.  @X;.gX  yX  O :Xt   gX  <XgX6.*.hX  @         O         X O           O         X                                   O O O    .5 k O   X O @ @ @ O O ",
"< 4 0 ; .     O   O   O   O O O O O O   O O O X N NXe NX;.iX  :X1X# tX  -.@X  6.{.  jXtXt 1XKX:X#   gX    hX  iX*.;.BX=.1XNX  iX    gX    gX# :XlX1Xe hXO X                   o                               O                     O   O X O   W  .5 @ O       O O 1 @ @ ",
"4 4 6 * .     O O O     O O O O O O O O O O     @XiXe SX|.dX:X>X8X# NX@X=.:X  e lXY zXu 1XhX  tXe =.:X    ZXOXiX# gXNX6.;.lX  lX  6.{.    xX:X6.ZXtXt zXO O                                                                           O     O X a.6 O O   O     X O @ @ @ ",
"G K * .   O O O O   3       O O   O O O O O O O   e O   #   e   # O   t         # #   O                 O   e     #         #   O           t O   # O   - O                     O         O O               O     O O O           3 H         @.I O J   O           X O @ ",
"q.6 * . O O O O O O G >     O O   O O O O O O O O O O T       O O O O O   3 D   O       O <     O O O       O O       H O                   O D       O $ 3         D           D          .                O     O X       O O   q.  O O O q B.4 m 4 <                 O ",
"q - o   O   O O   O   f     O     O O O O O   O O     x     O O     O O     q.  O O   O O *     O O X O   O X   O     V X   O O             O >           K         *         X *         x                   O     X   O         X O   O   ~._ O h X <         O       X ",
"6 o .   O O O O   O   O       O   O O O O O O   O O     . O   O       O   O &                       O                 . .               O       O         ,                               .                             O   O             @.| 6 1 O : O           O       ",
"* .   O O O O   O O O       O O   O O O O O     O O         O O   O O             O O   O                     O                                           % O                       O                         O   O   O     O     O O O X L.6 ; @ O < <                   ",
"* . O O O O O O O O O O O   O     O O O O   < O     O               O O                               O     O         O     O                         O O   O                         3 O                 O 3   O     O     O O O O     y.q O 4 X O h     O             O ",
"o   O O O O O O O O O O O       O   O O O O O X   e |.|.{.{.{.|.{.{.{.&X{.{.{.&X{.{.{.{.{.{.{.{.{.{.{.# O           O 6   O O                   O     6 O   O O                       >   O               X   O                 O     O L 6 K @ O + O           O       O ",
". O O O O O O O O O O O O O     O     O O O     *.4.                  *       X                       |.t     O       - O O                           *   O O O                     O                   O     O           O O O       U E O K O O O 3     O     O   O O   ",
"  O O O O O O O O O O O O O O   O O O       O   OX  O O O O O     O     O O O       O O         O O     OX      O     O   O O                 O         O     O               O                               O         O   O       0 n O } 3 O @ ; E     O         @     ",
"O O O O O O O O O O O O O O O     O O O   O   e =.O O O     O   O O O   O   O       O O               O 3.o         O   O   O O O O       O     O       O     O O O               O   O O O       O   O     O O O     O O   O   O   X.@ o d O O O t D   O                 ",
"O O O X O O O O O O O O O O O O   O O O O O 3 : =.O O O     O O O O   < 3     H     O O O O   O 3 O     3.o         O O O O         O O O O O     O O O   3 O   O         O O O       O 4 O O     O O     O   O O     X O   O O O  .E O < O O X O f 3     O               ",
"O O O O O O O O O O O O O O O O     O       X 7 =.O O O O O O O O   NXVXf.gXS.* NXNX# O O O O   @ *     3.o O O     O O O O O   O   O @ O O O O O O     uX      O         O     O =. XO *   O     o     HX  O O O O       O   @ 1 %.q G 0 1 O O + a   O                   ",
"O O O O O O O O O O O O O O O O O   O       O 7 =.O O   O   O O   O   qX  gXgX  xX7 uX  O O             3.O O O   O   O   O t :X  # ;.    *.t O   3.O   KX  # ;.      # ;.O   4.  6.1X  =.@ O   1.  iX    @   4.  @   1.  O X   @.h 1 C * O O O < 3 O O                   ",
"O O O O O O O   O X   O O O O O O       O O   7 -.      O   O   O O e uXu -XxX  JXBX' O           O     3.O O O   O   O O   8XNX  KX4X<X@XuXSX*.xX@XUX  JX  PXtX1XO   PXtX# BX@XKX=.:X:XtXIX  IX:X# UXt PX  LX@XxXN SXiX:X    L 0 1 6 O O O O O X ( O                     ",
"    O             O O     O O                 7 =.3 3       3 O O O e uXOXzXJX# xX  BXO   O   O     O O 3.O O O O O O   O O 3.1X;.yX# zXiXt uXY KX  KX  JXt hXtX<XO O UX@X  KX,.JX;.:XjX6.PX  jX    JX  HX  BX  PXu tX=.uX  @ C.4 0 3 O O O O O # X   O   O             O ",
"  O O O O O O O O O O O   O O O O O   O O O O 7 -.O u.      O m     e %XtX  =.3.zXvXe X.    O O   O O O 3.@ O O O O 1   < 4 6.:X;.tX# xXiXe tX*.KX  HX  JXt hXu   @ @ O 1XOXJX2.  S.:XlX6.# u hX    JX  HX  NXX LXu uX-.yX  d.N.@ n 1 J < O O O O O                       ",
"O O O O O O O O O O O O O   O O O O     O O O 7 -.  o . O O   o   O O     O           c .   O O O O O   3.@ O O     X O   * r PX  JXBX6.t HXKXu @XmXIX  SX  KXzX;.O   NXKXr iXjXyX3.<X6.AXNX  HXzX  HXu SX  BXhX1X=.uX;.uXX k.6 6 @ > ; 6 K T 3 O O     O     O         O ",
"O O O O O O O O O O O O O O O O O O O   O O O 7 -.O O O O O O O O O O   O O O O O         O   O O O O O 3.@ O O     O O         @     O 7 3.zX=.*.u UX    #       O O     @           O     #     @       :   o           6 ^ O 0 + + O : h v 4 W H     O                 ",
"O O O O O O O O O O O O O O O O O O O O O O O   @X  O O O O O O   O   O O O O O O O                 O   @X  O O     O O O O   O O O O O   @X6.  e >Xr O O O   O     O O   O O O O O             O < O O O O O O O O O     ^ 4 6 4 O 6 O + & : # A <               O O   O ",
"O O O O O O O O O O O O O O 6 O O G X @   O O O e =X7             O 2 o             O O             # -X2 O   O   < O O O O < O O O O O       O O < D   O O O O O O X     4           O   O O O   }   O O O X @ O     O   H.O X.@ @ X O O O @ & & O                 O O   ",
"O O O O O O O O O O O O O O O O O X O X   O O O O   x.6.6.6.6.6.6.4.h.6.6.6.6.6.6.6.5.h.6.6.6.6.6.6.3.  * X   O   9 X   O   : X   O X O O O   O O d =   O O O O       O   o       O O O O O O O * * O O O O O @ O O   1 - ( : > O O @ O O O @ O O O O O       O O O   O O ",
"O     O O O O O O O O O O O O O O O O O O O O O O   O O     O O O O O O O O   O O O               O O O             O O O O   O O @       O   O O                 O O O O O     O O O O O O O O O O O O O O O O O O   O q < 1 O @ O @ @ @ O 1 O O O   O         O O O # O ",
"O O H O O O O O O O O O O O O O O O O O O   O O O O O O < O O O O O O O O O O O O O O   O O O O O O O O     O O O     O O O O     X O O O         O   O O O O O O O O O O O O   O O O O O O O O O O O O O O O @ O O O   O.O K < J O O O @ 1 1 O 1 <           O O O O     ",
"    / x   O O O O O O O O O O O O @ @ @   O O O O O O O 4 X O O O O O O   @ O O O O O O   O O O O O O O O O O O O O   O O                 O O O O O O O O O O O O O O O O O O O   O < O O O O O O O O O O O O @ O   O X U O v j 1 4 < O @ @ @ O ; O       O   O ; O O   O ",
"      &   O O O O O O O O O O O O @ @ @ O O O # O O O O @   O O O O O O O O O O O O O O O O O O O O O O O O O   < I   O O     O   O O O O O O O O O O O O O O O O O O O O O O O   * b O O O O O O O O O O X @ @ O O O q 4 4 4 O 1 U 4 @ 1 O 4 4 3     O O O O X O O O O O ",
"  O O O O O O O O O O O O O O O O @ @ @ 1 O O O O O O < @ O O O O O O O O O O O O O O O O O O O O O O O X O 0 O   f O O         O O O O O O O O O O O O X O O O O O O O O O O O O     O O O O O O O O O O O @ @ O     I.O @.O 1 : ^ 1 6 J 6 K  .H   H O O O O X 6 O O O O ",
"    O O O O O O O O O O O O O @ @ @ @ @ 1 X O O O O O O X O O O O O O O O O O O O O O O   O O O O O O O O O X   O O O O     O   O O O O O O O O O O O O O O O O O O O O X O X O O O O O O O X O O O O O O O @ 1 O O d { * ..@ ; w 0 4 q q 6 e u.3 d h O O O O O   O   O O ",
"j   O O O O O O O O O O O O O O @ @ @ @ 4 1   O O O O O O O O O O O O O O O O O O O O O O O O   O O O O O O O O O O   O O O O O   O O O O O O O O O O O O O O O O O O O O O O O O O O O O O O O O O O O O O @ 1 O   n 3 b 4 @ 8 ; 8 ; & @ 6 i , O   O O   O O O O O O O O ",
"= . O O O O O O O O O O O O O @ @ 1 1 4 4 M.* O O X J O O G O O O O O O O O O O X O O O O O O 3 < O X O O O O O O O O O O O O O O X O O O O X O 3 G X O O O O @ O O O O O O O X O O O O   O O O O O O O O O ; @ O   B.O 8 O @ 1 1 @ @ O @ 6 + O O O O O O O   @ O O O O O ",
"O   O O O O O O O O O O O O @ @ @ @ 1 1 0 n k O O X O ; O > O O O O O O O O O O O O O O O O O 6 @ X O 4 O O O O O O O O O 1 4 O O   O O O O O O V j O O O O O @ O O O O X O @ O O O O O O   X O O O O O O O ; @ O d %.O E O @ 4 1 @ @ @ @ 1 1 O   O O O O O O O X O O O O ",
"      O O O O O O O O O @ O @ @ @ 1 1 0 0 K # O r e   t   O   # O @ X @ u O O @     t e   t @ O O   1 7 e   O   t # O O O @ 6 O O O O O O X O O X O O O O O O O O O O O O O 1 4 O O O O O O   O O O O O O O ; @ O B 4 Z G @ 6 K 4 < @ 1 4 @ O O       O   O O   O O   O O ",
"O D J   O O O O X 3 O O O O @ @ 1 1 1 0 K I 8   yXiXyX:X-X;.JX  UXe OXxX}.|.T.  lXOX:XzX1X<Xu   NX@Xe ZX;.xXh.OXyX5.  O X X X O O O   O O O O O @ O O O O O O O O O O O X O , 6 X O O O O O   X O @ O O O O @ O   _ O C O X q 4 X O O ; X O O O O         O O O O O   O O ",
"O * j f O O @ O O 4 B O @ @ @ @ 1 6 0 K K I K   3.}.tX4.1XtX@X# gX<XS.AX}.{.5.  <XuXu ;X:XuX#   iXqXo VX}.{.lXe BX' O @ O O O O O O O O O O O 1 1 O X O O O O X O O @ O O O & 1 O O O O O O O   X @ @ O O O @ @ X W O 1 O O v < O O ; 1 1 O O O O O O O     O O O O O O O ",
"O   O   O O O O O O X @ O @ @ 1 1 0 0 K K L L X 4.}.tXiXe BXgX' tXjX+X  iXS.-.u VXHX7 :X1X@ O   uXdXo 1X  # uXO   ZX  6 O O O O O O O O O X O q 1 O O O O O O O O O O O O O X 8 @ X O O O @ @ O X X O O O @ @ @ ( I @ 1 @ X 6 O 1 1 X @ 6 O O O O O O O O         h Q   O ",
"O O O * O O O O O @ @ 1 @ @ @ 1 1 0 K I I I L 6 ' 1.@X  @X@X  oX-X|.*.uXuXe kX<X7 Q.y T.5.gX1.  <Xt *.gXtXO @X7 hX}.O ; O O O O O X O O O O X 8 @ O O O @ @ @ @ O O O O O O @ X @ O O O O O @ O O X X O @ O ; X U.O 6 @ O O @ @ @ O O @ @ O O * U O O O O O     . -   O O ",
"O @ 3 O O O O O O @ @ @ @ @ @ 1 1 K K I I L I L   O O @   O @ O O O O     @ O O @ O 6 O O   O 1 O O O     # O O   O @ @ O O O O O X O O O X O @ 1 O O O O @ O O O O O O O O @ O @ @ O O O @ O O O O X X @ X ; j P.@ 4 O @ @ 1 O O @ O 1 O O O o   O   O O O O O     O   O ",
"  O  .g O O O O O @ @ @ 1 @ 1 1 0 K K I I U U ^ X @ X O O X X X X O O @ @ @ X O X X 1 6 K O X 1 0   X O X O O O O O O @ O O X O X O X O O   X @ @ O @ O O O O O X X @ X O O O O @ 1 O @ O O O < O O O X @ O @ i. .6 1 1 0 0 4 @ 1 O @ @ O O O O O   O O O   O   O       O ",
"O O     O O O X O O @ @ @ @ 1 4 0 I K I U U U U n               Q 4 O O < O 3 O O O 3 D 4 I J E *   @ X X O O @ O O O O 4 O O X O 4 O O O O O @ 6 O O O O @ O O X O O G X O O O @ 6 O @ O n U ..X @ O O X X * p.O 4 @ q q 8 ; 0 4 O 1 O O O O O O O O O O   O O X ! O   * ",
"O O < O   O O O X X O O O O @ 6 6 8 q q L ^ ) U n.E G G 4 I  .K L ^.P.I.U.d.d.[ ( ( | i.C C G.k.C.J 4 @ @ X @ @ O @ O @ n > @ @ O V * O O 6 : ; 6 @ @ O @ O @ O O O ; > X O O O o : @ @ O f * * @ @ @ O O O h m.@ q ) K q 6 1 m 1 6 1 O O O O O X @ O O O X O O - = O O   ",
"@ O O @ O O O O O O O X O X O X O @ # 1 6 ; q v $.0.8.h h d l = * d c g m m d > 6 ; @ X @ H b * i.L.'.P.I O X O X O O @ X @ @ O O X X O O O X @ ; @ @ @ O O O O O O X O O @ O O O O @ @ @ @ @ @ @ @ @ @ O O d.o.8 9 Z ^  .8 / J 1 6 4 O O U 3 X O O O O O O O O O X 1   O ",
"* O O X O O O O O < O @ 4 3 O @ @ @ ; @ @ @ 6 4 a.X   # @ 1 @ @ @ @ @   ; * ; @ X O @ # 1 J.= 1 K > q.9.j.%.Q 4 O X X @ X O @ O O @ O @ @ O O O @ @ @ @ O X O O O O O O O O X O O O @ O @ @ @ @ @ @ ; @ @ o l.) ..0 ; v v : * B @ 1 O O i N.< X O O O   O O O O O X O O X ",
"& X   X O O O @ O @ ; X @ ^ = @ X @ @ @ @ @ ; G 8.@XT.5.h.Y.Y.Y.S.Y.S.}.Y.O 6   }.|.S.Y.Q.[.Y.`.W.!.!.+X1 0 a.~.m.G O X X X O O X O O O @ O O @ @ @ @ O O X X O O X O O O O O O X O @ @ @ @ @ @ X O O O X X L.I M 6 6 @ @ O O 4 @ @ 1 O p / O X O O O O   O O O O O   1 O ",
"X X O O O O O X O X O O O   O O O @ @ @ @ @ @ J %XO @ O O @ 6 @ O @ 6 O u 5.O }.: 4 q 4 P.g D [ 8 6 0 # +Xa...* d q.O.E <   O   O O X @ 1 O O 1 O @ @ O O X O q O X O X X O X X O O @ @ @ @ X O O O @ @ O d i.) K 8 0 4 1 1 O 6 @ O 8 O & O O O O O 6 O O O O O O O X     ",
"O X O O O O X   O O X O O O O O O @ @ @ @ 6 1 M.h.q @ @ @ O 6 @ @ @ @ @ O oX  }.4 6 ; W w.@ _ X @ 6 6 6 &X1 A U G O = B +.W J O     O X 8 0 O @ O @ @ O @ X O * O X O O O O X O O O X O O O O O @ @ @ O O j | o.; 8 8 6 L < 6 1 4 X O O O @ O O O @ O   O   O O O O O     ",
"X O O O O O @ O O O < O O O O @ @ @ @ @ @ ; 4 u.>.8 O @ @ O X O 6 @ O @ O T.O S.6 1 T $.d 3 = O O X ; 1 4.m I 6 @.m.4 4 8 M d.@.I D O X X ; K @ 6 ; @ @ @ X O @ O O ; @ @ 1 6 @ X X X O O @ @ @ @ @ @ @ X j i.C.4 6 ; 0 6 O q 0 @ O X O @ O O O O O O O O O O O O       O ",
"X O O O X O O 8 X O / X O X O O @ @ @ @ @ ; J A A.* @ @ @   hXuX  1 @ @ O E.O T.6 6 U.q.O 4XiX' O O @ @ R.G * 0 n j.{ ) K 0   N ( +.o.G < O X ; @ ; @ X @ X O O     X X O n =   O X X O O @ O O @ @ ; @ X ; w.G.o.0 : q @ 6 K 1 X O @ X O @ O X O O O O O O O O O   O O > ",
"O O O O O O O O X     O X O O @ @ @ @ @ 1 6 D.9.A.; @ @ O BX7 @X>X@ ; @ @ E.O T.X J s.= O ZX9 @ O O @ @ 5.9 6 @ 8 @ X ^ ^ @ qXfX4 { ; v [ P.J 4   6 @ o O X O O tX;.O -.gX  O X     O @     uX5.X @ @ @ X ; q.H.) ; : 6 4 > 0 @ O X O X 0 O O O O ; O X O @ O     O O O X ",
"X O O O X X O O O O O @ X @ @ @ @ @ ; @ 6 6 p.e.2.; ; @   ZX  ;.yXO 6 @ @ }.  Y.O o.j 4 o HXOX0 1 1 @ O 4.1 4 6 4 8 @.4 ; X LX4Xu.wXR.>XVXu.k.eXFX&.` UX:.X O   KX  ( r ZXxX  @ zXhX  # BX-X1X3.>X7 ; @ X ; q.H.K 1 ; ; ; 6 4 @ O O X # I O X O O X O O O O     O O O O O ",
"@ O O O O O @ O O @ O @ @ @ @ @ @ @ @ @ 6 K ] e :.@ ; @   ZX  ;.tX@ 1 6 @ E.O h.K +.; +.O SXT.@ @ 1 K 4 S.6 a.X 8 0 X C @ O mX8 qXwX4 CX  KX> AXj GX_ FXO ; q T.4X> * t jXr hXO   1X4.BXX   tX' NXX ; ; @ ; 8.I.K 6 @ @ @ > q @ O O O : Q X O X O O O O     O O O O O   @ ",
"X O X @ > O O @.> X O O @ @ @ ; @ @ @ @ 6 m.t.P 2.@ 6 1 O BX7 @X>X0 q 6 @ E.O Q.M.= 4 h   AXe # @ 4 q 6 Y.# X @ @ @ @ 1 ; O BX# 1X!.} CX6 KXq MXw VXd KXL o.8 DX  X @ u dXt hXt SXSX=.BX@ O 1XKXe 6 ; ; @ @ 9.G.O.@ @ 1 6 6 O O O O   S E X O O   O O O O O O O O O O O V ",
"O O O O 4 @ X O @ O O O O @ @ @ @ @ ; 6 6 Z.9.9 <.; ; @ ; O ZXhX  0 v 8 @ E.O [.w.@ 0 1 O <XiXA.K 6 8 8 5.1 1 @ @ @ @ 6 6 O ZX# 1X}.# GX0 KXw VXw FXO KXK U.q CXO 1 X *.gX-.dXtX;.tX4.NXe # yXt KX  @ @ O ; #.U.) 4 6 6 6 1 @ @ @ O + a 1 O @ 4 D O O O q.J X O O O O   - ",
"O @ X X 1 6 X O O @ @ O O @ @ ; ; 6 6 6 I '.e.P <.6 ; 1 @ ; @ / 0 6 @ n 6 E.G [.* W 6 @ I 0 1 I.q 8 6 ; 5.7 0 4 1 @ 6 6 6 6 +X@ A.V.+.=XMX@.O.=X6 ;X^ eX2X] A./.m.K 6 O yXlX    xX@Xy # mX@X1.u }.9 @ @ @ = u.J.U 6 6 1 6 @ @ @ O 1 O @ @ O X b O O O   o O O O O O O O O ",
"X X O O 1 ; O O O O @ X X @ @ @ 6 6 6 8 ! ~.7.: Y.6 6 6 6 ; 0 0 6 ; 6 @ ^ &X$.$X4 L o...q I.6 | p.6 6 @ E.X n ^ 0 6 6 6 6 0 K _ ....F.F.^ 8 Z I.n.%.^.i.( ..F.#.i.P.G ; O O @ @   X X o   X X @ O @ @ @ O * | U.W 1 @ ( ! @ O @ X @ O @ O O O O O O O O O O O O O O O O O ",
"O @ O O O O 1 @ 1 @ @ G U X @ ; 6 6 6 6 ! w.w ; -XO @ @ ; 1 6 6 ; ; ; @ ' `.l.oXn.s.{ a.L C v 6 h 6 6 # +X1 6 ( n 0 6 q +.] ( ] #.^ F.U.N.M.$.U.'.d.b 8 ^ p.n ( ) q.L.W 6 ; 6 1 @ @ X X 1 O @ @ @ @ @ @ O X q.L.G ; 6 @.6 O @ O O O O O O O X O X O O O X O O O O O O O > ",
"@ @ ; X O X 1 0 1 6 ; @ q.- @ ; 6 6 0 8 D.w.K 8   %XE.R.R.R.R.T.Y.Y.Y.XX6XL.|  .=X=X[.!.[.R.Q.R.R.R.!.+X  6 6 1 ^ 0 ^ ( M n 8 v M ( ] y.] { %.d.y.; _ ....; 6 6 h ) j k.Z.6 ; O @ @ @   y @ X @ @ @ @ @ O X 8 N.I ; 6 q @ O O O O O X J O O @ 1 4 X X O O O O O O O O O * ",
"O X O O O O 1 0 0 L 8 q 8 6 > @ 6 6 8 0 H.e.( 6 6 @   O O X O   O 1 E #.d.G.s.%.+...a.{ ^ M O O O X O @ 6 1 { M ^ v 6 ^ K 6 6 6 6 ; 1 ) B.%.Z v 6 K q v n 0 ; 6 0 ; G...j.P.I @ @ @ @ O & O O O @ O @ @ O X 8 a.I 1 6 @ @ O O O O O S W X @ 6 8 O O O X O O O O O O O O O ",
"6 ; @ ; X 1 6 ; v > > ; > 0 > @ 6 6 8 I d.m v 6 O E.&XoXoX XoXXX&X=X2X=X`.G.L.s.`.eXeX=X+X XoXoXoXoX+XY.O 8 8 6 6 6 6 8 6  .q 6 K .. .H.d.8 4 )  .@.6 ; q ; 6 6 v L = V O.q.^.v.; 6 @ O @ @ ; @ @ @ @ @ @ ; v ^.I 6 6 @ @ O X   > 0 : O @ @ O O O O O O O O O O O O O O X ",
"@ ; X 1 G K ; @ 6 6 6 0 6 0 h @ 6 8 8 v.i.U v ; +X9 ; ; @ 1 E P.L.G.J.F.[.[.L.[./.G.L.k.F.W K @ @ 6 1 ' R.0 q q q q q q 6 L H.+.G.J.L.v ; U %.+.| > 6 ; 6 6 ; 6 ; ; q 6 v ^ f i.m.K @ O ; I X X O X @ @ @ ; m k.I 6 1 @ X X O O @ O @ O @ @ O @ 6 @ O X O X O O O 4 X ) 3 ",
"; 4 4 6 * X @ @ 6 6 6 0 / q 8 ; 6 q 8 B.w...h ; Q.v 8 6 E P.y.] b M ..y.> =Xs.3Xw.B v 8 h C k.L.B. .q 6 oXX q 6 6 q ) ^ +.G.L.I.^.y.> q ^ _ n 8 6 q 6 ; 6 6 ; 6 6 6 6 q U 8 #.K w.'.I @ h U @ @ @ @ @ @ @ @ M a. .0 @ O 1 @ @ O @ @ O @ @ @ O ; ; O @ 1 O X 1 O V D - B O ",
"4 K > ; @ @ O X @ 6 ; ; 0 q 6 ; 6 0 q B.C { q ` 2.6 ! M.#.x 6 K I o.B.$.y.!.d h.1 I 0 4  .1 @ ; j i.~.U.!.O._ )  . .I.+.J.J.'.k.M U O.^ ) n 6 q q 6 6 ; 6 6 ; 6 6 6 6 6 h %.0 b X.9.L.o.@ ; ; * @ O @ @ @ @ j d.m.1 @ 8 ; @ @ @ @ @ @ @ @ 6 4 O O O @ X O O O X O X O O O ",
"6 6 ; 1 6 ; @ @ @ @ ; @ @ L 8 6 6 8 W F.{ | ^ } K.P.k.q.g.G V.B.G./.i.h 6 !.O Q.U J.L.$.M XX8XL 0 6 > l W.~.^.P.J.O.H...I.d.u.v O.s.( _ 8 8 6 8 q   6 6 6 q   6 6 6 6 6 6 > y.! v ) v i.m.K @ @ ; @ @ ; ; 6 > l.P.I 6 ; 1 @ @ ; @ @ @ @ @ @ @ @ O O O O O O O O O O X O O ",
"1 0 6 ; 6 @ @ 1 6 ; ; ; 6 8 K q 6 8 C.y.#.p.{ V.[.9.v I CXp.MX=X%X;X6 0 ! =X..[.h ; ; 6 5.kXW./ q K ) 0 Y.* v [ p.N._.L.C 8 U ) _ n 6 6 q 6 6 6   mX1 6 @ O BXO 6 @ 6 ; ; 6 ; V ..; a.4 B P.Q @ ; @ ; ; ; ; n l.H.) K @ ; @ @ @ @ @ 1 @ @ @ @ O O O O O X O O O O O < O O ",
"6 6 6 ; 6 6 6 6 6 6 6 8 6 8 ; I ) q Z.i.%.P.~.i.W.O.I.k.4X:.dXyXtX&.n.%.a.$XX R.@ 6 6 1 R.dX@ @ 6 ^ +.^ Q.U K I 0 ^ #.| 0 6 =Xq !.@ <.hXu 6 6 6 5.tXq 6 O uXJXO 9 jX-.9 <.9 Y.@ g.@.,X;X@ q.~.m.6 ; ; ; ; ; q.L.$.^ L 1 ; 6 @ @ @ @ 6 @ O O O @ O @ O O X @ O O O 8 < O X ",
"6 6 6 ; 6 > @ 6 ; 6 6 8 0 M 8 8 ) ..I.J.'.~.u.I.[.a.[ 8 2.,XwXnXkX> M L 8 E.O R.6 6 6 6 O +XHX-.4 0 6 0 !.q ^ ) ^ L O.H...O PX  PX  UX  LX  6 @ BXO 6 O ZXy HX  PXO IXO ZX}.BXh.<XkXh.CXr n m l.P.0 ; ; ; ; v d.C.q L q 8 1 @ @ @ * 1 ;  .3 O @ O O @ O X X X O O O O O O ",
"; ; ; 1 8 ; ; 6 6 6 6 6 q n q ) M.P.'.~.i.p.s.G.(.] U n.} DXoXuXmX  K ) ; E.O T.@ 6 6 6 6   |.>X1 8 ; 6 5.: 0 n q K F.L.^   JX  JX  SX  KX  6 @ AXO 6   GXO SX  KX  JX  ZX1XtX1X=.jXy jX&.6 ] P q.U.W 6 6 ; b ~.B.L ^ L 0 @ @ @ O ; 1 : h @ @ O O O O O O O X O O O O   O ",
"; 6 ; 0 8 ; 6 0 ^ 8 q L ) .. .Z.U.^.~.~.+.B.J.K.`.%.s.q.X nX6 2.qXO 0 ..; E.O T.@ 6 ; 1 9 NXxX  6 1 6 6 h.6 8 6 6 q +.L.L   LX  PX  SX  LX  1 qXY.0 6   JX  GX  PX  JX  jXdXoXAX  kXu kXN a.K q.M.} ~.C.6 6 j i.N. .^ ^ I 1 @ @ @ @ @ @ O O @ 1 @ @ @ O O X O O O O O O # ",
"6 6 6 I b 6 6 0 K  .( ^ O.Z.L.L.'.l.@.U.^.G.d.u.W.v q q n ; q 6 @ 6 K 6 @ E.O R.; ; ; 6 6 O O 6 6 6 K 0 A.I U  .L q s.'.F.q wXNX,X  KXmX` ) O uX  0 0 0 5.FXtX@ Y.AX,XO oX,Xr hX  ,X9 ,X9 * y.I j +.v j.P.K v a.J. .^ ) ) K 1 @ @ @ @ @ @ O @ @ @ @ 1 1 O @ & S %.J O O O ",
"6 ; 0 v > 6 q 8 8 q W B.U.k.y.H.d.H.F.L.F.~.M m g.^ n 8 8 8 6 6 q q 6 6 O oXO E.@ 6 6 ; 6 6 6 0 I B.@.U.>Xu.g.>.N q +.^.| q 6 O 6   HX  K n 6 @ 6 q 6 q 0 O O 6 @ O O 6 0 @ 6 @ 0 O 6 O ; 6 1 8 K ; |  .q.I.^ a.s.) M.U ^ L 4 @ O ; 1 @ @ 1 @ y U 2 6 O O O   .   X O X O ",
"6 ; 6 v 6 6 8 8 ! P.^.t.p.[ C.L.L.G.y.n _ J.^.h ;XO ^ 8 8 6 6 6 6 ; 6 6 : oXX +XO ; 6 L q ^ m 6 w s #   -XO 1 6 6 6 L L.^ 6 q 6 6 q   P :.O 6 6 6 6 6 ; 6 U @ ; @ ; 6 6 6 6 0 w n q 9 P 6 6 I 6 6 q K h B.6 i.L.H.%.n ^ K q K ` K.W 1 O @ ; 6 < O     O X O O O O O X O O ",
"q 1 n > 0 L I m.L.i.[ _ { Z.i.a.Z ) N.[ 0 %.s.L.@ ,Xg.2.<.<.<.<.<.<.<.Y.+X4 q 1 >X5.-.<.:.-.-.<.:.<.A.;XO 6 6 q 8 0 %.'.#.^ q 6 6 q 6 q O O @ 6 6 6 6 6 ; O.1 @ 6 ; 6 6 6 @ m ) 6 @ @ @ 6 9 q 6 6 6 [ o.> %. .L._.0 8 ^ g.P.<.Y : K @ @ @ ; 6 O O O O O O O O O O O O O O ",
"M.a.S I C.F.G.| ( ( ( ^ Z.w.) C ^ n n M.p.L I.^.d.1 / / / y y y y y y # @ 6 ^ > X # e e e e y e e y 7 @ 6 1 6 q 8 6 ..I.#.q q 6 6 6 6 ) 6 @ K @ ; 6 6 6 6 ..4 @ ; 6 6 6 ; ; @ r V.K 6 6 6 6 6 6 ; 6 6 ( N...a.L._.I 8 X.` L _ W u W @ X X X X O O O O O O X L < X O O O O ",
"6 I $.H.~.w.^ } ' U ( C.w.m q O.b 8  .%.V.F.$.L.+.[.=X@X+X+X+XoXoXoXoX+Xy @ 6 O u OXoXoXoXoXoXoXoXoX+X` _ L.; 6 8 6 L J._ 8 8 6 6 6 6 ^ ; 1 / O O @ 6 6 6 6 L @ 6 6 6 6 6 ; ; @ S B.6 6 0 6 6 I I K q 0 b #._ ~.I.n.q q ^ K q L t  .O O O O O O O O O O O X X O O X O O # ",
"n.L.k.q.[ M L n q n Z.j._ n ..h 8 q ^ n 9 _ M  .[.`.L.Z @ @ @ @ X O O   oXy 6 =.h.  O O X O O n O @ @ 2.<.* 6 6 8 6 @.I.s.8 q 6 6 6 6 6 6 6 6 6 O O ; 6 K 6 q 1 @ 8 6 6 6 6 ; 6 & &.6 6 6 ) q n 6 6 6 8 8 > y.^...H.q q _ ^ q / ~ X.< @ @ @ @ O O O O @ O O O O O O O X O ",
"L.q.[ ( ^ { b q q C.j.&.q. .x 0 8 6 q 8 q q ..v &X| H.a.M 6 8 6 6 6 6 6 O +X  +XO ; @ / ; 6 6 6 6 6 6 O +XO ; 6 6 8 _ L.J.q q 8 6 6 6 0 6 6 6 6 6 @ @ @ q 6 6 4 @ ; 8 6 6 6 6 ; @ / 6 6 6 6 6 ; 6 6 6 8 8 q h ^.q L.U q M  .K w 0 @ @ @ @ @ @ O O O O O X X O O O O @ 1 O ",
"^ ( ^ n M ; 0 8 v.y.> q  .b 6 6 6 6 6 8 q q 0 @.2. .{ H.L.y.6 6 6 6 6 6 @ E.O Y.@ @ @ @ 6 ; 1 6 1 q 6 6 h.6 6 6 6 6 +.s.s.q q 6 6 6 @ K.@ 6 6 6 6 6 6 @ 1 1 @ O.1 @ 8 8 ; 6 1 @ * ) 6 6 6 6 6 6 6 6 6 ; 6 8 V '.^ a.n.^ a.N.) K 6 1 @ @ O @ @ O @ O O O 4 1 O O O X @ O o ",
"+.M 8 6 6 0 8 v.y.* ; K > 6 6 6 ; 6 6 q q q 8 w A.8 ..F.'.d.} ; 6 8 6 6 @ }.O T.; @ @ @ @ =.' O ; 6 6 6 Y.6 6 q q 6 0 +.%.0   0 6 6 1 A.  @ q 6 6 6 / 6 4 @ @ ) 0 O X 8 6 6 1   ; q 6 6 6 6 6 6 6 6 ; 8 6 q q.J. .Z H.6 n K q 0 0 1 @ @ @ @ @ O h I X v I 4 O O O O O O X ",
"b 6 0 8 q v Q d.f 8 1 q 8 6 6 6 ; I ] 6 8 8 8 N 2.L 8 +.p.s.GXfXX q 8 6 @ E.O T.; ; ; O 1XiXjX;X_ ; q 6 h.6 6 6 8 8 q +.G.  mX  6 6 6 6 xX;X  6 6 6 6 1 wXX @ ; 1 qX,X8 6 1 O 1X' 6 1 @ O 6 6 6 6 6 ; / 6 ^ i.n.p.8 ~.K n L L 0 0 u W @ @ @ @ @ O O O O X O @ O O O O O @ ",
"n 6 6 6 q Q y.* 1 W ] ( > 6 6 6 ; 6 6 6 6 6 6 N <.0 _ > ..n vXAX; ; 8 0 @ E.O T.6 ; 1 0 1X4.7 lX8 6 6 6 Y.# 8 6 1 6 L ..p.  KX  # 1X  N HXO uX}.@ 6 6 ,X}.q @ @ +XO X X +XS.  tX5.5.O }.iX@ 6 6 6 6 6 6 M ^ ~.o.a.L j.m.8 q K ( F.-.I @ @ @ @ @ @ O O O @ @ @ @ @ O @ ; 6 ",
"v 6 0 6 E L.c 0 I ( v 6 6 6 6 ; ; 6 6 6 6 6 6 w <.6 8 ) > &X;XMX> @.* 6 6 E.O Y.6 ; 1 6 1X5.9 zXO 6 6 6 h.6 q 0 6 6 L ^ N.O KX  UX;.GXu JXO AX}.O 6 O JX  8   LX@X>X@X,X<XxX5.qXqXVX' 1XiXO 6 6 6 6 8 6 ( m ^._ %.8 t.P.+.s.%...0 6 0 6 6 1 @ @ @ @ O O @ @ @ @ @ @ @ X 1 ",
"6 6 > v.~.A M 6 0 8 ; 6 6 6 6 ; 1 6 6 6 6 6 6 w <.6 6 0 n yXsXNX[.8 G.; @ }.O R.@ 6 ; @ qX=.7 lXO 6 6 6 Y.1 6 6 6 6 ^ _ U.O KX  LX1XjX@ ZX  xX9 6 6 -.iX@ 6   JX  ,X|.hXA.dXW.yXg.yX4.}.>X6 q 6 6 6 6 6 n A _.b  .M V I._ ^ ^ q 8 6 6 @ @ @ @ @ 6 1 O @ @ @ @ @ @ O O a L ",
"6 6 E L.8.# 0 q M > 6 6 6 6 6 ; I > 6 0 m 6 6 w <.6 q 6 O mX  ` uX^.M s.; Q.  R.8 6 ; @ E.SXGX9 6 6 6 6 Y.q _ q q q q s.^.O KX  HX# O 6 AX@ NX6 n 8 MX/ #.G.^ KXM eX+XdX` uX4.yX1.yX2.OX@X6 ^ 6 6 6 6 6 6 B B.M 4 B q d.I n q 0 6 O @ O O @ @ 1 @ O O @ O @ @ @ O O O o 1 ",
"8 I #.x 8 6 L 8 > ; 6 6 6 6 6 ; 0 > 6 0 ; 6 6 y <.6 8 8 q O ^ 6 ..s.^.n G.E.O Y.6 V.# 6 @ O O 6 6 q q q Y.6 8 q n 8 ^ J.L.n NX* fXDXeXC vXa.4XmX8 h MXC y.a.b NXj 3X!.7 VXZX2.1X<.1X<.` LXO 6 6 6 6 6 8 q i.m.] 0 =  .q.m.8 q 6 8 N.4 @ @ @ @ ; @ X @ ; 1 O O @ @ @ @ ; q ",
"K M.f I > 0 6 ; 6 ; 6 6 6 6 6 @ 1 6 6 ; 6 6 6 9 2.0 6 6 8 8 K { 6 J.#.'.[ =XX E.6 n.S 6 6 6 6 6 q n 8 6 R.# 6 L s.G._ #.s.{   9 @   ; q @ ( ;   6 8 8 q 8 n 8 O M ; 6 ` -XAX' O @ O @ 6   6 6 0 ; 6 6 8 8 k.o.^ 6 ; _ x I.L +.F.N.q 1 1 @ @ @ @ @ X O @ ; 0 @ @ @ @ ; 8 4 ",
"o.j K U _ q > 6 6 6 6 6 6 6 ; 6 ; 6 6 6 6 6 6 O -XO 0 6 8 8 6 q n 6 $.F.y.+Xa.;XO L N q 6 6 6 q n 8 q   -Xq ^.L.y.8 q s.M ( @ 6 6 6 6 6 q 8 6 / X.6 ^ 6 6 8 6 6 8 6 K X 2.` @ @ 6 1 @ 6 6 6 6 0 6 6 6 8 > L.6 ^ ; ; ( m ~.B. .K 6 0 6 4 @ @ @ 6 < > u.E * 0 @ @ @ @ @ O X ",
"9.2 q q 8 6 ; 6 ; 6 6 6 6 6 ; @ 6 6 6 6 6 6 6 6 # >X` y y y y y y ` r Y.;X^ 0 p.:X&.y y / y y ` N y &.eXL.M M ; 8 0 / q q n 6 ; ; 6 6 8 6 6 6 6 6 ^ ) 0 ; 6 6 6 6 6 _ 1 8 n 6 6 K 1 @ @ @ ; 6 6 ; 6 6 0 d P.> ) ; ; ( P l.C.q L 0 6 @ 1 @ @ @ ; @ X O @ @ @ @ @ @ O O O O ",
"r 8 I M > ; 6 6 6 6 6 6 6 6 ; @ 6 6 6 6 6 6 6 6 6   &.<.<.<.<.<.<.A.(.u 1 I L.6 s.u.<.<.<.2.<.<.W.[./.= 8 6 6 q q 8 6 8 8 6 6 ; 8 6 6 6 6 6 6 6 6 6 q R.V.q 6 6 6 6 6 4 ; 8 6 6 6 6 6 @ @ @ @ 6 6 6 6 0 9.P.h K ; @ 6 0 l P.K I v @./ ! O @ @ O O O @ O @ @ @ X X O , ^ 3 ",
"8 6 6 8 ; 6 ; 6 6 ; 6 6 6 6 ; @ 6 6 6 6 6 6 6 6 6 6 6 6 6 6 6 6 6 6 0 { ; ( M.~.q ^.Z 6 6 0 @.a.] ; 6 q n n n 8 6 6 6 8 6 6 6 6 ; 8 6 6 6 6 6 6 6 6 L 6 8 X.q 6 6 6 6 q n ^ 1 6 6 6 6 6 6 @ O @ 6 6 6 6 w.m.C 4 ; ; ; b 8 a.) | s.U 0 @ 1 @ @ O O @ @ @ @ O O = a.J o 6 < ",
"q q v ; 6 ; 6 6 6 ; 6 6 6 6 ; @ 6 6 6 6 6 6 6 6 6 6 6 6 6 6 6 6 6 6 ; K 8 K _ H.k.q ^.[ G.y.8 6 6 q q 8 6 6 6 8 6 6 6 6 6 6 6 6 6 6 6 6 8 8 ; 6 6 q K 6 6 6 6 6 0 6 6 ^ @.0 6 8 6 6 6 6 6 6 6 @ @ ; 8 1 i.K s.1 6 6 6 j  .i.P.G. .1 ; 1 1 @ @ @ @ @ 1 @ 6 O X O O O a L < ",
"h @ @ ; 6 ; @ 6 ; ; 6 1 6 6 @ @ 6 6 6 6 6 6 6 6 6 6 6 6 6 6 6 6 6 @ ; 6 0 ( 6 _ U.i.U J._ 8 6 q 6 q n 6 6 6 6 6 6 ; 6 8 8 @ 6 6 ; 6 6 6 ; 6 6 6 6 6 6 6 6 6 6 6 6 6 @ 6 q 6 6 0 6 6 6 6 6 6 6 6 L 1 6 * J.1 ^ @ @ ; 6 ; K 9.P.q I 6 ; 1 1 @ @ @ @ O O O O O @ O O @ @ 4 O ",
"; @ @ @ @ 6 ; ; 6 ; ; 6 6 6 1 @ ; 0 q 6 6 6 6 6 6 6 0 _ 6 6 1 4 n @ 0 0 6 X.b K s.B.| O.J.G.( 1 6 8 0 8 6 6 6 6 6 6 6 q q 6 6 6 ; 6 6 1 @ @ q 6 6 6 6 6 6 6 6 6 6 6 @ 6 0 8 n X.6 6 6 6 6 ; 6 6 6 6 @ = B.> K ; ; ; 6 ; 6 j ~.I q 0 1 1 @ @ O O O O X O @ O O O O @ m ..5 ",
"= ; ; ; @ 6 ; 1 O.x @ 6 ; ; L ; 6 6 6 6 6 6 6 6 6 6 6 ; @ @ @ 0 q K q q 6 ; K 8 L ^ P.y.$.{ ..~.6 6 8 8 6 6 6 6 6 6 6 q q 6 @ 6 6 6 6 @ @ 1 ; @ 8 ^ 6 6 6 6 6 6 6 6 @ ; q 6 6 6 6 6 6 6 6 ; 6 6 6 1 @ x B.; 0 ; 6 ; 6 6 @ @ C I 6 @ @ @ @ O O O X X O X @ @ 1 @ 6 1 @ 1 O ",
"| j X ; @ @ ; @ @ 1 ; ; ; @ X ; 6 ; 6 6 6 6 6 6 6 6 ; O O 1 6 0 6 6 6 6 ; @ 6 L q I +.U.C B.[ 0 H.d.> 8 6 6 6 8 6 6 6 8 8 6 @ 6 6 6 6 6 @ @ 6 6 ;  .8 @ 1 ; 6 ; 6 6 @ ; 6 6 6 6 6 6 6 ; 6 6 @ @ 6 1 @ q.m.; @ ; ; 6 6 6 8 _ x M.0 6 ; 1 @ O O @ @ 6 K v L 4 O O O O @ 1 O ",
"! U.i.B * ; 6 > @ @ ; @ ; ; @ ; ; 6 6 ; 6 6 6 ; @ O @ @ 6 6 6 6 6 6 6 6 6 @ 6 6 ^ 8 L ^ P._ ^.M 8 H.].y.; 8 8 q L ; 6 8 8 6 @ 6 ; 6 6 ; 6 @ ; ; 6 0 ; 6 6 6 6 ; 1 1 1 @ ; 6 1 6 6 6 6 @ @ @ @ @ 6 0 1 y.J 6 @ ; ; 6 6 6 6 ^ ; F.P q I w 2 0 9 0 1 @ @ O X O O O @ O # 1 O ",
"] 8 m.^.l.V > 8 ; ; @ ; @ ; @ ; ; ; 6 6 1 0 ; @ O 1 6 6 6 6 6 6 6 6 6 6 @ @ 6 6 q q 6 ^ K ^.| L.M ( ^ U.L.; 6 8 6 6 6 6 6 6 @ @ 6 q 6 6 6 6 6 ; q 0 6 6 6 6 6 6 6 0 P 1 6 ^ q 6 6 1 1 6 6 6 @ ; 6 6 ; G.1 @.O ; 6 6 6 0 6 8 G C  .4.V.Y.V.! 4 O @ @ @ @ @ O O @ ; @ O O O ",
") +.C I M.'.t.f ; ; @ 6 @ n @ @ ; @ @ 0 > G b O 6 6 6 ; 1 6 0 6 6 6 6 6 @ 6 6 6 6 6 q 6 q ..^.N.{ q q 6 ) H.| ; 6 6 q q q 0 6 1 0 q 0 6 ; 6 6 @ L @ @ 1 6 6 @ @ @ 6 @ @ ; 6 K 6 6 6 8 q 6 6 @ ; ; 6 q N.X K ; 6 @ ; ; 0 6 1 @ f M.>.N.W 4 O @ @ @ @ @ @ @ @ @ O q 4 X O O ",
"N.q.I +.( o.U.~.y.d O @ 1 ; X 6 ; @ @ @ @ @ @ 1 9 5.O # +X  4.5.O 9 <.-.9 4.=.1 9 @ ` ` h.@.n @.K.W.; { n 6 _.^.v 6 q q 8 6 ; @ ; ; ; 6 6 ; ; 8 1 @ ; @ 6 6 6 6 @ @ O @ 6 @ 6 0 6 6 8 q 6 6 6 8 6 0 c U.8 K ; 6 @ ; 1 O ; ; q , /.m.I 1 6 6 1 @ @ @ @ @ @ @ 1 1 O @ O O O ",
"N.2.$.N.s./ O.L.J.~.V * @ 6 @ @ ; @ ^ ( n ; ; O kX|.oXNX4.1XiXoX-XxXy SX1.yX` O iXY.OXBX<.uXX.,XkX[.> 8 q n L N.U.p.; 8 8 6 6 @ ; 6 6 6 @ @ @ 6 q 1 @ @ ; 6 6 @ @ @ O @ @ @ 6 6 6 6 6 6 6 6 6 q { 3 V v.{ 4 8 q n L n ) 0 *.F.T d H.G @ 1 @ @ 1 ; @ @ @ @ @ @ @ O @ O O O ",
"X X O K ^ v K Z.j.q Z.L.q.* X ; @ 1 q q 6 ; @ O iX:X6.gX@ uX%X' iX>X  jX*.ZXY.X ;XmX  NX8X# PX  BXeXd.v q 6 8 q ) J.L.> ; 6 6 @ 6 6 ; 6 1 @ q 6 ; 1 @ @ @ ; 6 @ @ @ @ ; ; ; 6 6 6 8 8 6 6 ; ; V a.a.^.W 8 6 ( +.O.@. .K 0 1 @ K = ^ a. .8 n G X 1 1 @ @ @ @ O @ @ O X @ O ",
"8 @ 1 q L ^ q W J.0.6 I Z.~.c ; ; 6 r e 6 6 6 O dX4Xe xXO fXtX7 GXmXe MX2.OXO 6 tX8Xu jX  O kXO 1 hXF.i.6 8 q 6 6 n ) U.d.; 6 ; 6 8 6 6 6 q 6 ; ; 6 ; @ @ 6 6 ; ; ; ; 6 6 ; 6 8 6 > b [ d.^.U.^.U.O.{ O.@.$.....) L L L q 0 @ } D > +.N.! 1 1 1 1 @ @ @ @ 6 0 @ 6 1 O @ @ ",
"6 @ I m 7 0 X.U N.%.C 6 8 v.y.K  .X./ : 1 6 @ O Q.  E.T.gX1 <.9 <.# <.oX@ yX-XO h.O oX-XuXO +Xv yX3X..'.q.8 q / ; q q _ s...> X 6 8 ; 0 0 @ @ @ @ 6 ; 6 ; ; 6 6 @ @ 6 ; * 6 M y.^.L.'.$.) q 6 q U ; ( H.0 q ^ _ ) ) L q 0 1 1 > I b I 8 a.X.1 6 6 @ 1 1 O @ 6 @ @ O ; 1 O ",
"O 1 I q K L I ^  .B.V v K { [ v ; 1 ; ; ; ; ; @ X ; O @ O 1 @ @ O @ O O @ O O @ @ 6 1 @ @ 6 @ I @ 4 ( n.'.8 q q q ; 6 q ^ q H.@.* ; 6 0 6 @ ; ; 6 L 6 ; 8 6 8 ; ; v v [ /.+.0 q  .K 6 6 ; ; 8 6 O 9.W a.o.0 q _ ) ) L K K 1 O ; K X _ @ | N.E @ 6 1 6 1 1 @ ; @ @ O o 1 O ",
"O 0 6 q q q L ^ ^ U .._ ] I P.t., @ 6 I q v @ @ @ @ @ @ @ @ @ @ @ @ O @ @ @ @ @ ; @ 6 ; ; ; ; ; 6 6 0 K Z.[ 6 8 8 q 8 8 ; L ..K G.a./ 8 ; ; ; ; 6 6 @ ; 8 b ~.^.F.{ ^ q 6 6 O ; 6 @ 6 ; ; 8 @ X ( K ) M B.6 q ) ) ) L L K 1 @ O @ O n 3 O 0 ( I @ @ @ @ 1 @ O @ O O S o.O ",
"1 6 ; 6 6 0 6 0 q 6 E p.{ g E L.l ; ; 1 I b ; X O @ @ @ @ @ @ @ @ O @ @ @ @ @ @ @ @ @ @ @ ; 6 6 6 0 6 0 q m.[ 6 6 8 6 q 8 ; q { 6 U.F.X.) 6 6 8 > d.L.{ ^ 8 _ q @ 8 6 8 8 @ 6 ; ; @ @ ; q @ @ @ 8 0 4 d H.0 q ^ ) ) L ^ I 1 @ @ @ O X 4   X 1 V @.O 1 @ 1 @ ; M / < X 0 < ",
"I } N v 8 6 6 6 K > 1 m.a.p.M m.t.: 6 : ) h 1 8 X O @ O @ @ @ @ @ O @ ; ; @ 6 ; 6 ; 6 6 ; ; 6 ; 6 6 0 q ^ C U.y.v C C C V [ Z M a.d.a.L.| { s.L.#.) K 6 6 6 8 8 6 6 8 M ( @ # 9 6 ; 6 6 @ @ @ 6 0 0 6 X +.0 q L ) ) L L K 0 @ @ O @ O * @ @ O j L.v.@ 6 1 1 O O O @ : q 1 ",
"^ 8 @ 6 6 6 8 > 6 0 6 K ) I.q.W ^.c 1 ; @ n ; 4 ( * X O @ @ @ @ O 6 6 8 8 6 6 6 6 1 6 ; @ @ @ 6 ; 8 ( +.d.+.%.F.G.U.I.H.%.%.F._ _ F.H.%.) 0 @ @ @ ; @ O > ; ; ; ; ; 6 6 6 6 ; >.P @ 6 X v q 6 8 8 q q X j.U q q ^ ) L L q 0 @ @ O O O @ 4 O @ O 8 q I 1 1 1 @ < O O a U 4 ",
"6 8 8 ; 1 ; ; ; 1 6 ; 0 8 I $.U.a.y.: L m 0 > @ 1 8 w N t t e y ` e t # O @ @ @   : N N ` } K.&.` &.P 1 B.6 0 0 @ @ @ @ ; @ @ O 6 6 ; 6 @   O O O X O O ; / 6 @ O X O @ @ @ @   V.@ O O 6 6 6 6 6 L 8 L q.o.6 6 ^ ) L I q 6 @ O O O O X @ O X O * L 8 U O ; K @ O O - K @ ",
"1 @ 6 6 ; 1 8 ; 1 ; I y.f 6 o.F.F.L.k 4 b @ ; ; O ;X2.:.-.=.<.<.*.*.*.h.@XX M @ wX!.-.,.=.-.-.-.,.-.1.-X  K 6 1 6 q 6 6 6 6 6 6 8 q q 0 L @   @ @ @ O ; @ @ @ @ @ @ @ @ @ @ @ ; q I X 6 1 @ ; ; 6 0 ; ..= O.6 6 8 ^ L K 0 1 @ @ O O O O 8 O O X @ O 4 8 I O 4 @ @ O & {  .",
"@ @ @ 1 6 @ @ @ @ @ 4 W b ; I [ K C.q.@ ; 4 v O ;X  6 6 6 n 1 O O / _ q # XXO @X  @ @ 0 0 1 X.; @ O ;   -X@ 6 @ 1 q 6 8 ; @ @ @ 6 q 6 6 @ ; @ O @ 6 q 6 @ q 6 q @ @ @ @ @ @ @ @ 6 O 1 @ 1 6 6 6 8 0 6 0 * L.4 6 6 ^ ) L K 1 O O @ O O @ @ @ O   : 1 O 1 M o.O 6 4 1 O X O ",
"@ @ @ @ @ @ 1 6 8 @ 6 @ 4 6 6 W b G %.b > 4 m 7 4.1 1 6 6 ; @ 6 6 @ 6 ; ; oX  E.@ 1 1 1 @ ; O X @ ; 6 6 T.@ ; @ n ( q q 8 6 6 6 @ 6 1 6 6 6 ; @ @ q 1 q 0 @ 6 @ @ @ @ ; @ @ @ @ @ ; 6 6 6 6 6 6 6 6 6 6 * k.W 6 8 n ) L 0 1 @ O @ O O O O @ O     n 4 O * y.M.G 1 @ ; q e ",
"O 1 0 @ O @ @ 6 1 0 ; @ @ 1 1 q ^ q m.y.8 > ; e -.8 8 8 6 L ; O 1 6 1 @ O E.O Y.@ @ 6 n 6 O 6 6 6 6 6 6 Y.w 6 1 0 6 0 L 6 6 6 @ 6 8 8 ; 6 6 6 6 O O ; @ 0 6 @ @ 6 6 ; ; @ @ @ @ 6 ; 6 @ 1 6 6 6 6 6 6 ; 1 w.n.6 8 q ) L 0 @ @ 8 1 O O O O @ @ O   o U 1 6 0 _ n.4 6 @ @ O ",
"; ; @ @ O @ @ @ @ ; @ 6 6 6 8 q U M K L.x n { A g._ v ; ; @ !.N O @ @ @ O E.O R.@ 6 1 ^   tX  6 6 ; 6 ; 5.# 6 O ; 6 6 6 6 6 6 6 6 @ 6 q 8 ; 6 6 6 X @ 6 ' @ 6 6 6 6 6 ; @ @ O ; 6 0 1 @ 1 @ 6 6 6 ; ; ; 6 8.U.6 8 q ^ ^ 4 O O @ 1 X O O O O @ 1 X = m o.6 1 6 ] L.J @ O O ",
"K = X O O @ @ @ 6 ; @ 6 6 8 6 6 ) H.{ P.w.q q e <.q 6 1 0 p.4X!.h ; v b v !.O R.6 @ 1 ^   KX  1 1 1 6 @ 5.# ; X 6 6 6 6 6 6 O 6 O 6 6 O X   ; 8   6 * <.tXO O O 6 ; @ @ @ O O @ ; # y 1 1 @ @ 6 1 @ 6 1 ; > F.0 q q L U 4 O O O O O X O O O @ @ > K + m o.4 o q ] H.) v h ",
"O O @ @ O O O O 1 ; @ ; @ 1 6 0 q I M.| P.9.> 7 2.8 6 @ @ 1 :XS.L 0 ) q 6 }.O Y.^ * 1 O   HX  @ @ @ @ @ 5.# @ O @ ; 6 6 6 : jXy qX6 q ^ &.BXNX  xX  MX7 ;X  SXNX  6 0 @ O X @ ; 6 # 2.@ @ @ @ 6 6 @ @ @ @ 6 y.n.q q q L 1 O O O O @ 8 O O O @ 6 < O   o (  .n ) I I ..8 ( ",
"O O O @ @ @ O @ ; @ 6 8 q K K q q 0 Z.q.Z.l.m y <.; ; @ @ O >Xh.6 @ @ @ O T.  6.6 @ 6 @   HX  6 @ @ @ @ h.# ; O 6 6 ; 6 6 q dXHXO 5.R.2.@   gXt @XSX5.*.iXqX5.  w @ 1 O X @ @ ; 8 # W.1 @ @ @ 6 1 @ @ @ @ @ B m.L q q K @ O X O O O O o > ; q 1 @ O O X r a.v.3 @ O h O.3 ",
"@ @ O @ O O O 1 ; 6 1 0 6 1 0 6 6 0 m.y.N.I.g 9 <.6 6 ; X O uX6.0 @ @ @ O {.  Y.@ @ @ @   IX1.9 @ 1 6 0 Y.# @ O 1 @ @ 6 6 q ' HX  oX@Xh.OXxXKX9   UX  ' iXO BXKX  @ O X @ @ @ @ ; 1 ..4 @ @ 6 q 1 @ @ @ @ 6 = O.L K q Z O 8 O O O X @ X 8 4 O 8 1 O 1 @ O q P m m G 1 4 4 ",
"@ O O O O X O 1 6 @ O @ @ @ 8 ; 6 1 P.F.] C.V y <.O 1 6 ;   ;XO 6 @ O X O R.  S.q X @ O a.4.-Xy @ @ @ @ 5.# @ X @ @ @ q 6   UX<X@X@ 1 X xX1.AX9 CX5.gX' hXe ' ZX# @ O @ 1 @ @ @ 6 1 1 @ @ @ @ 1 @ @ @ @ @ } 1 a._ L L ^ 4 @ @ X > 6 @ 6 < X O X 6 @ O X O X b { $.W ; Z 4 ",
"@ O @ @ @   1 6 @ @ 1 6 ; 6 8 6 6 G L.y K { %.A -.@ @ O @ 6 ; * 1 X O O O R.  Y.@ @ @ @ 4 O @ @ @ @ @ @ 5.# @ @ @ @ 1 6 ; m -.  T.O 6 6 O uX-.# Y.O R.: -.7 tX5.O @ 6 6 @ @ @ @ 6 @ @ @ @ @ @ O @ @ 6 @ @ > < y.n.^ L 4 X O @ ; 1 @ @ @ O O O X b 1 ; = O O @ 0 I 0 C W q ",
"@ @ O X O 8 > @ 1 ; 1 6 6 ; 1 6 q  .i.6 U b v.8.S.@ @ O X @ 1 v h X O O O +X  oXO O @ O @ @ @ @ @ @ @ O }.  @ O @ @ 6 6 q q @ @ @ 1 6 6 @ O 6 6 @ 1 @ 1 @ @ O O X X @ @ 1 1 @ @ @ @ 1 @ @ 6 @ @ @ @ @ @ 1 = ..b B.^ K @ O @ @ @ O 1 O @ O O O @ d K = | G   O O : ^ ^ ..^ ",
"O O X 6 q 9 @ ; 1 @ 1 ; ; ; @ 6 ) M.w.6 I b q L  X9 O O O O O O L X X   1.=.1 2.*.O O O O O X O O X O ' R.O O O @ 6 @ 1 q 6 @ @ @ 1 @ @ @ 6 @ @ @ 1 1 @ 1 1 1 O X ; @ O O @ @ 6 6 @ @ @ @ O 6 @ @ @ @ @ @ @ 4 * N.) K ; 1 O X 6 1 X 1 @ O O O O @ n O 6 1 1 O O X @ q K e ",
"@ @ 1 0 @ O 1 6 6 @ 1 6 ; @ @ 6 q %.j [ K n * Q l R.oX}.|.|.}.|.oX}.}.+X:.X @ O 1.oX}.oX}.}.}.}.}.}.OXY.O @ O O 1 @ @ @ 8 6 @ @ h 1 @ @ @ 1 @ @ @ 1 @ @ @ @ O ; X @ ; 6 @ X O O ; v 1 @ @ @ @ @ @ X @ @ O @ 1 O s...K @ O O O @ O O O O X O O O O g 4 1 O X > , 8...M v = ",
"1 8 b X X @ 1 6 ; @ 1 6 6 ; X U d.J.C C 8 4 B 0 +.c   O O O O O O O o   1 8 @ @ O   O O O O O O O O   O @ @ O ; @ @ ; 8 8 1 @ O $.O @ @ @ @ ; ; @ @ @ @ O @ ; 1 f ; 1 1 6 0 6 ; X / ; 0 @ @ O @ O / O @ @ @ @ O q.O.4 ; O O X O @ O O O O O O O O X v > n @ > 8.~.v.6 +.d.",
"K v O @ O 1 1 ; @ @ @ 6 q h < M.o.a.0 n ; 4 #.* v.3X.Xh.h.h.h.h.R.h.5.}.5.O 1 X |.}.5.h.h.Y.Y.Y.Y.Y.E.OX  @ 6 6 6 q 6 6 6 @ @ @ X @ @ 6 6 ; 6 6 6 6 @ @ ; 6 6 ; q 4 @ @ 1 @ 1 6 L q 1 1 @ X X O O O O @ @ ; ; @ 9.H.1 @ @ O @ O X O O O O O O O X X ; N ` / 0 q.B.m.8 X b ",
"0 * O @ @ @ @ @ @ @ 1 6 n X O.[ W Z q ; @ 1 G @ *Xa.= 6 X X X O 8 X O O u 2.O oX7 O * X O O O O O 6 O # oXO O   @ @ @ @ ; @ @ @ @ @ @ 1 @ 1 @ @ @ @ O ; 6 6 6 8 8 ; ; 6 ; ; @ ; 1 1 6 6 ; @ ; ; ; O ; 8 > 8 6 0 x _.4 @ O @ @ X O i - X X ; @ @ 6 0 0 8 J < > q 1 X 6 v l ",
"K > X @ 1 @ @ @ @ @ 6 ^ v I B.Z n.B 6 * ; @ 1 m 5.M.= 6 X * X k s O * e o }.  }.o @ N f ; @ 8 ; ; @ ; @ E.  : S X # : , a : o & @ @ O @ @ ; ; @ O X 6 6 6 6 6 1 6 1 @ 6 6 6 ; q 6 h / 6 8 8 6 0 6 @ @ 6 @ O O X X N.< O X # @ @ O * X.G @ @ 1 @ @ ; 6 q 1 * { @.K ; O > V ",
"6 * X @ @ @ 6 ; @ 1 K C @ .._ 1 F.j ( 6 ; @ @ X.:.M.A @ K = Q @.8 @ W 6 O }.O 5.@ 4 I 4 6 6 0 1 6 @ @ @ 5.# 4 G O 0 ) U U 0 K X.6 ; 8 6 8 / m ; > 8 6 8 y y 6 t *.s X @ s S S f.N 8 0 @ > y N 6 ; 0 8 8 ; @ 6 y.I n 4 @ 1 1 1 @ @ 1 @ @ 6 @ O O > 1 1 1 N B T 3 @ 3 + 8.p.",
"0 M h > @ 1 K ; @ @ o.q.#.#.h  .l.m v 6 @ 1 @ R 2.M.h @ X O 1.# 0 X   O O E.> h.O @ @ @ 7 S.@ oXX O @ O 5.@ X O O O O @ ; ; @ @ 6 6 1 1 1 4 1 6 0 0 6 1 1 K 0 I  .o.I @ K ! o.m.! 4 1 @ 1 4 4 4 @ O O 1 6 n 0 @ L 1 4 O O ; ; @ @ @ @ @ O ; 1 X > 4 O o z C.4 O O X = q.v.",
"6 6 0 8 h > ; ; 6 6  .L.l.v ^ P.l.L > 8 ; 6 ; 9 <. .B @ X O uX1.@ X O X X }.O R.; > O @ *.tXmXy ; ; @ O 5.# X O X 9 X ; q 0 @ 1 O @ O @ X   X 6 O 6 O 5.hXO X X ; @ O O X ; 1 @ @ @ @ @ O O O O O O @ 1 1 O 4 > { 6 @ @ X O 6 6 ; @ @ O O O O ; q ; < = { T > G X * n T 1 ",
"@ 1 6 0 M > v 8 6 ; U P.n 6 0 P.V 6 6 ; @ 1 8 7 2.+.B 0 ;   tX;.@ X O O X R.  6.O 0 > X ' dXiXX O @ 6 8 5.# O X 6 q 6 6 6 y }.  :XO @ O N xXuX  tX  qX6 5.  mXdX  ; O O ; 1 @ ; @ @ @ O @ @ X @ O O @ 1 O X X @ 1 4 @ 8 M 8 @ 1 @ ; 6 @ X O X ; 1 @ o q.v.1 O q : g J 4 @ ",
"@ 6 @ @ @ 1 0 K C [ +.| j 8 4 +.8 6 q = o 4 0 7 W.O.V O @   tX;.@ X O @   T.  6.X @ 0 6 ' dXgXO @ @ @ 1 5.> ; @ @ @ @ @ ; O GX;.uXe r m 9 X zXe uXlXOX-.uXtX4.7 6 ; @ * 6 O @ @ # @ @ O @ O @ 1 @ O O @ O X ; 1 ; @ O O @ 0 n 0 O @ 1 6 ; O X ; 6 O z O.U < X : 8.N.H X O ",
"1 0 ; O O ; M  . .0 W +.$.g  .C 6 8 _ ; X @ 1 9 ,.! C X @ O uX1.@ X O @   E.  6.X ; @ @ =.yXNXe @ @ @ ; Y.0 O O O @ 6 ; ;   SX-X-.1XuX;XS.CXIX7   UX  -.uX9 KXBX  ; ; q < @ @ # / O O @ O O O @ @ O O O O @ @ @ @ @ O O O O O 1 8 6 O O O ; h v 1 = M T B 4 X h M T X X X ",
"@ 1 @ { Z ^ 6 O @ 1 _ q +.q $.h 0 6 b X O @ @ 7 ,.W u.= @ O 4.9 @ X X O O }.  S.6 O O @ 7 S.# +XX ; 8 q Y.# O X O ; @ @ ; O uXZX  @ ; O ZX@ BX9 lX<X<X-.iX#   BX7 @ 8 0 O @ @ O K X @ O @ O O @ O O O O X @ @ @ @ @ @ @ O @ O O @ 0 8 ; X O ; ^ y 0.m.v q.E * C J X > G 4 ",
"v | #.( @ @ @ ; 6 0 q ( 6 I G.= h 4 B X X * ; r <.n.~.j ; @ X X > X O O O oX  5.O X O 6 @ X @ 0 ^ 8 6 @ 5.# X X @ 6 @ ; ; q o KX  ; 6 6 9 BX@XO ,X  1X7 T.` zX-XO 6 0 @ X O @ @ O @ O O O @ O O @ O : X @ @ @ @ @ @ X 6 O X > @ 1 O O 6 0 X > 1 B Z.J 0 #.! j  .0 4 1 5 * ",
"i.Q > ; ; ; 6 6 6 ; 0 8 6 ! [ E 8.L b ; 1 K 6 # Y.B.~.* 1 @ X X 8 X X * = $X   X8 n 8 @   @ ; 6 6 4 6 ; T.  X X 6 @ @ 6 ; 9 HX}.; 6 6 6 8 @ 6 6 @ 6 @ 6 @ 6 X @ ; 8 1 1 ; X @ @ O O @ O @ @ @ O O @ 0 K @ @ ; @ @ q 1 ; ; O 1 1 @ O X O O j ^ d b P 8   x | ) J O X * o q.",
"h 4 ; @ ; ; ; ; ; 1 0 v ; O.= o.q #.= @ ; ; @ O ;X4 i.X X > 8 ; M d M m ` 5.O }.w ; q C B > 8 v ; * @ 1 +X* O O @ @ @ ; ; 6 O @ 6 6 6 6 6 q 6 6 6 6 6 6 6 6 6 @ v 6 1 ; 6 K O 1 O O @ @ O O O O X O 1 @ @ @ @ @ @ @ 1 ; 6 @ = ; 6 ; ; ; > b [ j.U.j.k.i.t.~.o.q @ = 0 1 @ ",
"4 p.c @ @ @ @ @ 6 ; @ 8 q d.S ) @ K v d @ > = * < ;X[.h.R.E.T.Y.!.Q.S.}.T.  O   |.oXR.S.R.R.R.R.R.W.E.oXO 6 j X 1 @ O ; 8 6 6 6 6 6 6 6 6 8 8 8 8 6 6 6 6 6 6 > q 1 @ @ 6 O @ @ O X @ @ O X O O X @ @ ; 1 @ @ @ @ @ O X 4 * ( 1 # i X @ ; I j H.m.m.v.E ) n. .8 7 m < X X ",
"q v.> ; 6 ; ; ; 6 8 8 b M.k.6 M > q 0 q l ) ] h 0 q y.= o o @ O O     O O O O   #     o   O       $ O * 8 8 _ O X @ ; 8 8 6 6 6 6 6 6 6 ; 8 0 6 q 6 1 0 0 6 ; M 6 ; @ 6 0 @ @ @ O O O O X X X X O O O @ 1 O O @ X & , O > f I ; > m ) O ; 8 i.m.K 6 0 6 B 6 B L 3 4 < X X ",
"6 ; 0 8 ; ; 0 6 0 6 0 { P.w.I 8 8 8 @ ..> 0 _ b 6 (.eX=X%X}.}.}.+X$X%X+X=.X ; 8 E.+XoX X XoX=X=X&X=X$X!.O { @ @ ; 8 q q 8 n q 6 > 8 6 v v 8 N e.8 6 c m 6 ; v n # , a a t : @ : * X O X X O X X @ @ ; ; @ @ @ ; 0 @ ) 4 1 ) D < < 3 4 ; 8 z m.T q.E O O B #.I 3 O O O O X ",
"; G n q ; 8 , 6 6 ; 6 { L.d { @ K > n V @ 6 8 8 =X} L.s.X @ O @ K I ; O 1.=.; Y.&.O 6 n @ O O ; ( U 3 u (.6   > 6 1 1 6 n ^ 6 v [ 6 6 q K v U m.L 0 o. .6 ; ] o.6 ^ ..n.` ..O ( I I 1 @ 1 1 X @ @ @ 1 1 @ O @ @ @ O X @ X 8 1   X O X ; 8 q L 1 4 4 X = j J 3 X X O X O X ",
"6 v K 6 q i.l : 6 6 q $.j.y n ; 0 v q b 6 M n @ Q...^.V v h = X ; ( @ ; * $X  oXO @ @ O X h M K 1 O X > &XO y.w.z z d f f ; : 6 q @ 6 > C C B B b v 6 6 ; ; ] ; 6 6 @ 8 o.4 O 0 1 @ O O O @ @ @ O @ @ @ ; @ O @ X O X @ * v 1 O $ X : x v +.I I 6 ; v 1 n 4 O X O O O @ o ",
"q M 8 0 n I y.0.s 8 M Z.t.^ d @ ( b y.h 6 6 ; r ,.^ H.c 6 1 n x | > > v 6 E.  5.O @ * j n 0 @ X ; ; > ) 5.b n.Z.P.~.i.d.k.Z t.9.S , = k v 9 M | | ] 8 ; > ; M > > d > 0 4 6 @ @ 6 O O X X @ @ @ ; X @ 1 @ @ O O @ X X X = ( 1 X = y.S w.v.I b 4 v q 4 @ 6 @ @ O O O O ; : ",
"K M L ; K q m.d.z K ^ U.e.%.* ( #.q [ X ; ; v m g.y.P.V 1 :.( U Y 8 M v =  XO h.* 8 [ 0   -X;X  6 8 ^ 6 h.L.n n  .Z.P.U.k.| V.I.I.| i.k.t.e.e.e.c 8 ; * X ; ( j q.y.] > ; 6 ; @ @ X * = b > * > > l * * j > ; @ ; ; = > B _ 4 * @ 3 0.).#.b _ K M K 1 - 0 X @ @ X O @ @ h ",
"6 8 0 6 > K L  .8 b ..^.C M ^ n ; ( x j B ] ( &.A.^ H.0.* KXO 4.uX; 1 1 K oXX R.0 K 6 X qX:XOXuX@ M ; 6 h.J.> y.n q K o.P.s.d.a.L.u.K.B.B.P.U.U.~.y.x $XkXk e.S :.} ) q ^ 6 @ ; X @ h U 8 n @ K 6 ^ q @ 8 6 @ X ; * = l 9.8.M 8.8.g q.v._  .K 1 K q ) X } < @ X X X X O g ",
"8 8 - ; 4 > 0 n ) %.L.d.] x ] C M a.( n u 6 n m g.{ I.~.> ZX  4.qXO @ @ X E.O R.X 1 6 1 jXy # xX6 q ; ; [.%.O.O.^ q n M 8 2.wXwX2Xs...^ m fX&X0 &XO =XM.&.+.fXeXj.t.q.h > ; * , * X @ O X : - * * f 9.l l 8.8.h v q.y.d.P.U.n.+.C.I F.q i.4 4 ; 6 1 4 6 4 1 6 O O X O O d ",
"6 L b b , K v v K o.Z.y.a.#.M q ^ y.n  .v ^ L X.f.G._.O.X ZXO 1.qXX @ O X E.O Y.X ; @ O hXy # mX6 ; @ = 2X1 n K I q q ) ^ W.-.jXQ.4 0 x z.r VX7 bX4X<X>.iX<X%Xg.$.G.%.x B g 8.t.x * l 8.* j V h 6 8 v 8 @ 6 1 0 6 K < w.W _ K 1 4 * M.v C.D X ; 6 1 O O @ O @ O O O X . = ",
"8 K U U 8 6 q n n q .. .+.n ( [ F.{ 8 q q ^ { u.2Xn.b L X ZX  6.4X@ @ - O E.  h.X > ; @ gXt 9 zX@ ; ; a.[.> +.8 8 q 0 q { H.: VX* aXkXwXK.MXUXw.z UXX (.fX(.UXcXy.L.b M 8 8 q K q ; 1 1 6 @ 1 1 @ ; ; 6 6 6 ; 6 ; q - y.U @.4 ; @ h L G 3 O X ; 1 O = ; X O O @ O O   k g ",
"8 8 > > 6 6 0 0 ( M ( ] ( ^ U ..| M ( n L ( ~.U.2.q h | d y ZXNX  @ 1 q X E.  h.@ q @ ; o BXZX6 6 6 ; '.W.s.q 0 6 6 ; 6 ) 0 AXX I 0 * X SXO nXW fXzXoXA.sX3   AX7 K ; 1 @ 1 @ @ @ 1 @ @ @ 1 @ @ @ @ @ @ @ ; 6 ; y.G l J.6 W O * ; < 4 O @   X ; 8 O d K O X O O O O O l M ",
"M q M b > 6 ; 4 ^ ) L  .) n q { +.^ ^ 8 q.U.n.e 2.{ a.$.@ @     ; @ @ @ O E.  h.O @ ; @ @ >   6 6 6 8 P.2.%.6 6 1 6 @ 6 K @ xXnX;Xq { q <.HXyXO gX  hXy %X:.VXdXO 6 ; ; @ @ @ @ @ @ @ @ @ @ @ @ @ @ @ @ @ ; ; 6 Q 4 8.m.; 4 = 6 ; O   X O @ @ @ K 3 ; 4 X O X <       d 1 ",
"9 ^ _ v h ; ; q v 8 8 8 K q ) ..M ^ V l.P.1 > 9 W.o.K ; @ @ @ @ @ @ @ @ O }.  T.O @ @ O B 0 @ 6 ; @ N.) !.q 6 6 ; ; @ ; 6 ; O O 1 4 J _ { O O q O 6 O 6 @ ; X 1 ; ; @ @ @ @ @ @ @ @ @ @ @ @ @ @ @ @ @ @ @ ; 6 q 8 * t.Q j 6 6 4 1 O O O @ O 1 @ O X 6 O O O X 6 ;   o = 1 ",
"9.s w n b j 8 ] b 6 n 8 q M I ( n y.'.O.; B b _ ,X  8 ; @ @ @ @ @ X @ @ # }.  OX  @ @ h ) X ; ; ; > P.  ,X6 6 0 0 ; @ 6 8 6 1 @ @ @ X 1 4 0   # : > ; 6 6 1 0 v @ ; @ @ @ @ @ @ @ @ @ @ @ @ @ @ @ @ @ @ @ @ ; K 6 ; a.4 6 0 < X O X O     X X @ O X 8 j X X X @ 4   - ; @ ",
"d.r.9.S _ ^ ^ _ 8 q 6 n L b n ( ~.B.0 d ] s.| 4 O :X2.:.-.-.-.-.-.-.=.5.%X  @   -Xh.f.A.=.-.<.<.:.(.!.;X@ 0 6 8 8 6 ; 6 q ; @ @ X X @ o @ S k n q 1 1 ; @ @ X M X ; @ @ @ @ @ @ @ @ @ @ @ @ @ @ @ @ @ @ @ @ 6 6 ; c o.@ 4 1 O ; O O O O     o X O = 4 @ J X X = h , 8.1 @ ",
"Z.P.t.0.e.N ( ] ; 8 n n ^ | w.U.o.X C y.s.W @ 6 ; O r y t y t y t t u # < @ @ X X P &.y y y y ` N ].w v q 6 6 K 0 6 6 k : ; > * - : X b @ W v.4 0 @ @ @ @ @ X n 0 ; @ @ @ @ @ @ @ @ @ @ @ @ @ @ @ @ @ @ @ 1 ; 6 e 9.v.d 4 < X G O O O O   * q.q X f 4 O O O X ; M * 8.4 O ",
"Z n.D.~.r.y.y.h n ^ n ^ { ~.P.6 > [ s.%.4 ; ; 1 @ @ ; ; @ @ X @ @ O O @ @ O * Z 6 1 ; ; 6 6 6 6 { P.0 N.0 8 6 9 , 1 ; ..q 8 L L 4 1 O 4 @ @ X X @ @ @ @ @ @ X q 1 ; @ @ @ @ @ @ 1 1 @ @ @ @ @ @ @ @ @ ; 6 6 6 n S j.J q 4 X @ O O   O O   O < J X x T O O O X * ; * > < @ ",
"O.[ ..Z.Z.d.0.9.q n b f.U. .h j { G.U 1 ; ; 6 @ X @ ; X @ @ @ @ O @ @ O * - 0 4 @ ; ; @ @ # 6 * L.) ( ( 8 q 6 ^ L O 1 K 6 6 4 1 @ O X X @ @ @ O @ @ @ @ @ @ O n @ ; @ @ @ @ @ @ @ 1 1 @ @ @ @ @ @ 6 6 6 ; 6 8 0 c ^.q q @ X @ X X   X O O   X O @ 6 0 j > X O g V z 6 @ @ ",
" .| C [ | C.P.w.V { ^.J.6 ] [ a.d.q ; ; ; ; ; , * ; f * @ @ * @ ; X X h v N o * ; ; ; ; 8 9 > Z ^.q %.I L 0 ; 0 @ @ X 7 6 ; 6 6 @ X * X X @ @ O @ @ @ @ @ @ X v @ ; 1 @ @ @ @ @ 1 1 1 @ @ @ @ @ @ 6 6 6 ; 6 8 6 8.).M Q X X O X X   O O     X X @ 1 O O J O @ g y.w.4 @ @ ",
"J W y.+...C  .v.M.P.m.8 ( s.B.! o.; 6 1 6 6 0 0 @ 4 0 @ O 1 0 @ O > q 4 I K 1 ; @ 1 6 6 K 0 ; L.$.q K 6 6 6 ; 6 @ ; - S ; 6 v 6 O O ; @ @ @ O O X @ @ ; @ O * M @ ; @ @ @ @ @ @ @ 1 1 @ @ @ @ @ @ @ 6 ; ; 6 8 ; 0.Z.q 4 X ;   X X O         X O > 1 O X O O O * C q.3 @ O ",
"; _ E L ^ O.C B E G d Z s...6 @ 6 ; ; @ 1 6 @ @ O @ @ @ @ @ @ = v 0 @ O @ ; @ @ @ ; ; ; ; 8 v ^.q } 6 8 6 6 ; 6 @ 1 X.i.; > O.1 O O @ @ X @ @ @ X @ O 6 @ O O K 6 @ @ @ @ @ @ @ @ 1 @ @ @ @ @ @ @ ; ; ; ; 6 8 9 t.m.q @ X 1 h   O   O X O     O > 4 X O O X O , d M 4 O O ",
"0 b ; I W | | q g B n.W ) 1 h @ ; @ ; ; @ 1 @ @ @ @ ; @ O = ; K O X X @ 1 6 @ @ @ ; 6 6 ; 6 %.B.n ) 6 6 6 @ 6 6 @ @  .Q > 6 4 O @ O O X X @ @ @ O @ O 1 @ O @ q q @ @ @ 1 1 1 @ @ @ @ @ @ @ @ @ @ @ 6 6 6 6 6 k k.W K @ O X 4 3       O O   X X @ 4 * > O O . c 8.h O @ O ",
"( > 4 ; I W U V B.U q ^ 6 0 h @ ; @ 1 ; @ * @ @ @ @ @ X > n O X @ X X O @ 4 @ O ; > ; ; 6 O P.q ] 6 6 6 @ @ 1 @ @ X 0 ; q ; @ O O @ X @ * X O O X @ O O @ O @ > 8 @ @ @ 1 @ @ @ @ @ @ @ @ @ @ @ @ @ 6 6 1 6 8 g P.n I O O O   O     X O O   O * > O O 4 1 O $ 8.p.n O O @ ",
"q @ @ 2 q = G E 1 1 0 8 1 G 6 @ X X @ O 1 ; @ @ O O j v 4 O 6 @ O @ X O O 4 ; X ) 8 6 ; 6 v a.] ..6 6 ; @ @ @ @ ; @ 6 6 6 d 6 X @ ; X @ 0 X @ O @ @ O @ @ X # 8 8 @ 1 @ 1 1 1 @ @ @ @ @ @ 1 @ @ @ @ @ 6 6 6 0 z P.0 G X O O O       X O O   O * I O X O O O & z ..0 O O @ ",
"@ : * , q = s o @ + y O @ 1 ; @ @ ; ; X @ @ @ O d 6 I O X @ O @ O @ O X @ 1 6 @ 4 6 > 6 ; ~.#.p.] > 6   6 X ; ; 1 @ 1 6 8 _ 6 X @ @ @ X X @ X O @ O O @   X S S n ; 1 @ @ @ 1 @ @ @ @ @ @ @ @ @ @ @ 1 6 ; 6 0 8.C.h < X O O O   O O O O       * 4 O O O O   k V ^ 1 O @ @ ",
"- e I 1 ^ _ > 6 > B 7.& @ @ ; @ 1 1 ; ; * X = C w qXX |.@X  |.O -.  ' <X# X 1.e 7 ;XR.` ` U.wX/.I ^ X VX  4X  O @ O ; X ;X&XO -X' 7 9 T.:X  qX1.OXT.3.@X}.%X^ N.M ; @ @ @ @ 1 @ @ @ @ @ @ @ @ @ @ @ @ ; 6 6 e w.Q q < X O O O   O   O       X > 1 X @ ; O   z y.V @ O @ @ ",
"K 1 X 6 0 4 1 4 J B.8.p @ @ ; @ @ @ 6 6 ; B L O NX@ u uX7 -.PX@ xX  hX: *   dXkX*.-XO kXqXwX&.@.C I 5.=X%X,X-.<XX -X9 ;.,XwX9 ,XmXN T.xX# yX*.@ lX  iXy   gX0 E / @ @ @ @ @ 1 1 @ @ 1 1 1 @ @ @ @ @ ; ; 6 6 - ~.I 0 X X X O   O O O O O O o X 8 < O O 4 3 * 8.#.q.1 O @ @ ",
"@ X 1 ; ; @ @ @ q c.] a O 1 ; O @ @ 0 v K 0 O   >XNX7 1X  1X:.3.hX  uXdXO d NXoX' SXR.OXfX` DX!.I ; 4.&XY.-.lX-X7 uXO 5.;X4X: vXzX*.5.ZX<X4X# O iX  gXiX  dX4 6 8 ; @ @ 1 1 1 1 @ @ 1 1 1 1 @ @ @ @ ; ; 0 1 c I.q @ $ i i   O X X X X X O X ; q O O O O & a x  .B < O @ @ ",
"; O @ 1 8 @ X 1 6 1 v.* o 1 ; @ ; 1 K @ b X X X u {.}.yX  nXOX1XlX# hX7 0 O dXzX' >Xw g.7X} 6 mXX 6 5.}.}.1.lX-X7 yXX :.4XeXh qXjXN T.xXe yX*.X jX  r hXO jX@ v 8 @ @ @ 1 @ @ 1 @ @ @ @ 1 @ ; @ @ 6 ; 6 ; y.8.P.B q , k x > @ @ O @ O ; O O X G O   $   - M C G ; O @ @ @ ",
"; O @ 1 ; O @ 8 X @ 4 = p 1 @ @ @ 1 6 1 M O O   T.:X  }.OXN   -.1.;Xr ,X9 X ;.y w ;X!.~.@.K.tX: 6 6 X BX@ w :.-X@ :.; 6 =XeX; ;X` E.  E.>X  qX' *.O :X2.oX>Xe b 8 ; 1 @ 1 @ @ ; @ 1 @ @ @ 1 1 1 @ 6 6 6 v v.q.P.] U 6 E c.T O O X * O O O   = 5 %   - ; * Z +.0 = @ @ @ @ ",
"@ @ X 8 > ; 6 8 O @ 1 L S & ; @ @ ; ; 0 6 @ @ O O X @ X X X @ @ @ @ @ @ ; ; ; 6 8 n y.^.( %.8 8 6 6 8   ; 6 K ; 6 ) 8 n | '.v n 6 6 6 6 ; ; O @ @ @ X @ X ] ( ( 6 6 6 1 1 1 @ @ @ 1 @ @ @ @ @ @ 1 6 6 6 E P w.v.@.D < O O O     O < @   % $ o 6 d 6 O J ; V W ; > @ @ @ @ ",
"@ O / v > @ q O 1 6 @ c.x t @ @ @ 6 6 0 ; @ @ O X * @ @ @ @ @ ; ; ; ; ; 8 ; ; 6 q M ^.G.+._ _ K 6 6 ; ; 8 6 6 6 6 0 8 ( a.^.y.q ; 6 ; 6 6 ; @ ; @ @ @ ; m v.I +.@ 6 ; @ 1 1 @ @ @ 1 @ @ @ @ @ @ @ 6 6 6 6 N j.K L 1 X X X i & o X O O O X > @ 4 D D O X g q.J = 6 @ @ @ @ ",
"@ 1 G K ; 1 ; O 1 @ @ J K , O O ; 6 ; n ; @ @ X 1 ; X O @ @ @ @ ; ; ; 6 6 ; 6 6 M ] '.+.@.U q 8 6 6 6 q 0 6 6 6 6 q q _ L.U.L.8 6 ; 6 8 6 6 ; @ @ ; ; = u.9 s ( @ 6 ; ; 1 1 @ @ @ @ @ 1 6 @ ; @ 6 6 6 6 6 c U.^ I @ X X X * ( 1 @ O O O O 3 4 O O   X * z ..G g 6 @ @ @ @ ",
"X @ O 0 @ 6 O @ @ @ @ ; I = O @ 6 ; 6 ] @ @ O X @ O @ @ @ @ @ ; ; ; ; 6 6 ; > 8 ( L.J.+.) 8 8 8 8 6 6 0 6 ; 6 6 6 q q _ ^.L.H.q 8 6 6 8 8 1 B ; ; ; 6 b ~.( Z q ; 6 6 6 ; ; @ @ 1 1 @ @ @ ; 6 @ 6 ; 6 8 6 9.P.C I @ O @ @ X J 3 O   O     X = O O   X d q.! < d 1 O @ @ @ ",
"> O @ 6 6 ; O @ O @ 1 @ G @ O @ 6 6 U v @ @ X X X X @ X @ @ ; ; ; ; ; 6 8 6 8 q m '...+.8 8 8 b 6 6 6 ; 6 6 6 6 6 ^ q { ^.J.a.8 8.6 8 6 6 @ J 6 > ; 6 ( '.&...K 6 6 6 6 6 1 ; ; @ @ @ @ @ 6 6 6 ; 6 6 L 0 q.Z.M J O ; O X O O     O O   O X 1 O O X d z _ I o g @ @ @ @ @ ",
"> > O ; 8 O O O O O @ X O ; @ @ 6 6 U > @ @ @ @ X @ @ @ ; ; ; ; @ # 2.2.2.<.:.z.(.[.g._ 8 q L n 8 8 6 8 8 8 8 6 8 ^ n { '.G.L.M m.6 M 6 6 ; 6 6 0 0 6 ) U.k.L q 6 6 6 6 6 1 1 1 6 6 @ @ 1 6 6 6 6 8 8 > I w.m.^ 4 X O O O O f X O   O     X < O X X l q. .6 , g 4 O @ @ @ ",
"0 ; ; V * O O O O @ @ @ 1 @ X # @ 6 n ; @ @ @ @ @ @ ; @ @ ; h X h.R.y ` / :.u./.K./.u.&XY.8 0 8 8 6 6 q 8 8 8 8 8 L n p.'.L.P.I 0 0 q ; 8 ; 6 6 6 6 ; q.B.'.B q 6 6 6 6 6 1 6 1 6 6 1 1 6 1 6 6 6 n q m B d.o.I O X O O X O * )   O   O   X O   X = v W E 4 * V O @ @ @ @ ",
"; ; I q O O O O O O @ 1 O @ ; : 1 0 M @ @ X @ @ @ @ @ @ ; 4 0 N :.> v M f.t.).! G.I.K.8 W.w 8 6 8 6 6 n 8 8 q 8 8 n ( a.'.L.s.> q 8 ; 6 0 6 8 ; ; ; 6 N.#.I.d.6 6 6 6 6 6 6 1 1 6 6 @ ; ; ; 6 6 6 ^ L >.i.C.{ 0 X X X O O   O D O     O   X O X d l n K 6 @ X ; 1 O @ @ @ ",
"O 1 4 @ X O O @ @ @ @ @ 1 ; 4 ; @ I v ; * @ X X @ @ ; ; ; ; ;  X* ^ ^ u.~.Z.^ [ p.I.z.m 8 !.8 8 v 6 q L 8 8 q 8 q n ( L.'.L.%.q 8 6 6 6 6 6 0 ; @ ; ; W #.N.U.> 6 6 6 6 6 6 6 6 6 6 ; 6 6 6 > v n ) P r.I. .y.I X X X X X X       O O     X O X q.[ _ V B ; - > @ @ @ @ @ ",
"> ; O @ @ O O @ 1 @ @ @ 1 6 1 @ @ U > @ ; X @ @ @ @ ; ; ; ; 6 +X6 N w.^.C.j Z %.d.Z.~.A 8 !.8 8 L > q 0 8 8 6 q 8 q ^ L.'.L.$.q 8 8 8 6 6 ; 6 @ ; 6 ; n +. .N.w.6 6 6 6 6 6 6 6 6 6 6 ; / 8 M U J y 9.k.Z.n F.I X X O O X * X   X X O O O O   * 8 Q I C y.M l > 1 O @ @ @ ",
">   O @ ; X @ @ O ; @ @ 6 6 X @ 1 ( = c O @ X * * @ ; ; > q 6 oXS j.P.W x s.M $.N.p.'.f.> !.8 8 8 8 6 6 8 8 6 8 8 q n U.^.G.,X@ m 6 0 ; 6 6 6 ; 8 ; ; q | | L ).@ 6 6 6 6 ; ; 6 ; 6 6 6 G >XG 4 = 9.t.Z.m.I ! 0 d X o X   6 * @ X O O     O o = q 8 v ^  .I > 6 O @ @ @ @ ",
"O X O O ; X O X @ @ O O 6 @ @ ; 6 V O.= @ @ * 6 * ; ; ; 8 > - 3Xk.Z.q q.p.K CXO n.a._.j.8 !.q 8 8 8 6 6 8 q 8 6 m 8 n ^.^.s.wX; 4   X 8 O   : O   6   O } _   E n     6 O   O 6 6 6     1 1X* X = w._.3 < K 8 q > 8 d X X X 1 O   O       O X q K n ^ L ^ 4 = @ O @ @ @ @ ",
"* O   1 @ X O O O @ O @ 6 X @ ; I k R @ @ @ ; 6 ; ; ; ; 6 k t.eXv.h [ %.B.P IXy o.d.P.~.S !.q 8 6 8 8 ; 8 0 q 8 M 9 n ^.U.| CX  vXvXdX  xXVX@ hXSXy HXSXO sXAX8Xb HXFX@ >XBXkXX 6 1 KXZX  NXX AXBXeXV.HXJXO v 8 q D O G   O 3   X X       O * 0 K K E 4 L 4 * 1 @ @ @ @ @ ",
"X X : O O X O X @ * O @ 6 O @ ; ) g & @ @ ; ; ; ; ; > > c j.D.&Xl | #.! +XkXUXlXW.J.N.^.e.W.8 8 8 K 0 6 8 6 6 0 P S ] ^.U.I KX  KX  KXO BX    KX  vX  zX`   9 HXA.yX    KX  UX  4 :X:X    KX3   VXJ hXf dX1.h 0 1 X O O O O       O O O     ; 0 6 0 0 8 6 0 ; 1 O @ O O @ ",
"@ K *   1 X X O @ O @ @ ; X @ 1 ..K , + X ; ; ; ; > h 8.^.C.; $X_ W U q 6   UX  q Z.p._.9.E.8 8 8 0 6 6 8 ; 6 7 ( M | U.^.@ KX  KX  KX  VX*   JX  aXdX-X  LX+XZX  wXUX7 HXiX1.< X   yXUXO JX.  XwX3 tXkX:XO ; G ; O O O O O   O O O     O   = 4 4 4 3 4 0 4 ; @ @ @ @ @ @ ",
"1 D O X O @ X X ; X @ ; > X O 6 v I f & @ 6 ; ; @ b r.Z.Q g b &XK 0 8 8 q q 6 n n M.i._.i. Xb v 8 8 > 8 8 v j B .._ a.^.^.g UX  UX  UX  UXXXX UX  qX:X>X  UX5.HXo ;XNX' AXS.:XX d &.}.HXO UXX UX&X4.:X8X:X@ X 1 @ O O O   O     O       X   > 6 4 1 @ O 1 > ; @ @ @ @ @ @ ",
"= = * * * = = * ; O ; 6 ; X @ q > I M , @ ; 6 : S d.C.1 x { [ &XO 6 0 6 6 6 8 q n o.L.P.~.(.q.Z B b v > q 9 I L ) ) L.^.U.H.` ( A h t @ 7 @XO y @   |.1.# y |.O = oX2.@   %Xr 8 K G OXt * u t.V.A.N O {.3.O X @ O O O         . $ % .   X X @ 4 1 1 O O X x @ @ @ @ @ @ @ ",
"1 O # 4 6 q > h * ; 6 > h ; @ M > 0 I d ; > , r.d.v.= V )  .I Y.# 6 6 6 v ; 6 q q  .H.F.'.(.O.| | M v v v j M 8 X.q I._.I.p.n I _ ( = > @ O @ @ O O O @ ; 8 X v ( 3 ) g d v 1 4 4 O X X & l Z.T = @ O X 6 @ O O X O   .   O . i , * * X O O 4 O O O O O   ; 4 @ @ @ @ @ @ ",
"  l = < O 3 1 4 @ @ 4 0 v ; 6 | = ; K > s f j.).^ l { E 0 K >   <X  O * B X X O 8 6 m.| eXi.N W O.[ C q ^ ( C B q.C U.B.B.d.b j U E q b l = X O O O @ O @ n @ D ) j 3 j.G T 1 O ; X ; * c q.v.; 8 3   O < <   O O O X X X O   * 8 4 D 1 O   O O O O O O * X @ @ @ @ @ O @ ",
"< G O O X @ = @ O O 1 0 v @ 4 _ > ; 6 6 e.k.C.K q.#.L 6 6 6 6 >   OXoX&X&XoXoXoX&X+X=X=XH.~.A q )  .| b [ ] ( y.M.) P.| M.J.I ) n > n K ) v = = X O @ @ @ K h X < )   P.b O X O @ @ @ 6 r.M.^ @ J   & o # X X X O   O O 1 O   O D 3 O X O     O   O O   * @ O O O @ @ @ @ ",
"O O   O O < ; ; X X O q v @ 6 U 8 ; - i.I.Q f M s._ h ; ; 6 ; 6 ;   r m r 9 e e 9 w ` n P.^.q.8 ^ ) W +.y.y.{ M.E #.W L.[ J.v K I 0 ( 8 ^ K K B l g h O @ 1 4 h X K * J j.  ; O X ;   z N.W U @ O X = * X 1 O O O O O O O O O         X O     O O O O X = @ O O @ @ @ @ @ ",
"X   X     O 1 8 X @ > ( ; 4 6 K v f t.Z.G x x a.+.M q = * ; ; O ` oX2.W.g.f.:.<.<.<.2.=XK.^.i.M L M n +.M.%.p.^ j ..0 Z.y.B.C 6 q 0 I K ( x q._ _ q.w.d * X @ 4 8 i 5 i U.= 6 @ * > = y.O._ 8 < O O 4 D O 1 O O                 O       O   O O O O   X ; O O O @ @ @ @ @ ",
"X * X X * @ 4 6 * 6 4 q O 1 6 6 8.k.m.0 j a.| O.n q > ; = = ; 9 T.O J K M n ; @ ; 6 8 K =XI.d.) q ) ( $.p.p.O.v q...b ! s.+.p.> 8 8 q 0 U o.s.^ C y.m.I z 8.= X < k g l O.a.X @ ; t x c.J W D O O O < O   O O . O   O     O X X         @   O   O   X * @ O O O @ @ O O O ",
"O 6 O 4 O O @ 6 6 < 1 ; O 1 = q.P.o.l g $...W 6 ] @ 6 ; K * @ |.  @ @ 6 K K ; @ ; ; 8 _ p.6XL.Z L W _ #.d.d._ ] C. .V M G.y.d.n K q K 0 q L Q K ^ O.E n O.O.b z l ( J ! G P.= ; @ 8.o.D @ ~ O   O   O O   X   d   X         O O O       O X X O O X X ; @ @ @ @ @ @ @ O @ ",
"1 O < O X * 1 4 O X 8 X * 4 i.L.[ q._ w.q.C d V ^ l d g B d f .X  * X @ @ : a o ; 6 q W ! [.P.a.q q ( s.~.H.U p.I I ! [ M.G.L.n 0 0 0 6 M n 1 1 K I q ( I U I W q.w.j 0 8 I +.; ; y.v.* X f O O   X O O   #   6 O O O   X X   O         X @ O < X X * X @ @ @ @ @ @ @ @ @ ",
"* O   * h @ O O X @ > * > I C.I m.] o.C.( n ( V v q.h w.0.8.r.3X* d g g l 0.r.g 8 h V V y.[.H.d.b > p.H.P.N.0 ! 0 q q p...M.~.Z 7 1 4 4 K G @ @ 4 4 q I K n > 0 U C.I ; v h @.: = n.D x O K + u   O O     : O O O O O   O O             = 1 O @ * # * 1 @ @ @ @ @ @ @ @ @ ",
"* * * 0 <   O   X n @ 4 4 D C @ _  .D G D 4 J J G H J c.T c.b.&XO G 4 G I B.$.; 6 8 ..+.a.[.a.L.q.v #.H.m.Q 6 4 s G 0 m.M ) C.  PX  O   O 1     O O O <   4 K O O K D O 6 ( q.8.q ) @ G O O ' tX      O                   O             * 0 X & = e * @ O @ @ @ O @ @ @ @ ",
"= 8 < O   O X O 4 8 O @ X G V 8 T ; @ @ X @ X 1 X   X X O X O oX  O O O 4 O O   > q K +.v.`.M.U.i.>.d.v.K b 4 ; c i 8 ( ! n ,XnXZX  yXFX1.  SXiXt tX:X@XSXOXO BXFX+ *.KXyXO kXJX&.I O S.KX:Xe @X1.ZXNX# OXFX-X  X     X                   6 . g h j ; O O @ @ @ @ O @ @ @ ",
"1 <       O O O q @ O O O _ q.h 4 ; X @ X X X 1 O X X X X X O XX  X X X : UXLXUXX v 6 W ) !...U.L.t.J.n V ( ; 0 { a G I 0 < KX  JXO mX  HX1X;.  6.tX  JX  UX    }.@XHX    A.uXP nX* O UX    *.iX    SX  LX  UX  O O   O O                 ; & g ^ l 6 @ @ O @ @ @ @ @ @ @ ",
"O   X X O X O O M   O X K L i.S @ ; X @ @ X X @ X X X X X X   {.  X * * ;       K K 6 6 n (.{ B.U.^.n.^ o.I 6 6 v.B @ 6 6 < JXO HX  UXmXN yX1.X h.1X  UXlX3.' HXvX{.=.FXmXP LXMXP G < 6.HXuXu iX  NXe   LXlX{.O O O   O       O   O       > = 8.^ l < @ @ @ @ @ @ @ O O @ ",
"  O 1   o X @ 0 >   X @ K 0 k.l 1 6 ; ; @ X X X X X X X O O X  X  > ; O 1 1 1 1 @ 6 6 4 G [...$._.).( | K 0 4 1 0 Q $ 6 ;   IX# PX  HXe g.>X>X' {.tX  PX# 3.@X:XyX@X,.2 UX# CXY g.O O ;.# KXu hX1.NX3.  PX: 3.          O       O   O     , > W 0 8 @ @ @ @ @ @ @ @ O O @ ",
"  j   X X @ O q   X X 1 4 ] ^.l @ 0 ; ; X X X X O O X X X X = }.  < @ O 1 O O O O @ @ N ; [. .p.I.#.y.W 6 4 @ O @ 4 a @ ; * >.tXu O 1.yXR O 1X-X# u X u uX=.  8XS.2 1.yXe O S.tXT O   S.uXo 2 *.u OX:Xo e iX,.  O   O O O       O         d q.4 > 1 O @ @ @ @ @ @ O @ O O ",
"3 D O < O   O 8   O O O G W Z.h @ 6 j ; * @ X X * * * X * O 4 T.o X O O O X O X X @ > B / Q.! G.U.| B.4 @ O X O @ @ q.O ; 6 ,   1 O 1 O X O O O   O <     4 @ O O O O   O O       X   O O X X   O O X X O : < O                       * = g #.0 d @ @ @ @ @ @ @ @ @ @ O O ",
"    O O     6 X O O   X G 4 n.h X 0 b 1 * @ * * ; O O O O O O   :X          O X X X E H 7XO ( P.m.H.I @ @ X O O @ < Q & ; 4 q   1 @ @ O X O O O O O O O O < O O O   O O O   O O O O O     X @ O   X O O O > O O                         J > v.8 6 O O @ @ O @ @ @ @ @ @ O ",
"X O O       6   O   O @ O j O.d O 4 q 8 = ; @ O O O   O O     X o @X{.{.|.|.{.XXXXXXXX@Xv 6 | C.q m.e O O O X O @ O 1 : O @ G   X ; O O O O O O O O     O O O O O O   O O   X   O   O     X < O   * O O   < 3             O           $ & + R ; 1 @ O O @ O O O @ @ @ @ @ ",
"O         ; O     O O O 3 n m.f O 1 q 8 8 e X O     O           X       *     O       h n v o.E ^ 4 v X O X X O ;   1 8 * O ; X O 4 O   O O   X O       o O O   X X O O     O O           O O   O 1 O     X O O                   .   , l , k = @ @ @ @ @ @ @ @ @ @ @ O O ",
"  O   * * @       O O   D v O.l X @ G 0 q : X X O   O         O O O O   T 3 O X @ O @ | 6 _ K 6 0 @ J O X O X O 6   < 8 x   1 O X 4 O   O O O @       O = X     O O O O O O O O     O O O O O     8 < O   X O     O . .           = . d z q.z 8 @ O @ @ @ @ @ @ @ @ @ @ O ",
"O X = ; < O     O   O X @ L n.x X @ 4 6 L * X X O O         O   O     O O X   @ O O @ _ V G 6 8 6 @ 4 O O O X X 0   O J J X 4 + X @ O X   O O @ X O     > ;     O O O O O   O     O O O     O   X @ < O   O   .       X X       i & - l { U q 4 O @ @ @ @ @ @ @ @ @ @ @ O ",
"X > 1 O         X X * @ < K o.e.X @ 1 6 0 * X X O O                         X @ O O O | ) j 6 6 @ @ O + $ O X O 1 O O 1 @ O O o < O ; X   O O @ O O     3 3     O       O   X O O O       &     @ O O   O X X X X X O O O O . $ k l z d 0 4 1 O @ @ @ @ @ @ @ @ @ @ @ @ O ",
"> 2       * X   * @ 3 O O 0 ..r.X @ 6 6 8 ; X X X O     O     O             O O O O ; O.4 ) 1 1 @ O O * & O @ * ; X O @ @ O O : O O 6 @   O O @ X           O X         O O O O O O     O r     < X   X X @ O O O O O O O . o * z z 8 4 4 @ O @ @ @ @ @ @ O O O O O O O @ ",
"d = X   X j O 1 < X O X @ 6 B.w.o @ ; 6 v ; * X X O O         O           O O O O X K K 1 G 1 @ @ O O 0 = O < 1 = X X = @ O O 6 O X 0 6 X     O 1           O X     O O O O O O   .       s O     O O O O 4 O O O       $ & = g ; J 4 @ O @ @ @ O @ @ @ O O O @ O O O O @ ",
"> l X   T O O O O O O O O 4 C.w.o @ @ 4 8 ; ; X X         O           O O   O O O @ 1 ; @ @ @ O O O O D 6 O O 1 F O X > @ X O G X 1 1 6 X     O <         O O 1 O   O O O O O   O X * O   S <     O O O O <     O . X , o z d 6 4 @ O O @ @ @ @ O @ @ @ @ @ O O @ O @ @ @ ",
"G 8     O   O O O O   O X 8 M.w.o @ @ 1 0 7 1 X X X                       O       < @ 1 @ O O O ; O O O <   O O -   < 4 @ O O 4 @ @ 1 0 @   O O O O O     O O O O O O O X     X   X ;     S <     .     % O . .   * * f l d 0 @ O @ O O O @ @ @ O O @ @ @ @ @ O @ @ O @ @ ",
"0 O O   O X X   O O X X X K M.t.* @ @ O 0 > @ X X O                 X     X     d X @ O ; O O X @ O O O O $   O v   O O @ O O X 1 @ 1 6 @   O O O X   O O O O   O O O   X O O X O O 4   . ` F . $ i %   f   * = X * > g j 4 1 @ @ @ @ @ @ @ @ @ O O @ @ @ O O O O @ @ O @ ",
"@   O O   =   O O O O O X E M.i.g O @ O 4 8 @ @     X           X   X     O   X 6 O O O 1 O   O 1     X O o   O T       6       5 O 1 0 6 O O O O * X O O O X * O   O O O O O O   i p p p 7.e o = g = X b X . 2 # = g 1 3 1 O @ @ @ @ @ @ @ @ O @ O @ @ @ O O O O O O O @ ",
"    O   4 O     O O O O X J o.p.c O @ X 4 8 @ X T.hX  @X6.e tXgXO OX;X# :X  O }.t u 4.@X  3.tXgX# qXiX  O :X  ,Xe zX;.:X  @XuXdX>.lX7 G 1 @ X X X O O     O O ; O   O O   . O $ $ a k g g 9.j = 8 0 G @ 4 5 i = d * 1 @ O O @ @ O O O @ @ @ @ @ @ @ @ @ O @ O O O @ @ @ @ ",
"X       O O   X O X X X @ K C k.8.# @ X 4 6 >   ZX  e tX@Xe 1X;.4.tXiXt pX    gX  -.@XtX# @XhX  4XgX  o   aX  hX4X    hX  jX' R.ZX  @ 1 1 @ X O X O O O O O O D   O O O   i X = X l V L K N.T H G W < O % - 8.l ; 1 @ @ @ @ @ @ @ @ O O @ @ @ @ @ @ @ @ @ @ O O O @ @ @ @ ",
"  X   O O   O O O O X X X I ) ^.8.O @ O @ 6 j @ *.BX: BXlX# tX1.6.tX.X1X:X  =.%X0 u jXBX: @XhX  1XlX-X    sX  gX1X# yXuX@XgX;.*X<.lXY.; 6 1 @ O X X O O O   . % O   O X O d   v @ T b.T H ,.G * * X   . d 8.l 0 4 O @ @ @ @ O @ O O @ @ @ @ @ @ @ @ @ O @ @ @ @ @ @ O @ @ ",
"O X     O O   O O O O X O I Q P.8.O X X @ K v   OXyXu iX:Xe vXyX;.gX5.AX=.  hX  1 ;.%XiX2 @XAX>X{.VX*Xo   FX=.xX.XOXiXgX  bX3.-X=X4XOX4 4 1 @ O X X O . .   . - X O O X X G < H 1 < <     >.1 X O % o X g 8 4 @ @ @ @ O @ @ O @ @ O @ @ O @ @ O @ @ @ O @ @ @ @ @ @ @ @ O ",
"O O   O     O O O O X X O G K L.q.# @ X @ G 8 ; 7 t X     o   t   1 O   X O   Q O O   O D   O t O O u O   # t   o ;.  O 6 & 5 O ! ;.O 1 1 1 1 X O O     X X * ; X O O O O 3 O   + X * * X 9.4 O & k g * 1 4 @ @ @ @ @ @ @ @ @ @ @ @ @ @ O O O O @ @ @ O @ O @ @ @ O O O @ ",
"X X X   O O O       X X O 1 M _.q.X @ O O 4 t ; O X X X X     O   H O O O O O <   O O O   O O @ O   O O   O o . x   O O 6 b - 1 E 7.& # @ 1 1 @ O       @ O 3 D O O X O <     O X g = X + <.< & d z ; 1 @ @ @ @ @ @ @ @ @ @ @ @ @ @ @ @ O O O O @ @ O O O O @ @ O O O @ O ",
"O X O     O O   X X X X X 1 ] B.q.X X X O ; 5 = X * X O .             O O   O   X   O   O   O O X X   O   O ;   T   O O < W L 1 0 Z , ; 6 1 @ @ X X O O < O O O X X O O O   X * * ; + 5 $ ` @ z = 0 1 @ O @ @ @ @ @ @ @ @ @ O @ O O @ O @ @ @ @ @ @ O @ @ @ @ @ @ @ @ @ @ ",
"X X O O   X O O X X X X X J M G.f.* * X X 8 s = ; @ ; X -     X       O O   O   X O O X X O O O O O O   O   4 X 3 $   X & T G < 4 O.d 6 4 1 1 @ X       O X   X O d X X   % , a i 5 s i o V > = 4 1 O O @ @ O @ @ @ @ O @ O O @ O O O O @ @ @ @ @ @ O O O @ @ @ @ O @ @ @ ",
"X       X X O X X X X X X G ^ P.e.X * * d 0 k v > ; ; = d   O O O O   O   O   O O O O X X X   O O         O 4   $ %   * z O < O 3 ! H 4 @ 6 @ 1 @       X X X X O 4 i p i k c z z z 8.8.g B 1 1 @ O @ @ @ @ @ @ O @ @ @ @ @ @ @ @ @ @ O @ @ @ @ @ O O O O O @ @ O O O O @ ",
"X O     O   X X @ O X O @ 4 U I.e.o ; v ; L h q = 1 1 E O O O O   O O   O     O O O X O X . p   X         O @ O = = O 4 ..O @ O O ^ < < @ 1 1 ; > X X X   $ O i a u c 9.0.8.0.8.0.8.q.b 6 4 @ O @ @ O @ @ @ @ @ @ O @ @ @ @ @ @ @ @ @ @ O O O O O O O O O @ @ @ O O O O @ ",
"O   o i i     O O X X O @ ; n ).0., 6 E X v.; K > @ @ 4 X   O O   O . .           O O O X = , O X X X   X   @   G 4 O 4 J X O O   P   O O O @ @ > p i * * c * 0.0.0.r.0.w.( n...p.C U 4 1 @ @ @ @ @ @ @ @ @ @ @ @ @ @ @ @ @ @ @ @ @ @ @ @ @ @ @ @ O O O O O O @ @ @ O O O ",
"  X * f o   X o   X X O X 4 0 ).w.k @ O X D @ 4 >   9 N y u t t y N r u t r r r t t t r y A N t Y u e   O O 1 O 3 <   X @ O O O   ~   O O O @ @ s e.8.l z r.l 0.w.q.F.M.C.^ ] j q 0 4 @ @ @ O @ @ @ @ @ @ @ @ @ @ @ @ @ @ @ @ @ @ @ @ @ @ @ @ O O O O O O O O @ @ @ O O O ",
"O O > d X X X * X X X X X 4 h Z.y.k O X O O O 1 * ;X:.' ' ' ' ' ' :.N -.*.' ' ' ' *.' ' ' V.,.' ' ' ;.-X    O O   O   O X X X     *.  X X X X k 9.r.0.V b s.M m.Z.v.c.U x g > 6 1 @ O @ @ @ @ @ @ @ @ @ @ @ @ @ @ @ @ @ @ @ @ @ @ @ @ O @ @ @ O O O @ O @ @ O @ @ @ @ O O ",
"O 3 T H < O O O O O X X X O Z ..d.l X * * O O   >X  ; @ @ O O   O J < 4 X < O X X   O O X 4 O O O O O   @X  X X O O O X X @ O O   (   X X X a 8.r.P.C.$.^ $.C K I m d d h 6 1 1 @ @ @ @ @ @ @ @ @ @ @ @ @ @ O @ @ @ O @ @ @ O @ @ O O O @ @ @ O O O @ @ @ @ @ O @ @ @ O @ ",
"O   O O O O O O O X O X X 4 $.B ~.d @ 1 O O @ 7 A.6 @ @ @ O   O O 3 O <       O         X O   O O     X 6.  1 O O   O O X @     O Q   X X & e.w.).b.L M 8 M b g h l = 1 1 1 @ @ @ @ @ @ @ @ @ @ @ @ @ @ @ @ @ @ @ @ O @ @ @ @ @ @ @ O O O @ @ @ O @ O O @ @ @ O @ O O O O ",
"X X X   O         O X X X 1 n.+.L.7.1 @ X X X e ,.; = X X X O       O O       3     X O O O X   X X X O 4.@ D O     O O O :     O G X o * l r.Z.m.= j ~ k v V l > 6 1 @ @ @ @ @ @ @ @ @ @ @ @ @ @ @ @ @ @ @ @ @ @ @ O @ @ @ @ @ O O O O O O O O @ @ O O O @ @ O O O O O O ",
"*   O X       O = X X X X O o.#.d.e.O * X X X 7 -.8 = #   e   #   o   #   t   # O o   #     O #   X O O 3.@   O     O X X ; X   X X 7 h - 8.J.M.V d N l 8.j M q O 9 @ @ O =.7 @ @ e O @ @ @ @ @ @ @ @ @ @ @ @ @ @ @ O O O O @ @ O O O @ O O O @ @ @ O O O @ @ @ @ @ @ @ O ",
"D   O O       X * X X X X X v.] ~.0.* * X X O : f.G @   zX-X' hXgXu KX  xX@X:XtX  ZXzX  vX|.|.uXyX  O   3.o X       O O X s       y zXo l p.! X @.= w.g C O 0   PX-X6.  O <X-.@   lXe O   O @ @ @ @ @ @ @ @ @ @ @ @ @ @ @ @ O O O O O @ O O O @ @ @ O O O @ @ @ @ @ @ @ O ",
"O   O   O     < O   O O O X T _ ).w.@ ; X X O e A.< *   VX{.-.|.mX-X@X  iX  :XtX  lXjX  <XuX{.4.jX      3.@ X         O   7.1.KXqX: JXGXg.K ZXGXB cX* BX2 gX  6.<X@XzXSXO :Xu u AXUX# 4.SXdX  @ @ @ @ @ @ @ @ @ @ O @ @ O O O O @ @ O O O O @ @ O O @ @ O O O O O O O @ @ ",
"    O O X     O O   O O O X J ( Z.0.X @ X X O e >.O @ l   tX*.zX: NXgXu iX  tXe   yX>X# BXSX;.pX|.      3.@ +       $ O   a PX    t vXh CX$X=X' dXaXe SX-.JX  VX  <XY.@XoXuX-.BXO hX# KX  JX  @ @ @ @ @ @ @ @ @ @ @ O @ O O @ O @ @ O O O O @ @ O O O @ O O O O O O @ @ @ ",
"X       g X O   O   O X X X G q.Z.q.o @ X X O f :.O 4 = tXgXe 6.  <X  %X1XuX;.hXY hXyX6.7 OX4.t tX      3.O & X X   f   O } *.ZXxX- vX/ vX$X>X,.sX}.1X-X1XnX  BX  <X}.:X}.uX-.BX# zX# ZXgX-XO @ @ @ @ @ @ @ @ @ @ @ @ @ O @ @ @ @ @ O @ O @ @ @ O O @ @ @ @ O O O O O O O ",
"O O   < ;         O O X X X J y.C.f.i O X X O / =.O < 0 X   X   X   o                         O   O     3.  * O O   l   * $.>.s IXf CXm VX2.gX-X1X7 UX9 SX;XiX3.O 1XoX<XOXgX;.lX3.JX# ZX-.OXO @ @ @ @ @ @ @ @ @ @ @ @ O O O @ @ @ @ O O O O @ @ O O @ @ @ @ O O O O O O O ",
"X O   D < X O O     X X X X G { ..t.a X X X O Q =.O @ 4 d X X X X         X O                   O       3.@ @ O     c.X d W {.wXx _ g.6 ,.O }.:X  O T.O 2.O 2.O @ y 9 y 9 ' 1   tXY 6   qX6.O O @ @ @ @ @ @ @ @ @ @ O O O O @ @ O O O O @ @ @ @ O O @ @ @ O O O O O O @ @ ",
"X O O   O X O X X X X X X X 4 .._ j.c X * X X @ {.o X 4 h X X X       . X O         X   X X * X         |.  2     . 8 = 0 Y 0.z U 0 0 1 @ @ @ @ 1 @ @ @ @ @ @ @ @ @ @ @ O O O @ O @ @ @ O @ @ O @ @ @ @ @ @ @ @ @ @ O @ @ O @ @ O O O O @ @ @ @ O O @ @ O O O O O O @ @ O ",
"X O O X O X X O X X X X X X 1 W M.~.e.O ; X X X  Xt   O @ * X X X X   X O   X               X         u 4.o &   o = d 6 s z q.I 6 @ 1 @ @ @ @ @ @ @ @ @ @ @ @ @ @ @ @ @ @ @ @ @ @ @ @ @ @ @ @ @ @ @ @ @ @ @ @ @ @ @ @ @ O O O @ O @ O O @ O O O O @ @ @ O O O O O O O O O ",
"* * X X X O X X X X X X X O @ ^ $.U.8.O * @ X @ * h.OX}.oX$X}.}. X|.|. X{.{.}.{.{.|.}.|.|.}.XX|.|.{. X:.  * o o d - 7 a 8.8.I 1 @ @ @ @ @ @ @ @ @ @ @ @ @ @ @ @ @ @ @ @ @ @ @ @ @ @ @ @ @ @ @ @ @ @ @ @ @ @ @ @ @ @ @ @ O O @ @ @ @ O O O @ O O O @ @ @ @ O O O O O O O @ ",
"; * * @ X O X X X X X X X X @ W _ U.8.@ ; @ O @ q X     O X     3     O                 . . . . . $ i p $ : = , k N : z 8.K @ @ @ @ @ @ @ @ @ @ @ @ @ @ @ @ @ @ @ @ @ @ @ @ @ @ @ @ @ @ @ @ @ @ @ @ @ @ @ @ @ @ @ @ @ @ @ @ O O @ @ @ @ O O O O @ O O O @ @ @ O O @ @ O O ",
"< 1   ; = O @   X O X X X X ; Q ( _.S @ ; @ O 4 G X O O 4 6 > @ G X O O   X X   $ i p p p a k f c l c 8.g B g 8.0.8.g z U 1 ; @ @ @ @ @ @ @ @ @ @ @ @ @ @ @ @ @ @ @ @ @ @ @ @ @ @ @ @ @ @ @ @ @ @ @ @ @ @ @ @ @ @ @ O @ @ @ @ O @ @ @ @ O O O O @ O O O @ O @ O @ O O O O ",
"@ 1 @ @ X * ; X O o X X X X * I ] Z.e.o ; * X X @ X X X X 0 h @ * X X X X o i i a c 0.0.0.r.0.0.0.0.0.0.g v 8 B B v 6 K 6 ; @ @ @ @ @ @ @ @ @ @ @ @ @ @ @ @ @ @ @ @ @ @ @ @ @ @ @ @ @ @ @ @ @ @ @ @ @ @ @ @ O @ @ @ O @ @ @ @ O O @ O O O O @ @ @ @ O O O O @ @ @ O O O O ",
"X * > 4 O ; O * * = X X X @ @ K Z F.r.- ; * X X X X X X X 4 h = * * X o o a c 8.0.r.r.0.0.w.+.| $.%.o.o.K 0 q I J 4 1 ; 6 @ @ @ @ @ @ @ @ @ @ @ @ @ @ @ @ @ @ @ @ @ @ @ @ @ @ @ @ @ @ @ @ @ @ @ @ @ @ @ @ @ O @ @ @ O @ @ @ @ O O O O O @ @ @ @ @ @ O O O O O @ @ O O O O ",
"1 1 * * ; ; ; ; = d * d * ; @ G ] P.t.a @ @ @ @ @ X + X X 1 v g & p o k g 0.r.8.y.M.C.b.b.b.T v.Q Q I 4 ; ; ; 1 @ @ @ 1 6 1 @ @ @ @ @ @ @ @ @ @ @ @ @ @ @ @ @ @ @ @ @ @ @ @ @ @ @ @ @ @ @ @ @ @ @ @ @ @ @ @ @ @ @ @ O @ @ @ @ O O @ O O O O O @ @ @ O O O O O O O O O O O ",
"O 4 1 * * = ; ; L @ > = = = = 0 _ Z.t.k O X X @ O ; & X O + 5 s 7.9.l 0.8.i.s.v.b.v.I q M j d h d * * * ; @ @ @ @ @ @ @ 6 1 @ @ @ @ @ @ @ @ @ @ @ @ @ @ @ @ @ @ @ @ @ @ @ @ @ @ @ @ @ @ @ @ @ @ @ @ @ @ @ @ @ @ @ @ @ @ @ @ @ O O O @ O O O O @ @ @ O O O O O O @ O O O O ",
"@ ; ; ; 6 6 ; v 8 6 K 1 @ ; = 6 ( B.j.z X * @ @ @ > * % & a S 9.r.0.x C v.b.v.0 d g l g g g = 8 ; ; ; @ @ @ @ @ @ @ @ @ 6 1 @ @ @ @ @ @ @ @ @ @ @ @ @ @ @ @ @ @ @ @ @ @ @ @ @ @ @ @ @ @ @ @ @ @ @ @ @ @ @ @ @ @ @ @ @ @ @ @ @ O @ O @ @ O O O O @ @ @ O @ @ @ @ @ O O @ O ",
"@ 1 1 1 1 4 6 8 * = ; 6 6 4 # @ ^ p.~.z ; * * @ % 2 a k z 0.0.0.i...c.T K h q = x M > 6 6 0 6 1 1 @ @ @ @ @ @ @ @ @ @ @ 1 @ @ @ @ @ @ @ @ @ @ @ @ @ @ @ @ @ @ @ @ @ @ @ @ @ @ @ @ @ @ @ @ @ @ @ @ @ @ @ @ @ @ @ @ @ @ @ @ @ @ @ @ @ @ @ O O O O @ @ O O @ @ @ @ @ O O @ O ",
"3 < < < < @ 1 6 @ 8 X * * d d > ..%.J.l X = , p k 8 z 0.8.q. .C.b.K 1 g g g 8 j B 6 0 6 6 6 1 1 @ @ @ @ @ @ @ @ @ @ @ @ @ @ @ @ @ @ @ @ @ @ @ @ @ @ @ @ @ @ @ @ @ @ @ @ @ @ @ @ @ @ @ @ @ @ @ @ @ @ @ @ @ @ @ @ O @ @ @ @ @ @ @ @ @ @ @ @ @ @ @ O O @ @ @ O O O O O @ @ @ ",
"% . $ o   + 1 < ; @ < 1 & = d - } ] G.c , = l 0.8.X q.> T c.c.R * g   * d ; ; X 6   X 6 ; @ @ @ @ @ @ @ @ @ @ @ @ @ @ @ 1 @ @ @ @ @ @ @ @ @ @ @ @ @ @ @ @ @ @ @ @ @ @ @ @ @ @ @ @ @ @ @ @ @ @ @ @ @ O @ @ @ @ @ @ @ @ @ @ @ @ @ @ @ @ @ @ @ @ @ O @ @ @ @ @ O O O O @ @ O ",
"d = - o * , * : ; X X , s e r c } x p.8.l l 0.8.+XkXH nX>X;X= z.kX9.iX4XuXjXT.jX9 jXgX  ; 1 @ @ 1 @ @ @ @ @ @ @ @ @ @ @ 1 @ @ @ @ @ @ @ @ @ @ @ @ @ @ @ @ @ @ @ @ @ @ @ @ @ @ @ @ @ @ @ @ @ @ @ @ @ O @ @ @ @ @ @ @ @ @ @ @ @ @ @ @ @ @ @ @ @ @ @ @ @ @ O O O O O O O O O ",
"g l z g z l d g d d d z 8.l 8.q.[ 8.#.8.g v +.4 AX  e 1X  gXX 4X` A 4XX ' OXtX9 # qXT.T.@ @ @ @ 1 @ @ @ @ 1 @ @ @ @ @ @ 1 @ @ @ @ @ @ @ @ @ @ @ @ @ @ @ @ @ @ @ @ @ @ @ @ @ @ @ @ @ @ @ @ @ @ @ @ @ @ @ @ @ @ @ @ @ @ @ @ @ @ @ @ @ @ @ @ @ @ @ @ @ @ @ @ @ O O O O O O O ",
"v h h d j = h d = = > j h h b b n M ) K 0 I I h N bXN NX:.iXO ,XqX9 tX< -.%X1X1XO tXT.T.; 6 @ 1 1 1 @ @ @ @ @ @ @ @ 1 1 1 1 @ @ @ @ @ @ @ @ @ @ @ @ @ @ @ @ @ @ @ @ @ @ @ @ @ @ @ @ @ @ @ @ @ @ @ @ @ @ @ @ @ @ @ @ @ @ @ @ @ @ @ @ @ @ @ @ @ @ @ @ @ @ @ @ @ O @ @ O @ @ ",
"8 q q q q q q q 8 q q K 0 0 K 0 0 K K 0 6 6 6 O %XiXy SXOXdX>X,XqX9 NX@X-.:XtX1X9 AXxXt ; 6 @ @ 1 @ 1 1 @ @ @ @ @ 1 @ 1 1 1 @ @ @ @ @ @ @ @ @ @ @ @ @ @ @ @ @ @ @ @ @ @ @ @ @ @ @ @ @ @ @ @ @ @ @ @ @ @ @ @ @ @ @ @ @ @ @ @ @ @ @ @ @ @ @ @ @ @ @ @ @ @ @ @ @ O O O O O @ ",
"8 8 8 v 8 8 8 8 8 8 8 8 6 6 6 6 6 8 6 ; ; ; 6 6 @ e # @ 9   e   9 6 O y @ O O 9 # @ @ : 6 ; @ @ @ @ 1 @ @ @ @ @ @ @ @ 1 1 1 @ @ @ @ @ @ @ @ @ @ @ @ @ @ @ @ @ @ @ @ @ @ @ @ @ @ @ @ @ @ @ @ @ @ @ @ @ @ @ @ @ @ @ @ @ @ @ @ @ @ @ @ @ @ @ @ @ @ O @ @ @ @ @ @ @ O O O O @ ",
"n M M n M n 8 n 8 v v 8 8 6 6 6 6 6 6 6 1 1 ; ; @ @ 1 @ @ @ 1 1 1 1 @ @ @ @ @ 1 @ @ 6 ; ; ; @ @ @ 1 1 1 @ 1 @ @ @ @ @ 1 1 1 1 @ 1 1 @ @ @ @ @ @ @ @ @ @ @ @ @ @ @ 1 @ @ 1 @ @ @ @ @ @ @ @ 1 @ @ @ @ @ @ @ 1 @ 1 @ @ @ @ @ @ @ @ @ @ @ @ @ @ @ @ @ @ @ @ @ @ @ @ @ O O O @ ",
"M M M M ^ n n n n n n v 8 6 6 6 6 6 6 ; @ @ @ @ @ @ 1 @ @ @ @ 6 ; @ @ @ @ @ @ @ @ 1 ; @ @ 1 @ 1 @ 1 @ @ @ 1 1 1 1 @ @ 1 6 1 1 @ @ @ @ @ @ @ @ @ @ @ @ @ @ @ @ @ @ @ @ @ 1 @ @ @ @ @ @ @ @ @ 1 @ @ @ @ @ @ @ 1 @ @ @ @ @ @ @ @ @ @ @ @ @ @ @ @ @ @ @ @ @ @ @ @ @ @ O O O O ",
"( ( ( ^ ^ L L L n n n n 8 8 6 6 6 6 6 6 1 1 ; @ ; 1 6 1 @ @ @ @ ; ; @ @ 1 1 @ 1 1 @ @ @ @ @ @ 1 1 1 @ @ 1 @ 1 1 @ @ 1 1 6 @ @ @ @ @ @ 1 1 @ @ @ @ @ @ @ @ @ @ 1 @ @ @ @ 1 1 ; ; @ @ @ @ @ @ @ @ @ @ 1 @ @ @ 1 @ @ @ @ @ @ @ @ @ @ @ @ @ @ @ @ @ @ @ @ @ @ @ @ @ @ @ @ O O ",
"_ _ ^ L L K K L L L ^ q 8 8 6 6 6 6 6 ; 1 @ 6 @ ; @ 6 @ @ @ @ ; ; ; @ 1 1 @ @ @ 1 1 6 @ @ @ @ @ 1 1 1 1 @ @ @ 1 @ 1 6 6 6 6 @ @ 1 1 1 1 @ @ 6 6 6 1 @ @ @ @ 1 1 @ 1 6 ; ; ; 6 6 ; @ ; ; 6 6 1 @ @ @ @ @ @ @ @ @ 1 @ @ @ @ 1 1 @ @ @ @ @ @ @ @ @ @ @ @ @ @ @ @ @ @ @ @ @ @ ",
") ^ ^ L q q q q q L L L q 6 6 6 6 6 6 6 6 6 6 6 1 @ 6 1 1 @ @ ; 6 @ 1 1 1 @ @ @ 1 @ 6 1 ; ; @ @ 6 ; @ @ @ 6 6 6 ; ; 6 6 6 6 6 @ @ @ @ @ ; ; 6 6 6 6 ; ; 6 6 6 1 1 6 6 6 ; 6 6 6 6 6 6 ; 6 6 @ @ 1 1 1 1 @ @ @ @ @ 1 1 1 @ @ @ 1 1 1 1 @ @ @ @ @ @ @ @ @ @ @ @ @ @ @ @ O @ ",
"^ n q q q q 8 q q q K q q 6 6 6 6 6 6 6 6 6 6 ; ; @ 6 ; 1 @ @ @ 6 @ 1 @ @ @ 1 1 1 6 6 6 6 6 ; ; 1 @ ; ; 6 6 1 6 6 6 ; 6 6 6 6 6 6 6 ; 6 6 ; 6 6 6 ; ; ; ; ; 6 6 6 6 6 6 6 6 ; 6 ; 6 6 6 ; 1 @ @ @ 1 @ @ @ ; @ @ @ @ 1 1 @ @ @ @ 1 1 1 1 @ @ @ @ @ @ @ @ @ @ @ @ @ @ @ @ @ ",
"n n n q q q q 8 q q q q q 6 6 6 6 8 6 6 6 6 6 6 ; 6 6 ; 6 6 ; 6 6 6 1 6 6 ; 6 1 1 1 6 ; 6 6 ; ; 6 ; @ ; 6 6 6 6 6 6 6 6 6 6 6 6 6 6 6 6 6 6 6 6 6 6 ; ; 6 ; 6 6 6 6 6 6 6 6 6 6 6 6 6 6 6 6 @ @ 6 1 1 ; @ @ 6 @ @ @ @ 1 1 @ @ @ 1 1 1 @ @ @ @ 1 @ @ @ @ @ @ @ @ @ @ @ @ @ ",
"n n q q q q q q q q 8 q 8 8 8 8 8 8 6 6 6 6 6 6 6 ; 6 6 6 6 ; 6 6 6 6 6 6 ; 6 6 6 6 6 6 6 6 6 6 6 6 ; 6 6 6 6 6 6 6 6 6 6 6 6 6 6 6 6 6 6 6 6 6 6 6 6 6 6 6 6 6 6 6 6 6 6 6 6 6 6 6 6 6 6 6 6 6 ; 1 6 6 1 6 1 1 1 @ @ 1 @ 1 1 1 1 1 ; @ @ @ @ 1 1 1 1 @ @ @ @ @ @ @ @ @ @ ",
"^ n n q q q q q q q q q q 8 8 8 8 8 8 6 6 6 6 6 6 6 6 6 6 6 6 6 6 6 6 6 6 ; 6 6 6 6 6 6 6 6 6 6 6 6 6 6 6 6 6 6 6 6 6 6 8 6 6 6 6 6 6 6 6 6 6 6 6 6 6 6 6 6 6 6 6 6 6 6 6 6 6 6 6 6 6 6 6 6 6 6 6 ; 6 6 6 6 1 1 1 1 6 6 ; 6 @ 1 1 1 @ 6 1 @ 1 1 1 1 1 @ @ @ @ @ @ @ @ @ @ ",
"n n n n n q q q q q q q q q 8 8 8 8 8 8 8 8 8 8 8 8 8 8 6 6 6 6 6 6 6 6 6 6 6 6 6 6 6 6 6 6 6 6 6 6 6 6 6 6 6 6 6 6 8 8 8 8 8 6 6 6 6 6 6 6 6 6 6 6 6 6 6 6 6 6 6 6 6 6 6 6 6 6 6 6 6 6 6 6 6 6 6 6 6 6 @ @ ; 1 ; 6 6 6 6 6 6 1 1 1 @ 1 1 @ ; 1 1 1 1 1 @ @ @ @ @ @ @ @ @ ",
"( n n n n n n q q q q n q q q q q n 8 8 8 8 8 8 8 8 8 8 8 8 8 8 8 6 6 6 6 6 6 6 6 6 6 6 6 6 6 6 6 6 6 6 6 6 8 8 8 8 8 8 8 8 8 8 8 6 6 6 6 6 6 6 6 6 6 6 6 6 6 6 6 6 6 6 6 6 6 6 6 6 6 6 6 6 6 6 6 6 6 6 ; ; 6 @ ; 6 6 6 6 1 6 1 1 1 ; 1 1 @ ; ; @ 1 1 1 @ @ @ @ @ @ @ @ @ ",
"( ( M M M ^ n n n n n n q q n q q n n 8 q q q q q q q q 8 8 8 8 8 8 6 6 6 6 6 6 6 6 6 6 6 6 6 6 8 6 6 6 8 8 8 8 8 8 8 q q q 8 8 8 8 6 6 6 6 6 6 8 8 8 6 6 6 6 6 6 8 6 6 6 6 6 6 6 6 6 6 6 6 6 6 6 6 6 6 6 6 6 ; 6 6 6 6 6 1 ; 1 1 1 1 6 1 6 1 @ @ 1 1 1 @ @ @ @ @ O @ @ @ ",
"[ ] ] ] ] ( M ^ n n n n n n n n n n M M n q n n n n q n 8 8 8 8 q 8 8 8 6 8 6 6 6 6 6 8 8 8 6 8 8 8 8 8 8 8 8 q q q q q q q 8 8 8 8 8 8 6 6 8 8 8 8 8 8 8 6 6 6 8 8 6 8 6 8 6 6 6 6 6 6 6 6 6 6 6 6 6 6 6 6 6 6 6 6 6 6 6 1 ; 1 6 6 6 1 1 1 6 1 1 1 1 1 1 1 @ @ @ @ @ @ @ ",
"| [ [ ] ] ( ( ( ( ( M M M n M M n M M n n n M M M M M n n v 8 M n v v 8 8 8 6 6 6 8 8 8 8 8 8 8 8 8 8 8 8 8 8 q q q q n n q q q q 8 8 8 8 8 8 8 8 8 8 8 8 8 q 8 8 8 6 8 8 6 6 6 6 6 6 6 6 6 6 6 6 6 6 6 6 6 6 6 6 6 ; 6 6 6 6 @ 6 6 6 6 6 1 1 6 1 @ 1 @ @ @ @ @ @ @ @ @ @ ",
"+.| | { | ] ] ( ] ] M ] ] C C M M ( M M M n M n M M M n M M M M M b v 8 v 8 8 8 v 8 q 8 8 8 8 8 q 8 q q q q q n n n n n n n n q q 8 q 8 8 q 8 8 8 8 8 8 8 8 0 q 8 8 8 8 8 8 q 6 6 0 8 6 6 6 6 6 6 6 6 6 6 6 6 6 6 6 6 6 6 6 6 6 6 6 6 6 6 6 6 6 1 1 1 1 @ O @ @ @ @ @ @ @ ",
"$.+.+.+.{ { _ _ { { ] [ ] ] [ ( ( ] ( ( ( ^ ^ ^ ^ M M n n ^ M ( M C n v v v 8 8 v v v v v n n n M M M n n n n n M M M ^ n n n n n q q q n n 8 8 n 8 8 v v q q q q q 8 8 8 8 q q q q 8 8 6 8 6 6 6 6 6 6 6 6 6 6 6 6 6 6 6 6 6 6 6 6 6 6 6 6 6 6 1 1 1 1 @ @ @ @ @ @ @ @ @ ",
"+.+.+.+._ _ _ ....+.{ +.{ | | _ _ _ _ _ ^ ^ ^ ) ) ) ^ L L ^ ^ ^ ^ _ ^ n n 8 8 8 n n v v n M M M M M M M n M M ( ( ( M ( ( M n n n n n n n n q 8 M M v v v 8 8 8 q 8 q q q q q q 8 q q 8 8 8 8 8 6 6 6 8 6 6 6 8 8 8 8 6 6 6 6 6 6 6 6 6 6 8 6 6 1 1 1 @ @ @ @ @ @ @ @ @ @ ",
"..+._ _ _ _ )  .....+...+.{ _ _ _ _ ( ) ^ L ^ L L L L K I L U ) U ) K q q q q q q q q q n ^ n n M ( ( ^ n M ( ] ] ] ] ] ( ( ( ^ n n n n n n n q n M M M M v M M n q q q q q n n n n n q 8 q q 8 8 8 8 8 8 8 8 8 8 8 8 8 8 8 8 6 8 6 6 6 6 8 8 6 1 1 1 @ @ @ @ 1 @ @ @ @ @ ",
"......_ _ _ ^ ) ) ) ...._ _ ( ( ( ( ^ ^ ^ ^ q q q K K q q K K K L K 8 0 0 0 0 0 0 q q L L L L ^ ^ ^ ^ ^ ^ ^ _ _ { { { { ] ( ( ^ ^ ^ ^ ^ ^ n q q ^ ( ( ( ( M M M n n n n n n n M M M n q q q q q q q q q q 6 6 0 0 0 q q q q q 8 8 6 6 6 6 8 8 6 1 1 @ @ @ 1 @ 1 1 @ @ @ @ ",
"U U ) ) ) ^ ^ ^ ^ ^ ) _ _ _ ( ^ ( ^ ^ ^ n n q q q q q q q q q q q q 8 6 8 6 6 0 0 6 0 q K K q q ^ ^ L L L ^ ) .._ _ _ { [ _ ^ ^ ^ L L L L L q q L U U ) ) ^ n n n n q n n n M n M n n q q q q q q q 0 6 6 6 0 6 0 0 0 0 0 0 0 q 8 q 6 8 8 8 8 6 1 @ @ @ 1 @ @ @ @ @ @ @ @ ",
"I I I I U L ^ ^ ^ ^ ) ( ( ( ^ ( ( ^ ^ n q q q q q q q q 6 8 q q q q q 6 6 6 8 8 6 6 8 0 q 0 q q q K q q L L ) ) _ _ _ | [ ( ( n q L L q L q q q q I I L L L L L L n q n ( n n n ( ^ n q q q q q 0 0 0 0 0 6 6 6 6 0 0 0 0 0 0 0 6 6 6 8 8 q q 0 1 @ @ @ 1 1 1 @ @ @ 1 1 @ ",
"q 0 K K I I L L L ^ ^ ( ] ( ( ( ( ^ n n n q q q q 0 q 8 6 8 q q q q 8 6 0 6 8 8 8 0 0 q q q 0 q q q q q q ^ ^ ^ _ _ _ | | [ C n n q q q q q 0 0 q q 0 q K K I I K K K q ^ ^ n ^ ( ( ^ n n q q q q 0 6 6 8 6 6 0 6 6 6 6 6 0 0 6 0 6 6 q q q 0 4 1 ; 1 @ 1 1 @ 1 @ @ @ @ @ ",
"0 0 0 0 0 0 K I I L L _ ( ( ] ] ( ( ^ n ^ q q q q q q 8 8 8 8 q q 8 8 6 0 8 8 8 8 8 6 8 q 8 8 q q q q q n n n ( ( ( { #.#.| [ ( n n n q q q 0 0 0 0 0 0 q q q q q q q q q q ^ ^ ( ( ^ n n n q q q q 6 6 8 0 0 6 6 6 6 6 6 6 6 6 0 6 6 6 8 0 4 6 > ; 1 @ 1 1 1 1 1 @ @ 1 @ ",
"0 0 0 0 0 0 0 0 K K U ) ) ( _ [ ] _ ( M M n n M n q q 8 8 q q q q 8 8 8 6 8 6 8 8 8 8 6 8 8 q q 8 q q n n q n ( ( _ _ $.#.#.| ( ( M n q q q q q 0 6 0 0 6 q q q q 0 q q q q ^ ^ ^ ( ^ ^ n n q q 8 8 6 6 8 8 q 6 6 6 6 6 6 6 6 6 0 6 6 8 0 4 4 > > 6 6 1 1 1 1 1 1 @ @ @ @ ",
"0 0 0 0 0 0 0 0 0 0 K U U ) _ { { ] ( C M M M M M n 8 8 8 q n q q 8 6 6 6 8 8 8 8 6 8 8 8 8 8 n n n M n n L L ^ )  .W  .O.$.{ _ ] ] M n n q q q q 6 6 6 6 6 8 8 6 0 q q q q n n ^ ^ ^ ^ q ^ q 8 q q 0 6 8 q q 8 6 6 6 6 6 6 6 6 6 6 6 6 0 4 6 = 8 6 6 1 1 1 1 1 1 1 @ @ @ ",
"0 6 0 0 0 0 0 0 0 0 0 K I U  ._ _ { ] | M M M M n n n v 8 n M v v v 8 8 8 8 8 8 8 8 8 8 v v v M M M M M ^ L L ^ ) U U ) o.O...) { ] ( M n n n q q q 6 6 6 6 6 8 8 8 8 q q q q q L ^ ^ L q L 0 q 0 q 0 6 q q q q 6 6 6 8 8 8 6 6 6 6 6 0 4 1 > > q 6 6 6 1 1 1 1 1 @ @ @ @ ",
"6 6 6 6 0 0 0 0 0 0 0 0 q L U ) ) _ { | ( ^ ( ( n n n n n M M M b v v v v v n 8 8 8 v v v v M M M M ^ L L K K K L K q L U  .) ) _ _ _ ( M n M n 8 8 6 6 6 6 8 8 8 8 8 q q q q q q L q K q L q 0 0 0 0 0 0 0 q 0 0 6 6 6 8 6 0 6 6 6 6 4 4 ; > 8 q q 6 1 1 @ 1 1 1 1 @ @ @ ",
"6 6 6 6 6 6 6 0 0 0 0 0 q q L ^ ) _ { { ^ ) ) ) ^ L L q n n ^ ^ ( M n n n n M v v M M M M M n ^ ^ ^ L K q q q q 0 0 q q q ^ L L )  .) _ ( n M M n 8 8 6 6 8 8 8 8 v q q q q q q q q q q q K 0 6 0 0 6 6 0 6 0 0 0 6 0 0 6 0 6 6 6 6 0 4 1 ; 8 q q q 6 6 1 @ 1 @ @ @ @ @ @ ",
"6 6 6 6 6 6 6 6 6 0 0 0 q q q L ) _ { { L L L L K K K K K L U L L L q q q n n n n M n M M ^ L L U I q q 0 0 q 0 0 0 q q q ^ q K I I U ) ( ( ( M n n 8 8 8 8 8 8 q q q q q q 0 0 q 0 0 0 q q 6 6 6 6 6 6 6 0 6 6 6 6 6 6 6 6 6 0 6 0 4 4 ; ; 6 0 q 0 0 6 1 1 @ @ @ @ @ @ @ ",
"6 6 6 6 6 6 6 6 6 6 0 0 q q q q ^ _ | ( L K K q q q q q K I I I I K K q q K L q q ^ ^ ^ L I K K K q 0 0 0 0 0 0 0 0 q q q L q q q K I U ) ) _ ( M M q 8 8 8 8 q q q q q 0 0 0 6 0 q 0 q q q 0 6 6 6 6 6 6 6 6 6 6 6 1 6 6 6 1 6 1 1 4 ; ; 6 0 0 0 0 0 6 1 @ 1 @ 1 1 @ @ @ ",
"6 6 6 6 6 6 6 6 6 6 6 0 0 q q L ^ _ #.( q q q q 0 0 0 0 0 0 0 q 0 0 0 0 0 K K K K K L K K K q q 0 0 6 0 0 0 0 0 6 6 0 q q L q 0 q q q K I L ) ( ( n 8 8 8 8 q q q q 0 0 6 0 6 6 6 6 q 6 0 q 0 6 6 6 6 6 6 1 6 1 6 6 6 6 1 1 6 1 4 1 1 ; 6 6 6 6 0 0 0 6 6 1 1 @ @ 1 1 @ @ ",
"6 6 6 6 6 6 6 6 6 6 0 0 0 q q q ^ _ #.n q 0 q q 0 0 0 0 0 0 0 0 0 0 6 0 0 0 0 0 q q q 0 0 0 0 0 0 6 6 6 6 6 0 0 6 6 0 q q q q 0 q q 0 0 q K L ^ ^ ^ q 8 6 q 0 0 0 0 6 6 6 6 6 6 8 q q 8 0 0 0 6 6 6 6 6 6 6 1 1 6 6 1 1 1 6 6 1 4 1 @ ; 6 6 6 6 6 6 0 6 1 1 1 @ 1 1 @ @ @ ",
"6 6 6 6 6 6 6 6 6 6 0 0 0 q q L ^ _ #.n q 0 q 8 8 0 0 6 6 6 6 6 6 6 6 6 6 6 6 6 0 0 0 0 0 0 6 6 6 6 6 6 6 0 0 6 6 0 0 q q q 6 0 q q 0 0 0 0 K I L L q 0 0 0 0 0 0 6 6 6 6 6 6 6 6 q q 0 0 0 0 6 6 6 6 6 6 6 1 1 6 6 1 6 1 6 1 1 @ @ ; 6 6 6 6 6 6 6 6 6 1 1 1 1 1 1 @ @ @ ",
"6 6 6 6 6 6 6 6 6 6 6 6 0 0 q q ^ _ #.q q q q q 0 0 6 6 6 6 6 6 6 6 6 6 6 6 6 6 6 6 0 6 6 6 6 6 6 6 6 6 6 0 6 6 6 6 6 q q q 6 6 0 q 0 6 6 0 0 0 q K 0 6 0 0 6 6 6 6 6 6 6 6 6 6 6 6 0 0 0 0 0 6 6 6 6 6 6 6 6 1 1 1 1 6 1 1 4 1 @ @ ; 6 6 6 6 6 6 0 6 6 1 1 1 1 1 @ @ @ @ ",
"6 6 6 6 6 6 6 6 6 6 6 6 0 0 q q ^ _ +.q q q q 0 0 6 6 6 6 6 6 6 6 6 6 6 6 6 6 6 6 6 6 6 6 6 6 6 6 6 6 6 6 0 0 6 6 0 6 q 8 q 6 0 6 6 6 6 6 0 0 0 0 0 0 6 6 6 6 6 6 6 6 6 6 6 6 6 0 0 0 0 0 0 6 6 6 6 6 6 6 6 6 1 1 6 1 6 1 1 1 @ @ @ ; 6 6 6 6 6 6 6 6 6 6 1 1 1 1 1 @ @ @ ",
"6 1 1 1 6 6 6 6 6 6 6 6 6 0 q q ^ _ { q q q q 0 0 6 6 6 6 6 6 6 6 6 6 6 6 6 6 6 6 6 6 6 6 6 6 6 6 6 6 6 6 6 6 6 6 6 6 0 8 0 6 6 6 q 8 6 6 6 6 6 0 0 6 6 6 6 6 6 6 6 6 6 6 6 6 6 6 6 0 6 6 6 6 6 6 6 1 6 6 6 6 6 ; 1 1 1 1 1 @ @ @ @ 6 6 6 6 6 6 6 6 6 6 6 1 @ 1 1 @ @ @ @ ",
"6 1 1 1 6 6 6 6 0 1 6 6 0 0 0 q ^ ..] q q 8 0 0 0 0 6 6 6 6 6 6 6 6 6 6 6 1 6 6 6 6 6 6 6 6 6 6 6 6 6 6 6 6 6 6 6 6 6 6 8 0 6 6 0 6 8 8 0 0 0 0 0 0 0 6 6 6 6 6 6 6 6 6 6 6 6 6 6 0 0 6 6 6 6 6 1 6 6 1 1 6 6 6 ; 1 6 1 1 4 @ @ @ 6 6 6 6 6 6 6 6 6 0 0 6 1 1 1 @ @ @ 1 @ "
};
