/* XPM */
static char *_5f7aa5feda24044f2899ded686adbfdrMKhenGwvDjp5xsb[] = {
/* columns rows colors chars-per-pixel */
"133 400 256 2 ",
"   c #000203",
".  c #0B0202",
"X  c #010A05",
"o  c #0B0B03",
"O  c #000509",
"+  c #0B040B",
"@  c #000B0C",
"#  c #0B0C0C",
"$  c #130202",
"%  c #1C0202",
"&  c #170907",
"*  c #011304",
"=  c #021B03",
"-  c #0C1805",
";  c #01120D",
":  c #0B120C",
">  c #011B0C",
",  c #161706",
"<  c #000413",
"1  c #000C12",
"2  c #0B0B15",
"3  c #00031B",
"4  c #000C1B",
"5  c #150814",
"6  c #001313",
"7  c #0C1313",
"8  c #011A14",
"9  c #0B1817",
"0  c #00141A",
"q  c #011B1B",
"w  c #0B1D1B",
"e  c #121414",
"r  c #151718",
"t  c #141B1B",
"y  c #1A1C1C",
"u  c #260504",
"i  c #360403",
"p  c #29140D",
"a  c #022303",
"s  c #012B03",
"d  c #0B2807",
"f  c #02240B",
"g  c #022B0C",
"h  c #172504",
"j  c #023302",
"k  c #053807",
"l  c #163607",
"z  c #012314",
"x  c #022B14",
"c  c #01231C",
"v  c #0A2719",
"b  c #012B1C",
"n  c #17241B",
"m  c #033313",
"M  c #02331C",
"N  c #043A18",
"B  c #143918",
"V  c #2C2B11",
"C  c #000323",
"Z  c #0A0624",
"A  c #010C23",
"S  c #00032B",
"D  c #010C2B",
"F  c #150E2F",
"G  c #011423",
"H  c #011C23",
"J  c #0C1A25",
"K  c #00142B",
"L  c #011C2B",
"P  c #191C23",
"I  c #000635",
"U  c #011C34",
"Y  c #011738",
"T  c #291329",
"R  c #012324",
"E  c #012B23",
"W  c #0B2827",
"Q  c #01242B",
"!  c #012B2C",
"~  c #172727",
"^  c #1C2222",
"/  c #132E2A",
"(  c #013323",
")  c #063926",
"_  c #01332C",
"`  c #023A2B",
"'  c #183329",
"]  c #012433",
"[  c #022C33",
"{  c #0A2A33",
"}  c #01243B",
"|  c #022B3B",
" . c #172A37",
".. c #023333",
"X. c #023B34",
"o. c #02333A",
"O. c #0A3638",
"+. c #043B3D",
"@. c #163836",
"#. c #222424",
"$. c #242728",
"%. c #252B2B",
"&. c #2A2B2C",
"*. c #26332B",
"=. c #34312B",
"-. c #2A2D32",
";. c #2D3433",
":. c #293937",
">. c #333435",
",. c #353738",
"<. c #343B3B",
"1. c #3A3C3D",
"2. c #481B14",
"3. c #044606",
"4. c #174B0E",
"5. c #045707",
"6. c #044718",
"7. c #055718",
"8. c #2A480E",
"9. c #076610",
"0. c #044728",
"q. c #045629",
"w. c #18512C",
"e. c #044837",
"r. c #03433C",
"t. c #18443B",
"y. c #045838",
"u. c #2A4A34",
"i. c #37443C",
"p. c #086728",
"a. c #066638",
"s. c #156A32",
"d. c #26682D",
"f. c #434B37",
"g. c #020A47",
"h. c #011945",
"j. c #012946",
"k. c #033C43",
"l. c #023648",
"z. c #193749",
"x. c #012955",
"c. c #023856",
"v. c #2C364B",
"b. c #383C43",
"n. c #093963",
"m. c #044847",
"M. c #03444C",
"N. c #194945",
"B. c #045749",
"V. c #034C53",
"C. c #044758",
"Z. c #045757",
"A. c #1A5550",
"S. c #374645",
"D. c #3C4443",
"F. c #344E4E",
"G. c #3C4B4A",
"H. c #22544C",
"J. c #235A55",
"K. c #3C5855",
"L. c #046548",
"P. c #146C4E",
"I. c #066656",
"U. c #26645A",
"Y. c #336A50",
"T. c #0A4C64",
"R. c #055B64",
"E. c #315265",
"W. c #046666",
"Q. c #067074",
"!. c #2C726A",
"~. c #31706B",
"^. c #434545",
"/. c #444748",
"(. c #444B4B",
"). c #4A4C4C",
"_. c #544E4A",
"`. c #46554B",
"'. c #454C53",
"]. c #445352",
"[. c #4C5252",
"{. c #485A57",
"}. c #555959",
"|. c #4D6B56",
" X c #686858",
".X c #475768",
"XX c #595D63",
"oX c #4D6F6F",
"OX c #5A6665",
"+X c #666969",
"@X c #68726A",
"#X c #696D73",
"$X c #6A7476",
"%X c #757979",
"&X c #3D894B",
"*X c #35857B",
"=X c #4E8653",
"-X c #4C8774",
";X c #748976",
":X c #197085",
">X c #4F7586",
",X c #797D83",
"<X c #727E8B",
"1X c #038790",
"2X c #388C83",
"3X c #3C948A",
"4X c #3D9B90",
"5X c #02A2AD",
"6X c #5A9492",
"7X c #7B8585",
"8X c #728A8E",
"9X c #42A297",
"0X c #00BCC9",
"qX c #828085",
"wX c #868989",
"eX c #8C918E",
"rX c #8C9594",
"tX c #969999",
"yX c #95A899",
"uX c #A4A39C",
"iX c #979BA5",
"pX c #9CA4A4",
"aX c #95B5AD",
"sX c #A3A7A7",
"dX c #ABACAD",
"fX c #ACAFAF",
"gX c #ACB3B4",
"hX c #B3B4B4",
"jX c #B5B9B9",
"kX c #BABCBC",
"lX c #C0BFBD",
"zX c #9AC7B0",
"xX c #B5C4BA",
"cX c #B7BCC3",
"vX c #99C4C2",
"bX c #BBC4C5",
"nX c #B8D3D0",
"mX c #C3C4C4",
"MX c #C6C9C9",
"NX c #CBCCCC",
"BX c #CCD1CE",
"VX c #CDD4D3",
"CX c #D3D5D5",
"ZX c #D6D8D9",
"AX c #DBDCDC",
"SX c #DDE3DD",
"DX c #D8DCE2",
"FX c #DCE4E3",
"GX c #DCF3E8",
"HX c #E3E4E4",
"JX c #E6E7E9",
"KX c #EBECEC",
"LX c #EDF0F0",
"PX c #F4F4F4",
"IX c #F6F8F8",
"UX c #FCFCFC",
/* pixels */
"O O O O O O O O O O O O O O O O O O O O O O O O O O O O O O O O O O O O O O O O O O O O O O O O O O O O O O O O O O O O O O O O O O O O O O O O O O O O O O O O O O O O O O O O O   O O O O O O O O O O O O O O O O O O O O O O O O O O O O O O O O O O O O O O O O O O O ",
"O O O O O O O O O O O O O O O O O O O O O O O O O O O O O O O O O O O O O O O O O O O O O O O O O O O O O O O O O O O O O O O O O O O O O O O O O O O O O O O O O O O O O O O O O O O O O O O O O O O O O O O O O O O O O O O O O O O O O O O O O O O O O O O O O O O O O ",
"O O O O O O O O O O O O O O O O O O O O O O O O O O O O O O O O O O O O O O O O O O O O O O O O O O O O O O O O O O O O O O O O O O O O O O O O O O O O O O O O O O O O O O O O O O O O O O O O O O O O O O O O O O O O O O O O O O O O O O O O O O O O O O O O O O O   O ",
"O O O O O O O O O O O O O O O O O O O O O O O O O O O O O O O O O O O O O O O O O O O O O O O O O O O O O O O O O O O O O O O O O O O O O O O O O O O O O O O O O O O O O O O O O O O O O O O O O O O O O O O O O O O O O O O O O O O O O O O O O O O O O O O O O       O ",
"O O O O O O O O O O O O O O O O O O O O O O O O O O O O O O O O O O O O O O O O O O O O O O O O O O O O O O O O O O O O O O O O O O O O O O O O O O O O O O O O O O O O O O O O O O O O O O O O O O O O O O O O O O O O O O O O O O O O O O O O O O O O O O O O O O O O O ",
"O O O O O O O O O O O O O O O O O O O O O O O O O O O O O O O O O O O O O O O O O O O O O O O O O O O O O O O O O O O O O O O O O O O O O O O O O O O O O O O O O O O O O O O O O O O O O O O O O O O O O O O O O O O O O O O O O O O O O O O O O O O       O O O O O O O ",
"O O O O O O O O O O O O O O O O O O O O O O O O O O O O O O O O O O O O O O O O O O O O O O O O O O O O O O O O O O O O O O O O O O O O O O O O O O O O O O O O O O O O O O O O O O O O O O O O O O O O O O O O O O O O O O O O O O O O O O O O O O O O O O O O O O O O O ",
"O O O O O O O O O O O O O O O O O O O O O O O O O O O O O O O O O O O O O O O O O O O O O O O O O O O O O O O O O O O O O O O O O O O O O O O O O O O O O O O O O O O O O O O O O O O O O O O O O O O O O O O O O O O O O O O O O O O O O O O O O O O O O O O O O O O O O ",
"O O O O O O O O O O O O O O O O O O O O O O O O O O O O O O O O O O O O O O O O O O O O O O O O O O O O O O O O O O O O O O O O O O O O O O O O O O O O O O O O O O O O O O O O O O O O O O O O O O O O O O O O O O O O O O O O O O O O O O O O O O O O O O   O O O O   O ",
"O O O O O O O O O O O O O O O O O O O O O O O O O O O O O O O O O O O O O O O O O O O O O O O O O O O O O O O O O O O O O O O O O O O O O O O O O O O O O O O O O O O O O O O O O O O O O O O O O O O O O O O O O O O O O O O O O O O O O O O O O   O   O O O O O O O O O ",
"O O O O O O O O O O O O O O O O O O O O O O O O O O O O O O O O O O O O O O O O O O O O O O O O O O O O O O O O O O O O O O O O O O O O O O O O O O O O O O O O O O O O O O O O O O O O O O O O O O O O O O O O O O O O O O O O O O O O O O O O O O O O O O O O O O O O O ",
"O O O O O O O O O O O O O O O O O O O O O O O O O O O O O O O O O O O O O O O O O O O O O O O O O O O O O O O O O O O O O O O O O O O O O O O O O O O O O O O O O O O O O O O O O O O O O O O O O O O O O O O O O O O O O O O O O O O O O O O O O   O   O O O O O O O   O ",
"O O O O O O O O O O O O O O O O O O O O O O O O O O O O   V.M.M.M.! O O O O O 0 0 q H q 0 O O O O O O O O O O O O O O O O O O O O O O O O O O O O O O O O O O O O O O O O O O O O O O O O O O O O O O O O O O O O O O O O O O O O O O O O O O O O O O O O O O O O O O O O ",
"O O O O O O O O O O O O O O O O O O O O O O O O O O   O V.V.O.k.O.1XO   O O R O.W.m.O.V.A.  O O O O O O O O O O O O O O O O O O O O O O O O O O O O O O O O O O O O O O O O O O O O O O O O O O O O O O O O O O O O O O O O O O O O O O O O O O O O O O O O O O O O O O O ",
"O O O O O O O O O O O O O O O O O O O O O O O O   q V.V.@ 9 H H H @ R Z.k.@ [ @ R.Z.k.o.0 O O O O O O O O O O O O O O O O O O O O O O O O O O O O O O O O O O O O O O O O O O O O O O O O O O O O O O O O O O O O O O O O O O O O O O O O O O O O O O O O O O O O O O O O ",
"O O O O O O O O O O O O O O O O O O O O O O O @ R.[ q [ ! H 0 q W O.k.! O V.k.  { J 7 O 1 O O O O O O O O O O O O O O O O O O O O O O O O O O O O O O O O O O O O O O O O O O O O O O O O O O O O O O O O O O O O O O O O O O O O O O O O O O O O O O O O O O O O O O O O ",
"O O O O O O O O O O O O O O O O O O O O O   ! M.1 o.q   O 0 0 q W W R W M.o.O R.O O O O O O O O O O O O O O O O O O O O O O O O O O O O O O O O O O O O O O O O O O O O O O O O O O O O O O O O O O O O O O O O O O O O O O O O O O O O O O O O O O O O O O O O O O O O O ",
"O O O O O O O O O O O O O O O O O O O O O W.R R.R O 6 q 0 H R Q ..+.O.W { R W.Q V.M.  O O O O O O O O O O O O O O O O O O O O O O O O O O O O O O O O O O O O O O O O O O O O O O O O O O O O O O O O O O O O O O O O O O O O O O O O O O O O O O O O O O O O O O O O O O ",
"O O O O O O O O O O O O O O O O O O O O [ H Q.O @ H H ! Q H q R [ k.m.O.W { { V.[ Z.O O O O O O O O O O O O O O O O O O O O O O O O O O O O O O O O O O O O O O O O O O O O O O O O O O O O O O O O O O O O O O O O O O O O O O O O O O O O O O O O O O O O O O O O O O O ",
"O O O O O O O O O O O O O O O O O O O 6 M.W.  1 6 Q q @ 6 H R ! o.+.O.R O.O.{ O.R.H R.  O O O O O O O O O O O O O O O O O O O O O O O O O O O O O O O O O O O O O O O O O O O O O O O O O O O O O O O O O O O O O O O O O O O O O O O O O O O O O O O O O O O O O O O O O ",
"O O O O O O O O O O O O O O O O O O   R.0 q @ q ..q q [ Q q q 6 o.m.k.O.{ O.O.O...R.6 ..O O O O O O O O O O O O O O O O O O O O O O O O O O O O O O O O O O O O O O O O O O O O O O O O O O O O O O O O O O O O O O O O O O O O O O O O O O O O O O O O O O O O O O O O O ",
"O O O O O O O O O O O O O O O O O O R R +.O q ! 6 0 ! @ 0 ! 6 0 ! M.W { m.{ O.M.V.M.Q R.  O O O O O O O O O O O O O O O O O O O O O O O O O O O O O O O O O O O O O O O O O O O O O O O O O O O O O O O O O O O O O O O O O O O O O O O O O O O O O O O O O O O O O O O O ",
"O O O O O O O O O O O O O O O O O   W.H 6   R q 0 ! 6 ! H     O J W +.{ { V.M.R.Z.M.W.1 k.O O O O O O O O O O O O O O O O O O O O O O O O O O O O O O O O O O O O O O O O O O O O O O O O O O O O O O O O O O O O O O O O O O O O O O O O O O O O O O O O O O O O O O O O ",
"O O O O O O O O O O O O O O O O O Q V.[   @ [ 6 [ 6 Q O   0 6 q O.{ W M.V.Z.R.Z.W.R.R.q 1X  O O O O O O O O O     O O O     O O O   O O   O O O O   O O     O O   O O O     O O O O     O O   O O O O   O O     O O     O O O O O O O O O O O O O O O O O O O O O O O O O ",
"O O O O O O O O O O O O O O O O O O q ! O q q 0 q 0 0   H     O W { k...R.V.W.Z.W.W.Z.M.Q O O O O O O O O O   sXNX+ O 1.AXOX  ^ ,.HX#.  ).dX$.t ,.CX  7 CXsX    XX  O $.AX#X  O O   tXCX#   +X  ,.r   XX  b.sX+X    %XAXy O O O O O O O O O O O O O O O O O O O O O O   O ",
"O O O O O O O O O O O O O O O O O O Q 0 0 Q q ! q ! q 6     +.W.O.O.M.Z.W.W.Q.Q.Q.Q.W.R.1 O O O O O O O O O }.+X# HX  PX  NXe ,.kX  IX  AX# + r CX,.$XHX  +X+XO AX    UX  ZXe O O ^.,X  PX  PX  7X1.  HX  mXr tX/.$.dX  IX  O O O O O O O O O O O O O O O O O O O O O O O ",
"O O O O O O O O O O O O O O O O O @ { @ 6 R 1 R @ R 6 1   q V.Z.Q.M.V.Q.Q.Q.Q.Q.Q.Q.Q.Q.1   O O O O O O O O XX[.O #X  AX  dXr D.$X  JX  CXO O ^ tX    HX  ^.+XO CX    NX&.b.+ O O /.+X  2   HX  %X,.  AX  jX# }.}.$.wX  KX  O O O O O O O O O O O O O O O O O O O O O O O ",
"O O O O O O O O O O O O O O O O O 1  .@ q Q 0 Q 0 ! q !   q Q V.0X5XQ.1X1X1X1X1X1X1XQ.:X1   O O O O O O O O XX[.O     AX  fXr b.%X  JX  CXO   ^ pX    HX  /.+XO CX  +   HX>.O O O /.).BX7X  HX  %X,.  AX  jX# }.}.y PXlXsX  O O O O O O O O O O O O O O O O O O O O O O O ",
"O O O O O O O O O O O O O O O O O @ { @ q Q 0 Q 6 Q q @ R Q k...6 R Q.0X5X1X1X1X1X1X1X:X#   O O O O O O O O XX).O $.  AX  dXr b.%X  JX  CX  dXy pX    HX  /.+XO CX    wX  KX# O O /.+X  HX  HX  $X1.  AX  kX2 [.}.$.wX  ^ O O O O O O O O O O O O O O O O O O O O O O O O ",
"O O O O O O O O O O O O O O O O O O Q 0 6 R 0 R 6 Q @ 0 0           O O V.5X0X5X5X5X1XQ.1   O O O O O O O O [.wXy ZX  IX  AX# ^.wX  PX  HX# CXP dX    HXr ,X}.  HX$.  UX  jX$.O O D.eX1.AX  PX  CX;.  KX  mX;.jX1.y MX# UX  O O O O O O O O O O O O O O O O O O O O O O O ",
"O O O O O O O O O O O O O O O O O O q ! @ H Q q Q H 6   o.q 0 H   1 6 @ 0   H Z.0X0X5XM.{   O O O O O O O O   $XdX  + #.jXb.O e #.  ^.O + jXO # -.O O O dX%X    }.,Xr r hX}.O O O   %X#Xe O 7 mXe t O 1.  $.%Xb.  O ).jX# O O O O O O O O O O O O O O O O O O O O O O O O ",
"O O O O O O O O O O O O O O O O O R R.[   0 Q @ Q @ @ 0 @ H Q 1 0 O   q   6 q 6 O q 1X0 5X  O O O O O O O O O O   O O O O O O O O O O O O   O O O O O O   O O O O O O O   O O O O O     O O O   O O O O O   O O O O O   O O O O O O O O O O O O O O O O O O O O O O O O O ",
"O O O O O O O O O O O O O O O O O   R.q 6 0 H Q 0 [   q ! q 6   O @ q     H 0 [ H O W H Q O O O O O O O O O O O O O O O O O O O O O O O O O O O O O O O O O O O O O O O O O O O O O O O O O O O O O O O O O O O O O O O O O O O O O O O O O O O O O O O O O O O O O O O O ",
"O O O O O O O O O O O O O O O O O O H [ +.  q Q q O q 1 6 R ! q ! R 0 0 q 6 Q q @ @ R R.  O O O O O O O O O O O O O O O O O O O O O O O O O O O O O O O O O O O O O O O O O O O O O O O O O O O O O O O O O O O O O O O O O O O O O O O O O O O O O O O O O O O O O O O O ",
"O O O O O O O O O O O O O O O O O O   R.@ [   0 R     H Q 0 6 0 0 H Q q 6 Q q q   V.R Q O O O O O O O O O O O O O O O O O O O O O O O O O O O O O O O O O O O O O O O O O O O O O O O O O O O O O O O O O O O O O O O O O O O O O O O O O O O O O O O O O O   O O O O O O ",
"O O O O O O O O O O O O O O O O O O O O V.Z.@     6 6   q q Q Q Q H 6 q [ q H O M.H R.  O O O O O O O O O O O O O O O O O O O O O O O O O O O O O O O O O O O O O O O O O O O O O O O O O O O O O O O O O O O O O O O O O O O O O O O O O O O O O O O O O O O O O O O O O ",
"O O O O O O O O O O O O O O O O O O O O H [ R.6     O q Q @ 0 6 0 q R H 6 6   m.Q Z.  O O O O O O O O O O O O O O O O O O O O O O O O O O   O O O O O   O                       O O O O O O O O O O O O O O O O O O O O O O O O O O O O O O O O O O O O O O O O O O O O O ",
"O O O O O O O O O O O O O O O O O O O O 1 Z.o.M.[   O   @ O 0 Q R H q H @ O Z.H Z.V.  O O O O O O O O O O O O O O       O O         X             X                       O         O O O O O O O O O O O O O O O O O O O O O O O O O O O O O O O O O O O O O O O O O O O ",
"O O O O O O O O O O O O O O O O O O   O O   q Z.O o.R     O 6 1 1 @   @ o.! 0 R.    O O O O O O O O O O O O             X @         X                             .     O             O   O O O O O O O O O O O O O O O O O O O O O O O O O O O O O O O O O O O O O O O O ",
"O O O O O O O O O O O O O O O O O   1X[         M.M.1 ! ! Q R H R ! [ R 1 R.[   O O O O O O O O           X             . #         $ .     . . . $ .   . .       .     X     . .         X   O   O O O O O O O O O O O O O O O O O O O O O O O O O O O O O O O O O O O O ",
"O O O O O O O O O O O O O O O O O   5X1Xk.R.Q O o.@ k.R.O 6 6 6 6 O [ Z.[   O O O O O O O   O @ O O O     0 3 O         . 6 O   O O .         . . .                     .             .   X X X       O O O O O O O O O O O O O O O O O O O O O O O O O O O O O O O O O O ",
"O O O O O O O O O O O O O O O O O O Q.O O.M.q V.  O O   V.Q.Z.R.Z.5X    O O O O O O O         @ < @   O   6 1 O           >     O O   O < O < O             O         O . O 3 O   O .     $   X         O O O O O O O O O O O O O O O O O O O O O O O O O O O O O O O O O ",
"O O O O O O O O O O O O O O O O O O 0 q q q H   O O O O   ! R R Q 1 O O O O O O   X O O       @ @ 0 O O O 8 8 X           =   O X   O   C O @     O O O O   O O O O   O + 3 I     O O     . $ .         X @     O O O O O O O O O O O O O O O O O O O O O O O O O O O O O ",
"O O O O O O O O O O O O O O O O O O O O O O O O O O O O O O O O O O O   X     X   X           # # 9 O O   , u .           %     .       8 X * O O O O       O     O   X   = a     @         . .     . . * *   X @   X O   O O O O O O O O O O O O O O O O O O O O O O O O ",
"O O O O O O O O O O O O O O O O O O O O O O O O O O O O O O O O O       X     X   . $     O   $ & -   X   & u .           .     .       a . $               O   O     @   s a   O X                   . u X   . X   *         O O O O O O O O O O O O O O O O O O O O O O ",
"O O O O O O O O O O O O O O O O O O O O O O O O O O O O O   @ O X O                 . O O   O . o & .     $ % .                     O O = . .                             $ . O 3                       % .   o X   X                 O O O O O O O O O O O O O O O O O O ",
"O O O O O O O O O O O O O O O O O O O O O O O O O @ O O O   @ I . O     O     O O     < O       % % $ O O . .   O               O O O   X   .         O O                     O 4 3 3 S 3 O       O     <   < 5 .   .   O O O O O       O O O O O O O O O O O O O O O O O ",
"O O O O O O O O O O O O O O O O O O O O O O O O   *   X       ( O O     O     O X     O @       +   O O O O     O               O       .                             .       X * O 1 I I < O     O   O O   0 . .           < O           X   O O O O O O O O O O O O O O ",
"O O O O O O O O O O O O O O O O O O O O O O O     =   *       3.; O O O <   O < @ O O O 6 < O O O   O O O             O O             .                                       o o X = s 8 < < O O O   @     g               X @ O       X X     O O O O O O O O O O O O O ",
"O O O O O O O O O O O O O O O O   1.>.O &.}.X $.  t t }.7 O ^.`.* }.O O O #.  + r   #X$.1 b.'.  r }.r O I S < C < O O                                                         . $ . u - a X O O O O O O     *           . X X       O     O O     O O O O O O O O O O O O ",
"O O O O O O O O O O O O O O O O   CXwXy HX$.+ UX2 <XcXy AXe sX$.;X'.AX    HX$.tX#XuX#.MX  xX`.+XkX$.#   0 4 3 I I I 3 C           O <                   3 O     3                   u i u   X O O O S O   X   O           $       3 3   O 4           O O O O O O O O O O ",
"O O O O O O O O O O O O O   X   O kX#X#.AX%X# sXOX%XgXO jX+ CX}. Xb.BX    eX+XeX+XsXO sXO sXe wXtXwX#   a a * s f 8 O 4   O O O O   O                   1       @                   . $ $ $ .     O ; O                       .   ; X O @ X     O   X O @ O O O O O O O O ",
"O O O O O O O O O O O   O O X O   jXCX  cXO 7 @XxXOXgXO fX# ;X# +X8X@XO   dXqX^ wXsX  tX  tX# wXsX      u u . , - a X =         3 < X                   -       -                               . @ a       O O                   =   O ; . O O O     * X     O O O O O O ",
"O O O O O O O O O O     O < O @ O fX}.^ AXsX# eX%X XuXsXgX# HXpX}.^ NX    jX  # tX^.sXMX  JXMX$.uXtX1.  $ % . u i i . %         ; X   O < O             X       X                                 o u         C <                 .   X .   O O       o O       O O O O O ",
"O O O O O O O O O O O   O ; X O ;   O O       .   2 < O   #       o   O O   O O   O   < o     .               . $ 5 . $ O O C   o X 3   O O O O                               O O               . . . O     O 4 3 3       O <         .   O 3     O < 3 O O     O < O O O ",
"O O O O O O ; O   O O O O X o   o . O < O O O   + @ , - * O O X X   =                 D O .                       < O   O O A   $ . 4   X X         O O O                     O O               . .   O     1 f X @ < O   O O       . .   O O     @ 1 0 O O <   * X O O O ",
"O O O O O   = * X @ @ O   . u O       7 O O O O O X = & %     X     $                 j =         O               X     O   m       d   $ .         O < 3 O O                 X                             - & X X @ <   >             O * . O   X a + @ 4 O X = *       ",
"O O O O O O   * X O o     O + O O O O O O O O X O O $ % %                             X o                         X O   O   -       X   . .         X   @ < S O O                                           o $ %   *     O O           X   O     . o X < >   o .         ",
"< <       @ O + O   .     < O X O O O   O O O O                     O                 O .       <       <             O     o                     O .   * * =   < < O     O                                     . . .     O I I               O   5 $ X 2 % < O   3 .     ",
"@ 1 O O O 1 + O O O   .   < 1 O O   P b.1.1.1.b.1.1.1.1.r         e b.1.1.1.1.b.1.1.1.z.  O     S       S O         O O                           O O . $ & o   *     O   S O   O                                   .     X } g.S O   O         O <   @ :   4 O O O   O O ",
"j X a O @ O 7 @     O O O O * @   }.y O O O O O O O O   &.1.    ^.$.O O .     X   O . *.}.      M       f X                                               $ $   .         f   O                                       O   * 7.f I S           < @ O O &   X X 3 a   O O * ",
"o & -   @ O @ X       O O O 4 @ ;.r X     O               =.# y $.    X       *       * n #.    a       * X                                               .     $ .       =   O O         O O                             p l s g 1 O 3       @   O . $   * @ 4 @     *   ",
". $   # O @ O X O   O O O O @ O ).        O O O           O >.1.    O             O O     ^.    o       . X                                               .               .     <   O       O                             & i i d X O S O   O X     .       ; @ < O +     ",
"O   @ < 3 X 3 S   O O O O O   X '.    O O O O   O     O   O >.1.          O   3   O   O   ^.                  #       >.O O         e             .       O #             <       O         C O             O           O + . 5 i   * *   O I             . & @ < O       ",
"O O C C 6 X   M   O       @     ].  O O O O O AX  O   O   O >.1.      O     KX    O   O   ^.                =.dX      NX  O       # HX              HX    ).tX            O   .           . @                           O     ; .   &     a @             . O X X     O + ",
"< 3 3 b * * O a * O       O     (.    O + O PXMXPX  O     O >.1.      O     LX    O       ^.                $.fXjXy   }.    lXsXe o CXsX1.        rX>.O   1.wX  }.BX;.O +X  wX. 1.y     >.^.;X7 NX%X  e CX%X            X   O X     u     d   O               X       O . ",
"< A @ j X %     %   O   O   O   ^.O   O   UX  KXe KX      O >.1.        AX  PX  HX        ^.                #.MX  PX  PX  MXy }.wXO PX  IX        UX      1.wX# CX  IX  UX  PX$.CX#     wXqX  PX  jXy UXO #.                X     .     . . O                         X < ",
"@ * * o % O O     O O O O O   O /.  O O O     KX    < O   O >.1.        # KXhXCXn         '.        O       $.sX  IX  PX  AX2 }.%XO SX  PX    O 1.wX  O   1.wXy lX  PX  HXy #X+XPX  < O tX:.  PX}.UX  MXmX1.    <     O       <     O O   .       O   O   O     3 O . O I ",
"O X & . . O O     < O   O O O O '.  @ O O     IX    O <   O >.1.    O   S # UXy <         .X        <       $.dX  PX  PX  CX< ^.%XO SX  PX  O O CX    3   1.wXy jX  PX  tXwXr uXCX  3 O iXu.  IXr   #   # PX    <     O       <     O O           O 3 O   X   < =     x   ",
"O   $ .     X   O @ @ O O O < O `.  X < O O O # O     =   O >.1.        *     O X X   O   |.        X       &.jX  UX  IX  ^.JXHX+Xo KX  IX    # CX    =   /.tX  IX%XCX  >.UX  AXeX  a   pX_.  dXpXNX  uXwXHX    X           X X     X             @ @ O       ;     X *   ",
"X O O O O < S < O @ @ O O O @ O ).  X X X             O   O >.1.                          `.                    O   #   O #   1.wX    #   O           X       o   #.  O     o       o     .     n O #   #.  O                                   . X X O <   X       X     ",
": O O < 3 3 A 4 O < @ @ @ < C 1 >.#   . $ .           O 3 $.y #.y                     O e =..                             y ZXAX                      O   .                                   $                                       O         O $ O 1 O           O   O ",
"T 3 < @ 1 @ = f @ 3 C O < < @ *   +X#                   t [.    .XP                   # +X      O O                                   O O       O         3       O O                             .     3                             O         O   4 @                 O ",
"& * ; O @ @ O i & @ z < @ @ X o +   >.^.^.^.^.^.^.^.^./.$..     X :.^.^.^.^.'.^.^.^./.-.                                                        O         @       X O                                   X                           X           X   a .               O   ",
"% * @ @ @ + @ + + @ ; @ @ X . $ O O                       $     X -         O < < O                                     O                                 -                                                                                                           O   ",
"% O O O @ @ @ @ < 1 < @ X     O O O                             . i .         = X X     C 3   O                     O                                     .               O                                     O                               O       O     O           ",
"$ 3 @ @ O @ @ @ < @ X X O O O O O O O       O O     O O   O   O O     O O     &     O   @ 8   O O O         O           O       O O                                   O       <         O         O   3 O O C     C 3       < O C               O O O   C   O O           ",
". 4 1 @ @ O @ @ @ @ X O O O O O O O O O     O D       O   O   < O     O 3     . . $       , O   O   O O O         O     S       O 3                 O                 O       3         <         O   A     A     0 I       @   1               o     X X   O             ",
"+ O ; @ @ @ O O @     O O O O O O O O O       a     O     O     *       >       O         i       O   O < I O         O =         =                                   X     X =         =             a   X *   O j q O     - X                 X     o                   ",
"O O O @ O @ O O   O O O   O O O O O O O         .                       X                               X f O O         X                                                                             .           i *     .   .                                           ",
"O O @ O O O O     O O O O O O O O O O O O   O                                 O       O O               . ,                 O                                                                   O                 i .   O       O O   < <     <     O     C O           O ",
"O @ @ 1 O   <   O O O O O O O O O O O O O O O                       O O   O <     O O O   O         O 3 3 u .       O     O O               O       3                       < O         < O     I C       <                     <   O G 3     <         X q             @ ",
"O @ @ @ X     O O O O O O O O O O     + O y   O O O O . O y # e # #     r + X $.    #.# O O O O r e   G < O         O S                             @                       *           X     X d X       X                     X   * k     X           d X             * ",
"O @ O X       O   O O O O O O O   #XmX  KX}.sX).1.AX  AX$.tX^.1.PX#.  tX%X# ZX}.$X%X$Xy AX  CXy uX}.  a = X           H 3   .                       X                       *           X     - X                           O O     X                   $             . + ",
"O O O     O O   O O O O O   O O   dXeX  mX  mX,.>.kX  mX1.wXO   hX    eX^.# tX  tXsX    mX  hX&.tX  O .               - G O                                                                   $                               O                     < O       O O       + ",
"O O O   O O O O O O O O O O O O   KXmXe mX  mX,.>.kX  kX  &.KX  hX    eX/.# tX  tXsX    mX  hX  $.KX                  u - O                               O O                       < <                                               C <           g.<       < O     O O ",
"O O   O O O O O O O   O O O @ O ,.%X#.%XHX+XtX,X>.kX).mXr }.CX  NX    dX#   AX+X#X%X+X$.dX).CX# XXZX  O       O     O   T O O                 <       O   < C   O O   O O           K < O O           O O O                 O   O O   x           * 7.        *     O O O ",
"    O O O O O   O   O O O   *   O   O O O r   r o   &.  O $.  # . O   O O O   #.    $.#   &.    &.  + O                 > .               O   *           * * O O               O   3.                O O                   O   O O   *           , X             O O O O ",
"  O O O O O O   O   O O O O   O O O O O O         O                                               o                   O X                                                           u                                           X   .             .       O O     @ < O O ",
"  O   O O       O O     O O O O O O O O           O               O                     O           O                                                                                 .                               O       . .   O O                           1 3 @ + ",
"      O     O O O O O O O O O O O @ O       O O O O O O O     O   O O       O           O O     O <   O                                       O O     O O         O O   I       3                   O       O O     O <       O     X                             1 4 4 < ",
"O     O O O O O O O O O O O O O O X         O O       O O   O O   O O                   O O     @ 1                               O           X @                 X     M       >                   O               *             .   O                         O @ 6 4 < ",
"  O O O O   O   O O O O O O O O O   O #.P P y y P P ^ P       X     #.P P P P P P P P           X a                               O O         X X                     X -       X                                                 .     O                       O + ; 0 4 ",
"  O   O   O         O O O     O   >.1.r y y y y y y y y [.y     #./.y y y y y y y y r ^.&.        .                                 O                                 . .                                                           O                 O O < < O 3 3 1 G 4 ",
"O O O O O O S O O O O O O < < O ^ $.O O O O O O O O O O   /.O # ^.            O   O O O ;.e O       O   O                             O O     O O         O                   O O   O O O       O   O < 3   3 <   O O   O O   O   < g.O S O   O O O O < I D S @ K 4 6 0 0 ",
"X O O O @ O L ; O O O O O < A O /.  O O O O O O O O < C   2 b.1.. O 3 O O O O I 3 O g.I C '.< O < C I g.g.I O     O S 3   O < O O O O < g.S 3 3 S < O O O 3 3 O O O O O       @ O O O O O O O     O O 1 0   0 O   O               6.x * = O           a a a X , a O : ; r ",
"&   O   X . * h     O O O   = X ^.      X     o   O   = X X i.1.    - X X O   X a   6.s = `.X X X * j 3.3.s X       = =     X X     O X 6.c X = a X   X X =   : O     X       X     X             O X , X . ,                 O . V . u       . .   $ i u u . i O 1 # @ 2 ",
"T         .   % $ O O O     $ % ^.      O # eX  hX  O $ % O ,.1.        . y AXsX%   o u u _.$ .   $ i i i i $       % u     . .       . p T . % u   AX  .   KX+X    . .       $   . .     O O       . u . $ $                 @ . . . .                     @ O 1 @ @ @ 6 ",
"G 4   O O   O O O   O O   O     ^.          BX,.%XO   O   O ,.1.O         MX    o     .   ^.        . . . . # e ;XO + O %X$.O e #X&.  e O |.      +X).    y KXr # +X^.  #   }.                      O O                         O       3 O O O O           @ @ @ @ @ @ 6 ",
"G G O   O O O   C O O   O       ^.  O   C O O UX  O O   O O >.1.O   O     MXO       O     ^.O 3             #.JX-.KX  KXP LX# ).-.KXe +XVX2.      PX      &.LXF =.1.mXv.$.PX1.        O     O C   < C C                       < O       K X     3 O       O @ @ @ @ @ @ 6 ",
"H G K   O O O     f       O     ^.  O   O f ^.PXe ;   O O O ,.1.O O O     mXO       @     /.  W             $.cX  IX  PXr UX  O +XAXy #X).    O y jX      O HXO   }.hX|.$.tX                g X   m   =     O                 *       d X X     * 3       @ @ @ @ O @ @ 6 ",
"G G K q     O O O     O O   O   ^.  O       UX  HX  O   O + ,.1.O O       eX}.).    X     ^.  3.  O O       $.xX  PX  UX}.n   PX#.hXy #X}.      kXr       O JX  NX^.%X|.$.sX              O -     ,                       O O         $       % * 3 3     @ @ O @ @ @ @ 1 ",
"G G K K 1   O O       O O   O   ^.  O O O # 7 O y O O   O O >.1.O O         /.1.          ^.  $             &.kX  UX  LX1.qX  PX>.PXy %X+X      PX        O PX  NX).mX_.>.dX                  O             O O               O               . $ = 3   O @ @ < @ S < C 4 ",
"K K G K L @ O O   O O 3   O   O /.  O O   O   O         O O ,.D.  O O                 O   ^.  O             O e   y O   #X&.O O $X# + # #     # 7 O         y O   #X: # O e                     O O O       O O           < 3                   $ ,     C A D 4 * R O 8 * ",
"G Q G K K K   O   O @ C @ O   S {.  O O O O   O O       O y #.&.2 O   < O             O + 1.  O       O             O O   O             <       O O O     O O         O O   O O   O           O   1 O         O   O       ; ;                   . $ O   E 8 > O - X @ @ @ ",
"G Q K G H 8 *       X   k       j XX            X       O +X    @X                      +X            O               @   o             X O     X   O   O   X             O O                   O d           O           X                 O O       G H @ O @ O @ O @ @ ",
"K G q 8 9 , %   O O O           .   [.^./.^./.^.^.^./././.  O O   ).^.^.^././.^.^.^./.).  O                           O                     O       3 <       O         O O                                   O                           O O O   O X c.4 @ @ O @ @ @ @ @ ",
"q 8 9 e e & .     O O         O                         O O                                                             O                           * @                   .                 O O           O   O                 O O         X   O   y.z K @ @ @ @ @ @ @ @ ",
": e e 4 @ . . O     O         O       O O O   S     O < O     O O O O O         O O O                                 O           O   O O           %   O O         O O O     O <           O O       O O     O                 O         O O   O ; M x C X @ @ @ O @ @ @ ",
"5 2 4 6 * .   O             O O   O     O     1 X O   O O O O O X   O O         O                                     O           @                     O @         O         X O           O         X                                   O O O   ] 5 h O   X O @ @ @ @ @ ",
"< 4 0 * .     O   O   O   O O O O O O   O O O X X O O     O     X   O O O           O     O                           O           X                     < X                   o                             O O O                   O   O X O   U [ 5 + O       O @ @ @ @ ",
"4 4 0 * .     O O O     O O O O O O O O O O   O   O O O O             O O           O O O O                         O O O                       O       4 O     O O                                           O O           O         O     O X e.6 O O   O       O @ @ @ ",
"A G * . . O O O O   3       O O   O O O O O O   O   O O O         O O O                 O             O             O                     O             - O                     O         O O   O         O O     O O O   O       3 S         o.K O D   O           X @ @ ",
"6.0 * . O O O O O O A >     O O   O O O O O O O O O @ I       O O O O O   < C   O       O <   O   O O       O O   O   S O                   O C       O $ 3         C           C         ]                 @     O X     O O O   6.  O O O q c.4 z 4 <                 O ",
"q - o . O   O O   O   d     O O   O O O O O O O O     k     O O     O O     6.  O O O O O *   O O O X O   O X         m X                   O =     O     H     O   *         X X         k               X   O     X   O         X O   O   I.! O f X <     O   O         ",
"0 o .   O O O O   O   O       O O     +         +     .           O       O   O     O   O   O   O     O   +     +               O   O O     o     O   O   ,       O                       .               O   O         O   O             O.` 6 1 @ : O   O     O O       ",
"* .   O O   O   O O O       O O   CXrXO HXrX).&.  HXsX  CX%X+XHX1.  ).hX1.# PX  %X}.e CX      dX  ).^.  jX# NXeXO tXy +XhXAXe     fX  r CXNX# NXhXy tX#   % O                       O                         O   O O O     O     O O O X B.0 ; @ O < < O       O         ",
"* . O O O O O O O O O O O   O   $.wX  y $Xo #X;.  jX# >.}.    dX    jX    #XwX^ +XsX).sX  O ^.^.  ).^.  kX[.$.  # tXy wX#.+X  O 1.).  }.$.>.1.kXy +XpX# O   O                   O O   < O                 O <   O     O     O O O O     0.8 @ 4 X X f     O               ",
"o   O O O O O O O O O O O         }.KXO CX}.}.;.  HX%X$.+X    hX    fX1   kXb.$XwX[.eXtX    hX    ).^.  kX).#.HX  AXwX$X$.#X    hX    XX,.1.1.NX%X^.tX# O   O                   O O   >   O               X   O     O           O     @ H 6 0 @ @ + O         O O       O ",
". O O O O O O O O O O O O O     + &.hX# dX&.+X}.O AX$.y tX^   NX    sX*.  SX#.BXtX  # CX  r eX    [.#X# CX,.+XsX  dXy tX-.,X  # tX    ^.#X%X;.AX>.wXhX#   O O O               O     O     O             O     O           O O O       L K @ G O @ O 3         O O   O O O ",
"  O O O O O O O O O O O O O O     +X&.  ^.).  ).y &.}.O 1.}.  y   O   #X^ r O y e   O y   e O O     ).$.y   [.D.O r O r O e O 7 +       ).).  $.[.  ^.  O O   O               O     O O                       O       O O O O       q c @ ) 3 O @ ; K     O         @     ",
"O O @ O O O O O O O O O O O O     O O O   O     O O O O     O   O O O       O       O O O             O             O   O   O O   O             O O     @     O O O               O   O   O       O O O       O O     O O   O   O   { @ o - @ @ O r C   O         O       ",
"O O O X O O O O O O O O O O O O   O O O O O 3   O O O O O O O O O O   D 3   O S O O O O O O   O 3 O O                 O O O         O O   O O     O O O . 3 O   O O O O   O O O     O   1 O       O O         O O     @ O   O O O ] K O < O O O @ d 3     O               ",
"O O O O O O O O O O O O O O O O     O     O X O   O O O O O O O O O O * k O   m     O O O O O   @ * O O O   O       O O O O         O + O O O O O O   O   -     O O O O         O   X O *           O O     O O O O     O O   @ 1 +.q A 0 < O O + u               O       ",
"O O O O O O O O O O O O O O O O O   O O O O O   O O     O   O O   O O O $ O O O O   O O O O       O   O O O       O   O           O         O O O   O           O       O O   O   O         O O O   O       O O O O O   O O X   O.f 1 N * @ O @ < < O O                   ",
"O O O O O O O   O X   O O O O O O     X O O O + O O + + + + O X + O O O O + # + O O X   O         O     O O O O   O   O O O O   O O           O O   O O   O     O O O   O O O   O O O   O   O O O   O     O O O O     O   O   q 0 1 7 O @ O O O X W O                     ",
"    O             O O     O O     r [.>.,.,.>.,.,.v.v.>.,.,.b.,.,.,.<.,.,.,.,.,.,.>.,.XXe O   O     O O O O O O O O O   O O     O O O       O O O   < O O O O     @   O O O   3 3 O             O   O       O O h.O   O   O @ x.4 0 3 O O O O @ # X O O   O               ",
"  O O O O O O O O O O O   O @ O 7 ^.  O O O       O 0.    O O x     @     O O O O   O H ).O O O   O O O O O O O O O 1   < 4 O     O O     O O O     q O O O   O   @ O   O O O x ; O O O O O O   O O O O O O O d s     O     y.k.@ c 1 D < @ O @ O O O O                 O ",
"O O O O O O O O O O O O O   O   /.      O O O O O   o . O O   o   O   O   O     O     l   ^.O O O O O O O O O O     X O   -   O     O O O O O O O O *   O O   O   O O O O O O X   O O O O O O O         O O X . O       X X a.0 6 @ > ; 6 G I 3 O O     O O O O       O O ",
"O O O O O O O O O O O O O O O   /.  O   O O O O O O O O O O O O O O O   O O O O O O       ^.  O O O O O   O O O     O O     O     O   O O O     O O O O O O O O O O O     +   O O O O O   O O     X       O O O   O O   O 6 R O q O + O : f z 4 U S     O O         O O   ",
"O O O O O O O O O O O O O @ O   /.  O O O O O O O O e r $.O e O   $.  # O O O O O O       ^.        O O     O   O   O O O O   O O   O O O O ^.#X  O     O O   O O   @ O     NXO O O         O O     PXy O O X @ O O O     R 4 6 4 O 6 O + & : # B <     O         O O O O ",
"O O O O O O O O O O O O O O ;   /.< X @   O O O   D %.KX}.$.UXO #X,XSX    O O   O O O O   ^.          O 3 O   +X^ 2 O $.  #   $.  +   ^ e   ).%X  2 %.  O O   r 7 +   y     KX    y O O   #.#   uXv   +   y : + O   $.    M.O [ @ @ X O O O @ $ & O             O   O O   ",
"O O O O O O O O O O O O O O O O /.  @ X   O O O O   = dXO rX}.b.+X1.MX  O O O O O O @ =   ^.  O O O   O * o O IXtX  IX%XMX  KX@XUXO pXtXHX).).%Xr PXuXtX    [.NXmX  dXrXIX: KX  sXtXIXe jXeX+X+XPX#.HX# wXpXAX%.[.AXtXsX* E : > @ @ @ @ O O @ @ O O O O       O O O   @ O ",
"O     O O O O O O O O O O O O   /.  O O O O O O O     dXO CX[.eXXXXXkX  O O   O O O O     ^.    O O O O       NX# 1.wX  UX  HX  JXO KX  %X).).%X+X[.r ZX    hX^.    IX  dX$.KX  IX  dX#.IX  O : mX  AX+ KX  i.wX}.+X  SX@ < 1 O @ @ @ @ @ @ 1 @ @ O   O         O O O @ O ",
"O O S O O O O O O O O O O O O O (.  O O O   O O O O   MX  AX7 HX}.}.HX  O O O O O O O     ^.  O O O O O O O   NX7 1.eX  UX  JX  JXO KX  ,X).).%X[.CXdXO O O   sXUX# JXpX+X  KX  HXpX+X  IX  O e MX  AX+ JXO (.wX}.#X# AX0 O G < D O @ @ @ 1 1 @ 1 <           O O O O     ",
"    R k   O O O O O O O O O O O (.  @ @ O O @ O O O O r 2 e O y O /.# + O @ O O O O O     ^.  O O O O O O O   CXe #.jX  UX  UXy UX  BXi.NX^.[.,X/.wX# #.O O t + sX$.KX+ $.O KX  KX# $.O PXO e e BX  AX# AXr #X+X}.%X+ KX< O z g 1 < < @ @ @ @ @ ; O       O   O ; O O   O ",
"      o O O O O O O O O O O O O (.  @ @ O O O ; O O O O @   O O O O O O O O O O O O O O   /.  O O O O O O O O n jX@ +XmXr X r }.AXo   +X#X}.P ;.  wXjX$.O O <.kX#X  7 mXeX  XXO # mXyX  e mX#X  pX-.}.O O jXrX  $.&.O oX< 4 4 O 1 L 4 @ 1 @ 4 4 3     O O O O X @ O   O O ",
"  O O O O O O O O O O O O O O O (.  @ @ @ O O O O O O < @ O O O O O O O O O O O O O O O   ^.  O O O O O X O 0 O   d         tXeXIX  /.sXPX^ O O @ O   O O O O O O O @   O @ O O O     O O   O @   O O O O O O 1 O     V.O O.O @ : c 1 6 D 6 G ] S   S O O O O X 6 O O O O ",
"    O O O O O O O O O O O O O @ # ).O @ 1 X O O O O O O X O O O O O O O O O O O O O O   }.O O O O O O O O O X   O O O O   O   y   #   e # O @ @ @ @ O O O O O O O O O O O O O O O O O O O O X O @ O O @ O @ @ @ @ O a _ * [ @ ; 9 0 4 q q 0 e w.3 a f O O O O O   O   O O ",
"g   O O O O O O O O O O O O O @ @ r }.b.S.D.1.1.1.1.1.1.1.1.1.1.1.1.1.b.1.1.1.1.1.1.1.}.7 O O   O O O O O O O O O O   O O O O O O O O @ @ @ @ @ @ @ O O O O O O O @ O O O @ O O O O O O O O O O O O O @ O @ @ 1 O   c 3 x 4 @ 8 @ 6 ; & @ 6 u , O   O O   O O O O O O O O ",
"- . O O O O O O O O O O O O O @ @ 1 O O < | X O O O 3 O O 3 O O O O O O X X O O O O O   @ O O 3 @ @ X O O O O O O O   O O O O     O O O @ O X @ 3 C   O O O O @ O O O O O @ O O O O O O   O @ @ O @ @ @ O @ ; @ O   l.O 8 O @ 1 1 @ @ @ @ 6 + O O O O O O O   @ O O O   O ",
"O   O O O O O O O O O O O @ @ @ @ @ 1 1 G c h O X X X ; O = @ X O O O O @ @ @ O O O @ O O O O 6 @ @ @ 4 @ O O O O O O @ X 1 4 O O   @ O O O O O N g O @ O O O @ @ O O O O O @ O @ O O O O   X O O @ @ @ @ @ ; @ O a +.O D @ @ 4 1 @ @ @ @ 1 1 O   O O O O O O O X @ O O O ",
"      O O O O O O O @ @ @ @ @ @ @ 1 1 0 q H #   O @ O O O O O   O O @ @ @ @ @ @ O O X @ O O O O @ O @ 0 X O X X O O O @ O @ ; O O O O O @ X O X X O @ O O @ O @ @ O O O O X 1 3 O @ O O O O   @ @ @ @ @ @ @ @ @ O m 4 M A @ 6 G 4 < @ 1 4 @ O O       O   O O   O O   O O ",
"O C D   O O O @ X < O @ O @ @ @ 1 1 1 0 G G 0   X X @ O @ @ O O O O @ @ @ @ @ O @ X @ @ @ O X @ @ @ @ X O X O O O O O @ X O O O O O   @ @ @ @ @ @ @ @ @ O @ @ @ @ @ O O X O , 6 O X X @ O O   X @ @ @ @ @ @ @ @   ! O M O X q 4 X @ @ ; X @ O O O         O O O O O   O O ",
"O * g d O O @ O O 4 m @ @ @ @ @ 4 4 0 G G G H   @ @ @ O O O O O @ < < @ @ @ @ < @ @ @ @ O O O @ O 4 ; @ X O O O @ @ O @ @ O O O O O O O @ O @ 1 1 X X @ @ @ @ O @ @ @ @ O @ $ 1 @ O O O @ @ O   X @ @ O O @ X @ X Y @ 1 @ @ z < @ @ ; 1 1 O O O O O O O     O O O O O O O ",
"O   O   O O O O O O X @ @ @ @ 1 1 0 q G H H H o @ @ @ @ X O O O @ 8 0 @ @ @ @ 6 @ K @ @ O 4 @ @ O X @ 1 O O O @ @ @ O 6 @ @ @ O O @ O O X X O q 1 @ @ @ O @ O O @ O @ @ @ X O 8 @ X @ O @ @ @ O   X @ O @ @ @ @ E K ; 1 @ X 6 @ 1 1 X @ 6 O O O O O O O O         f Y   O ",
"O O O * O O O O O @ @ 1 @ @ @ 1 1 4 G G G G H 6   @ @ @ O O O X O X @ @ @ 1 1 @ @ H ; @ X @ X @ @ @ @ * X O @ @ @ @ X ; @ @ @ @ X O O O O @ X 8 @ @ @ @ @ @ O @ @ O O @ @ @ @ X @ @ @ @ @ @ @ @ O   X @ @ O ; X Z.O 6 @ @ @ @ @ @ @ O @ @ O O * L O O O O O     . -   O O ",
"O @ < O O O O O @ @ @ @ @ @ @ 1 1 G H G G H G H   @ @ O O O @ @ @ @ @ @ @ @ @ @ @ @ 6 1 O @ O @ @ X @ @ O @ @ @ @ @ @ @ @ @ @ O X X O O O O X @ 1 @ @ @ @ O O @ @ O @ @ @ @ @ @ @ @ @ @ @ @ @ @ @ O O X @ O ; g C.@ 4 @ @ @ 1 @ @ @ X 1 O O O o   O   O O O O O     O   O ",
"  O ] d O O O @ @ @ @ @ 1 @ 1 1 4 @ 1 4 1 L L 1 o O     O     @   @ ;   ;     X     1 0 < O   O O   @   @   O @ @ @ @ @ @ @ X @ O O X @ @   O @ @ @ @ O @ O @ @ O X @ X O O @ @ @ 1 @ @ @ @ @ < @ O O X @ O @ q.] 6 1 1 0 0 4 @ 1 @ @ @ O O O O O   O O O   O   O       O ",
"O O     O O O X @ @ @ @ @ @ 1 4 F.bXrX$XcX .< NX7 #.wX1.#.wXhX  8X@   bXO sXkXP cXtX  O eXb.v.gXfX[.e ;X+ MX}.O @ @ X @ 4 O O X O 3 @ @ @ O O @ 1 X @ O @ @ @ @ X O @ A O O @ @ @ 1 @ @ @ q K ] X @ O O X X * e.@ 4 @ q q 8 ; 0 4 @ 1 O O O O O O O O O O   O O X U O   * ",
"@ O < O   O O O O X @ @ @ @ @ 6 O sX  MX  VX~ cX>XF.FXv.P cX  @ kXB.M.nX6XM 8X:.OX  e.3.yXBX; bXO F OXsXsX    @ @ @ @ @ c * @ @ O N * @ @ ; ; @ 6 @ @ @ @ @ @ @ O @ X > X @ @ @ X # @ @ @ d * * @ @ @ O O O f j.@ H Q H 0 6 1 v 1 6 1 O O @ @ O O @ O O O X @ O - = O O   ",
"@ O @ @ O O O @ O O O X O X O X   fX  jXgX(.OXn bX=X;XtX:.wXSXX jX*  Xn xXn eXr JX%X    NXOX  HXaX( DXE. .NX%XO X @ @ @ X X @ @ @ X X @ @ @ O @ @ @ @ @ @ @ @ @ O O X O @ @ @ @ @ @ @ @ @ @ @ @ @ @ @ @ @ O y.} 8 9 N R Q 0 W D 1 6 4 O O K < X O @ O O O O O O O X 1   O ",
"* O @ O O O O @ O < @ @ 4 3 O @ O jXO MX%.[.fXXXFX>.$.KX-.1 ^.1.jX  sXOXFX: tX^ #X+ >   dXDX  bX# a aX4.p.  DXO O X X @ X @ @ @ @ @ @ @ @ @ @ @ @ @ @ @ X X X @ @ @ O @ X @ X @ @ @ @ @ @ @ @ @ @ @ @ @ @ o s.Q [ q ; z z ; * m @ 1 @ @ u k.< X @ O O   O O O O O X O O X ",
"& O   O O O O @ O @ * X @ R = @   [.O }.  [.[.O =Xn ^ }.O eXtX  ;XwX'.  (.@ G.+ eXeXO X .Xy.%.8XyXJ K.6 F.gXu.L.j.A @ X X X O O X X @ @ @ @ @ @ @ @ @ @ @ X X O @ X @ @ O O X @ X @ @ @ @ @ @ @ X O O @ X X B.K b 6 1 @ @ @ @ 4 @ @ 1 @ i R O O O O O O   O O O O O   1 O ",
"X   O O O O O X O X O X @   O O @ O @ O 1 @ X Y = 1 @ O @ O @ 6 X @ @ 1 O @ @ @ O 3 q 4 C.s C M ; 6 0 0 8 e.[ * a 6.| Y <   O   O O   @ 1 @ @ 6 O @ @ X @ X O q O X @ X X O X X X X @ @ @ @ X O O O @ @ O a q.Q H 8 0 4 1 1 @ 6 @ @ 8 @ & O O O O O 6 O O O O O O O X     ",
"@ X O O O @     O O X @ @ @ @ @ @ @ @ @ @ ; @ l.d q @ @ @ @ 6 @ @ @ @ @ @ @ @ @ A 6 * U 7.@ ! X @ 6 6 0 ] H B K A O * m ..Y D O       O 8 4 @ @ @ @ @ @ @ X @ * O X @ @ X O X @ @ X X @ O O O @ @ @ @ @ O g X.} ; 8 8 6 H < 6 1 4 X O O @ @ O O O @ O   O   O O O O O     ",
"X O O O O   @ O O O < @ O @ @ @ @ @ @ @ @ ; 4 0.& 8 @ @ @ @ @ ; 1 @ @ @ @ @ 1 4 0 1 I o.a A a @ @ X ; 1 @ M K 6 o.j.4 4 8 b y...K C O X X ; G @ 6 ; @ @ @ X @ @ @ @ @ @ @ 1 6 @ O   X @ @ @ @ @ @ @ @ @ X g q.x.4 6 ; 0 6 @ q q @ @ O O @ @ O O O O O O O O O O O       O ",
"X O O @ X O O 8 X O W X @ X @ @ @ @ @ @ @ ; D m A * @ @ @ @ @ 6 @ @ @ @ ; @ 6 6 6 6 Z.6.1 8 @ @ @ @ @ @ q G * 0 c p._ Q G 0 ; 8 E _ } A < O X ; @ ; @ X @ X O @ @ @ X X @ q =   O O X @ @ @ @ @ @ @ ; @ X ; 7.m.} 0 : q @ 6 G 1 X @ @ X @ @ O O O O O O O @ O O O   O O > ",
"O O O O O O O @ O     @ X @ @ @ @ @ O       x.j <       O @ @ ; 6 @       O O     3 _ * 4 6 @ @ @ @ @ @ X 8 1 @ 8 @ X R R 6 6 [ K X.8 b e.C.D 4 @ 6 @ @ @ X O @ @ @ O H 8 X O O X X O @ @ @ @ @ @ @ @ @ X * 6.M.Q ; : 1 4 > 0 @ @ O @ X 0 @ O O O * @ X @ @ O     O O O X ",
"X O O O O O O @ @ O @ @ X @ @ @ 6 X }.`.].].oX X{.`.`.(.{.  @ ; O {.].'.].`.`.(.(..X`.XXX @ 1 q 1 1 @ @ X 4 4 6 4 8 O.4 * 8 G b ` ..q c z N L.I.c.] 0 @ @ @ @ @ 6 6 E *   X @ O X @ X @ @ @ @ @ @ @ ; @ X * 3.M.H 1 ; ; * 1 4 @ @ @ X # G @ X O O X O O O O     O O O O O ",
"+ O O @ O O @ O O @ O @ @ @ @ @ O +X  @ @ 4 b @ * @ @ O   +X    #X  @ @ X X @ O A ! X 0 +X  @ @ @ 1 G 1 1 8 e.X 8 0 X M @ 1 8 ( [ k.K U H R b 6.7.P.Z.j.0 @ 0 R b > * @ @ @ @ X @ @ X @ @ @ @ @ @ @ ; ; @ ; 3.Z.G 6 @ @ @ > q @ @ @ @ : Y O O X O O O O     O O O O O   @ ",
"X @ X @ > @ O O.> X @ @ @ @ @ @ (.O ; @ 6 x.p.0 8 @ ; @ ; t %.:.e 0 q 6 6 ; 6 D l.= 1 f + D.@ @ @ 4 q 8 6 @ X @ @ @ @ 1 ; ; 6 @ 8 M e.Z.o.o.o.m.[ 0.6.y.l.} ! M X X @ 1 X X X X X X X X @ @ @ ; @ @ @ ; @ @ 4.m.| @ @ 1 1 1 @ @ @ @   V Y X @ O   O O   O @ O O O O O O N ",
"@ O O O 4 @ X O @ O @ @ @ @ @ O `.  ; 6 0 c.4.# 6 ; ; @ @ + D.G.O 0 z 8 6 6 6 l.7.@ 6 @   (.1 G H 0 8 8 @ 1 @ O @ @ @ 6 6 6 0 6 6 0 R e.M.m.X.E ( m.] R k.Z._ D 4 1 X ; @ X X O O @ X X 1 @ @ @ @ @ @ @ @ ; X.Z.Q 4 6 6 0 1 @ @ @ @ O p 1 @ @ 4 C O O O 6.D X O O O O O - ",
"@ @ X X < 6 X @ X @ @ @ @ @ @ @ `.  6 0 K R.8.$X@ 7 ; 1 @ @ S.G.O 6 @ c 0 9 E.~.X L 0 @ 3 ].1 Z.q 8 8 6 ; 0 ~ '.@ @ 6 0 0 q 6 6 0 Q [ 8Xe.+.o.! q b ..!.I.( @ nXE.H 6 @ @ @ @ @ @ @ X # 0 @ @ @ @ @ @ @ @ = 0.*X .6 6 1 6 @ @ @ @ 1 @ @ @ @ X g O O O O X O O O O O O O O ",
"X O O O 1 ; O @ @ @ @ X X @ @ @ `.  6 8 U q.JX$.PX  6 6 6 @ S.G.O ; 6 @ H dX6X|.4 H } [ 6 -X6 ` e.6 0 @ ; 8 i.pX  @ 6 O   O Q ! 1 6 O.KXq   ) Z.j.[ nXH.( o.$XOX0.l.O   6 O       ;   #   +       7       * = 8XF.1 @ Q Y @ @ @ X @ @ @ O O O O O O O O @ O O O O O O O O ",
"@ @ @ @ @ @ 1 @ 1 @ @ A L X @ @ ].  6 6 Y w.iX  ZX  6 @ ; # S.G.O ; ; 6 ; iXY.J l.m._ e.6 |.> 8 z 6 0 6 6 0 ' PXJX$X  pXFXNX* u.IXNXq LX1 HXG Z.W.g KXO E b HXLX0 aXGXcX  @XgX%XfX  PX  sXr wXAXCX  OXdXeXi.LXUX-.; 6 O.6 @ @ @ @ @ @ O O O X O O O @ O X O O O O O O O > ",
"@ @ @ X @ X 1 0 1 6 ; @ N - @ @ ].  q 8 n.d.pX  AX  6 6 0 ; S.G.O 6 ; D c.aXpX>Xr.m.m.! _ G.0 8 0 q q 8 6 6 -.sX  IX@ @   SX@ AX; ; x VXxX' k.y.0.OXoX[ [ ; +XD.@ JX  ZXj.iX<.  IXt FX#.PX      jXr 7X(.  PX  yXv.; 0 q @ @ @ @ X @ X D O @ @ 1 4 O O O @ O O O O O O O * ",
"@ X @ @ @ @ 1 0 q H 8 q 8 6 = O ].O 8 q M.8.aX  FX  6 6 0 # D.G.X G j.B.e.zX/ q +.M.B.m.! oX; 6 6 8 8 ; ; @ u.dXX IX  gXcXUXX AX: @ # VXLX8 M z O LX  z b 1 %X[.# JX8 ZXw.vXv.  KX(.D.}.LX  eXmXUXe 7X(.  PX  aXv.1 6 @ @ @ @ @ O O V U X @ 6 8 O O O O O X O O O O O O O ",
"6 * @ * X 1 0 ; z ; > * > 0 > O ].O 8 K y.: rXJXOX@ H q 6 @ S.G.A l.L.E l.2XnXnX_ V.Z.m.= {.@ 8 6 6 0 6 6 8 ;.pX  IX  KX  FX@ ZX# 4 K GX8X[.4 Q ~ bX@ ; 8 ; %X[.@ KX  BXW yX!.Y pXkX  jXfX  UX  xXr 7X(.  PX  zXv.6 6 @ @ @ X   > 0 o @ @ @ @ O @ X O O O O O O O O O O O ",
"@ @ X @ A G * @ 6 6 6 0 6 q f @ ].O 8 h.q.W ; }.@ q > 6 ; 1 E.>XB.m.V.V.Z.B.m.m.Z.B.B.L.X..XG 6 6 8 q 8 0 q w HXKXXXO gXSXgXl.N.UXDXb xX  FXR ! aXn 0 ; 6 @ OXD.O tXHXfXX 8Xu.q.E.CX  NXG.3 tXHXfXr @X<.X OXLXnXv.6 1 @ X X @ @ @ @ @ @ @ @ O @ 6 O O X @ O O O O 1 X Q 3 ",
"@ 4 4 6 * X @ @ 6 0 6 0 R 0 8 @ ].O 8 c.5...f 6 H z 8 6 Y M.Y.Y.f b [ 0.c ..Z.L.q.m x 8 * |.y.B.l.] q 0 8 8 q     q [ 1 @ X.B.V.e.g z O Q 6 E z O q 0 ; 0 0 O @ 0 X   @ ] @ X.G 3.M.U   * Q       X   O @ O X ` ] 6 @ @ 1 @ @ @ @ @ @ @ @ @ @ ; ; O @ 1 O X 1 X N C - m O ",
"4 G > ; @ @ @ X @ 6 ; ; 0 q 6 ; ^ :.0 l.M ( c G 8 0 Y l._ |.@ 9 '.K l.o.q.b m = 6 K 0 4 E.t ; * g q.L.Z.] l.] Q ] ] V...m.B.W.a.b L | R Q c 0 q q 6 6 ; 6 0 ; 6 6 6 6 6 f +.q x { 8.B.} @ ; @ * @ @ @ @ @ @ g y.j.1 @ 8 ; @ @ @ @ @ @ @ @ 0 4 @ @ @ @ O O @ O O O X O O O ",
"6 0 ; 1 6 ; @ @ @ @ ; @ @ H 8 6 @ S..XA.N.t.@.@.z.T.P.d.|. .j.c.U.-Xs.*.' '  . .z.U.U.oXH.K Q Q 0 6 > j ( L.I.V.m.| M.[ Z.y.w.z | r.E ! 8 6 0 8 0 6 6 6 ; 0 ; 6 6 6 6 6 6 > 0.Y z Q x q.j.G @ @ ; @ @ ; ; 6 > s.C.K 6 ; 1 @ @ ; @ @ @ @ @ @ @ @ @ @ O O @ O O @ @ O X @ @ ",
"1 0 6 ; 6 @ @ 1 6 ; ; ; 6 8 H q 6 8 h.w.t.t.@.n.P.d.~  .j.L.q.N f   ^ ~ z.z.N.t.B n n @ 6 ( ) R q H Q H 6 * z ( e.k.R.B.M 8 L Q ..c 6 q q 6 6 6 6 6 Q 6 @ q 6 6 6 6 6 ; 6 6 ; m | ; e.G m V.Y @ ; @ ; ; ; ; c s.M.Q G @ ; @ @ @ @ @ 1 @ @ @ @ @ @ @ O O X O @ @ @ O < @ @ ",
"6 6 6 ; 6 6 6 6 6 6 6 8 6 8 ; G [ @ >X=XoX>X-X=XoXoX2X-XY.* 6 0 < E.oXoX-X|.`.].].].].(.O 0 @ ; 6 R ..R K Q H K q R X.` 0 q +.! c q 6 6 0 6 6 6 6 8 v 6 @ L ; 6 ; 6 6 ; 6 ; ; ; x _ G > q 4.L.j.6 ; ; ; ; ; 6.B.o.R H 1 ; 6 @ @ @ @ 6 @ @ @ @ @ @ @ @ O X @ @ @ @ > < O X ",
"6 6 6 ; 6 > @ 6 ; 6 0 8 0 b 8 8 G 8XM.+.Z.y.0.r.e.0.x * 9 #XK j.8Xv > 0 ; O O @ O O O @ #XO 0 6 0 0 0 q ) q R Q R H | M.[ ! 8 ; 6 8 0 0 6 6 6 0 0 6 6 6 1 0 ; 6 ; ; ; 0 0 6 6 ; 6 > 0.} 6 c v s.C.0 ; ; ; ; x y.x.q H q 8 1 @ @ @ * 1 ; ] 3 @ @ @ @ @ @ X X O O O O O O O ",
"; ; ; 1 8 ; @ 6 6 6 6 6 q c q L ~.l.W.L.q.e.r.r.r.( L j.m.t.@.u.n 0 H Q 6 6 6 6 ; ; ; 6 # <.6 6 6 8 ; 6 1 6 0 c q H m.B.R 8 ; ; 6 0 0 0 0 6 6 H ] 1 6 0 6 1 ; 6 6 @ ; 6 6 6 6 6 0 0 ; m Q 0 ( J 6.Z.Y 6 6 ; x L.c.H R H 0 @ @ @ @ ; 1 : f @ @ @ @ @ @ @ O O O O O O O   O ",
"; 6 ; 0 8 ; 6 0 R 8 q H Q [ ] c.3XZ.L.L...k.m.m.m.+.e.6.z 0 S.G.X 6 q [ 8 6 6 6 ; ; 6 1   ].@ 6 6 1 6 q ; 0 8 0 6 q ..B.H q 0 6 6 _ 0 O 0 6 6 6 c   q 6 6 q @ 6 6 0 6 6 6 0 0 6 6 0 0 6 f e.G N l.) L.x.6 0 g q.k.] R R G 1 @ @ @ @ @ @ @ @ @ 1 @ @ @ @ @ O O O O O O O # ",
"6 6 6 G x 6 6 0 G ] E R | c.B.e.2Xq.@.Z.I.r.y.z 0.> q q q 8 S.G.O 6 H 6 0   <.7 6 6 6 1 O '.1 6 6 6 G 0 0 K L ] H q r.W.r.Q Q R H c O gXX Q q 0   HX  0 6 0 @ 6 6 6 q 0 ; ; ; ; 6 0 6 6 1 * 0.K g ..z p.C.G z e.M.] R R Q G 1 @ @ @ @ @ @ @ @ @ @ @ @ 1 O @ & V +.D @ @ O ",
"6 ; 0 z = 6 0 8 8 q U c.Z.a.0.k.-Xo.m.B.@.VX; UX  IX  8 8 ; S.G.@ q 6 6 O bX@XOXX 6 6 ; O '.@ q K l.O.A.S.u.:.>.t w O.B.H.^ 8 q 8 6 + BX1 c 0 + $.KX  O S.~ @ r 1 7 # @ J 6 @ '.  6 6 6 ; 6 @ 8 H ; ` ] 6.V.Q e.r.Q l.L R H 4 @ O ; 1 @ @ 1 X t L 2 ; @ O O O .   O O O O ",
"6 6 6 z 8 6 8 8 Y C.I.w.` ( x.y.oXe.0.c 6 FX~.BX# VX; 8 8 # S.G.O ; 6 6   PX    6 ; 6 H @ {.8 6 9 p # 7 # @ [.rXO PX  KX#XKXt 0 6 1 tX,.*.@   UXOXPX  fX%XZX%.kX$.tXkX9 ZX^ PXXXHXO w J 6 0 G 6 6 q G f k.6 0.B.M.+.c R H q G ~ N.U 1 @ @ @ 6 < O     O X O O O O O X O O ",
"q 1 c > q q K j.B.q.` ! _ c.q.e.|.q k.) O VX8X*XS.dX; q 8 # S.G.@ 6 q 6 1 S.CXgX; ; 1 0   (.@ ; @ 0 0 0 0 6 (.wX@ JX@ PX6 tXS.0 0   UX  O @ t bX  IX  KX  oX%X`.OXdXdX<.%X$.gX  IX  @ @ 0 w q 0 0 0 ) } > +.] B.R.q 8 R u.C.:.P ; G @ @ @ X 6 @ O O @ O @ @ O O @ O O X O ",
"l.t.V K j.m.m.` E E E Q c.7.Q x .X; c l.` tXcXX.BXOX] R R 7 S.G.@ 6 8 ; 7     JX  @ @ @   '.@ 1 ; 6 0 0 6 1 (.7X@ KX  LXq tXD.6 0 D.eXQ 6 @ ~ mX  PX  KXO oX%Xe pXdXtX7X&.$.gX  IXO 1 ; 6 6 6 0 ; 6 6 E k.[ e.B.R.K 8 [ ~ H ! Y y U @ X O O O @ @ @ @ @ O X H < O O O @ O ",
"6 K o.M.L.7.E _ ^ L E x.7.v q ] |.X ] +.O.~.bXM HXA.0.9 q 7 S.G.O 6 6 6 O tXMX%XX ; @ 1   (.@ @ 6 0 q 0 ..B.<.gX;.KX  LX<.AXt 6 O HXO W ; 1 w HX7 UX  ZX%.tX.X  LX7XOXPXO %.kX  UXG 6 0 0 6 0 K G H q 0 x X.! L.Z.j.q q R H q H r ] < O X @ @ @ @ @ @ @ O X X O @ X O @ # ",
"j.B.a.6.( b H c q c c.p.! c [ = ].X R c 9 R ; { b V.I.0.8 ; S.G.X 6 6 6 6     @ 6 6 6 1   (.@ ! ; 0 q 0 6 * O %X7X~ 8 JX-X:.6 0 @ ].@ 0 6 6 @ ].tX^ @   pX+X@ @ `.v 7 }.@ 7 :.X _./ 6 6 0 Q q c 6 6 6 6 8 > 0.I.[ M.q q ! R q W T { < @ @ @ @ @ @ @ @ @ @ O O @ @ O @ X O ",
"y.6.( E R _ x q q x.p.{ 6.] k 6 {.O q 8 c q [ ( L ` M.e.b 1 S.G.X 6 6 0 ; ; 6 6 6 ; @ R   '.@ 6 6 6 0 6 q 0 ; ; 6 0 6 LX` q q 0 0 6 6 0 6 6 6 6 @ @ @ @ 6 @ 6 0 @ ; 8 @ 6 6 @ 6 X W 6 0 6 6 6 ; 6 0 6 8 8 q f I.q B.L q b ] G w 4 @ @ @ @ @ @ @ @ @ @ O X O O @ @ @ @ 1 @ ",
"Q E R c b ; 0 8 h.0.> q ] x 6 6 *.~ 8 8 q q 6 _ q Q _ M.m.oX7 w b.6 ; 6 ; 6 6 6 6 @ @ @ %.^ 1 ; 1 q 6 6 6 0 6 6 6 0 O.E r.8 8 6 0 6 @ N.@ 0 0 6 6 6 6 @ 1 1 @ | 1 @ 8 8 ; 6 1 @ * Q 6 6 6 6 6 6 6 6 6 ; 6 8 k W.R e.j.H e.k.Q G 6 1 @ @ @ @ @ @ @ @ @ O < 1 @ @ O X @ @ X ",
"..b 8 6 0 q 8 h.0.* ; G > 0 0 0 X {.:.7 w w 9 9 w w { m.3XY.` @ S.G.9 7 9 7 7 9 7 7 7 :.(.@ ; @ ; 6 6 6 6 6 6 q 8 6 0 ..+.6 6 6 6 6 @ :.@ q 0 6 6 6 H @ K @ @ W 0 @ ; 6 6 6 @ @ ; q 6 6 6 6 6 6 6 6 ; 8 6 8 6.V.] N M.6 c H q 0 0 1 @ @ @ @ @ @ f K X z G 4 @ @ @ O O @ X ",
"x ; 0 8 q z Y y.d 8 1 q 8 6 6 6 6 G ' :.:.:.:.:.:.S.:.F.` Z.r.y.X 7 u.:.:.:.:.:.:.:.:.7 @ 6 ; 0 [ ; q q 6 6 0 6 8 8 q ..m.0 8 6 0 0 6  .@ 6 6 6 6 6 6 H } ; @ ; 0 1 ; 8 0 6 @ 1 ; 6 1 6 6 6 6 6 6 6 ; W 0 R q.j.e.z L.G c H H 0 0 y U @ @ @ @ @ @ @ O O X @ @ @ @ @ O O @ ",
"c 6 ; 0 q Y 0.* 1 U ( E > 6 6 6 6   :.].`.`.].].].'.{.`.z.Q I.M E %.].].].(.(.(.'.(.(.v.  6 6 6 E 6 6 6 6 6 8 6 @ 0 H [ r.6 0 6 0 0 6 q 6 6 6 6 6 0 0 R H q ; @ H 6 ; z q @ @ 6 6 H 6 6 6 6 6 6 6 6 6 6 b R L.} e.R p.j.8 q H E M.%.K @ @ @ @ @ @ @ @ O @ @ @ @ @ @ @ ; 6 ",
"z 6 0 6 Y B.l 0 G E z 6 6 ; 6 ;   #Xw O O O O O O O @ 0 %.oXb B.OXz.  O O       O     ^ OXO 6 6 6 0 6 6 6 6 q 0 6 6 H Q +.R 0 6 6 0 6 0 6 6 6 6 6 6 8 0 6 8 0 ; q 6 6 0 6 @ 8 q 0 q q 6 6 6 6 6 6 6 8 0 E v I.! o.8 9.C...r.+.[ q 6 q 6 6 1 @ @ @ @ @ @ @ @ @ @ @ @ @ X 1 ",
"6 6 > h.L.B b 6 0 8 ; 6 6 6 6 ; b.9 0 6 6 6 0 0 0 0 6 0 _ *.z.@.!.8 m.* 6 6 0 0 1 6 @ 1 w :.6 6 6 6 6 6 6 6 6 0 0 6 R ! Z.c 6 6 6 6 6 q 6 8 6 6 6 6 0 0 6 ; ; ; 8 H O *.o...! q E q 6 6 6 6 0 ; 6 6 6 6 c B R.x ] b N Z.! R R q 0 6 0 @ @ @ @ @ 1 1 @ @ @ @ @ @ @ @ O , H ",
"0 6 Y B.3.# q q b > 6 6 6 6 6 X .XX 6 q v 6 0 0 0 8 q 0 0 6 i.K.H I.b r.> 0 6 0 q 6 ; ;   ].6 6 6 0 6 0 0 R ! / q q q r.I.@ +X9 q q c R c ! 6 W q R m..._ oXX._ e.Z.! / W c 0 8 0 0 6 6 6 6 R 6 6 6 6 6 0 m c.b 4 m q y.K c q 0 6 @ @ @ @ @ @ @ @ @ @ @ @ @ @ @ @ @ O X 1 ",
"8 K X.m 8 6 H 8 = ; 6 6 6 6 6 @ {.X 6 0 ; 0 6   0 0 8 8 8 7 F.G.[ r.I.c Z.  @   9 z.# 6 O ].6 0 0 q 8 q 8 8 :.bX6 ; @ m.B.aX%X` y.e.y.e.e.0.FX) E ` y.( w.xXM b M ` R 7XOX@ 8 8 7 6 0 0 6 6 6 6 6 6 6 > q q.j.( 0 = ] 6.j.8 q 6 8 k.4 @ @ @ @ ; 1 X @ ; 1 @ @ @ @ @ @ * q ",
"G l.d G > 0 0 ; 6 ; 6 6 6 6 6 X '.  6 ; 6 6 $.UXO 0 0 0 8 ; F.K.O m.X.W.8 IXpXZX  j.V 6 O ].@ 0 q c 8 6 8 6 *.gXE -XFXoX` PXsX9 UX$X@ 8 R ; CX@ 6 X K.kX9 @X@ D.DXyX1 OXrXNX7 7 PXpX  6 ; 6 0 0 ; 6 6 8 8 a.} R 6 ; ! k Z.H ..m.k.q 1 1 @ @ @ @ @ O @ @ ; 0 @ @ @ @ ; 8 4 ",
"} g q L E q > 6 6 6 6 6 6 6 ; @ ].  6 6 6 @ rX%XG.6 0 6 0 ; S.F.6 6 o.+.M CX> xX7 H n q O ].6 q c 8 q 8 6 Q !.xXf HX  IXX VX9   PX  8 0 8 rXb.W {   UXe 9 AX  UX  AXJ }.rXw AX  AX# 7 ; 6 6 6 q ; 6 6 8 > B.0 R ; ; E v L.l.] H 6 q 0 4 @ @ @ ; < > 0.I * 0 @ @ @ @ @ @ X ",
"4.1 q q 8 6 ; 6 ; 6 6 6 6 6 ; X ].  6 6 6 O ZXO sX@ 6 0 0 ; S.G.@ q ; !   FX  nX: q 6 6 @ ].6 c 8 6 R m.B.b u.fX: PX7XCX  VXe   IX  0 8   UX  6 6 O UX  : AX  PX  ZXW +XOX9 ZX  FX# @ @ @ ; 6 6 6 6 6 0 a C.> Q ; ; E G s.x.q H 0 1 @ 1 @ @ @ ; @ X O @ @ @ @ @ @ O O @ O ",
"r 8 K c > ; 6 6 6 ; 6 6 6 6 ; O ].  6 6 6   IXpXZX  6 6 0 # S.G.X G 0.@   ZX* fXr.b 6 0 O ].; 0 _ m.y.x ; 6 *.gX9 CX9   ; BXt   IX  6 6 <.rX@ 6 6   IX~ { AX  PX  BX9 #XOX9 ZX  AX# 6 @ @ @ @ 6 6 6 6 0 4.C.f G ; @ 6 0 j C.H K z ..R Y @ @ @ O X @ @ @ @ @ @ X X @ & R 3 ",
"8 0 6 8 * 6 ; 6 6 ; 6 6 6 6 ; X ].O 0 6 6 ;.rX  CXO 6 6 6 # S.G.@ 6 q !   LXbXVXO I.N 6 O ].O.e.( ; 0 q c c :.jX  KXpXgX  CXt   JXOX@ O HX@ 6 6 6   UX  7 FX  fXBXUX9 $X$Xw AX  jXtXO 6 6 @ @ @ 6 0 6 6 7.j.M 4 ; ; ; x 8 e.Q ` +.L 0 @ 1 @ @ @ @ @ @ @ @ @ @ * e.D X 6 < ",
"q q z ; 6 ; 6 6 6 ; 6 6 6 6 ; O ].  6 0 0 6 O 6   0 6 6 6 # S.G.O 0 ; q c   @ o.a.q I.) ..|.6 0 0 q q 8 0 6 6 X q   t   q O 6 6   r 6 6 O 8 ; 6 6 q O q 7 O q 9   NXr q ! 0   q   t 0 6 6 6 6 @ @ ; 8 1 q.G e.1 6 6 6 g ] q.C.m.] 1 ; 1 1 @ @ @ @ @ 1 @ 7 O X O O O , H < ",
"f @ @ ; 6 ; @ 6 ; ; 6 6 6 ; @ O ].  6 0 0 0 6 6 6 6 6 6 6 # S.G.@ @ ; 6 q E 6 ! Z.q.H m.q `.; q 0 q c 0 6 ; 6 6 6 ; 6 8 8 @ 6 6 ; ; 6 6 ; 6 6 6 6 6 6 6 6 6 @ +XZXrX  6 q 6 0 0 6 6 6 6 6 6 6 6 H 1 6 * m.1 R @ @ ; 6 ; H 4.C.q G 1 1 1 1 @ @ @ @ @ O O O @ @ @ @ @ @ 4 @ ",
"; @ @ @ @ 6 ; @ 6 ; ; 6 6 6 @ @ :.9 q 6 6 6 6 6 6 6 0 ! 6 :.t ~ :.6 0 0 6 [ x G r.l.` | A.U.E 1 6 8 0 8 6 ; 6 6 6 6 6 q q ; 6 6 ; ; 6 1 @ @ 8 6 6 6 6 6 6 6 0 @ O @ 1 6 0 8 c { 6 6 6 6 6 ; 6 6 0 6 @ = l.> G ; ; ; 6 ; 6 g L.K q 0 1 1 @ @ @ @ O O O @ @ @ @ O @ + v [ 5 ",
"= ; ; ; @ 6 ; 1 | m @ 6 ; ; H ; O OX^ O O O O O O O O O %.(.O @ {.:.1 @ O   4 @ 6 0 k.w.oXc [ L.6 0 8 q 6 6 6 6 6 6 6 q q 6 @ 6 6 6 6 @ 1 1 ; @ 8 R 6 6 6 6 6 6 6 6 @ ; q 6 6 6 6 6 6 6 6 ; 6 6 6 1 @ k c.; 0 ; 6 ; 6 6 @ @ M K 6 1 @ @ @ @ O O X O @ X @ @ 1 @ 6 1 @ 1 O ",
"` g X ; @ @ @ @ @ 1 ; ; ; @ X ; 6 O %.G.G.G.G.G.G.G.G.D.r @ 6 0 @ ^ G.G.G.D.G.K.K.K.oX!.g M.) 0 M.y.> 8 6 ; 0 0 6 6 6 0 8 6 @ 6 6 6 6 6 1 1 6 6 ; ] 8 @ 1 ; 6 ; 6 6 @ ; 6 6 6 6 6 6 6 ; 6 6 @ @ 6 1 @ 6.j.; @ ; ; 6 0 6 8 ! k l.0 6 1 1 @ @ O @ @ 7 q 8 H 4 @ O @ @ # 1 O ",
"Y B.q.m * ; 6 = @ @ @ @ ; ; @ ; ; 6 6 @ 6 6 1 ; @ O @ @ 6 6 6 6 6 6 0 0 @ @ 6 6 q ; G Q V.! I.b 8 M.Q.0.; 8 8 q H ; 0 8 8 6 @ ; ; 6 6 ; 6 @ ; ; 6 0 ; 6 6 6 6 ; 1 1 1 @ ; 6 1 6 6 6 6 @ @ @ @ @ 0 q 1 0.D 6 @ ; @ 6 0 6 6 Q * M.J q G w 2 0 7 q 1 @ @ @ X @ @ @ @ O # 1 @ ",
"( 8 j.I.s.N = 8 * @ @ ; @ ; @ ; ; ; 6 6 1 0 ; @ X 1 6 6 6 6 6 6 6 6 6 6 @ @ 6 0 0 q 0 L H I.` B.b E Q Z.B.; 0 8 6 0 6 8 6 6 @ @ 6 q 0 6 6 6 6 ; q 0 6 6 6 6 6 6 6 0 J 1 6 R q 6 6 1 1 6 6 6 @ ; 6 6 ; m.1 O.@ ; 6 6 6 0 6 8 A M ] ,.z.S.z.U 4 @ @ @ @ @ @ @ O @ @ @ O @ O ",
"Q ..M K l.W.p.d ; ; @ 6 @ b @ @ ; @ @ 0 > A x @ 6 6 6 ; 6 6 0 6 6 6 6 6 @ 6 6 6 0 0 q 6 q [ I.k._ q q 0 R M.` ; 6 6 q q q 0 6 1 0 q 0 6 ; 6 6 @ H @ @ 1 0 6 @ @ @ 6 @ @ ; 6 G 6 6 6 8 q 0 6 @ ; ; 6 q k.X G ; 6 @ ; ; 0 6 1 @ d l.=.k.U 4 @ @ @ @ @ @ @ @ @ @ @ q 4 X @ O ",
"k.6.G ..E | Z.L.0.a @ @ 1 ; X 6 ; @ @ @ @ @ @ 1 6 6 6 1 1 ; 1 ; 6 6 6 6 @ 1 6 6 0 6 0 R ; | E ] l.M 6 _ c 6 R.I.z 0 q q 8 6 ; @ ; ; ; 6 6 ; ; 8 1 @ ; @ 6 6 6 6 @ @ @ @ 6 @ 6 0 6 6 8 q 6 6 6 8 6 0 l Z.8 G ; 6 @ ; 1 @ ; ; q , P.j.K 1 6 6 1 @ @ @ @ @ @ @ 1 1 @ @ O @ @ ",
"k.:.o.k.e.W | B.M.L.N - @ 6 @ @ ; @ R E c ; ; 1 0 ; ; 6 @ 1 6 1 1 6 1 @ @ 1 6 6 6 6 0 G R 1 o.8 l.L.> 8 q c H k.Z.e.; 8 8 6 6 @ ; 6 6 6 @ @ @ 6 q 1 @ @ ; 6 6 @ @ @ @ @ @ @ 6 6 6 6 6 6 6 0 0 q _ 3 N h._ 4 8 q c H c L 0 #.m.I a M.A @ 1 @ @ 1 ; @ @ @ @ @ @ @ @ @ O @ X ",
"@ X @ G Q z G c.p.q c.B.6.* X ; @ 1 q q 6 ; @ @ @ 1 6 @ 1 @ X @ 6 1 @ q e ; ; 6 6 0 6 6 4 c ; 0 6 M.L.z q 6 8 q Q m.B.> ; 6 6 @ 6 6 ; 6 1 @ q 6 ; 1 @ @ @ ; 6 @ @ @ @ ; ; ; 6 6 0 8 8 0 6 * ; N r.e.I.U q 0 E ..| O.U H 0 1 @ G = R e.] 8 c A X 1 1 @ @ @ @ @ @ @ @ X @ @ ",
"8 @ 1 q H R q U V.5.0 K c.L.l ; ; 6 r e 6 6 6 6 Q z 6 0 0 ] :.# 6 6 G o.W 6 6 6 0 H 8 0 6 H c 1 +.Q Z.q.6 8 q 0 0 c Q Z.y.; 0 ; 6 8 6 6 6 q 6 ; ; 6 ; @ @ 6 6 ; ; ; ; 6 6 ; 6 8 6 > x ) y.I.Z.I.Z.| _ | X.o.[ [ Q H H H q 0 @ ) C > ..k.U 1 1 1 1 @ @ @ @ 6 0 @ 6 1 O @ @ ",
"0 @ K W 7 q [ L k.+.M 6 8 h.0.q [ 0 O 9   $.O e + # O @ 7 O # + 7 @ 6 O ; # O e ; O X ; e 7 H ) G e.o.W.6.8 q R ; q q ! r.[ > X 6 8 ; 0 0 @ @ @ @ 6 ; 6 ; ; ; 6 @ @ 6 ; * 6 b 0.I.B.W.o.Q q 6 q L * E M.0 q c ! Q Q H q 0 1 1 > K x K 8 e.[ 1 6 6 @ 1 1 @ @ 6 @ @ O ; 1 O ",
"@ 1 K q H q G R ] k.N z G _ ( f   PXmX# CX}.tX{.KXy NX}.[.PXt KX7XO   AX&.OXNX%X~ wXrX~ hX@XO G 8 0 E j.W.8 8 8 q ; 6 q R q M.O.* ; 0 0 @ @ ; ; 6 H 6 ; 8 6 8 ; * z z ) I...0 q ] G 6 6 ; ; 8 6 O 4.U 0.} 0 q ! Q Q H H H 1 @ ; G X ! @ ` k.K @ 6 1 6 1 1 @ ; @ @ O o 1 @ ",
"@ 0 0 q q q H R R L [ ! ( K C.7.X sX).<.cX  mX  dX  eXfX  jX  bX&.@   sXhX  kX;.O tXtXi.eXX 6 ; 0 6 6 H c.` 0 8 8 q 8 8 ; H [ G m.e.v 8 ; ; ; ; 6 6 @ ; 8 x L.I.m._ R q 6 6 @ ; 6 @ 6 ; ; 8 ; X E G Q b l.0 q Q Q L H H G 4 @ @ @ O c < O 0 E K @ @ @ @ 1 @ @ @ O O V } O ",
"1 0 6 6 6 0 6 0 q 0 K e._ s K B.* ZXKX  bX  MX  fX#.hXKX  kX  NXb.O   sXfX  kX^.@ +X}.O ,.KX  1 6 0 6 0 q j.) 6 0 8 6 q 8 ; q _ 0 Z.m.[ Q 0 6 8 > y.B._ R 8 ! q @ 0 6 8 8 @ 7 ; ; @ @ * q @ @ @ 8 0 4 a M.0 q R Q Q H H G 1 @ @ @ @ X 4 O X 1 m O.O 1 @ 1 @ ; b W < X q < ",
"K ) n z 8 6 6 6 G > 1 j.e.e.b j.3.cX7Xn DXD.kX  lXeX&.eXy CX  KX+X+   HX*.OXZX}.~ }.(.^ [.AX  ; 6 0 q q R M Z.0.x M M M m ) N b e.y.y.B.` _ r.B.X.Q G 6 0 6 8 8 6 6 8 b E @ 2 9 6 ; ; 0 @ @ @ 6 0 0 6 X ..q q H Q Q H G H 0 @ @ @ @ O * @ @ @ g B.h.@ 6 1 1 O X @ @ : q 1 ",
"R 8 @ 6 6 6 8 ; 6 0 6 H Q Z.6.U I.l O 9   G.  9 8 * X   # + ; 9 #.@ 0 ; ; t @ $.7 @ @ @ ,.+ ; 6 ; 8 E ..y...o.M.m.Z.Z.M.+.+.m.! Q M.M.o.Q q 1 @ @ ; @ @ > ; ; ; @ ; 6 0 6 6 ; =.J @ 6 X z q 0 8 8 q q X p.L q q R Q H G q 0 @ @ @ @ O @ 4 O @ O 8 q K 1 1 1 @ < @ O p L 4 ",
"6 8 8 ; 1 ; ; ; 1 1 ; 0 8 K o.Z.t.0.: H v q > @ 4 b 0 6 O O O @ c O @ @ @ @ @ @   * ; > z E e.E q H H 4 l.; 0 0 @ @ @ @ ; @ @ @ 6 6 ; ; @   O @ O X @ O ; R 6 @ @ X @ @ @ @ @   z.@ @ @ 6 6 1 6 6 H 8 G 6.} 0 0 R Q H G q 6 @ @ @ O @ X @ O X @ * H 8 L @ ; G @ @ @ - G @ ",
"1 @ 6 6 ; 1 8 ; 1 ; K 0.d 0 } M.m.B.h 4 x @ > ; 1 1 6 6 @ O 6 6 O   X X 6 8 b c m.` 6 6 @ @ 6 @ 1 6 X ; 6 G ; 1 6 q ; 6 0 6 0 6 8 q q 0 H @   @ @ @ @ ; @ @ @ @ @ @ @ @ @ @ @ ; q K X 6 1 @ ; ; 6 0 ; { = | 6 6 8 R H H q 1 @ @ @ O @ @ 8 @ O X @ O 4 8 K O 4 @ @ @ & _ ] ",
"@ @ @ 1 6 @ @ @ @ @ 4 ] x ; K ) G x.6.@ * 4 x @ 1 ; 6 6 6 b 1 @ @ R ! q 6 0 @ O O @ @ 0 0 1 { ; @ @ ; 0 0 6 6 @ 1 q 0 8 ; @ @ @ 6 q 6 6 @ ; @ @ @ 0 q 6 @ q 0 q ; @ @ @ @ @ @ @ 6 O 1 @ 1 6 6 6 8 0 6 0 * B.4 6 0 R Q H q 1 @ @ @ @ @ @ @ @ O   ; 1 O 1 b } O 0 4 1 O X O ",
"@ @ @ @ @ @ 1 0 8 @ 6 @ 4 0 6 U x A +.x > 4 z @ ; @ 6 6 0 ; @ 6 6 @ 6 6 8 1 @ 1 6 1 1 1 @ ; @ X @ ; 6 6 ; 6 ; @ c E q q 8 6 6 6 X 6 1 0 6 6 ; @ @ q 1 q 0 @ 6 @ @ @ @ ; @ @ @ @ @ ; 6 6 6 6 6 6 6 0 0 6 * s.U 0 8 c Q H q 1 @ @ @ @ @ @ O @ O     c 4 O * 0.l.A 1 @ ; q 7 ",
"@ 1 0 @ @ @ @ 6 1 0 ; @ @ 1 1 q R q Y w.~ n n y ^ ~ ~ ~   R ; X 6 O ^ ^ ^ ^ ^ ^ ^ ^ ^ ; ; @ @ 6 6 6 6 6 0 H 0 1 0 0 q H 0 0 6 @ 6 6 8 ; 6 6 6 6 @ @ @ @ 0 6 @ @ 6 6 ; ; @ @ @ @ 6 ; 6 @ 1 6 6 6 6 6 6 ; 1 7.j.6 8 q Q H 0 @ @ 8 1 @ @ O O @ @ O   o H 1 6 q ! j.< 6 @ @ @ ",
"; ; @ @ @ @ @ @ @ @ @ 6 6 6 8 q G F.].U.w.@.N.t.' t.' ~ XXy c * ^ [.^ ~ ^ ^ ~ ' ~ ~ ~ .X*.@ 6 6 0 ; 6 ; 6 6 0 O ; ; ; 0 0 6 6 ; 6 @ 0 q 8 ; 6 6 6 X @ 6 @ @ 6 6 6 6 6 ; @ @ @ ; 0 0 1 @ 1 @ 6 6 6 ; ; ; 6 3.Z.6 8 q R H 4 @ @ @ 4 X @ @ @ @ @ 1 X = v } 6 1 7 ( B.D @ @ O ",
"G = X @ @ @ @ @ 6 ; @ 6 6 8 6 0 @.E.( C.7.q q @ 1 q 0 6 @ oXz ) {.X z x b q 6 6 8 @ 1 q <.w 6 1 1 1 6 6 ; 1 ; X 6 6 6 6 0 6 6 6 6 6 6 @ @ ; b ; @ @ f 0 1 6 6 6 1 ; @ @ @ O @ @ ; # t 1 1 @ @ 6 1 @ 6 1 ; = m.0 q q H L 4 @ @ @ @ @ X @ @ @ @ @ > H + v } 4 o q ( M.Q 8 f ",
"@ @ @ @ @ @ @ @ 1 ; @ ; @ 1 6 1 {.3 l.` C.4.> X 0 8 6 @ @ 2 ,.b.6 q Q q 0 6 q 1 R * 1 @   (.@ @ @ @ @ ; 6 @ @ @ @ ; 6 6 6 c c 0 q q q R 0 X O 1 6 ; ! 0 1 @ @ @ @ 6 0 @ @ X @ @ 6 # :.@ @ @ @ 6 6 @ @ @ @ 6 0.j.q q q G 1 @ @ @ O X 8 @ @ @ @ 6 < O   o E ] c Q K K [ 8 E ",
"@ @ @ @ @ @ @ @ ; @ 6 8 q G H 6 {.O c.6.c.s.B O 8 ; ; @ @ + <.D.O @ @ @ @ O O O 0 @ 6 @   (.@ 6 @ @ @ ; 6 @ @ @ 6 0 ; 6 6 ! 8 1 0 6 0 0 0 8       @ 0 1 @ 6 6 @ 1 @ 1 @ X @ @ @ 8 # F.1 @ @ @ 0 1 @ @ @ @ @ m j.q q q G @ O X @ @ O O X * ; q 1 @ O O X r e.h.3 @ O f | 3 ",
"@ @ @ @ @ @ @ 1 ; 6 1 0 6 1 0 @ ].O j.0.k.B.* eXO 8 6 ; X + <.D.O @ @ @ O ,.,.@ @ @ @ @   (.@ @ @ 1 6 0 6 @ @ @ 1 @ @ 6 6 q 1 1 q 6 @ ; ;   UXt @   O @ @ 1 0 @ @ @ O @ @ @ @ @ ; 1 { 1 @ @ 6 q 1 @ @ @ @ 6 = | H H q N @ 8 O @ O X @ X 0 4 O 8 1 @ 1 @ O q J v v A 1 4 4 ",
"@ @ @ @ @ X @ 1 6 @ @ @ @ @ 8 X ].O C.m.( x.* SX  @ 1 6 ; + <.D.O @ @ X @ }.}.@ q X @ @ ` `.@ @ @ @ @ @ @ @ r     t @ 0 6 q 7 D.  6 t ; 7 9   6 O <.^ X   O 1 O @ @ X @ 1 @ @ @ 6 1 1 @ @ @ @ 1 @ @ @ @ @ ) 1 e.! H H R 4 @ @ X = 6 @ 6 < O @ X 1 @ @ O @ X x _ o.Y * N 4 ",
"@ X @ @ @   1 6 @ @ 1 6 ; 6 6 @ ].< B.t G _ 0 AX  @ @ @ @ # S.D.O X O @ @ }.}.@ 1 @ @ @ O (.@ @ @ @ @ @ @ @ (.rXsX^.O @ X X tX+XPX  KXO UX  PX+ pXtXsXO 6 @   #Xi.O 6 6 @ @ @ @ 6 @ @ @ @ @ @ @ @ @ 6 @ @ > < 0.j.Q H 4 X @ @ @ 1 @ @ @ O O @ X x 1 ; = @ O @ 0 G 0 M U q ",
"@ @ @ X O 8 > @ 1 ; 1 6 6 ; 6 @ {.G q.6 L x S SX  ; @ @ @ + b.K.= X @ @ @ }.}.1 @ @ @ @   (.@ @ @ @ @ @ @ @   mXbX  eXgXbX7 O ,.IX  7 UX,.  HXX AX/.O 1 @   fXKXHXwX  @ 6 1 @ @ @ @ 1 @ @ 6 @ @ @ @ 1 @ 1 = { x l.R H @ @ @ @ @ @ 1 @ @ O O @ @ a G = ` A O @ O : R Q [ Q ",
"X @ X 6 q 9 @ ; 1 @ 1 ; ; ; @ @ .X] 7.0 K x O PX  ; X @ @ X <.D.0 X @ X @ }.tX'.  @ @ @   (.@ @ @ @ @ 6 6 @ O hXdXO # 2 9   UX<.PX  O UXt   HXX O 7XUX+ 1 6   #X1.  @ O O @ 1 6 0 @ @ @ @ @ 6 @ @ @ @ @ @ @ 4 * k.Q G ; 1 @ X 6 1 X 1 @ O O O @ @ c @ 6 1 1 O O X @ q G e ",
"@ @ 4 6 @ @ 1 6 6 @ 1 6 ; @ @ @ {.! g ) G c *.z.3.1 @ @ X X <.i.@ @ @ 6 ; X D./.X @ @ 0   (.X @ @ @ @ 8 @ @ ,.dXjX-.@ @ 8 # KX# UX  BX+ PX  KXO :.r SX7 @ O ,.`.^.;.@ 1 @ X O O ; 8 1 @ @ @ @ @ @ X @ @ @ @ 1 @ r.[ G @ @ @ @ @ @ O O O X O O O O s 4 1 O X = , 3.[ b z = ",
"1 8 x X X @ 1 6 ; @ 1 6 6 * X G -Xr.M M 8 4 m 0 ..l X 4 X X <.D.O @ @ 1 1 8 X @ @ @ @ 1   (.@ @ @ @ ; @ @ O (.X O (.@ 8 8 @ ^.tXz.O [.O b.: G.@ i.sX<.@ @ O }.#X;XG.O 1 6 0 ; ; X W ; 0 @ @ @ @ O W @ @ @ @ @ O 6.| 4 ; O @ X @ @ O @ @ @ O O O O X z = c @ > 3.L.h.6 ..y.",
"G z @ @ @ 1 1 ; @ @ @ 6 q f < l..X) 0 c ; 4 X.* x.p., X ; r %.:.9 X @ @ @ @ 1 8 @ @ @ @ @ D.@ @ @ ; ; @ @ @ @ 0 0 0 0 0 ; @ @ @ X @ @ 6 1 ; @ 6 6 @ @ @ ; 6 6 @ q 4 @ @ 1 @ 1 0 H q 1 1 @ X X O @ @ @ @ @ ; ; @ 4.M.1 @ @ @ @ @ X O O O O O O @ X X ; n ~ W 0 6.c.j.8 X x ",
"0 * @ @ @ @ @ @ @ @ 1 0 c X | ) A ;XO @ O @ 4 ; C B.= @   #X    $X  O @ O O @ @ @ X *   +X  @ @ @ 6 @ @ @ 1 O   @ @ @ @ ; @ @ @ @ @ @ 1 @ @ @ @ @ @ @ ; 6 6 6 8 8 ; @ 6 ; ; @ ; 1 @ 6 6 ; @ ; * ; @ * 8 ; 8 6 q k R.4 @ @ @ @ X @ u - X X * @ @ 6 0 0 8 D < = q @ X 6 z j ",
"A > X @ 1 @ @ @ @ @ 6 R z K l.N l.g }.`.`.(.'.{.`.oX`.].`.  * h % }.`.[.).(.(.(.).(.}.OXX ; 8 ; 6 @ ; @ @ @ : V X # : , p o o & + @ @ @ @ @ ; @ @ X 6 6 6 6 6 1 6 1 @ 6 6 6 ; q 6 f W 6 8 8 6 0 6 @ @ 6 @ @ O X X k.< @ X # @ @ @ * [ A @ @ 1 @ @ ; 0 q 1 - _ o.G ; @ > N ",
"0 * X @ @ @ 0 ; @ 1 H M @ ! ! 1 m.g ; # X + + 4 * ] f + @ > h.o.q   4 # + + + X + + 1   q q 0 4 6 @ @ @ @ @ 4 A @ 0 Q L L q H { 6 ; 8 0 8 R v ; > 8 6 6 t t 0 y V p @ @ p V V u.n 8 0 @ > t n 6 ; 0 8 8 ; @ 7 0.G c 4 @ 1 1 1 @ @ 1 @ @ 1 @ @ @ = 1 1 1 n m I 3 @ 3 + 3.e.",
"0 b f > @ 1 G ; @ @ } 3.` X.f ] a.*.|.i.<.<.<.v.S.E.u.<.}.# O O 9 }.>.,.<.v.K.i.,.<.,.}.r @ @ 8 @ @ @ @ @ @ X O @ @ @ @ @ ; @ @ 6 6 1 1 1 < 1 6 0 0 6 6 q q 0 G ] } K @ G Y } j.Y 4 1 @ 1 4 4 4 @ @ @ 1 6 c 0 @ H 1 4 @ @ ; ; @ @ @ @ @ @ @ 1 X > 4 @ X k x.4 @ @ X = 6.h.",
"6 6 0 8 f > ; ; 0 0 ] B.s.z Q C.s.{.* 8 ; 6 ; @ 1 [ m ;   OX    OX  @ X @ @ 0 6 > ; @ O [.+ 1 6 ; ; @ @ @ @ X O X 9 X ; q 0 6 1 1 @ @ @ X X > 6 ; ; 6 6 1 @ ; ; @ @ @ @ X ; 1 @ @ @ @ @ @ @ @ @ @ @ @ 1 1 @ 4 > ! 0 @ @ X @ 6 6 @ @ @ @ @ @ @ ; q ; < = _ I > A X * c I 1 ",
"@ 1 6 0 b > z 8 6 ; L C.b 0 q c.|.O 6 * @ 1 8 @ 8 ..m 0 ; # :.<.# X X @ @ @ @ X @ 0 > X O `.@ @ @ @ 6 8 @ @ O X 6 q 6 0 6 @ @ @ @ @ @ O X 8 6 6 ; @ 6 6 @ 6 6 6 ; ; @ O ; 1 @ @ @ @ @ @ @ @ X @ @ @ @ 1 O X X @ 1 4 @ 8 b 8 @ 1 @ ; 6 @ X @ X ; 1 @ X 6.h.< @ q : s D 4 @ ",
"@ 6 @ @ @ 1 0 H M ) ..` g 8 4 _ {.  q = X 4 q X ] | N @ @ X <.D.O X O @ X O @ O @ @ 0 6   ].X @ @ @ @ 1 ; > ; @ @ @ @ @ ; @ @ @ @ @ X z 8 ) (.@ 6 q 6 6 6 6 6 6 6 ; @ * 6 @ @ @ # @ @ @ @ @ @ 4 @ O @ @ @ X ; 1 @ @ @ @ @ 0 c 0 O @ 1 6 ; @ X ; 6 O k | L < X 7 3.k.S X @ ",
"1 0 ; @ @ ; b ] ] 0 U ..o.s ] x ].X ! * X @ O OX@ Y M X @ X ,.D.O X O @   }.O OX  @ @ @ O `.* @ @ @ @ ; q q   @ @ O 6 @ ; @ @ O O @ ; R 1 3 kX7 6 @ O 6 6 6 6 @ ; ; @ q < @ @ # W O @ @ @ @ @ @ @ @ O O @ @ @ @ @ @ @ O @ O O 1 8 6 @ @ @ ; f 8 1 = b I m 4 X f b I X X X ",
"@ 1 @ ` N R 6 @ @ 1 ! q ..q o.= {.O x X @ @   HX  Y w.= @ + <.D.O X X @   ZX  mX@ @ @ @   '.@ 8 * ; 8 q 6 O #XX # @X@ @ ;   wXCX^.  tX  eX@ +X@ 7 ZXsX  6 6 6 :.t @ 8 0 O @ @ @ G O @ @ O @ @ @ @ @ O O X @ @ @ @ @ @ @ O @ O @ @ 0 8 ; O O ; R t 5.j.z 6.K * M D X > A 4 ",
"x ` X.Q @ @ @ ; 6 0 q E 0 K m.* {.O m X X *   AX  j.L.g ; + <.D.X X @ X   hXjX  @ X @ 6   (.O 0 R 8 6 @ @ @ wX/.}.$X      w r   UX  pX[.mX  KXO HX+ n 7 ; 6 7 %XD.# 0 @ X O @ @ O @ @ @ X @ @ @ @ O : X @ @ @ @ @ @ X 6 O X > @ 1 O @ 0 0 X > 4 m c.D 0 X.U s ] 0 < 1 5 * ",
"q.Y ; ; ; ; 6 6 6 ; 0 8 6 Y ) K |.6 x ; 1 H   AX  l.L.* @ + <.D.@ X X * * xXjX: z c 8 @   (.@ 6 6 4 6 > @ @ y pXjX9 dXBXHX  @XfXPX    UX  O KXO tXAX#X@ ;   tXAXMX$XO 1 ; X @ @ @ @ @ @ @ @ @ @ @ @ 0 G @ @ ; @ @ q 1 ; ; @ 1 1 @ @ X O @ g R a x J 8   k ` Q D @ X * X 6.",
"f 4 ; @ ; 6 ; ; ; 1 6 f ; | = U {.E = @ ; ;   KX< ] y.* X : S.G.> a b E @ AX  ZX6 6 q M a `.8 z * * @ 0 8 *   BXCX        9 CX  PX  ^.FX+X  KXO   + FX7 6 6   XX*.  6 ; 6 G @ 1 @ @ @ @ @ @ @ @ X @ @ @ @ @ @ @ @ @ 1 ; 1 @ * ; 6 ; * * = x ) p.Z.p.a.q.7.I.} q @ = 0 1 @ ",
"1 e.l @ @ @ @ @ 6 ; @ 8 q y.V R (.< z a @ = * (.1 H y.> 1 0 i.D.0 q @ @ @ 1.O (.O q 6 4 O '.1 6 0 q 6 @ 0 8 * NXkX  @ ; 8   UXrXKX  UX  UX  PXO eXpXPX  6 O fXkXVX7XO @ 6 O @ @ @ X @ @ @ X O O X @ @ @ 1 @ @ @ @ @ @ X 4 * E 1 # u X @ * G g M.j.j.h.K Q j.] 8 7 z < X X ",
"q h.> ; 6 ; ; ; 0 8 8 x l.a.6 z [.X 0 q j Q ( = 0 R y.l * > S.D.O o . 6   O @   : @ ; 6   (.O o * i @ * 8 c q 1.wXX * 8 8 8   e   9   9   v O w X t   H 0 7   * X X 6 6 q @ @ @ @ @ @ O X X X X @ @ @ @ 1 @ @ @ X & , @ = d K ; > W Q @ * 8 q.x.G 6 0 6 m 0 m H 3 4 < X X ",
"6 ; 0 8 * ; 0 0 0 0 0 _ V.5.K 8 ].X ; [ = 0 ! x H 0.I.w.%.9 ;.<.9 4.n ; @ ; ; v B 8 0 = X '.) X.[ 0.m E 6 b ,XbX  8 q q 8 c 8 6 8 8 6 z z 8 n 8.8 6 l z 6 6 z c ; , p p e : @ : * X @ X X @ X X @ @ ; ; @ @ @ ; 0 @ Q 4 1 Q C < @ < 4 ; 8 k j.I 6.D @ O m X.G 3 @ O O O X ",
"; A c q ; 8 , 6 6 ; 6 _ B.a _ @ 9 }.@ N X @ 0 z ] X.B.r.  @X  O #X4 6 @ O @ ; q H 6 0 ; OXO < 6 ( ] A @ M 6   X 6 1 1 0 q c 6 z ) 0 6 q G z L j.H 0 } ] 6 ; ( } 0 R [ j.' [ @ E K G 1 @ 1 4 X @ @ @ 1 1 @ @ @ @ @ @ X @ X 6 1   X O X ; 8 q H 1 4 4 O = g D 3 X X @ X O X ",
"0 z G 6 q q.j : 6 6 q o.a.t c ; q n OXK.G.K.K.G.F.E.2XY.OX* = @ ; $XD.S.G.K.G.G.D.D.D.}.: f b H 1 @ X z R @ 0.7.k k a d d ; : 7 q @ 6 > M M m m x z 6 6 ; ; ( ; 6 1 @ 8 } 4 @ q 1 @ @ O O @ @ @ @ @ @ @ ; @ @ @ X @ X @ * z 1 O $ X # k z ..K K 6 * z 1 c 4 O X @ @ @ @ O ",
"q b 8 q c K 0.5.p 8 b c.7.R a @ E x x X O O     O @ [ =   6 c k `     X O O           X b 0 @ X ; ; > ] 6 x j.c.V.L.y.y.a.N 9.4.V h a h z 9 b ` ` ( 8 ; > ; b ; = a > 0 4 6 @ @ 6 O @ X X @ @ @ ; X @ 1 @ @ @ @ @ X X X = E 1 X = 0.V 7.h.K x 4 z q 4 @ 0 @ @ @ @ @ @ ; : ",
"G b G ; G q j.y.k G Q Z.8.o.* E e.w oXG.(.^.`.`.{.|.oX|.OX* ) G O OX{.`.`.`./.^.`.K.|.OX@ ; ; z 6 8 H 0 ; L.q c ] c.V.Z.a.` z.V.B.` q.a.9.8.8.8.l 8 ; ; 8 * E g 6.0.E = * 1 ; @ @ X - = x > * = > j * * g > ; X ; ; = = m ! 4 * @ 3 5.T.X.x ! H b G 1 - 0 X @ @ X @ @ @ f ",
"6 8 0 6 > H H ] 8 x { I.M b R c @ oXa s g M E Q G R M.5.* <XO   $X  @ 4 K 8 * 0 q G 1   OXO 0 6 @ b ; 6 x B.> 0.c q H } C.r.y.y.B.t.N.l.l.Z.R.Z.I.0.6.5.s V 8.V *./ Q q R 6 X * X @ f L 8 c @ G 6 R q @ 8 7 @ X ; * = j 4.3.b 3.3.s 6.h.! ] G 1 G q Q X _ < @ X X X X @ s ",
"8 8 : ; 4 = 0 c Q +.B.y.( k ( m {.` E c y 6 c z z _ Z.L.x 9 ;.S.9 @ @ @ @ @ 1 1 @ 6 6 H + G.@ ; c q ; ; y.k.| | R q c b 8 S.Y c.W.r.[ R 8 | 1 Q K G R c.[ m.B.L.s.p.6.f > ; * - * X @ @ X : - * * d 4.j j 3.3.f z 6.0.y.V.Z.j...x.G m.q q.4 4 ; 6 1 4 6 4 1 6 O @ X O O = ",
"0 H x x , G z z G } c.0.e.X.b 6 .Xm c ] x R H Q x B.R.| ; @ S.G.  @ @ @ @ @ X @ @ ; @ @   (.X c R ; @ * I.0 c G K q q Q R H.6 q Y U [ 7.5.X HX7 h s ; - = , ' _ o.m.+.k m s 3.9.k * j 6.* g N f 6 8 z 8 @ 6 1 q 0 G < 7.U ! G 1 4 * l.z x.C X ; 6 1 @ @ @ O @ @ O O   . = ",
"8 H L L 8 6 q c c q [ ] ..c E ( oXc 8 q q c H.6.*Xj.x H = @ i.G.O @ @ - @ t tX$.+ > ; ;   (.* q 6 ; ; e.r.z !     6 q q _ M.  X a v   j.Y a.w.p.p.N = p.p.a.L.0.0.B.g b 8 8 q H q ; 1 1 6 @ 1 1 @ ; ; 6 6 6 ; 6 ; q - 0.L ..4 ; @ f H A 3 O X ; 1 @ = ; X @ @ @ O O   h s ",
"8 8 > > 6 0 q 0 E b E ( E R L Q oX* E c H ' nX[ JX  f ) a + <.D.O @ 1 q   PX# HXO q @ ;   (.8 ; 0 0 ; W.R r.K.HXHX{.@ 6 Q 4 MXZXMX  UX  IXO JXD >XHXFXC Y K K <X*.0 ; 1 @ 1 @ ; @ 1 @ @ @ 1 @ @ @ @ @ @ @ ; 6 ; 0.A j M.0 U @ * ; < 4 @ @ O X ; 8 O a G O X @ O O   O j b ",
"b q b x = 6 ; 4 Q Q H ] Q c q ! oX6 R 8 6.U.pX  CX* e.o.@ + <.D.O @ @ @ O NX  hX7 @ ; @   |.@ 6 6 6 8 V.6 +.@   UX  D.[.XX6     IXO K.HXOXX KX  PX    w ;   ;XBXsX{.@ @ @ @ @ @ @ @ @ @ @ @ @ @ @ @ @ @ @ ; ; 6 Y 4 3.x.; 4 = 6 ; @   X @ @ @ @ G 3 * 4 X O X <       a 1 ",
"w R ! z f ; ; q z 8 8 8 H q Q Q {.6 N s.V.y pX  ZX4 G ; @ + <.D.O @ @ X O BX  jX7 @ @ @ a '.@ 6 ; @ k.Q _ Q @ sXi.X `.}.OX  JXeXIX    UXX @ KXO ;.HXHX  0 ; ~ iX/.t @ @ @ @ @ @ @ @ @ @ @ @ @ @ @ @ @ @ @ ; 6 q 8 * 9.Y g 6 6 4 1 O O O @ O 1 @ O X 6 O O O X 6 ;   o = 1 ",
"4.V w c x g 8 ( x 1 c 8 q b K c {.N W.| ; n jX  LX  > ; @ + <.D.O @ @ @   AX  mX+ @ @ f 0 ^.@ ; ; > V.6 ] c t NXO X @ 6 6 t NX  UX  sX[.MX  KXO o   NX9 6 6 # u.7 X 6 @ ; @ @ @ @ @ @ @ @ @ @ @ @ @ @ @ @ @ ; G 6 ; e.4 6 0 < X O X O     X X @ @ X 8 g X O X @ 4   - ; @ ",
"y.5.4.V ! R R ! 8 q 0 c R x c b -Xl.q a ( ` 8XMXG.@ 6 ; @ + <.D.O @ @ @ > [.mX@XO 8 m R   (.@ 6 ; y._ q q 0 OXjXCX`.X 0 q   fXZX%X  fX  sX: uXX 7XHXeX  @   dXMXBX$XO @ ; @ @ @ @ @ @ @ @ @ @ @ @ @ @ @ @ @ 6 6 ; l } @ 4 1 @ ; O O O O     : X @ = 4 @ D X X * f , 3.1 @ ",
"c.V.9.5.8.n E ( ; 8 c c E ` 7.V..X  N 0.r.U @ O X ; ; ; @ + i.D.O @ @ 1 4 X   X > H G ;   ].@ 8 > W.0 b q 6 @ @ O @ 6 h 7 6 X   * 7   v O ] S 4 1   O ; @ ;   ; @ X 6 @ ; @ @ @ 1 @ @ @ @ @ @ @ @ @ @ @ @ 6 ; 6 e 4.h.a 4 < X A O O O O   * 3.q   d 4 O O @ X ; b * 3.4 @ ",
"N j.n.L.9.0.0.f c R c R ` L.C.@ {.z r.+.4 ; ; 1 @ @ ; ; @ : ,.D.X @ @ @ @ @ * M 6 1 ; ; O `.@ 0 _ V.0 +.6 8 0 7 , 1 ; [ 8 8 H H 4 1 @ 4 @ @ X X @ @ @ @ @ @ X 8 1 ; @ @ @ @ @ @ 1 1 @ @ @ @ @ @ @ @ @ 6 6 6 6 c V p.D q 4 X @ @     O O   O < D X m I O O @ X * ; * > 1 @ ",
"| ) [ c.c.y.5.4.q c x w.Z.] f g @.~.G 6 ; ; 6 @ X @ ; X   XX  + {.O @ @ * - 4 < @ @ ; O (.e 6 * B.Q E E 8 q 6 R H @ 1 G 6 6 4 1 @ @ @ X X @ @ @ @ @ @ @ @ @ @ c @ ; @ @ @ @ @ @ @ 1 1 @ @ @ @ @ @ 6 6 6 ; 6 8 0 l I.q q @ X @ O X   X O O   X O @ 6 0 g > X @ s m k 6 @ @ ",
"] ` b ( ` x.V.7.N _ I.V.0 ( ` e.y.:.[.*.:.:.*.i.>.*.i.;.}.7 : @ r }.*.u.u.f.=.*.;.:.:.{.' > ; N I.q k.K H 0 ; 0 @ @ X 7 6 ; 6 6 @ X X X X @ @ @ @ @ @ @ @ @ X z @ ; 1 @ @ @ @ @ 1 1 1 @ @ @ @ @ @ 6 6 6 ; 6 8 6 3.C.b Y X X @ X X   O O     X X @ 1 @ @ D @ @ s 0.7.4 @ @ ",
"D U 0...[ ( ] h.l.V.j.8 E r.l.U } ;   t 9 w J J 9 t J 7   6 0 @ @ X t J F J 9 e 9 e t O G 0 @ B.o.q G 0 8 6 ; ; @ ; - V ; 6 z 6 @ @ ; X X @ @ @ X @ @ ; @ @ * b @ ; @ @ @ @ @ @ @ 1 1 @ @ @ @ @ @ @ 6 ; ; 6 8 * 5.c.q 4 X ;   X X O         X O > 1 O X O O @ * M 6.3 @ @ ",
"; ! Y H R | M m D A a N r.[ 0 @ 6 ; @ @ @ 6 @ @ @ @ @ @ @ @ @ = x 4 @ @ @ ; @ @ @ ; ; 6 ; 8 z I.q _ 6 8 0 6 ; 6 @ 1 [ q.; ; | 1 @ @ @ @ X @ X @ X @ @ 6 @ @ @ H 6 @ @ @ @ @ @ @ @ 1 @ @ ; @ @ @ @ ; ; ; ; 6 8 9 9.j.q @ X 1 f   O   O X O     O = 4 X O @ X O - = b < @ @ ",
"0 x * K Y ` ` q s m j.U Q 1 f @ ; @ ; ; @ @ @ @ @ @ ; @ @ = ; H @ X X @ 1 0 @ @ @ ; 6 6 ; 6 +.k.c Q 6 0 6 @ 6 6 @ @ ] Y > 6 4 @ @ @ @ X X @ @ @ X @ @ 1 @ @ @ q q @ @ @ 1 1 1 @ @ @ @ @ @ @ @ @ @ @ 6 6 6 6 6 h a.] H @ @ X 4 3       O O   X X @ 4 * = O O . l 3.f @ @ @ ",
"E > 4 ; H U L N l.L q R 6 0 f @ ; @ 1 ; @ * @ @ @ @ @ X > c @ X @ X X @ @ 4 @ @ * > ; ; 6 @ C.q ( 6 0 6 @ @ @ @ @ X 0 ; q ; @ @ @ @ X @ * X @ @ X @ @ @ @ @ @ > 8 @ @ @ 1 @ @ @ @ @ @ @ @ @ @ @ @ @ 6 6 1 6 8 s V.c K O X O   O     X O O   O * > O O 4 4 O $ 3.e.c O @ @ ",
"q @ @ 1 q = A D 1 1 0 8 1 A 6 @ X X @ @ 1 ; @ @ @ @ g z 4 O 6 @ X @ X @ @ 4 ; X L 8 6 ; ; x e.( [ 6 6 ; @ @ @ @ ; @ 6 6 6 a 6 X @ @ X @ 0 X @ @ @ @ @ @ @ X # 8 8 @ 1 @ 1 1 1 @ @ @ @ @ @ 1 @ @ @ @ 1 6 6 6 q k c.0 A X O O O       X @ O   O * G O X O O O & k [ q @ @ @ ",
"@ : * , q = p X @ & t @ @ 1 ; @ @ ; ; X @ @ @ O a q K X @ @ @ @ @ @ @ @ X 1 1 ; 4 0 > 8 ; L.r.e.( > 6 @ ; @ ; ; 1 @ 1 6 z ! 0 @ @ @ @ @ @ @ @ @ @ O @ @ @ @ V V c ; 1 @ @ 1 1 @ @ @ @ @ @ @ @ @ @ @ 1 6 ; 6 0 3.x.f < X O O O   O O O O       * 4 O O O O   h N Q 1 @ @ @ ",
"- e K 1 R ! = 6 > m 2.$ @ @ ; @ 1 1 ; ; * X = M 0 @ @ @ @ @ @ @ @ X @ @ @ @ 8 ; @ 8 0 8 q W.[ B.K R f l @ ; @ @ @ @ ; ; q H @ @ @ @ @ @ ; @ @ @ @ X @ 6 @ @ ! k.b ; @ @ 1 @ @ @ @ @ @ @ @ @ @ @ @ @ @ ; 6 6 e 7.Y q < X O O O   O   O       X > 1 X @ * O O k 0.N @ @ @ @ ",
"H 1 X 6 q 4 1 4 D l.k i @ @ ; @ @ @ @ 6 ; g H < X @ @ @ X O @ @ X @ X @ X + q ; @ 6 ; 6 ` l.r.q N A 4 ..; 0 @ ; @ @ X 6 8 8 6 ; ; @ X @ @ O @ X O @   6 O ; Q K R @ @ @ @ @ 1 1 @ @ 1 1 1 @ @ @ @ @ ; 6 6 6 - a.K 0 X X X O   O O O O O O o X 8 < @ O 4 3 * 3.X.6.1 @ @ @ ",
"@ X 1 ; ; @ @ @ q g.( p @ 1 ; @ O +X7XX #X7X  [.# @ *.  ,.wXn X %.: (.: ,XY.v.X <.G.rXX I.Q R JX6 @X*.4 1 1 @ ; @ *.sXt / tXn 6 *.%.7X%.#.pX:.OX#Xy uXX SX: G 6 8 ; @ @ 1 1 1 1 @ @ 1 1 1 1 @ @ @ @ ; ; 0 1 l Z.q @ $ u u   O X X X X X O X * q @ O O O & p k ] m < @ @ @ ",
"; @ @ 1 8 @ X 1 0 1 h.* o 1 ; @ *.$XJ &.eX#   BX#Xy eX  NXX @ O eXt tX%X;.@ CXb.:.gX7 0.l.E  .eX@ KX  #X;.7 `.t   CX  VXOXY.JX7 wXhX#   CX  O mX  ZX  G (.{.0 x q @ @ @ @ @ @ 1 @ @ @ @ 1 @ ; @ @ 6 6 6 ; 0.3.C.m q , h k > @ @ @ @ @ ; O O X A O O $   - b M D ; @ @ @ @ ",
"; @ @ 1 ; @ @ 8 X @ 4 = i 1 @ @ + KX%X%.@XX ^ ^.jXe wX  hXpX: X +XHX  OXjX<.^.NX  AXrXy._ X.t rX  kX1.[.MXt pX@   BX  bXK.vXjXw 7XrXsX# bX    jX  jXfXO [.|.r b 8 ; 1 1 1 @ @ ; @ 1 @ @ @ 1 1 1 @ 6 ; 0 x h.6.C.( L 6 Y g.I @ @ X * O @ O   = 5 &   - ; * N ..0 = @ @ @ @ ",
"@ @ X 6 > ; 6 8 @ @ 1 H V & ; @ 7   rX:.}.  {.hXLX# %X  xX  X X 7X+X(.7X9   X gX;   OX2X( +.n rX  kXD.<.hXt $X;   bX  MX|.A.jX@ wXdX    xX    jXO   e tX`.oXE E 6 6 6 1 1 1 @ @ @ 1 @ @ @ @ @ @ @ ; 6 6 K J 7.h.o.C < O O O     O < @   % $ X 6 a 0 @ D * m U * > @ @ @ @ ",
"@ @ W z > @ q @ 1 6 @ g.k e @ @ # jXjX  MXtXwX  XX7 CX%X7XdX<.X @X7 kX<.kX%XX wXX gXDXX...[ 7 bX  pX+ jXpX^ OX6 X rXgXoXY.nXyX{.^.7XgXG.7XjXe tX  tXNXt eXv.K ..@ 6 ; 1 1 1 @ @ @ 1 @ @ @ ; @ @ @ 6 6 6 6 n p.G H 1 X X X u o o   O O O X > @ 4 C C O X s 6.D = 6 @ @ @ @ ",
"@ 1 A G ; 1 ; @ 1 @ @ D G , @ @ 6     W       @ O ;         O ; O 7   @     8 X v * B...O.L 0 G.n   8 O O 7 @ 6 6 @   R B.r.e.; 6 X O @ X   :   9     = ;XX p E @ 6 ; ; 1 1 @ @ @ @ @ 1 6 ; @ @ 6 6 6 6 0 l Z.R G @ X X X * E 1 @ O O O O 3 4 O O   X * k [ A s 6 @ @ @ @ ",
"X @ @ 0 @ 6 X @ @ @ @ @ D = @ @ 0 ; 6 ( X @ X X @ @ @ @ @ @ @ ; ; ; ; 6 6 ; > 8 E B.m.[ Q 8 8 0 0 6 0 0 ; ; 6 6 6 q q ! I.B.M.q 8 6 6 8 8 1 m * ; * 6 x L.E M q ; 6 6 6 ; ; @ 6 @ @ @ @ @ ; 6 @ 6 6 6 8 6 4.C.M K @ @ @ @ X D 3 O   O     X = O O   X a 6.Y < a 4 @ @ @ @ ",
"= @ @ 6 6 ; X @ @ @ 1 @ C @ @ @ 1 6 L z @ @ X X X X @ X @ @ ; ; ; ; 6 6 8 6 8 q v W.[ ..8 8 8 x 6 6 ; ; 6 6 6 6 6 R q _ I.V.r.8 k 6 8 0 0 @ D 6 > ; 6 E W./ [ G 6 6 6 6 6 1 6 ; @ @ @ @ @ 6 6 1 ; 6 6 H 0 6.c.b D @ ; @ X @ O     O O   O X 1 O O X a k ! K X s @ @ @ @ @ ",
"> > @ ; 8 O @ @ @ @ @ X @ @ @ @ 1 6 L = @ @ @ X X @ @ @ @ ; ; ; ; ; 6 8 8 8 > 4.a.I.b X.c q H R 8 8 6 8 8 8 8 0 8 R c _ W.e.B.b j.6 b 6 6 ; 6 6 0 0 6 Q Z.a.H q 6 6 6 6 6 1 1 1 6 1 @ @ 6 6 6 6 6 8 > > G 7.j.R 4 X @ @ @ O d   O   O     X < O O X j 6.] 6 , s 4 @ @ @ @ ",
"0 ; ; N * O @ @ @ @ @ @ 1 @ X # 1 6 c X X X X O X X X X ; ; f ; > ; ; 6 z h 7.I.c.L.q.E b 8 q 8 8 8 6 q 8 8 8 8 8 H c e.W.B.V.K q 0 q ; 8 ; 6 6 1 6 ; 6.k.W.m q 6 6 6 6 6 1 6 1 6 ; 1 1 6 6 6 6 6 c q z m y.} K @ X O O   O * Q   O   O   X @   X = z U K 1 * m @ @ @ @ @ ",
"; ; K q O @ @ @ @ @ @ 1 @ @ ; : 6 O F.(.(.(.(.(.(.(.(.(.%.@ q ; X *.`.K. X=X2X.XoX2X-XN.; q 8 0 8 6 6 c 8 8 8 8 8 c E r.W.B.r.> q 8 ; 0 0 6 8 ; ; ; 6 k.X.V.y.6 6 6 6 6 6 6 6 @ 6 6 @ ; ; ; 6 6 6 R G =.q.x._ q X X X O O   O C O     O   X O X a j c G 0 @ o ; 1 @ @ @ @ ",
"@ 1 4 @ X O @ @ @ @ @ @ 1 ; 0 ;   $X9                   ^ {.X * OX/ ; N a.l.6 x ( M.w.n $X* 8 8 z 6 q H 8 8 q 8 q c E B.W.B.+.q 8 0 0 6 6 ; 0 ; @ ; ; U X.k.Z.> 6 6 6 6 6 6 6 6 6 6 ; 6 6 6 > z c Q J 5.V.] 0.K X X X X X X       @ O     X O X 6.) ! m m ; - = @ @ @ @ @ ",
"= ; O @ X O @ @ 1 @ @ @ 1 6 1 @ D.J 8 + @ X @ @ @ @ ; ; ; *.~ :.@.$.7.I.x.x N +.y.c.L.8.W u.8 8 H > q q 8 8 0 8 8 q R B.W.B.o.q 8 8 8 6 ; ; 6 @ ; 6 ; c ..[ k.7.6 6 6 6 6 6 6 6 6 6 6 ; c 8 b L D t 4.a.C.c m.K X X X O X * X   X X O O O O O * 8 Y G N 0.b j > < @ @ @ @ ",
"> O O @ ; X @ @ @ ; @ @ 6 6 X @ ].> = l O @ @ * * @ ; ; ; ; F.G.V p.C.U m X.e.| k.X.W.u.* {.8 8 8 8 0 6 8 8 6 0 8 q R B.I.B.W 6 b 6 0 ; 6 6 6 ; 8 ; ; q ` ` H T.@ 6 6 6 6 ; ; 6 6 6 0 6 K D K 4 = 4.9.c.j.K Y 0 a X o X   6 * @ X @ O     O X = q 8 z R ] K = 6 @ @ @ @ @ ",
"O X O @ ; X O X @ @ @ @ 0 @ @ X ].a | = @ @ * 6 * ; * ; > : f. Xa.c.q 6.e.| j.q j.e.R.p.* {.8 8 8 8 6 6 8 q w *.x 8 8 6XZ.m.0.0 Q 6 > 6 6 ; ; 6 0 6 6 0 ! k.8 Y 8 t 1 6 6 6 6 6 6 6 1 4 4 @ = a m 7.T.E.G :.8 q > q a X O X 1 O   O       O X q G c R H R 4 = @ @ @ @ @ @ ",
"* O   1 @ X O @ @ @ @ @ 6 X @ X .X= I @ @ @ >   > ; ; ; 8 h &X2Xh.f ) +.l.K q 8 } y.C.L.h K.8 8 0 8 8 ; 0 0 :.dX* 9 8 vXB.m.K X q z @   O ; ;   O 6 @ @ q ] E 1 K.fXO 6 0 O @ q 1 O O O   s k q 6 B.I UX  NX%.8 @ < @ A     4     X   O   O * q G G D 4 H 4 * 1 @ @ @ @ @ ",
"X X ; @ @ X O O @ * @ @ 1 @ @ X .X= & @ @ X   IX  @ = > l p.:XE.j ` O.h.q 8 q 8 K B.k.I.l K.0 8 6 H 0 6 8 6 *.DXHX^.8 aXB.z.JXBX .@ pXAXwX  ^ JXbX  {.%X8X1 Q X CX> 6 6 9 KXNXO {.dXmX;XHX2 D mXGXE.O IXO kX' O BXSXe $.[.NX      O O O     ; 0 6 0 0 8 0 0 ; 1 @ @ @ @ @ ",
"@ G *   1 X X @ @ @ @ @ ; X @ O oX1 , & X `.wXIXeX' f 3.I.h.D.Y._ ] U q 0 ].G.].q l.0.R.4.].8 8 8 0 6 6 8 ; %.jX  PXO IX` FX@ }.,X$.jX  UX  KX  wX^.sX[.@ 8 K   FX4 @ O ZXO # O mXn %X}.b.iXu o O PX  IX  jXn 8X).# CX#.NX  + O O O     O   = 4 4 4 3 4 0 4 ; @ @ @ @ @ @ ",
"1 C O X O @ X O ; X @ ; > X @ @ {.3 d & @ ~ ;.PX,.v 9.c.Y a F.E.G 0 8 8 6 rX7XrX8 l.q.R.q.|.f z 8 8 > 8 8 z u.gX@ IX* IX_ FXz @X$X%.gX  UX  HXwXIX@ sX%.6 8 O 8X^.Q 8 @ #XIXpX  xXn 7X'.b.eXj xXbXAX  IX  jXy ,XjXAX/.$.sX      O       X   > 6 4 1 @ @ 1 > ; @ @ @ @ @ @ ",
"= = * * * = = * ; @ ; 6 ; X @ 6 `.3 b , @ ;   AXh y.x.1 j ! Y.E.O 6 q 0 0 @ 6 6 c } B.C.B.|.6.N m x z > 8 9 v.pXO IX8 IX..GX@ OX;X%.dX  UX  PX    O sX&.6 q   IX  z ! @     kX^ bXP ,X).i.tX&XrX  PX  IX  jXn eX1.    $.sX    . $ % .   X X @ 4 1 1 @ O X k @ @ @ @ @ @ @ ",
"1 @ # 4 6 q > f * ; 0 > f * @ z `.O G a @ > h 3.L.h.= N Q K F.G.X 6 6 6 z ; 6 0 q L M.m.Z.-X] ` ` b z x z g ' IXMXeX_ IX..Y.PXDX$XX CXxXKX  %XCXHX@ sX-.; 8 >.yXc < Q a ;XxXLX  mXy wX[.^.yXj.UXgXmX  PX  kXy r IXBX^.&.dX  . u - - * X O O 4 @ O O O O   ; 4 @ @ @ @ @ @ ",
"  j = < @ 3 1 4 @ @ 4 0 x ; 1 ( `.  0 > p d p.T.Q j _ Y q 1 i.G.O 6 6 > 6.; ; 6 c c c.r.Z.-Xv U | ) M q R E M X m f I.] M.L.X @X<XD ~   UX    O   ;   X @ c X O Q g 3 p.O 4   7   o   X k x h.  X   :   2 O O O   O   X   O   * 8 4 C 1 O   O O O O O O * X @ @ @ @ @ @ @ ",
"< A O @ X @ = @ @ @ 1 4 x @ 4 ! u.9 0 6 8.a.x.G 6.X.H 6 1 :.t n *.; ; K K * ; 0 K q | r.J.!.B q Q ] _ x ` ( E 0.l.Q C.X.o.A.cXgX* X eXVXF.8 = = X @ @ @ @ G f X < Q   M.x @ X @ @ @ @ 6 9.l.R @ D O & o # X X X O   O O 4 O   O C < O X O     O   O O   * @ @ @ @ @ @ @ @ ",
"@ O   O O < ; * X X @ q z @ 0 L X OXn 6.M.D - z O.c * X ;.G.@ @ ].*.* = * X @ X @ * 0 N.6XZ.6.8 R Q U ..0.0._ l.Y X.U B.) B.* 1 U q c X H G H m j s f @ @ 4 4 f X G * D p.  ; @ X ; X k k.Y L @ @ X = * X 1 @ O O O O O O O O         X O     O O O O X = @ @ @ @ @ @ @ @ ",
"X   O O   @ 1 8 X @ = Q ; 4 6 H z = d.>XS.Y.Y.~.E.K.F.G.t X ; 6 X ^ ].K.K.G.i.G.G.G.K.z.[ I.q.b H b c ..l.o.e.R g [ q c.0.l.M 6 q 0 K G E m 3.! ! 6.5.a * X @ 4 8 u 5 u Z.= 6 @ * = * 0.| ! 8 < O @ 4 C @ 1 O O                 O       @   O O O O   X ; @ @ @ @ @ @ @ @ ",
"X * X X * @ 4 6 * 6 4 q @ 1 6 6 3.a.j.0 g r.` | c 8 * ; = = ; * @ 1 A q z c ; @ ; 6 8 ] X.R.y.Q q Q E o.e.0.| z 6.[ x U r...e.> 8 8 q q L } r.R M 0.j.K k 3.= X < h s j | e.X @ ; r k g.D U C O O O < O   O O . O         O X X O       @   O   O   X * @ @ @ @ @ @ @ @ @ ",
"O 6 O 4 @ @ @ 6 6 < 1 ; @ 1 = 6.C.} j s o.[ U 6 ( @ 6 ; G * 6 # @ @ @ 1 G G ; ; ; ; 8 ! e.c.B.N H U ! X.y.y.! ( x.] m b m.0.y.c H q H 0 q H Y G Q | K c | | x 3.j E D Y A C.= ; @ 3.} C @ T O       O O   X   a   X O       O @ O       O X X @ O X X * @ @ @ @ @ @ @ @ @ ",
"@ O < @ X * 1 4 O X 8 X * 4 q.B.) 6.! 7.6.M a N E k a s m a h h * * X @ @ : p X ; 6 q U j.+.V.e.q q E r.L.M.L r.K G U ( l.B.B.c 0 0 q 6 b c 1 1 H K q E G L K U 6.7.g 0 8 K ..; * 0.h.* X d   O   X O O   #   6 O @ O   X X   O         X @ @ < X X * X @ @ @ @ @ @ @ @ @ ",
"* O   * f @ @ O O @ > * = K x.K j.( } x.E c E N x 6.f 7.5.3.9.5.f a s s j 5.5.a 8 z N N q.r.V.y.x > 0.M.C.k.q Y 0 q q e.[ l.L.N 4 1 4 4 G A @ @ 4 4 q K G R > 0 U x.K ; z f O.: = l.C m @ G @     @ O     : O O O O O   O O             = 1 O @ * # * 1 @ @ @ @ @ @ @ @ @ ",
"* * * 0 <   O   X c @ 4 4 C M @ ! ] C A C 4 D D A S S g.I g.h.L < A 4 A K l.o.; 6 8 [ ..y.e.e.B.6.x X.M.j.Y 0 4 i A 0 j.b Q x.U X X @ @ 1 @ @ O @ < 4 3 1 A 4 1 q 4 C 4 H c q.5.q Q @ D < @ O     O O     ; O             O             * 0 X o = e * @ @ @ @ @ @ @ @ @ @ ",
"= 8 < O   O X @ 4 8 O @ X A N 8 I ; @ @ X @ X 1 X   X X O X 1 8 O O @ @ 4 A A @ = q G ..j.l.k.Z.q.=.e.h.G x 4 ; l u 8 E Y E R K - 1 @ @ @ X X O O X O   X O 1 @ A 4 X X 6 ! ] R.H K @ <   X O   O O O     1 O   X     X   O               6 . s f g ; @ @ @ @ @ @ @ @ @ @ ",
"1 <       O @ O q @ O @ O ! 6.f 4 ; X @ X X X 1 @ X X X X X 4 3 X X X X X * * f > z 0 U [ [ | Z.B.9.M.c m E ; 0 _ p A K q ] H R x @ O X o X O X O X O * X X X O 1 1 * a 8 [ b x.U > 1     O O   O O         O O O O   O O       O         ; & s R j 6 @ @ @ @ @ @ @ @ @ @ ",
"    X X O X O @ b O @ X G H q.V @ ; X @ @ X X @ X X X X X X X X X X * * * * 6 4 A G 6 6 E ` _ c.Z.I.} Q } K 8 6 h.m @ 6 0 K A I I 1 X 1 a * X X X ;   @ @ O @ @ @ @ 6 H H D 0.! K C < @ O O O   O   O O . u   O O O   O       O   O       > = 3.R j < @ @ @ @ @ @ @ @ @ @ ",
"  @ 1   + X @ 0 >   X @ G 0 a.j @ w * 7 # e [.@ e + # $.y y y i.X >   }.J + XX  6 # 9 9 v.E.] K.M.c.K.u.2 t 4 1 0 Y $ 6 ; 1 @ O ; @ @ * b 6 @ O O < O O O O @ @ @ @ 3 S D < x.I E O < ; O @ O O O   O     ,   O         O O     O   O     , = U 0 8 @ @ @ @ @ @ @ @ @ @ @ ",
"  g   X X @ O q   X X 1 1 ( I.j X BX  jXO ZX1.  AX  AXy JXe xXi.O O hX,.# AX#.mX1.BX+X,.bXOXpX|.nXoX8XcX7 SX  @ @ 4 p @ ; * & O 4 @ 6 @ S < @ X O X X O   X @ < < < O   O @ S < I O O < O O O O O       O e @   O   O O O       O         a 6.4 > 1 @ @ @ @ @ @ @ @ @ @ @ ",
"< C O < @   @ 8   O O O A Y l.f O hX* pX  tX$.  mX`.NX  kX# LX,.O   kX    mX  mXD.hXXXu.rX~ iXW DX8Xz.XX^ mX  @ @ @ 6.O @ 6 -   1 O 1 @ O O @ O   @ <   X 4 @ O O O O O O O       X   O O X X   O O X X O e < O                       * = s X.0 = @ @ @ @ @ @ @ @ @ @ @ O ",
"    O O     6 X O O O X A 4 j.f O gXX pX  eX}.`.xXX mX  jX  O fXy   kX    mX  mX(.:.DXv.rXP rXbXF.iX~ }.^ bX  @ @ < Y o ; 4 q   1 @ @ O X O O O O O O O @ < O O O   O O O   O O O O @     X @ O   X O O O 8 O O                         D > h.8 6 @ @ @ @ @ @ @ @ @ @ @ O ",
"X O O       6   O O O @ O g | a O IX7XpXo CXtX,.BX  CX  MX  tXAX    wXeX#.jX@XiXXX-.KXt pXt xX4 ZXz.hXZX  LXeX  @ O 6 - @ @ Z   @ ; @ O O O O O O O     O O O   O O   O O   X   O   O     X < O X * O O   < <             O           $ 5 + F ; 1 @ @ @ @ @ @ @ @ @ @ @ @ ",
"O         ; O   O O O @ 3 c j.d ;   # X v   # X   :   :   + O   + O   # a   e O O #   x ; c D U O A ;   7   O @ ;   1 8 - @ * X O 4 @   O O   X O       + O O   X X @ O     O O           O O   O 1 @     X O O                   .   , l , h = @ @ @ @ @ @ @ @ @ @ @ O @ ",
"  O   * * @       O O   C z | j X @ A 0 q o X X O   O         O O O     I 3 @ X @ @ @ _ 6 ! G 6 0 1 D X X O O O 6   < 8 m   1 @ X 4 O   O O O @       O = X     @ O @ O O O O O     O O O O O     8 < O   X O     O . .           = . a k 3.k 8 @ @ @ @ @ @ @ @ @ @ @ @ @ ",
"O X = ; < O     O   O X @ H j.k X @ 4 6 H * X O O O         O         O O X O @ @ O @ ! N A 1 8 6 @ < @ O O X X 0   O D D X 4 O X @ @ X   O O @ O O     > ;     @ O O O O         O O O O   O   X @ < O   O O .       X X       u & - j _ L q 4 @ @ @ @ @ @ @ @ @ @ @ O @ ",
"X > 1 O         X X * @ < G } 8.X @ 1 0 q * X X O O           O               @ O @ @ ` Q g 6 0 @ @ O + $ O X @ 1   O @ @ @ O o < @ ; X   O O @ O O     < 3     O       O   X O O O       &     @ O O   O X X X X X O O O O . $ h j k a q 4 < @ @ @ @ @ @ @ @ @ @ @ @ @ @ ",
"8 2       * X   * @ 3 O @ q [ 9.X @ 6 6 8 * X X O O           O       O O O O O O @ ; | 4 Q 1 1 @ @ @ * & O @ * * X O @ @ @ O : O @ 6 @   O O @ X           O X         O O O O O O     O r     < X   X X @ @ @ @ O O O O . . * k k 8 4 < @ @ @ @ @ @ @ @ @ @ @ @ @ @ @ @ ",
"a = X   X g O 1 < X O X @ 6 l.7.X O w S.u.i.:.;.;.;.;.;.;.;.;.;.;.;.;.;.;.;.;.;.;.;.v.J @ A 1 @ @ @ @ 0 = O < 1 = X X = @ @ O 6 O X 4 1 X     @ 1           O X     O O O O O O   .       p O     O O O @ 4 O O O       $ & = a ; D 4 @ @ @ @ @ @ @ @ @ @ @ @ @ @ @ @ @ @ ",
"> j X   I @ O O O O O O @ 4 x.7.. [.*.7 9 7 7 : # # # # # # # # # # # # # # # # # 7 7 ,.(.O @ @ @ @ O C 6 O @ 1 Z O X > @ X O A X @ 1 6 X     O < O       O O 1 @   O O O O O   O X * O   V <     O O O O <     O . X , o k a 6 4 @ @ @ @ @ @ @ @ @ @ @ @ @ @ @ @ @ @ @ @ ",
"A 8     O   O O O O   O X 8 l.7.=.n @ 1 0 7 1 X X X                     O O       < @ 1 $.^ @ O ; O O @ <   O O -   < 4 @ @ O 4 @ @ 1 0 @   O O @ O O     O O @ @ O O O X   O X   X ;     V <     .     % O . .   * * d j a 0 @ @ @ @ @ O @ @ @ @ @ @ @ @ @ @ @ @ @ @ @ @ ",
"q O O   O X X   O O X X X G l.7.`.  @ @ 0 > @ X X O O               X   O X     a X @ @   (.O O @ O O O O $   O z   O @ @ @ O X 1 @ 1 0 @   O O O X     O O O   @ O O   O O O X O O 3 . . ^ Z . $ u u   d   * =   * > s g 4 1 @ @ @ @ @ @ @ @ @ @ @ @ @ @ @ @ @ @ @ @ @ @ ",
"@   O O   =   O O O O O X K l.0.`.  @ @ 4 8 @ @ X   O           X X *   O O   @ 6 @ @ @   ^.O O @ O O O O , . @ I O X # @ X X ; 5 1 @ 0 6 @ O O O * X O O   X * O # O O O # # O   u u i i 2.e X = s = X x X . 2 + = s 1 4 1 @ @ @ @ @ @ @ @ @ @ @ @ @ @ @ @ @ @ @ @ @ @ @ ",
"    O   4 O     O O O O X D } `  X  @ X O G.9 7 &.O e     ^.: y ,.O ,.  O r X P P + O @   ^.  O O O     @ e $ < O O O KX  X @ 1 p O @ 4 1 @ O X   @ O     mXr ;   UX      eX#X. . $ UX* s 4.f = 8 q A @ 4 5 u = a * 1 @ @ @ @ @ @ @ @ @ @ @ @ @ @ @ @ @ @ @ @ @ @ @ @ @ @ ",
"X     O O O   X O X X X X G b a.|.  @ X OX}.t mXOX%.NX/.XX}.  CX$.wX).wX#.IX  BXqXn X X   /.  O O O X   O z X >.fX$.O NXwX&.1 O hX%X  '.# ~ ,.O [.  O X   HX  C   HX+X/.  V e X (.;XFX@ J bX.XC A U < O % - 3.j ; 1 @ @ @ @ @ @ @ @ @ @ @ @ @ @ @ @ @ @ @ @ O @ O @ O O @ ",
"  X   O O   O O O O X X X K Q Z.|.  @ X %.VX' dX+X%.[.rX#Xe   AX+XXXeX).%X,.y xXwXP X O X ^.  O X O X     D   JXr $.  UX# UX  CX:.wXOXrX<.tXmXe mX  O O #X).. %   IXr HXe 7X[.%.MXF LXO IXr DXr * X   . a 3.j 0 4 @ @ @ @ @ @ @ @ @ @ @ @ @ @ @ @ @ @ @ @ @ @ @ @ @ @ O O ",
"O X     O O   O O O O X @ K Y M.|.  X X #   jXsXy ,.fXZX}.#   uX  yX  dXdX7X[.dXpX  X O O ^.O X X O < X   3   UXwX  O HX  KX  KXq {.7Xb.$XfXdX,.+XO O   IX  . -   IX  jXy <X[.b.rXO KX  PX_.UX  O % o X s 8 4 @ @ @ @ @ @ @ @ @ @ @ @ @ @ @ @ @ @ @ @ @ @ @ @ @ @ @ @ O O ",
"@ O   O       O O O X X @ A G B.|.  * X t dX^ [.  D.  <.  sXn %XwX .tXX `.  ^..Xe #.X O < ^.  @ X O O O   O &   ^.HXO HX  KX. KX3 XX7X# hXsXwXtX#.O O #.dX  * *   IX  kXy ,X[.i.eX  LX  UXu.+ 2 % h s * 1 4 @ @ @ @ @ @ @ @ @ @ @ @ @ @ @ @ @ @ @ @ @ @ @ O @ @ @ O @ @ @ ",
"X X X   O O O       X X @ 1 b C.|.  * X @ @ r @ @   X   X         S   O O O O O     O O   ^.  @ O   O O   O + uXeXdXO PX  IXX pX8XAX>.  PX$X/.UX      CX7 @ 3 C   UX  NX#.wX}.e KX;XHX  BX7XgX. a k ; 1 @ @ @ @ @ @ @ @ @ @ @ @ @ @ @ @ @ @ @ @ @ O @ @ @ @ @ @ @ O @ @ O ",
"O X O     O O   X O O X X 1 ( j.=X  X X @ * 5 = X * X O .             O O   O O     O     ^.  O X X O     O * n v.  # # 2 J H   <.B : > # @ @ 7 X O O # < O @ O X # # + O   X * n ~   5   (.e k = 0 1 @ @ @ @ @ @ @ @ @ @ @ @ @ @ @ @ @ @ @ @ @ @ O @ @ @ O @ @ @ @ @ @ @ ",
"X X O O   X O O O X O X X D b m.@XX * X o 8 p = ; @ ; X -     X       O O O O   X O O X 7 ,.O O O O O   O   4 X 3 $   X : I A < 4 | a 6 4 1 1 1 X       O X   X O a X X   % , p u 5 p u o N > = 4 1 @ @ @ @ @ @ @ @ @ @ @ @ @ @ @ @ @ @ @ @ @ @ O @ O O @ @ O O @ @ @ @ @ ",
"X       X X O X X X X X X A Q V.8.+XX   * 1 - * X     * *                             X +X    O O         O 4 O $ &   * k O < O <  .S 4 @ 6 @ 1 X X     X X X X @ 2 u i u d l k k k 3.3.s m 1 1 @ @ @ @ @ @ @ @ @ @ @ @ @ @ @ @ @ @ @ @ @ @ @ @ @ @ @ O O @ @ @ @ @ @ O O ",
"X O     @   X X @ X X @ @ 4 L V.8.  (.{.`.{.`.{.`.].]..X(.(././././././././././././.).D.  . i   X         O @ O = = O 4 { O @ O O R < < @ 1 1 ; = X X X   & @ i p y l 4.5.3.5.3.5.3.3.x 6 4 @ @ @ @ @ @ @ @ @ @ 1 @ @ @ @ @ @ @ @ @ @ @ @ @ @ @ @ @ @ @ @ @ @ @ @ O O O @ ",
"O   + u u     O O X X @ @ ; c T.5., @ C   I O 4 * O O <               .               O X = , O * X X   X   @   A 4 O 4 D X O O   J   O O 1 @ @ > i u * * l * 5.5.5.5.5.7.E j.[ e.M L 4 1 @ @ @ @ @ @ @ @ @ @ @ @ @ @ @ @ @ @ @ @ @ @ @ @ @ @ @ @ @ @ @ @ @ O @ @ @ O @ @ ",
"  X * d o   X o O X X @ @ 4 0 T.5.h @ @ X C @ 4 > ; @ X X #   O O X X o   X X   O O X X O g = X 1 O O O O O 1 O 3 <   X @ O O O   T   O X X @ # i 8.3.j k 5.j 5.7.6.M.l.x.R ( g q 0 4 @ @ @ @ @ @ @ @ @ @ @ @ @ @ @ @ @ @ @ @ @ @ @ @ @ @ @ @ @ @ @ @ @ @ @ @ @ @ O O @ @ ",
"O @ > a X X X * X X @ X X 4 f c.0.h @ X @ @ @ 1 8 = @ X X X X   O = X * X X X     O O O @ g.C O 1 O O       @ O   O   O X X X     #.O O X X X h 4.5.5.N x r.b j.c.h.g.U k s = 6 1 @ @ @ @ @ @ @ @ @ @ @ @ @ @ @ @ @ @ @ @ @ @ @ @ @ O @ @ @ @ @ @ @ @ @ @ @ O @ @ @ O @ @ ",
"@ 3 I S < @ @ @ O O X X X O N [ y.j X * * @ @ @ G * @ @ @ @ O   O D < 4 X < O X X   O O X 4 O O @ O O     O X X O O O X X @ X O   E   X X * p 3.9.M.x.o.Q o.M G K v a a f 6 1 1 @ @ @ @ @ @ @ @ @ @ @ @ @ @ @ @ @ @ @ @ @ @ @ @ @ @ @ @ @ @ @ @ @ O O O @ @ @ O @ @ @ @ @ ",
"O O O O O O @ O O X @ X X 4 o.m L.a @ 1 @ @ @ @ A 6 ; @ @ O   O O < O <       @     O   X <   O O     X O O 1   O   O @ X @     O Y   X   & 8.5.n.g.q 8 ; z g a = s * O @ O     O @ @ @ @ @ @ @ @ @ @ @ @ @ @ @ @ @ @ @ @ @ @ @ @ @ @ @ @ @ @ @ O O @ @ @ @ @ O @ O @ O @ ",
"X X     O     O   O X X X 1 j...B.2.@ @ X X O O < * = X X                     <   O X O @ O X   X X X O @ O C O     X @ X :     O A   v U.J.P.U.U.H.U.J.J.J.U.J.H.J.J.A.H.H.H.H.A.  @ @ @ @ @ @ @ @ @ @ @ @ @ @ @ @ @ @ @ @ @ @ @ @ O @ @ O O O @ @ @ @ O @ @ O O O @ @ O ",
"*   O X       O = X X X X O } X.e.u.W / W W / W W O.) / / / / / / / W W W W W / 7   X O O O O   X O O O O     O     O O O * O   X O W H.                                        9 !.7 7 6 8 6 6 7 7 6 6 6 q O @ @ @ @ @ @ @ @ @ @ O @ O O O @ @ @ @ @ @ O O O O O O @ @ @ ",
"C   O O O     X * X O X X X h.x 2X2X4X4X4X4X4X4X4X4X4X4X4X4X4X4X4X4X4X4X4X4X4X4X9X@.7 6 7 6 7 9 w 9 7 9 9 9 9 9 7 7 9 9 8 T 7 8 7 t.N.                                            X 9X9X9X9X9X9X9X9X9X9X9X9X9XW w   @ @ @ @ @ @ @ O O O @ @ @ @ @ @ O @ @ O O O O O @ @ @ ",
"O   O   O     < @   O X O @ S *X2XN.9 w w w w w w w w w w w w w w w w w w w w w 9 W / / / / / / / / / / / / / / / / / / / / / / / w                                                   w w w w w w w w w w w 9 W W *XO @ @ @ @ @ @ @ O O O O @ @ @ @ O O @ @ @ @ @ @ @ @ O ",
"    O O X     O O   O O @   2X2XN.                                                                                                                                                                                  *XO @ @ @ @ @ @ @ @ O O @ @ @ @ @ O @ @ @ @ @ @ @ O O ",
"X       d X O   O   O @   2X2Xt.                                                                                                                                                                                      *XO @ @ @ @ @ @ @ O @ @ @ @ @ O O O @ @ @ @ @ O O O ",
"X O   < ;         O O   *X2XN.                                                                                                                                                                                          *X  @ O @ @ @ @ O O @ @ @ @ O O O @ @ @ @ O O O O ",
"O O   C < X O O     X   2X!.                                                                                                                                                                                              *X  @ @ @ O O @ @ @ @ @ @ O @ @ @ O @ @ O O O @ ",
"  O O   @ X O X X X X   2X!.                                                                                                                                                                                                *X  @ @ O O @ @ @ @ @ @ O O @ @ @ @ @ @ @ @ @ ",
"X O O X @ X X O X X X   2X!.                                                                                                                                                                                                  *XO @ O O @ @ @ @ @ O O O O O @ @ @ O O O O ",
"* * X X X O X O O X X   2X!.                                                                                                                                                                                                    *XO @ O O O @ @ @ O O O O O @ @ @ @ O @ O ",
"; * * @ X O X O X X O   2X!.                                                                                                                                                                                                      *XO @ @ O O @ O O O O O @ @ O @ @ O O O ",
"< 1   ; = @ X   X   X   2X!.                                                                                                                                                                                                        *XO @ @ O O @ O O O O O @ @ @ @ O O O ",
"@ 1 @ ; X * ; X O + X   2X!.            O   e O . #     O   # .   r O   O   # . O                                                                                                                                                     *XO @ @ @ @ @ O O @ @ @ @ O @ O O @ ",
"X * = 0 @ ; @ * * = X   2X!.              CX%X  LXwX&.+X  HX%X  AX+X>.PXy HXqX. HXhX>.                                                                                                                                                  *XO @ @ @ @ @ @ @ @ @ @ O O O O @ ",
"1 1 * * ; ; 6 ; = a * * 2X!.            # CX# O hX#.>.}.  NX#.e wX    kX  mX#.e eXr wX                                                                                                                                                    !.  @ @ O @ @ @ O O O @ @ @ @ @ ",
"O 4 1 * * = ; ; H @ = X 2X!.            . #.NX# NX1.>.}.  NX^.# eX    kX  NX^.# rXr wX                                                                                                                                                    J.  @ @ O O O @ @ O O @ O @ @ @ ",
"@ ; ; ; 6 6 ; z 8 6 G O 2X!.              }.hX  HX}.$.hX#.HX[.  ZX).  AX  KX}.# AXrX^.                                                                                                                                                    H.  @ @ @ @ @ O @ O @ O O O O @ ",
"@ 1 1 1 1 4 6 8 ; = ;   2X!.              $.r . r $.  #.r # $.O # >.. + O # $.  y r                                                                                                                                                       H.  @ @ @ @ @ @ @ @ @ O O O O @ ",
"3 < < < @ @ 1 6 @ 8 X   2X!.                                                                                                                                                                                                              H.  @ @ @ @ @ @ @ @ @ @ @ @ @ O ",
"% . $ o   + 1 < ; @ 4   2X!.                                                                                                                                                                                                              H.  @ @ @ @ @ @ @ @ @ @ @ @ @ O ",
"a = - o * , * : * o X & J.~.                                                                                                                                                                                                              H.# @ @ @ @ @ @ O @ @ @ @ @ @ O ",
"s j k s k j a s a a a k s U.                                                                                                                                                                                                              7 U.@ @ @ @ @ @ @ @ @ @ @ @ O O ",
"z f f a g = f a = = = g = J.                                                                                                                                                                                                              *Xw U.  @ @ @ @ @ @ @ @ @ @ O @ ",
"8 q q q q q q q 8 q q G @ J.                                                                                                                                                                                                              9 ~.N.  @ @ @ @ @ @ @ @ @ @ O @ ",
"8 8 8 z 8 8 8 8 8 8 8 8 @ J.                                                                                                                                                                                                              J.  J.  @ @ @ @ @ @ @ @ @ @ @ @ ",
"c b b c c c 8 q 8 z z 8 X J.                                                                                                                                                                                                              U.N.H.  @ @ @ @ @ @ @ @ @ @ @ @ ",
"b b b b R c c c c c c z @ J.                                                                                                                                                                                                                H.H.O @ @ @ @ @ @ @ @ @ @ @ @ ",
"E E E R R H H H c c c c ; J.                                                                                                                                                                                                              *X+ U.O @ @ @ @ @ @ @ @ @ @ @ @ ",
"! ! Q H H H H H H H R q @ J.                                                                                                                                                                                                              @.!.A.O @ @ @ @ @ @ @ @ @ @ @ @ ",
"Q R R H q q q q q H H H @ J.                                                                                                                                                                                                              9 7 J.O @ @ @ @ @ @ @ @ @ @ @ @ ",
"R c q q q q 8 q q q H q @ J.                                                                                                                                                                                                              ~./ J.O @ @ @ @ @ @ @ @ @ @ @ @ ",
"c c c q q q q 8 q q q q @ J.                                                                                                                                                                                                              # ~.N.O @ @ @ @ @ @ @ @ @ @ @ @ ",
"c c q q q q q q q q 8 8 @ J.                                                                                                                                                                                                              U.  U.O @ @ @ @ @ @ @ @ @ @ @ @ ",
"R c c q q q q q q q 8 8 @ J.                                                                                                                                                                                                              U.A.H.O 1 1 @ @ @ @ @ @ @ @ @ @ ",
"c c c c c q q q q q q q ; J.                                                                                                                                                                                                              U.J.A.O 1 1 1 @ @ @ @ @ @ @ @ @ ",
"E c c c c c c q q q q c 6 !.                                                                                                                                                                                                              U.N.H.O 1 1 1 @ @ @ @ @ @ @ @ @ ",
"E E b b b R c c c c c c c @ *X                                                                                                                                                                                                            J.  !.O 1 1 1 @ @ @ @ @ @ @ @ @ ",
"( ( ( ( ( E b R c c c c c c X 2X                                                                                                                                                                                                            *X  6 1 1 1 1 1 @ @ @ @ @ @ @ ",
"` ) ( ( ( E E E E E b b b c b * 2X                                                                                                                                                                                                        J.@ 6 1 @ 1 @ @ @ @ @ @ @ @ @ @ ",
"..` ` _ ` ( ( E ( ( b ( ( M M E * 2X                                                                                                                                                                                                      U.O 6 1 @ 1 1 @ @ @ @ @ @ @ @ @ ",
"o......._ _ ! ! _ _ ( ) ( ( ( E E 8 *X                                                                                                                                                                                                    J.O 6 1 @ @ @ @ @ @ @ @ @ @ @ @ ",
"........! ! ! [ [ .._ .._ ` ` ! ! ! 8 *X                                                                                                                                                                                                  J.O 6 1 1 1 @ @ @ @ @ @ @ @ @ @ ",
"[ ..! ! ! ! Q ] [ [ ..[ .._ ! ! ! E E 6 *X                                                                                                                                                                                                J.X 6 1 1 @ @ @ @ @ 1 @ @ @ @ @ ",
"[ [ [ ! ! ! R Q Q Q [ [ ! ! E E E E Q R @ *X                                                                                                                                                                                              U.X 6 1 1 @ @ @ 1 1 1 1 @ @ @ @ ",
"L L Q Q Q R R R R R Q ! ! ! E R E Q Q R c @ *X                                                                                                                                                                                          t.O.8 0 1 1 @ @ @ @ 1 1 @ @ @ @ @ ",
"G G K K L H R R R R Q E E E R E E R R c q q O *X                                                                                                                                                                                      @.4XX q 0 1 @ @ @ 1 1 1 1 1 @ 1 1 @ ",
"q q G H G G G H H R R E E E E E E Q c c c q q O *X                                                                                                                                                                                  t.9X3X@ 0 4 1 ; 1 @ 1 1 @ 1 @ @ @ @ @ ",
"0 0 0 0 q q G G G H H ! E E E ( E E R c R q q q O !.W / / / / / / / / / / / /                                                 W / / / / W W / / W / / / W / / / W W / / w w w w w v w w w w w w w w w w w w w w w w w w w w @.@./ U.@.@ 6 q 4 1 = ; 1 @ 1 1 @ @ 1 @ @ 1 @ ",
"0 0 0 0 0 0 0 q H H L Q Q E ! ( ( ! E b b c c b c ; R q q q R c c q q q q 8 / !.N.N.N.N.N.H.H.H.H.H.H.H.H.H.H.H.H.H.N.N.N.N.U.!.J.J.t.N.J.A.@.@.J.A.@.N.J.A.@.N.U.H.O.N.9X3X3X3X3X3X3X3X3X3X3X3X3X3X3X3X3X3X3X3X3X3X3X3X4X!.0 6 q @ 6 8 0 4 4 > = 6 6 1 1 1 1 1 1 @ @ @ @ ",
"0 0 0 0 0 0 0 0 0 q H L L Q ! _ _ ( E M b b b b b c 8 8 8 q c q q 8 0 0 0 8 8 ; A.N.N.N.N.N.N.N.N.N.N.N.N.N.N.A.A.A.A.A.A.A.A.O.N.N.` O.N.t.../ N.@.W { N.@.W / N.@.W @.N.N.N.N.N.N.N.N.N.N.N.N.N.N.N.t.N.N.N.t.N.t.t.t.t.O 0 6 6 0 0 0 0 4 6 = 8 0 6 1 1 1 1 1 1 1 @ @ @ ",
"0 0 0 0 0 0 0 0 0 0 0 H G L ] ! ! _ ( ` b b b b b c c z 8 c b z z z 8 8 8 8 8 8 6 6 8 8 8 8 z z z z b b q H H H H L G L ] [ Q Q ! ( E b c q q 8 0 0 0 6 6 0 0 6 6 0 8 8 q q q q q q q H q q 0 0 0 0 0 6 0 0 0 0 6 6 6 6 6 8 0 0 0 0 0 0 4 1 = > q 0 6 6 1 1 1 1 1 @ @ @ @ ",
"0 6 6 6 0 0 0 0 0 0 0 q q H L Q Q ! _ ` E R E E c c c c c b b b x z z z z z c 8 8 8 z z z z b c b b R H H H H H H H q H L ] Q Q ! ! ! E b c b c 8 8 0 0 0 0 6 8 8 8 8 8 q q q q q H q H q H q 0 0 0 0 0 0 0 q 0 0 0 0 0 8 0 0 0 0 0 0 4 4 ; > 8 q q 6 1 1 @ 1 1 1 1 @ @ @ ",
"6 6 6 6 6 6 6 0 0 0 0 0 q q H Q Q ! _ _ R Q Q Q R H H q q c R R E b c c c b b z z b b b b b c R R R H H q q q q q 0 q q H R H H Q ] Q ! E c b b z 8 8 0 0 8 8 8 8 z q q q q q q q q q 0 q q 0 0 0 0 6 6 0 0 0 0 6 6 6 0 0 0 0 6 6 0 0 4 1 * 8 q q q 0 6 1 @ 1 @ @ @ @ @ @ ",
"6 6 6 6 6 6 6 6 6 0 0 0 q q H H Q ! _ _ H H G H H H H H H H L H H H q q q c c c c b b b b R H H L G q q q q q 0 0 0 q q q R q H G K L Q E E E b c c 8 8 8 8 8 8 q q q q q 0 0 0 q q 0 0 q q 0 0 6 0 6 6 6 0 6 6 6 6 6 6 6 6 6 0 6 0 4 4 ; ; 0 q q q 0 6 1 1 @ @ 1 @ @ @ @ ",
"6 6 6 6 6 6 6 6 6 0 0 0 q q q q R ! ` E H H H q q q q q H H G G G H H q q H H q q R R R H G H H H q 0 0 0 0 0 0 0 0 q q q H q q q H H L Q Q ! E b b q 8 8 8 8 8 q q q q q 0 0 0 0 8 0 0 0 q 0 6 6 6 6 6 6 6 6 6 6 6 1 6 6 6 6 6 1 1 4 ; ; 6 0 0 q 0 0 6 1 @ 1 @ 1 1 @ @ @ ",
"6 6 6 6 6 6 6 6 6 0 0 0 0 q q H R ! X.E q q q q 0 0 0 0 0 0 0 q q q q q q G G H H H H H H H q 0 0 0 0 0 0 0 0 0 0 0 0 q q q q 0 q q q H H H Q E E c 8 8 8 8 8 q q q q 0 0 0 6 0 0 0 8 0 0 q 0 0 6 6 6 6 6 1 6 1 6 6 6 6 1 1 6 1 4 1 1 ; 6 0 6 0 0 0 0 6 6 1 1 @ @ 1 1 @ @ ",
"6 6 6 6 6 6 6 6 6 0 0 0 0 q q q R ! X.c q q q 0 0 0 0 0 0 0 0 0 0 0 0 0 0 0 q 0 q q q q q 0 0 0 0 0 0 0 0 0 0 0 0 0 0 q q q q 0 q q 0 0 q H H H R R q 8 0 8 0 0 0 0 0 0 6 0 0 0 0 8 8 8 0 q 0 0 6 6 6 6 6 6 1 1 6 6 1 1 1 6 6 1 4 1 @ ; 6 6 6 6 0 0 0 6 1 1 1 @ 1 1 @ @ @ ",
"6 6 6 6 6 6 6 6 6 6 0 0 0 q q H R ! X.c q 0 q 8 8 0 0 0 0 0 0 0 0 0 6 6 6 6 0 6 0 0 0 0 0 0 0 0 0 0 0 0 0 0 0 0 0 0 0 q q q 0 0 0 0 0 0 0 0 H G H H q 0 0 0 0 0 0 0 0 0 0 0 6 0 0 0 0 0 0 q 0 6 6 6 6 6 6 6 1 1 6 1 1 6 1 6 1 1 @ @ ; 6 6 6 6 6 6 6 0 6 6 6 1 1 1 1 @ @ @ ",
"6 6 6 6 6 6 6 6 6 6 6 0 0 0 q q R ! X.q q q 0 0 0 0 0 0 0 0 0 0 6 6 6 6 6 6 6 6 6 6 0 6 0 0 0 0 0 0 0 0 0 0 0 0 0 6 0 8 q q 0 0 0 q 0 0 6 0 0 q q H q 0 0 0 0 0 0 0 6 6 6 6 6 0 0 0 0 0 0 0 6 6 6 6 6 6 6 6 6 1 1 1 1 6 1 1 1 1 @ @ ; 6 6 6 6 6 6 0 6 6 1 1 1 1 1 @ @ @ @ ",
"6 6 6 6 6 6 6 6 6 6 6 0 0 0 q q R ! ..q q q 8 0 0 0 0 0 6 6 0 6 6 6 6 6 6 6 6 6 6 6 6 6 0 6 6 0 6 6 0 0 0 0 0 0 6 0 0 8 8 q 0 0 0 0 0 0 0 0 0 0 q q 0 0 0 0 0 6 6 0 0 6 6 6 0 0 0 0 0 0 0 0 0 6 6 6 6 6 6 6 6 1 1 6 1 6 1 1 1 @ @ @ ; 6 6 6 6 6 6 6 0 6 6 1 1 1 1 1 @ @ @ ",
"6 1 1 1 6 6 6 6 6 6 6 0 0 0 q q R ! _ q q 8 8 0 0 0 0 0 6 6 6 6 6 6 6 6 6 6 6 6 6 6 6 6 6 6 6 6 6 6 6 6 0 0 0 6 6 6 6 0 8 0 0 6 0 8 0 0 0 0 0 6 0 0 6 6 0 0 6 6 6 6 6 6 6 6 6 6 0 0 0 0 0 0 6 6 6 6 1 6 6 6 6 6 ; 1 1 1 1 1 @ @ @ @ 6 6 6 6 6 6 6 0 6 6 6 1 @ 1 1 @ @ @ @ ",
"6 1 1 1 6 6 6 6 0 1 6 0 0 0 q q R _ ( q q 8 0 0 0 0 0 6 6 6 6 6 6 6 6 6 6 1 6 6 6 6 6 6 6 6 6 6 6 6 6 6 0 0 0 6 6 6 6 0 8 0 0 0 0 0 8 8 0 0 0 0 0 0 0 6 6 6 0 6 6 0 6 6 6 6 0 0 0 6 0 6 0 6 6 6 1 6 6 6 1 6 6 6 ; 1 6 1 1 4 @ @ @ 1 6 6 6 6 6 6 6 0 0 6 6 1 1 1 @ @ @ 1 @ "
};
