/* XPM */
static char *_1c47793e2fb4fd0824e80dd7b30d4f8JtTUwcTmRcYE26WY[] = {
/* columns rows colors chars-per-pixel */
"199 600 256 2 ",
"   c #000203",
".  c #0B0202",
"X  c #010A05",
"o  c #0B0B03",
"O  c #000509",
"+  c #0B040B",
"@  c #000B0C",
"#  c #0A0B0B",
"$  c #130202",
"%  c #1B0203",
"&  c #160A07",
"*  c #011304",
"=  c #011B03",
"-  c #0B1805",
";  c #00120D",
":  c #0B120D",
">  c #011B0C",
",  c #161607",
"<  c #000413",
"1  c #000D12",
"2  c #0B0A14",
"3  c #00031B",
"4  c #000C1B",
"5  c #160916",
"6  c #001313",
"7  c #0C1313",
"8  c #011A14",
"9  c #0B1816",
"0  c #00141A",
"q  c #011B1B",
"w  c #0B1C1B",
"e  c #121414",
"r  c #151718",
"t  c #141B1B",
"y  c #1A1C1C",
"u  c #260504",
"i  c #350404",
"p  c #261607",
"a  c #2B1411",
"s  c #022303",
"d  c #0A2707",
"f  c #022B03",
"g  c #02230C",
"h  c #022B0C",
"j  c #152706",
"k  c #023303",
"l  c #053808",
"z  c #012314",
"x  c #022B14",
"c  c #01231C",
"v  c #0B2618",
"b  c #012B1C",
"n  c #17271A",
"m  c #023313",
"M  c #043A17",
"N  c #02331C",
"B  c #173610",
"V  c #2B2E0F",
"C  c #010323",
"Z  c #000C23",
"A  c #0B0C23",
"S  c #00032B",
"D  c #010C2B",
"F  c #001423",
"G  c #001B23",
"H  c #0A1925",
"J  c #00142B",
"K  c #011C2B",
"L  c #171B22",
"P  c #000836",
"I  c #011433",
"U  c #001C33",
"Y  c #02143A",
"T  c #011C3B",
"R  c #171934",
"E  c #290C28",
"W  c #012323",
"Q  c #0B2727",
"!  c #012B23",
"~  c #01242B",
"^  c #012B2B",
"/  c #1C2323",
"(  c #162928",
")  c #013324",
"_  c #023B24",
"`  c #01332B",
"'  c #0A3728",
"]  c #023B2B",
"[  c #16302D",
"{  c #012433",
"}  c #012C33",
"|  c #0A2A33",
" . c #01243B",
".. c #022B3B",
"X. c #023334",
"o. c #0C3737",
"O. c #023B33",
"+. c #02343B",
"@. c #023B3C",
"#. c #163835",
"$. c #222424",
"%. c #242728",
"&. c #242C2B",
"*. c #2A2C2C",
"=. c #26342C",
"-. c #34302A",
";. c #292D32",
":. c #2D3333",
">. c #283736",
",. c #363838",
"<. c #343B3B",
"1. c #450B07",
"2. c #47361F",
"3. c #044606",
"4. c #154D0F",
"5. c #045606",
"6. c #044618",
"7. c #045717",
"8. c #2B4C11",
"9. c #066312",
"0. c #044728",
"q. c #045728",
"w. c #155128",
"e. c #044836",
"r. c #03443C",
"t. c #19433D",
"y. c #045738",
"u. c #2B4B30",
"i. c #36443C",
"p. c #046527",
"a. c #066537",
"s. c #166931",
"d. c #2C6932",
"f. c #494F2A",
"g. c #010C49",
"h. c #011A45",
"j. c #012B43",
"k. c #012648",
"l. c #023443",
"z. c #033C43",
"x. c #04384A",
"c. c #183748",
"v. c #012955",
"b. c #023755",
"n. c #313A44",
"m. c #033A62",
"M. c #453F42",
"N. c #034344",
"B. c #03444B",
"V. c #054A48",
"C. c #1C4A45",
"Z. c #045748",
"A. c #18534F",
"S. c #044A56",
"D. c #055757",
"F. c #3A4746",
"G. c #23554C",
"H. c #305150",
"J. c #046649",
"K. c #056558",
"L. c #126B54",
"P. c #2C6754",
"I. c #064863",
"U. c #055963",
"Y. c #325367",
"T. c #056567",
"R. c #066F75",
"E. c #30726D",
"W. c #424445",
"Q. c #474B4B",
"!. c #47534C",
"~. c #4A4E52",
"^. c #4A5655",
"/. c #535555",
"(. c #545857",
"). c #545B5B",
"_. c #5B5D5D",
"`. c #4C6757",
"'. c #56635B",
"]. c #67615B",
"[. c #4B586A",
"{. c #585D62",
"}. c #5D6263",
"|. c #596767",
" X c #55706F",
".X c #626364",
"XX c #626B6B",
"oX c #666B6A",
"OX c #64746B",
"+X c #73736B",
"@X c #676E72",
"#X c #697575",
"$X c #757979",
"%X c #33853B",
"&X c #348552",
"*X c #36887E",
"=X c #588971",
"-X c #618E61",
";X c #6D8776",
":X c #819B75",
">X c #057B84",
",X c #38708C",
"<X c #577688",
"1X c #6F7986",
"2X c #058993",
"3X c #388B83",
"4X c #388C84",
"5X c #3B9489",
"6X c #3E9E92",
"7X c #179CA1",
"8X c #05ABB7",
"9X c #4D968E",
"0X c #7B8584",
"qX c #708F8E",
"wX c #44A396",
"eX c #61B0A4",
"rX c #3BC1B9",
"tX c #09D2DF",
"yX c #868989",
"uX c #88908E",
"iX c #8B9494",
"pX c #969999",
"aX c #94A89B",
"sX c #A2A89C",
"dX c #949CA6",
"fX c #9CA4A3",
"gX c #92AEAD",
"hX c #A6A9A9",
"jX c #ABB0AF",
"kX c #ACB4B4",
"lX c #B6B9B8",
"zX c #97C3B8",
"xX c #B4C5B9",
"cX c #C1C0BD",
"vX c #B9BDC3",
"bX c #BDC4C4",
"nX c #B9D2D1",
"mX c #C3C4C4",
"MX c #C6C9C9",
"NX c #CBCCCC",
"BX c #CCCFCF",
"VX c #CCD4D4",
"CX c #D3D4D4",
"ZX c #D5D9D9",
"AX c #DBDCDC",
"SX c #E2DCDC",
"DX c #DCE1DD",
"FX c #DCDDE1",
"GX c #DCE3E3",
"HX c #E3E4E4",
"JX c #E6E9E8",
"KX c #EBECEC",
"LX c #EEF0F1",
"PX c #F4F4F4",
"IX c #F6F8F8",
"UX c #FDFDFD",
/* pixels */
"O O O O O O O O O O O O O O O O O O O O O O O O O O O O O O O O O O O O O O O O O O O O O O O O O O O O O O O O O O O O O O O O O O O O O O O O O O O O O O O O O O O O O O O O O O O O O O O O O O O O O O O O O O O O O O O O O O O O O O O O O O O O O O O O O O O O O O O O O O O O O O O O O O O O O O O O O O O O O O O O O O O O O   O O O O O O O O O O O O O O O O O O O O O O O O O O O O O O O O O ",
"O O O O O O O O O O O O O O O O O O O O O O O O O O O O O O O O O O O O O O O O O O O O O O O O O O O O O O O O O O O O O O O O O O O O O O O O O O O O O O O O O O O O O O O O O O O O O O O O O O O O O O O O O O O O O O O O O O O O O O O O O O O O O O O O O O O O O O O O O O O O O O O O O O O O O O O O O O O O O O O O O O O O O   O O O O O O O O O O O O O O O O O O O O O O O O O O O O O O O O O ",
"O O O O O O O O O O O O O O O O O O O O O O O O O O O O O O O O O O O O O O O O O O O O O O O O O O O O O O O O O O O O O O O O O O O O O O O O O O O O O O O O O O O O O O O O O O O O O O O O O O O O O O O O O O O O O O O O O O O O O O O O O O O O O O O O O O O O O O O O O O O O O O O O O O O O O O O O O O O O O O O O O O O O O O O O O O O O O O O O O O O O O O O O O O O O O O O O O O O O O O O ",
"O O O O O O O O O O O O O O O O O O O O O O O O O O O O O O O O O O O O O O O O O O O O O O O O O O O O O O O O O O O O O O O O O O O O O O O O O O O O O O O O O O O O O O O O O O O O O O O O O O O O O O O O O O O O O O O O O O O O O O O O O O O O O O O O O O O O O O O O O O O O O O O O O O O O O O   O O O O O O O O O O O O O O O O O O O O O O O O O O O O O O O O O O O O O O O O O O O O O O     ",
"O O O O O O O O O O O O O O O O O O O O O O O O O O O O O O O O O O O O O O O O O O O O O O O O O O O O O O O O O O O O O O O O O O O O O O O O O O O O O O O O O O O O O O O O O O O O O O O O O O O O O O O O O O O O O O O O O O O O O O O O O O O O O O O O O O O O O O O O O O O O O O O O O O O O O O O O O O O O O O O O O O O O O O O O O O O O O O O O O O O O O O O O O O O O O O   O O O       O O ",
"O O O O O O O O O O O O O O O O O O O O O O O O O O O O O O O O O O O O O O O O O O O O O O O O O O O O O O O O O O O O O O O O O O O O O O O O O O O O O O O O O O O O O O O O O O O O O O O O O O O O O O O O O O O O O O O O O O O O O O O O O O O O O O O O O O O O O O O O O O O O O O O O O O O O O O O O O O O O O O O O O O O O O O O O O O O O O O O O O O O O O O O O O O O O O O   O O     O O O O ",
"O O O O O O O O O O O O O O O O O O O O O O O O O O O O O O O O O O O O O O O O O O O O O O O O O O O O O O O O O O O O O O O O O O O O O O O O O O O O O O O O O O O O O O O O O O O O O O O O O O O O O O O O O O O O O O O O O O O O O O O O O O O O O O O O O O O O O O O O O O O O O O O O O O O O O O O O O O O O O O O O O O O O O O O O O O O O O O O O O O O O O O O O O O O O O O   O O O O O O O O ",
"O O O O O O O O O O O O O O O O O O O O O O O O O O O O O O O O O O O O O O O O O O O O O O O O O O O O O O O O O O O O O O O O O O O O O O O O O O O O O O O O O O O O O O O O O O O O O O O O O O O O O O O O O O O O O O O O O O O O O O O O O O O O O O O O O O O O O O O O O O O O O O O O O O O O O O O O O O O O O O O O O O O O O O O O O O O O O O O O O O O O O O O O O O O O O O   O O O O O O O O ",
"O O O O O O O O O O O O O O O O O O O O O O O O O O O O O O O O O O O O O O O O O O O O O O O O O O O O O O O O O O O O O O O O O O O O O O O O O O O O O O O O O O O O O O O O O O O O O O O O O O O O O O O O O O O O O O O O O O O O O O O O O O O O O O O O O O O O O O O O O O O O O O O O O O O O O O O O O O O O O O O O O O O O O O O O O O O O O O O O O O O O O O O O   O O     O   O O O O O O O O ",
"O O O O O O O O O O O O O O O O O O O O O O O O O O O O O O O O O O O O O O O O O O O O O O O O O O O O O O O O O O O O O O O O O O O O O O O O O O O O O O O O O O O O O O O O O O O O O O O O O O O O O O O O O O O O O O O O O O O O O O O O O O O O O O O O O O O O O O O O O O O O O O O O O O O O O O O O O O O O O O O O O O O O O O O O O O O O O O O O O O O O O O O O O O O O O O O O O O O O O O O ",
"O O O O O O O O O O O O O O O O O O O O O O O O O O O O O O O O O O O O O O O O O O O O O O O O O O O O O O O O O O O O O O O O O O O O O O O O O O O O O O O O O O O O O O O O O O O O O O O O O O O O O O O O O O O O O O O O O O O O O O O O O O O O O O O O O O O O O O O O O O O O O O O O O O O O O O O O O O O O O O O O O O O O O O O O O O O O O O O O O O O O O O O O O O O O O O O O O O O O O O O ",
"O O O O O O O O O O O O O O O O O O O O O O O O O O O O O O O O O O O O O O O O O O O O O O O O O O O O O O O O O O O O O O O O O O O O O O O O O O O O O O O O O O O O O O O O O O O O O O O O O O O O O O O O O O O O O O O O O O O O O O O O O O O O O O O O O O O O O O O O O O O O O O O O O O O O O O O O O O O O O O O O O O O O O O O O O O O O O O O O O O O O O O O O O O O O O O O O O O O O O O O ",
"O O O O O O O O O O O O O O O O O O O O O O O O O O O O O O O O O O O O O O O O O O O O O O O O O O O O O O O O O O O O O O O O O O O O O O O O O O O O O O O O O O O O O O O O O O O O O O O O O O O O O O O O O O O O O O O O O O O O O O O O O O O O O O O O O O O O O O O O O O O O O O O O O O O O O O O O O O O O O O O O O O O O O O O O O O O O O O O O O O O O O O O O O O O O O O O O O O O O O   O ",
"O O O O O O O O O O O O O O O O O O O O O O O O O O O O O O O O O O O O O O O O O O O O O O O O O O O O O O O O O O O O O O O O O O O O O O O O O O O O O O O O O O O O O O O O O O O O O O O O O O O O O O O O O O O O O O O O O O O O O O O O O O O O O O O O O O O O O O O O O O O O O O O O O O O O O O O O O O O O O O O O O O O O O O O O O O O O O O O O O O O O O O O O O   O O O   O O O   O O O O O ",
"O O O O O O O O O O O O O O O O O O O O O O O O O O O O O O O O O O O O O O O O O O O O O O O O O O O O O O O O O O O O O O O O O O O O O O O O O O O O O O O O O O O O O O O O O O O O O O O O O O O O O O O O O O O O O O O O O O O O O O O O O O O O O O O O O O O O O O O O O O O O O O O O O O O O O O O O O O O O O O O O O O O O O O O O O O O O O O O O O O O O O   O O O O O O O O O O O O O O O O O ",
"O O O O O O O O O O O O O O O O O O O O O O O O O O O O O O O O O O O O O O O O O O O O O O O O O O O O O O O O O O O O O O O O O O O O O O O O O O O O O O O O O O O O O O O O O O O O O O O O O O O O O O O O O O O O O O O O O O O O O O O O O O O O O O O O O O O O O O O O O O O O O O O O O O O O O O O O O O O O O O O O O O O O O O O O O O O O O O O O O O O O O   O O O   O O O O O O O O O O O O O ",
"O O O O O O O O O O O O O O O O O O O O O O O O O O O O O O O O O O O O O O O O O O O O O O O O O O O O O O O O O O O O O O O O O O O O O O O O O O O O O O O O O O O O O O O O O O O O O O O O O O O O O O O O O O O O O O O O O O O O O O O O O O O O O O O O O O O O O O O O O O O O O O O O O O O O O O O O O O O O O O O O O O O O O O O O O O O O O O O O O O O O O O O O O O O O O O O O O O O   O O O ",
"O O O O O O O O O O O O O O O O O O O O O O O O O O O O O O O O O O O O O O O O O O O O O O O O O O O O O O O O O O O O O O O O O O O O O O O O O O O O O O O O O O O O O O O O O O O O O O O O O O O O O O O O O O O O O O O O O O O O O O O O O O O O O O O O O O O O O O O O O O O O O O O O O O O O O O O O O O O O O O O O O O O O O O O O O O O O O O O O O O O O O     O   O O O O O O O O O O O O O O ",
"O O O O O O O O O O O O O O O O O O O O O O O O O O O O O O O O O O O O O O O O O O @               O O O O O O O O O O O O # O O O O O O O O O O O O O O O O O O O O O O O O O O O O O O O O O O O O O O O O O O O O O O O O O O O O O O O O O O O O O O O O O O O O O O O O O O O O O O O O O O O O O O O O O O O O O O O O O O O O O O O O O O O O O O O O O O O O O O O   O O O O     O O O O O O O O O O ",
"O O O O O O O O O O O O O O O O O O O O O O O O O O O O O O O O O O O O O O O O O O   tXtXtXtXtXtXtXT.  O O O O O O ^ D.^ +.^ o.^ +.^   O O O O O O O O O O O O O O O O O O O O O O O O O O O O O O O O O O O O O O O O O O O O O O O O O O O O O O O O O O O O O O O O O O O O O O O O O O O O O O O O O O O O O O O O O O O O O O O O O O O O O O O O O O O O O O O O O O O O O O O O O O O O O O O O O O O ",
"O O O O O O O O O O O O O O O O O O O O O O O O O O O O O O O O O O O O O O O O   @ A.~ O O O       R.    O O O O ^ S.o.7Xc.7Xc.7Xz.7X  O O O O O O O O O O O O O O O O O O O O O O O O O O O O O O O O O O O O O O O O O O O O O O O O O O O O O O O O O O O O O O O O O O O O O O O O O O O O O O O O O O O O O O O O O O O O O O O O O O O O O O O O O O O O O O O O O O O O O O O O O O O O O O O O O O O ",
"O O O O O O O O O O O O O O O O O O O O O O O O O O O O O O O O O O O O O   @ z.D.U.0 W Q 0 q 0 G ~ H o.T.S.G   ~ D.  G +.G z.H +.q ~   O O O O O O O O O O O O O O O O O O O O O O O O O O O O O O O O O O O O O O O O O O O O O O O O O O O O O O O O O O O O O O O O O O O O O O O O O O O O O O O O O O O O O O O O O O O O O O O O O O O O O O O O O O O O O O O O O O O O O O O O O O O O O O O O O O O ",
"O O O O O O O O O O O O O O O O O O O O O O O O O O O O O O O O O O O O @ D.T.+.@ O 0 } o.N.+.B.N.| W O O G U.U.~   O A.8X8X2XU.B.} }   O O O O O O O O O O O O O O O O O O O O O O O O O O O O O O O O O O O O O O O O O O O O O O O O O O O O O O O O O O O O O O O O O O O O O O O O O O O O O O O O O O O O O O O O O O O O O O O O O O O O O O O O O O O O O O O O O O O O O O O O O O O O O O O O O O O ",
"O O O O O O O O O O O O O O O O O O O O O O O O O O O O O O O O O O   B.T.~ O q B.N.W 6         @ q ^ D.D.X.  6 D.T.1 O         O     O O O O O O O O O O O O O O O O O O O O O O O O O O O O O O O O O O O O O O O O O O O O O O O O O O O O O O O O O O O O O O O O O O O O O O O O O O O O O O O O O O O O O O O O O O O O O O O O O O O O O O O O O O O O O O O O O O O O O O O O O O O O O O O O O O O O ",
"O O O O O O O O O O O O O O O O O O O O O O O O O O O O O O O   O O R.z.@ q D.W     O O 0 6 0 G W ~ q Q Q Q U.B.  W T.+.    O O O O O O O O O O O O O O O O O O O O O O O O O O O O O O O O O O O O O O O O O O O O O O O O O O O O O O O O O O O O O O O O O O O O O O O O O O O O O O O O O O O O O O O O O O O O O O O O O O O O O O O O O O O O O O O O O O O O O O O O O O O O O O O O O O O O O O O O O ",
"O O O O O O O O O O O O O O O O O O O O O O O O O O O O O O   T.@ R.G @ U.^   @ O 1 q 0 6 6 0 G ~ ^ @.Q Q Q Q Q T.^ 1 B.D.W ^ O O O O O O O O O O O O O O O O O O O O O O O O O O O O O O O O O O O O O O O O O O O O O O O O O O O O O O O O O O O O O O O O O O O O O O O O O O O O O O O O O O O O O O O O O O O O O O O O O O O O O O O O O O O O O O O O O O O O O O O O O O O O O O O O O O O O O O O O ",
"O O O O O O O O O O O O O O O O O O O O O O O O O O O O O O O ~ T.6 B.R.    1 q q 0 6 G } ^ ^ X.z.N.o.o.Q Q Q | Q V.2XO @.T.9 O O O O O O O O O O O O O O O O O O O O O O O O O O O O O O O O O O O O O O O O O O O O O O O O O O O O O O O O O O O O O O O O O O O O O O O O O O O O O O O O O O O O O O O O O O O O O O O O O O O O O O O O O O O O O O O O O O O O O O O O O O O O O O O O O O O O O O O O ",
"O O O O O O O O O O O O O O O O O O O O O O O O O O O O O O @ R.6 D.N.O   G W 0 W } X.W q 0 q W } @.B.V.X.Q Q Q | | Q 2XO +.S.  O O O O O O O O O O O O O O O O O O O O O O O O O O O O O O O O O O O O O O O O O O O O O O O O O O O O O O O O O O O O O O O O O O O O O O O O O O O O O O O O O O O O O O O O O O O O O O O O O O O O O O O O O O O O O O O O O O O O O O O O O O O O O O O O O O O O O O O ",
"O O O O O O O O O O O O O O O O O O O O O O O O O O O O O   R.0 S.z.    W q 0 +.W 6 q q 0 0 q W ^ +.z.z.Q z.+.Q | | | Q 2XO B.} O O O O O O O O O O O O O O O O O O O O O O O O O O O O O O O O O O O O O O O O O O O O O O O O O O O O O O O O O O O O O O O O O O O O O O O O O O O O O O O O O O O O O O O O O O O O O O O O O O O O O O O O O O O O O O O O O O O O O O O O O O O O O O O O O O O O O O O ",
"O O O O O O O O O O O O O O O O O O O O O O O O O O O O   U.~ } D.  O q @ G ^ @ 6 1 1 W ~ ~ ~ X.z.N.@.| Q Q } V.Q | | o.| 2X1 T.@ O O O O O O O O O O O O O O O O O O O O O O O O O O O O O O O O O O O O O O O O O O O O O O O O O O O O O O O O O O O O O O O O O O O O O O O O O O O O O O O O O O O O O O O O O O O O O O O O O O O O O O O O O O O O O O O O O O O O O O O O O O O O O O O O O O O O O O ",
"O O O O O O O O O O O O O O O O O O O O O O O O O O O O W D.  R.  O W 0 } ~ q q q +.} G q 0 W ~ } @.V.S.| Q X.~ S.} +.z.+.U.q ~ T.  O O O O O O O O O O O O O O O O O O O O O O O O O O O O O O O O O O O O O O O O O O O O O O O O O O O O O O O O O O O O O O O O O O O O O O O O O O O O O O O O O O O O O O O O O O O O O O O O O O O O O O O O O O O O O O O O O O O O O O O O O O O O O O O O O O O O O ",
"O O O O O O O O O O O O O O O O O O O O O O O O O O O   T.0 z.@ O W q } W q 0 ^ X.0 q q 0 q   @ X.z.B.Q | B.~ X.^ S.} S.N.} R.O D.~ O O O O O O O O O O O O O O O O O O O O O O O O O O O O O O O O O O O O O O O O O O O O O O O O O O O O O O O O O O O O O O O O O O O O O O O O O O O O O O O O O O O O O O O O O O O O O O O O O O O O O O O O O O O O O O O O O O O O O O O O O O O O O O O O O O O O O ",
"O O O O O O O O O O O O O O O O O O O O O O O O O O O ~ S.  B.@ @ 0 q W 6 @ ^ q 1 6 @ ^ ^ 6 0 W ^ @.N.Q | Q S.^ @.| D.B.S.B.V.@.0 U.  O O O O O O O O O O O O O O O O O O O O O O O O O O O O O O O O O O O O O O O O O O O O O O O O O O O O O O O O O O O O O O O O O O O O O O O O O O O O O O O O O O O O O O O O O O O O O O O O O O O O O O O O O O O O O O O O O O O O O O O O O O O O O O O O   O O O ",
"O O O O O O O O O O O O O O O O O O O O O O O O O O   U.6 z.O   6 1 X.1 6 ^ 0 0 @ ^ X.@     O 6 W Q | B.Q | ^ S.X.S.D.D.S.S.N.R.  T.1 @ O O O O O O O O O O O O O O O O O O O O O O O O O O O O O O O O O O O O O O O O O O O O O O O O O O O O O O O O O O O O O O O O O O O O O O O O O O O O O O O O O O O O O O O O O O O O O O O O O O O O O O O O O O O O O O O O O O O O O O O O O O O O O O O O O O O ",
"O O O O O O O O O O O O O O O O O O O O O O O O O O U.R.  V.    6 X.q G W } q 0 z.0       O @ q Q Q Q Q V.} z.V.R.S.S.T.D.T.V.U.W # tX  O O O O O O O O O O O O O O O O O O O O O O O O O O O O O O O O O O O O O O O O O O O O O O O O O O O O O O O O O O O O O O O O O O O O O O O O O O O O O O O O O O O O O O O O O O O O O O O O O O O O O O O O O O O O O O O O O O O O O O O O O O O O O O O O O O O ",
"O O O O O O O O O O O O O O O O O O O O O O O O O O T.Q q q O   0 } 0 6 +.6 0 ^ O     0 G 6 @ W o.z.Q | } D.S.S.U.U.D.U.T.U.D.B.T.O >X  O O O O O O O O O O O O O O O O O O O O O O   O O O O O O O O O O O O O O O O O O O O O O O O O O O O O O O O O O O   O O O O O O O O O   O O O O O O O O O O O O O O O O O O O O O O O   O O O O O O O O O O O O O O O O O O O O O O O O O O O O O O O O O O O O O O ",
"O O O O O O O O O O O O O O O O O O O O O O O O O O H q z.    q G q 0 G q 0 q G     ~ @     O q Q Q V.| +.z.T.S.S.T.D.D.R.U.U.D.>X  z.O O O O O O O O O O O O O O #   oX}.  # O   $.$X,.  @ O 7   }.(.  @ O e y $.O O 7   @X/ O #   oX.X  # O # r O O O O e $XW.  @ O O O O   %.$X:.  O O y O O @ e O O r O O O y L y   @ O O r $XW.  @ O O O O O O O O O O O O O O O O O O O O O O O O O O O O O O O O   O O ",
"O O O O O O O O O O O O O O O O O O O O O O O O O O @ 0 B.  1 0 ^ 6 6 } 6 6 X.@   G O       O q Q | } S.+.S.T.U.U.R.T.T.R.T.R.U.>X1 Q O O O O O O O O O O O O O O   UXuXpXPX    /.IXoXNXjX    mXHXpXlXbX    AXHXHX%.  pXCXuXUXe   UXuXpXUXO O ,.KX  O O *.UX@XNXlX  O O O O _.PX.XKX$X    UX+   _.NX    KX,.  # UXMXAXCX  O ;.UXoXNXlX  O O O O O O O O O O O O O O O O O O O O O O O O O O O O O O O O O O O ",
"O O O O O O O O O O O O O O O O O O O O O O O O O O 0 O z.O q q } q q } q G ^ ~ O 0       U.U.2XN.} z.z.D.T.U.R.T.R.R.R.R.R.R.T.R.^ ~   O O O O O O O O O O O O O :.ZX    KX%.  AX*.O   UX    mX}.    UX    AXL   O   $XlX  MX/.W.MX    CXn.  ;.AX  O   hX).O   UX  O O O   AX%.  e IX    UX@   /.lX    AX;.  # IX    KX$.  hX}.    UX  O O O O O O O O O O O O O O O O O O O O O O O O O O O O O O O O   O O ",
"O O O O O O O O O O O O O O O O O O O O O O O O O O H 1 X.O 0 6 ^ 0 q W 0 W q 0 W       N.@.U.T.2Xz.B.S.T.T.T.>XR.R.>XR.R.>XR.R.R.z.Q   O O O O O O O O O O O O O :.AX    ZX/   ZX,.O   UX    MX~.  @ UX    AX;.O O   uXyX  L + W.CX    CX,.  ;.AX  O O /.HX  @ mX  O O O   ZX,.O # %.O   UX@   ~.lX    AX;.  # IX    HX%.  hX$X    UX  O O O O O O O O O O O O O O O O O O O O O O O O O O O O O O O O O O O ",
"O O O O O O O O O O O O O O O O O O O O O O O O O O Q 9 Q   q 0 ~ 0 G G 0 ~ 6 6 ^     @ ^ D.q D.T.2XU.T.R.>XR.2XR.R.2XR.R.2X>XR.R.A.W   O O O O O O O O O O O O O ;.AX  @   O   ZX,.O   UX    MX~.O # UX    AX;.O O   yXyX  O   W.CX    ZX,.O ;.AX  O O   hXNX    @ O O O   ZX,.      @   UX@   ~.lX    AX;.  # IX    HX%.  pXjX_.(.UX  O O O O O O O O O O O O O O O O O O O O O O O O O O O O O O O O O O O ",
"O O O O O O O O O O O O O O O O O O O O O O O O O O Q 9 Q O G q ^ q W W q } q 0 +.O   0 } X.~ >X8XtX>X>X2X2X2X2X2X2X2X>X2X2X2X>X>XA.Q   O O O O O O O O O O O O O ;.AX  O O O   ZX,.O   UX    MX~.O # UX    AX;.      yXyX  O   W.CX    CX,.O ;.AX  O O O   hXZX  @ O O O   ZX%.mXUXNX    UX@   /.lX    AX;.O # IX    HX%.  pXmXyXiX@X  O O O O O O O O O O O O O O O O O O O O O O O O O O O O O O O O O O O ",
"O O O O O O O O O O O O O O O O O O O O O O O O O O W 9 Q   G q } q W ~ G ^ q G W   ~ q +.B.z.X.6 } R.8X8X2X2X2X2X2X2X2X2X2X2X>X2XB.~   O O O O O O O O O O O O O ;.AX  @   O   ZX,.O   UX    MX~.  # UX    AX;.$.yX  yXyX  O O W.CX    ZX,.O ;.AX  O   y y   hXMX  O O O   CX,.  e KX    UX@   /.vX    AX;.O # IX    HX$.  hX@X  O   @ O O O O O O O O O O O O O O O O O O O O O O O O O O O O O O O O O O O ",
"O O O O O O O O O O O O O O O O O O O O O O O O O O q O @.  6 @ ~ 6 6 W 6 q G 6 @ q 6 0 O 0 q 6 6       N.2X8X8X2X2X8X2X2X2X2X2X2X} ~   O O O O O O O O O O O O O :.ZX    AX%.  ZX;.O O UX    MX~.  # UX    AX*.,.AX  yXyX  O O Q.NX    NXn.  *.AX  O   hX0XO   UXo O O O   ZX:.O e KX    UX  O W.vX    AX:.O # IX    AX*.  hXoX  O IX  O O O O O O O O O O O O O O O O O O O O O O O O O O O O O O O O O O O ",
"O O O O O O O O O O O O O O O O O O O O O O O O O O 1 1 z.  6 0 } 6 6 } 6 6 } 1   X.6 O               6 6 @ 0 T.8XtX8X8X8X8X2X2X8X9 |   O O O O O O O O O O O O O e UX# # UXe   jXfX  W.PX    NX/.  + UX    ZX/._.mX  iXiX  O O y IX# # UX$.O :.KX*.Q.  $XMXO %.UX  O O O   vX$X  ZXAX    PX:.: PXkX    GX:.O # UX*.~.UXO   $XNX  ,.PX  O O O O O O O O O O O O O O O O O O O O O O O O O O O O O O O O O O O ",
"O O O O O O O O O O O O O O O O O O O O O O O O O O # G N.  @ q ^ q q } q q X.O   6 @.q @ q 0 G     1 0 q @ ^ O O } T.8XtX8X8X2X8X  | O O O O O O O O O O O O O O   ~.KXKXW.  O   lXPXAX# O   $X;.    hX  O # AXHX  O ~.~.  O O   (.LXKX/.  O r jXlXmX7   fXPXKXL O O O O O   BXPX:./.  O r HXKX+ _.    yXy O @ hXlXkXr O O   pXPXHXe O O O O O O O O O O O O O O O O O O O O O O O O O O O O O O O O O O O O ",
"O O O O O O O O O O O O O O O O O O O O O O O O O O S.G } @ O W 0 } q 0 } 0 @ W   q 0 X.~ 0 0   O G 6     6 @   0 X.1   z.>X8X8X2XO T.O O O O O O O O O O O O O O O O     O O O O       O O O     O O   O O O     O O     O O O O O       O O O       O O       O O O O O O #     O   O O O     O   O @     O O       O O O O       O O O O O O O O O O O O O O O O O O O O O O O O O O O O O O O O O O O O O ",
"O O O O O O O O O O O O O O O O O O O O O O O O O O 2XS.O z.O 6 @ ^ @ 6 ~ 0 O   ^ @ 0 @ 0 ^ 0 0 6       1 0   O +.@ 6 ~ 6 @   @.B.O tX  O O O O O O O O O O O O O O O O O O O O O O O O O O O O O O O O O O O O O O O O O O O O O O O O O O O O O O O O O O O O O O O O O O O O O O O O O O O O O O O O O O O O O O O O O O O O O O O O O O O O O O O O O O O O O O O O O O O O O O O O O O O O O O O O O O O ",
"O O O O O O O O O O O O O O O O O O O O O O O O O O   R.@ S.  @ G q } q 6 z.      z.G 6 q 0           q 6     0 1 q 0 X.0 q   } O B.z.O O O O O O O O O O O O O O O O O O O O O O O O O O O O O O O O O O O O O O O O O O O O O O O O O O O O O O O O O O O O O O O O O O O O O O O O O O O O O O O O O O O O O O O O O O O O O O O O O O O O O O O O O O O O O O O O O O O O O O O O O O O O O O O O O O O O ",
"O O O O O O O O O O O O O O O O O O O O O O O O O O O N.+.6 ^   G q } q G 0 ^   O q ^ +.~ W   1 ^ X.~ 6 O   6 0 W 0 @.0 q O   D.O T.  O O O O O O O O O O O O O O O O O O O O O O O O O O O O O O O O O O O O O O O O O O O O O O O O O O O O O O O O O O O O O O O O O O O O O O O O O O O O O O O O O O O O O O O O O O O O O O O O O O O O O O O O O O O O O O O O O O O O O O O O O O O O O O O O O O O O ",
"O O O O O O O O O O O O O O O O O O O O O O O O O O O O R.@ D.    0 1 +.@ q   ~ @ 6 0 1 0 ~ W W G 6 0 0 6 X.0 0 6 ^ q q @   N.@ z.z.O O O O O O O O O O O O O O O O O O O O O O O O O O O O O O O O O O O O O O O O O O O O O O O O O O O O O O O O O O O O O O O O O O O O O O O O O O O O O O O O O O O O O O O O O O O O O O O O O O O O O O O O   O O O O O O O O O O O O O O O O O O O O O O O O O O O O ",
"O O O O O O O O O O O O O O O O O O O O O O O O O O O O B.z.O V.@   6 6 z.  O   q } 0 @ 6 0 0 0 0 6 6 W X.6 0 6 ~ G 0 q   @ B.6 T.  O O O O O O O O O O O O O O O O O O O O O O O O O O O O O O O O O O O O O O O O O O O O O O O O O O O O O O O O O O O O O O O O O O O O O O O O O O O O O O O O O O O O O O O O O O O O O O O O O O O O O O O O O O O O O O   O O O O O O O O O O O     O O O O O O O O O ",
"O O O O O O O O O O O O O O O O O O O O O O O O O O O O   R.6 U.0 @   @   ^ O     1 ^ ^ } ~ W W ^ } X.G 0 q 6 +.W 0 W     2XO S.^ O O O O O O O O O O O O O O O O O O O O O O O O O O O O O O O O O O O O O O O O O O O O O O O O O O O O O O O O O O O   O O O O O O O O O O O O O O O O O O O O O O O O O O O O O O O O O O O O O O O O O O O O O O O O O O O O O O O O O O O O O O O O O O O O O O O O O O ",
"O O O O O O O O O O O O O O O O O O O O O O O O O O O O O 0 U.O 2X  1       q q   6 q 1 0 q G G q 0 q q 6 W +.0 q W     R.G ^ U.  O O O O O O O O O O O O O O O O O O O O O O O O O O O O O O O O O O O O O O O O O O O O O O O O O O O O O O O O O O O O   O O O O O O O O O O O O O O O O O O O O O O O O O O O O O O O O O O O O O O O O O O O O O O O O O O O O O O O O O O O O O O O O O O O O O O O O O ",
"O O O O O O O O O O O O O O O O O O O O O O O O O O O O O O +.B.O 2XO 1       O q ~ 0 @ O 6 6 6 1 @ 1 W ^ G @ 0 6 O   T.X.G R.  O O O O O O O O O O O O O O O O O O O O O O O O O O O O O O O O O O O O O O O O   O O O O O O O     O O                             O O O O O O O O O O O O O O O O O O O O O O O O O O O O O O O O O O O O O O O O O O O O O O O O O O O O O O O O O O O O O O O O O O O O O ",
"O O O O O O O O O O O O O O O O O O O O O O O O O O O O O O   +.B.O 2Xq O         @ } W 0 W ~ ~ ^ X.~ q 6 q G O @   >X^ G R.  O O O O O O O O O O O O O O O O O O O O O O O O O O O O O O O           O O O         O O                             X                         O O O O O O O O O O O O O O O O O O O O O O O O O O O O O O O O O O O O O O O O O O O O O O O O O O O O O O O O O O O O O O O O ",
"O O O O O O O O O O O O O O O O O O O O O O O O O O O O O O   2XX.V.@ D.S.    O     O     @ q q 0 0 q G G 6   O q R.0 G >X} D.  O O O O O O O O O O O O O O O O O O O O         O   O @               X X                 X X                               O O               O O O O O O O O O O O O O O O O O O O O O O O O O O O O O O O O O O O O O O O O O O O O O O O O O O O O O O O O O O O O O O O O ",
"O O O O O O O O O O O O O O O O O O O O O O O O O O O O O O O     X.T.0   D.X.  @       6 q q q q 0 @ O     q D.W O z.T.  O   O O O O O O O O O O O O O O O O O O O               X X @               X X             X X X X                               O O                 O O   O O O O O O O O O O O O O O O O O O O O O O O O O O O O O O O O O O O O O O O O O O O O O O O O O O O O O O O O O O O O ",
"O O O O O O O O O O O O O O O O O O O O O O O O O O @ } O O O O O O 6 R.z.@ 1 S.z.0 O     O O     O   @ } S.^ O W T.B.  O O O O O O O O O O O O O O O O       @                       @               .                   . .       .             . .       O O                 X         O O O O O O O O O O O O O O O O O O O O O O O O O O O O O O O O O O O O O O O O O O O O O O O O O O O O O O O O O O ",
"O O O O O O O O O O O O O O O O O O O O O O O O O O 0 2X8X  O O   O O   X.T.z.@   W @.N.z.+.} X.@.z.B.X.@ O W U.U.@ O O O O O O O O O O O O O                 *   O                 . # O             $ $         . . . . . $       .                                                   X   X O     O O O O O O O O O O O O O O O O O O O O O O O O O O O O O O O O O O O O O O O O O O O O O O O O O O O O O ",
"O O O O O O O O O O O O O O O O O O O O O O O O O O O T.tXq +.D.B.6 O   D.  z.U.U.+.W 6 1 O @ @ O 9 q ~ S.U.S.6   O O O O O O O O O O O O O O O O O O O       q < 3 < O         O   . 7 < O   O O O   $ .             .     .                               o                           X X X         O O O O O O O O O O O O O O O O O O O O O O O O O O O O O O O O O O O O O O O O O O O O O O O O O O O O ",
"O O O O O O O O O O O O O O O O O O O O O O O O O   D.tX8X  >X2X2X~   >XO O O   0 +.1 . 0 0 0 q 6 0 @ 1 } O   O O O O O O O O O           O O < < < O O       0 3 3 O O               ; 1       O O       O O O O O O                                       .   O O O     O     .     . . X *             O O O O O O O O O O O O O O O O O O O O O O O O O O O O O O O O O O O O O O O O O O O O O O O O O O ",
"O O O O O O O O O O O O O O O O O O O O O O O O O O @ | @ G 9 9 7 1 >X  O O O O O O o.tX>X2X2X2X2X2XtX  O O O O O O O O O O O O             O @ O < O   O O   @ 6 @ @                 X >       O O       O 3 O < < O                     O O     O       O +   3 C O       O         $ $ . o               O O O O O O O O O O O O O O O O O O O O O O O O O O O O O O O O O O O O O O O O O O O O O O O O O ",
"O O O O O O O O O O O O O O O O O O O O O O O O O O 6 } } } } } } +.  O O O O O O O O W z.@.@.z.@.z.  @ O O O O O O O O   O X   O           X 6 @ 6 1 O O O O 6 q 8 ; O               X g               O O C < O O O         O O         O O O O O       < + O S P O       <         . . . $           X   O @ O       O O O O O O O O O O O O O O O O O O O O O O O O O O O O O O O O O O O O O O O O O O O ",
"O O O O O O O O O O O O O O O O O O O O O O O O O O O O O O O O O O O O O O O O O O O O O O O O O O O O O O O       X       X X             X 6 @ 0 4 O O O O @ : : o             O     o   O           O   J O ; ; O O O O O O O O O O O O O   O O       O O O 0 F O     O O             . $               * * X     X @   O O O O O O O O O O O O O O O O O O O O O O O O O O O O O O O O O O O O O O O O O ",
"O O O O O O O O O O O O O O O O O O O O O O O O O O O O O O O O O O O O O O O O O O O O O O O O O O O               X X     X                 e # e 7 O   X   $ p u &                 . %       . .         z X X *   O O   O O O         O       O       @   X l s       O X                         . .   * * X     X @ O   X X       O O O O O O O O O O O O O O O O O O O O O O O O O O O O O O O O O O O ",
"O O O O O O O O O O O O O O O O O O O O O O O O O O O O O O O O O O O O O O O O O O O O O O O O O           X   O   o X       .       O       & & & -     X   . p u %                   $       . .         h X $ o                       O O   O O     O 7   * k f     O @ X                             . & o     . X @ O   * *         O O O O O O O O O O O O O O O O O O O O O O O O O O O O O O O O O O ",
"O O O O O O O O O O O O O O O O O O O O O O O O O O O O O O O O O O O O O O O O O O O O O O       X             O   .         .               o o o - X       . % % .                                 O O   g   $ $                                       X   X - -     O                                 $ u %     . o X     *                         O O O O O O O O O O O O O O O O O O O O O O O O O O O ",
"O O O O O O O O O O O O O O O O O O O O O O O O O O O O O O O O O O O O O O O O O O O O X @ < O X   O       O         #           O O         . $ o u .       . % % .                                 O O O =   . .                                       X   . $ .   < 3 O O O     O O                     $ $   O + o X   .         O                   O O O O O O O O O O O O O O O O O O O O O O O O O O ",
"O O O O O O O O O O O O O O O O O O O O O O O O O O O O O O O O O O O O O O O O O O O     @ P 3   . O     O O       O < O         3 O O       + % $ u $ O O O   . $     O                       O O O O O   X                     O O                                 3 Z < C 3 3 < < O           O O     O <     O C $             O O O O   O           O O O O O O O O O O O O O O O O O O O O O O O O O O ",
"O O O O O O O O O O O O O O O O O O O O O O O O O O O O O O O O O O O O O < O O O   O O   O I Z   + O       O         O O     O   C O         + % . $ . O O O           O                     O O O                             O O                                   1 6 O < C P P S 3 O         O O     < <     1 < u .           O O O O O O O           O O O O O O O O O O O O O O O O O O O O O O O O O ",
"O O O O O O O O O O O O O O O O O O O O O O O O O O O O O O O O O O O O   X *   * X         x b O . X     O O         @ X   O     ; X         O O           O O                       O O       O                                                                     = *   X @ Z S P C < O       O       1 O     8 X $                 O O O O               X     O O O O O O O O O O O O O O O O O O O O O ",
"O O O O O O O O O O O O O O O O O O O O O O O O O O O O O O O O O O   O   X =   * X     O O f 6.O O X O O O < O   O O 1 # O O O O X 6 < O O O O O       @ O O     O O         O O O O O                                           X                                   * X X X = g > 0 3 3 < O O   @       ;       v                 X   O O O O O O         X *         O O O O O O O O O O O O O O O O O O O ",
"O O O O O O O O O O O O O O O O O O O O O O O O O     O O O       X         *     X O O     X 3.*   O X O O < O   O O O O O O O O O Z S 3 3 O O O       O O 3 3 O O O O   O                                                                                           % $   o = s f s X O O O O O O       X       d                     X X @   O           X X O O       O O O O O O O O O O O O O O O O O O ",
"O O O O O O O O O O O O O O O O O O O O O O O O   ,.$XQ.    /.$X$X  !.e   ~.O ;.@X$X7 O L @X$Xi.- oX$X    O X # Q.  O ,.r   r hXpX  < F.1X1X  O :.+X$Xr   < P P 3 3 S C 3 < O O O                     O                             O O           O                   $ .   $ u u , = * X   O O O < O O O       * *               . .   o X X       O O O     O O O           O O O O O O O O O O O O O O O O ",
"O O O O O O O O O O O O O O O O O O O O O O O O   KXW.jX$X  UX,.Q.  KXlX  UX  MX@XM.UX  yXfXQ.$.!.NX~.PX  O @ =.UX    UX(.  UXy /.NX  PXF.(.KX  BX{./.#   O Z Z 3 3 P P P P 3 3 3 O                 O O                             < <         < O                         . u i i u . X X     O O < C 3       =   O                 . $         O 3 < O   O < O               O O O O O O O O O O O O O O O ",
"O O O O O O O O O O O O O O O O O O O O O O O O   JX# e AX  PX      BXBXO PX  bX;.  CXr 0X[.    Q.fX  KX+ O O W.AXoXn.AX$X: AX    PX  LX@   PX  NXr         g g ; X 0 0 F D 3 < S < O O O O O       O O                             3 3         3 O                           $ u u u $ .     O O O O 3 < O     X                       .         O Z O O   O 1 @       O O   O O O O O O O O O O O O O O O O ",
"O O O O O O O O O O O O O O O O O O O O   X   O   HX,.0XyX  IXlXhX  KX(.F.PX  bX>.  CXy XXKXAXL M.vX[ IX      _.(.mXfXM.yX# FX  . PX  LX+   UX  jXCXAX      s s = * f f h g ;   1 O   O O O O O O O O X                             6 X   O     ;                               . . . $ $ .     O O @ ; O     O                               .   X > X O O @ X X     O O O   X   X @ O O O O O O O O O O O O ",
"O O O O O O O O O O O O O O O O O O O O   X X O   ZX$XIX    PX  +   PX  bXCX  bX,.  ZXy 1X-X# O ,.ZXGX=.      ]._.hXZX*.pX# AX    PX  LX$   IX  MXn +       u u & X - - s f = X g X       O   O 3 C @ X                             - *         -                                               . O * s X   O O       O                           = =   O @ @ &   O O O O     X   * X   O   O O O O O O O O O ",
"O O O O O O O O O O O O O O O O     O O O O @ O   KX# lX:.  PX      PX  bXDX  MX*.  HX# 0X`.    W.hXL DX  O   @XoXe y ,.hX+ KX    PX  PX    UX  NX:         u i % $ i i i u &   = X             O < O   O O O O                     *           *                                                   o o           O O < O                         o o     * o .   O O O X       X *           O O O O O O O O ",
"O O O O O O O O O O O O O O       O O < < O X @   CX# e mX  AXZXPXO ZX. i.HX  pXLXLXiX  (.KXHXuX*.pX  CX#     @X/.    *.pX  pXHXIX,.  cXHXPXQ.  pXHXKX~.    . % $   % u u i u . u $   O         ; *     O   < 3 O O                 o           o                                                 X u u             < P 3                         .       X .     O O @     O   o O O           O O O O O O O ",
"O O O O O O O O O O O O O O O O     O @ @ O O @ 6     O   2       #   5     L < O     @         O   v                             3 o         .                     . $ $ % % . % . O <   C O   X * O O     O < O O O                                                 O O                           $ .   O       O 4 C 3 < O           O O             . .     O < O .   O O + 3 < O O O       O < O O O O O ",
"O O O O O O O O O O O O O O O O       X = * O O o .   O 3 O   O O O O + O 1 e r r > @ O O + + X @   = s                         C g.  $ $ .                               + C   .   O 3   S O   $ $ O S   O X * O O O                                                 < O                       . .     O O       O K > O 3 < O O       < O             .       < <   .   O < < S O O O O O O   @ 1 O O O O O ",
"O O O O O O O O   ; X O   O O   O       o o     . $   O 1 O O O O O O . + O ; - - - o O O   X X X   X *                           {                                         1 O     O O   G     . % O 0     X *             O O O O O                                 O O                                         @ > = X @ O < < O     1                     O @         O O @ q 1 O O < < O X * * X   O O O ",
"O O O O O O O O   = = *   O @ O O O     % u +   . . O   @ @ O O O O O O O O = * , , & . O   X         &                           5.*             O         O               ;         *   m X       X d     . $             O O O < 3 O O O                           :                                           * , o X =   < 3 O     >   O               O O *   O     X   d * < @ O 1 O   * s = X         ",
"O O O O O O O O   X = * @ O @ O   O     + % 2   . . O O O 6 O O O O O O O O X o % u % .     X         .                           3.*         O   O O                       1   O O O * O M *       X =     . $               O O O 3 < C C O                         X                                           - u $ . X X @ O O   X X                   X X o O O   O   X = o @ @ 1 6     o X X X         ",
"O O O O O   O @   O X X X O   &     O O < + # O O O O O   O O O O O @ O   O   $ % % $                                             o .                                       @       O     - X       X X       .               X X X @ O 3 C O O < O                                                               o $ . % .   * X       O < O               X     O         $ o X @ < 7 X   X $ .             ",
"O O O         @ X O O . O O O $     O O 3 O   @ O O O O   O O O O O O O     O .                       O             O             + $           O           O O             X             ,         X                       O     X * X > ;   O 3 3 O O       O O                                                       $ . . o   O     < P P <                       O   + % $ * @ 4 5   O O   O < +   O     ",
"< O <   O O O 1 @ O O O O O     .     O 3 @ O X O O O O           O                                   O             O           O C   O       O C           C <   O             O O   O   X                 O               O +   + $   > * O O O O O   O O   < 3 O   O O                                                   $ $         1 g.g.P <               O         < + . O @ : % O 3 <     < < . O   O ",
"; X 6 X O O O O 7 + O O O   O   . .   O O ; < O O O   :._.}.}.{.}.'.{.{._.{.{.{.'./.y           O   W.{.{._._._._._.XX{._._._._.~.D     O   O   D           C C                 <                                           <     $ $ . a +     * X     O O   3 C O   O O                                             O O     .       O 8 ..T P P 3 O                 O O < O   O @ &   @ 9 O   O @     O O O ",
"k * * =   X O O # @ @ O O   O     O O O @ ; @ O < O yX:.                          + /..X        r $Xr                           e qX*.  O       )           ; 8                 O                                           X         . u $     . X           g @                           O                                           g 7.m 0 P P 3         O     O < @ X O O o o     : : < < d X   O O O ; ",
"f s X f   O @ O @ 0 O X   O   O O O O O @ ; @ 1   uX  O       O O O   O     O         $.~.    @ $X  O   X O         * *           f oXe O O     M X         = h                 X                                           o           o     . $ .           f *   O o                 O O O                                         $ j 3.k h 0 S 3 O O           O < X   O   $ $     * O C 4 >         X * ",
"o & . : X O @ @ O @ X           O O O O O 4 O @ :.;.O O         O O   O                 .X    oX        X           O X           d   +X        = o           d                                                                         .       . .           *       O O               O O O                                         $ V p , f f > O O 3 <     O   X X   O     . .   *   @ 1 < < O     X *   ",
". % +   : O O 1 O O X   O     O O   O   O < @   '.    O       O O O O O                 *.*.  .X                            O   O o X ).    O   o o           ,                                                                         .                             O <     O O                                                     $ i i i p s =   O C C O       =     O               ; ; @ < O   O   X   ",
". .   O   < < X O < S   O O O O O O O O O O >   |.  O   O O O O   O O           O       $.,.  .X                    O       O O   O   /.+                     X                     O O                                                                       O O     O O O O O           < <                     O                   + % % i i p     O 6 O O   < S X                   . o 1 @ 3 O O +       ",
"O O O < < 3 3 O X O g.O O O O   O O O <     *   @X  O   O O O O O O             O O     %.,.  .X                #   C O   O O O   < O /.o                     O     :.          %./.  <             + *.                      .         $.e                   O O     X   O               C 3                   O O                 O O . . $ E u     * -       3 S               O     $ & @ O 1 O           ",
"O O < C C 3 0 X     G >   O           O   O     |.  O O O O O O O   pX:.        O O     $.,.  .X                  IX@ O     O     O O /.o                     O   + UX          jXIX  O             Q.HX                    $.IX        AX+X                  O O                       . 1 O                                       O O   . @ # $     , o       N O                     + +   @ X       O O . ",
"O < < C I @ * =   O * 3.                X       .X  O   O O O O   yXUXUX$.      O       $.,.  .X              O   UXo @           X   /..                           UX              + X             M.AX      O             lX/.        MX.X            O     :       $           O       * *                                       X     O >       . u $     * l O                     O     X         O < + ",
"< C < 1 c d X -   O   h X O         O O O   O   _.O O O O O     0XAXjX/.UX$.            $.,.  .X      O   #   .   UX+ #               /..                         + UXyXPXjX    W.hX  X ~.PXIXMX$.  ,.ZXlXPX.X              UX          MX.X    pXIXPXQ.  *.lX    AX,.  /.pX        @X$.ZXsX  iXIXPXW.    pXIXKXW.                  X     O 7       . % .     * * O                 O             .     O O . ",
"< Z 4 @ s l X $ $   O   %     O     O   O O O   _.O @ O O     pXKX  mXQ.y UX:.    O     $.,.  .X            lX    UX+   hX#           /.o                         + UXW.  KX/.  ).NX    UX+   JX/.  ,.UXe e UX#           .XkX          MX.X  M.AX  # UX  + UX  *.IXfX  lX@X        .XUX,.  ,.KX  y UX  Q.DX  $.y                         X                   $ X O   O                                 X O O ",
"< 1 8 @ * = $ $ .   O   . O O O O O   O O O     _.  @   O O   _.    mX~.  *.*.          $.,.  .X            hXCX  UX  jXMX            /.+             O           # UXO   lX$X  /.NX  y IX    HX/.  ,.HX    IXy           PXy           MX.X  1XjX    IXy   UX# $XoXKX  KX%.  O     +XhX3 < $XhX    UX  $XkX              O               X   O         O     %                 O O   O O   O   O O O .   < P ",
"O @ * *   & % + O O   O O O O O O O O O O   O < {.  9 O O O         mX~.      O <       $.,.  .X    O     O   hXmXPXhXMX  #           {.+ O           O O         # UX    lX+X  /.NX  $.IX    HX/.  ,.HX    IXy     O O y LX    O O     MX.X  1XkX    IX$.  HX*.mXr UX  UX    3 3   $XlXO O $XKXjXKXkX  e UXPXNX#     O 3 O     O O         O 3       O <     .           O O O O O     <       C O   .   D C ",
"O O o , $ . . O O O O     O < O O   O O O O O < |.  4 O O O         MX~.      O 3       $.,.  .X    O     O P   hXUXMX  3 O           [.3 O O         < <           UX    lX@X  /.NX  y IXO O DX/.  ,.HX    IXy O O O O lX.X    O C     MX.X  yXkX    IXy   pX_.JXO JX  IX  O 3 C   1XlXX   $XmX$.e         e hXMX    O 3       O O         < O       O O O               O O < O     O     O O 6     .   m   ",
"O     % %         X   O O O O O O O O O < < O O XX  O @ < < O O     pX,.      O @       $.,.  .X    O O     1     $X    O O           ).7             O @         o UX    lX@X  /.NX  # UX    IX/.  ,.HX    IXy     O   UX      O @     MX.X  oXlX    UXe O Q.lXIX  hXyXNX    8 X   $XlX    .XlX      o       ,.AX      X       O           -         X                   O O 3 O     -     < v *       h =   ",
"O     $ $   O O O O @ O O O 1 O O O O O O < O   OX  O * O O O O O       O       * X     $.,.  .X            * o           *           /.l   X O         *         + UX    MX1X  .XZX    iXUXLXKX/.  Q.KX    UXy       ;XlX      * * O   ZX@X    IXBXKXmX    # UXBX  W.UX$X  o s X   ;XNX.     IXZXKXAX  ).IXCXUX:.    * X                 X =         X                   X X @ O O O       @ *       X =     ",
"X O O O O O O O < C 3 O O O @ @ O O O O O O @   .X  O X X X X                           $.,.  .X              X           * O         /.d               o             O O O   .       @       MX).                    o         o X O             %.r         . o             -   o   + $       %.e   2   # %.+       o                   X                                 * X O < O     X X   O     *       ",
"*   O O O O O < C P S 3 O O @ @ O O O O < 3 4   )..       X X X                 O + O O ;.$.  .X                                O     _.                                                pX].Q.UX*.                              O O                             .             .             . .     O                                                                   . $ X   O < < O   o                   ",
"7 . < O < < 3 < 3 0 0 1 @ O 1 @ O O O < 3 3 3 @ r Q.      . $ .                 O O 3 O $X    /.#                                 O   +X                                                *.pXkXW.                                                                                            . $           O O O                                         O               O + . O Z X O O                     O ",
"E 2 C < < < 1 @ @ > h > @ O S C O @ < 3 1 @ ; X   oX$.      . .                       _.%.  O   dXO O O   O O                       uX  O       O O                                                       O             O O           O O           < O                                                   O 3 O                                         O O             O O . 4 Z X                         O ",
"a 1 < @ O @ ; @ @ X , , 2 O D Z < 1 1 1 @ * * X +   )..X%./ / / $.$.$.$.$.$.$.$.y :.$X=.      O 3 1X~.$.$.$.$.$.$.$.$.$.$.$.$.$.F.$X  O       O O O                                                       O             O O           < O           3 O                                       O             < O                                         O               O     > o       O                 O   ",
"% - X ; @ @ @ @ @ + u u & @ O m 1 1 @ @ X X o $ . X     :.,.,.,.,.,.,.,.,.,.,.,.,.%.  o .       > * r ,.,.,.,.,.,.n.n.,.,.,.,.,.r                 O                                                                   O               X             *                                                       *                                           O               X   X d     O                   O O   ",
"% X * @ @ @ # + + O + + # O O > ; @ @ X X . + $ O O                 O             O   $ $     O * s = X     O O   < C < < <                       X                                                                                   -             o                                                       X                                                               o         O       O         O     ",
"% O @ O @ O O O O O O O O O 1 @ 6 X X X   . .   O   O                                           $ u u             O ; O < < O O O O < < O O                                               O                                           X                               O                                             O O                                                 O                                     ",
"% O O O O O O O O O O O < 1 @ @ @ X X O . . O O O O O O                                           u i .             = X X X       O C P O O O O O                             O                               O                                                                                                         O   O                   O O                     O O         O O   O O                 ",
"+ < < O O @ O O O O O O O @ @ @ X O O O O O O O O O O O           O O           O O   O       O     .     O         & $ X X   O     1 0 O   O O O O             O                 O O                                                                               O O             O O           O O     3   O O < O     O S O           O < O C O                     O < O O     C O   O O     O           ",
"+ < C < O @ O O O O O O O @ @ X O O O O O O O O O O O O O         O P O         O O   O O O   3 O         < <       $ % . $ .       X f X O O   O O     O O     O                 O 3 O         O C O                         O O                       O O       O C <             3 O           O O   O P     3 S O     O g.S           < 3 O C O                     O O O     O <     O O                 ",
". O 4 1 O O O O @ O @ O O O X   O O O O O O O O O O O O O           C @         O O     O     3 O     O   < <             .           , . O O   O O   O O O O O O                 O C O           C                           O O                       O O         0               1 O             O   O 4     @ 1     O X K P <         :   ; @                       :         >       X                   ",
"+ O @ 0 @ @ O O @ @ @ @ O O X   O O O O O O O O O O O O O O         X d       O   O     O     X X     O     g                     O   u u       O     O O O 3 P C                   >             g                                                     o           l               s                   = *     = *       h f F <     O   -   =                         X       X X                           ",
"O O O @ @ O O @ O O @ @ O       O O O O O O O O O O O O O O           =                   X     o           -                     O     +         O O     X   4 C O   O             d             s                                                     X           =   O           X                   *       @     O   , s s               o                                 .     O                       ",
"O O O O O O O O O @ O O     O   O O     O O O O O O O O O O O             O                               O                             O             O       s g   O O                                                                 O                           .                                   .           O     i u X   O     .   .                                                                 ",
"O O O O O O O O O O X     O O O O O O O O O O O O O O O O O O     O                 O                           O               O O O O             O   O . . o =                                                       O                                                                                     X           % i .     O           O   O   O O O       O O           O   O C O                 O ",
"O O O O < O O O X < O O   O O O O O O O O O O O O O O O O O O O O O                                             O           O O O O O                   O O   u i .         O     O     O O                                   O                                     O               O O       O S < <   O     O O         . $   O               < <   O C P C       < <               3 3                   O ",
"O O O O 1 < O O   <     O O O O O O O O O O O O O O O O O O O O O O                                             < 3         O O                         S < C < %             O       O O O                     O O         O C O                                 < 3               < <       < P C O         < O                               < O   O O | O       #             O   M                     @ ",
"O O O O @ @ X X   O X   O O O O O O O O O O O O O O     O O       O O   O                           O   O       < O     O         @   O .   O O         Z < C <               O 3 <   O O                       O O         O 1   O                               @ @               @ O       d > *           X O                               X     * d f       X X               s d                     * ",
"O O O O @ X         X   O O O O O O O O O O O   O   yXoX    pXlXvX#   $X# ,.W.  %.{.  $XHXyX%.mXpXmX      pXlXhX  yXAXmX    Q.HXMX  iX    yX+   ZXAX*.  - * > *                 C S O                                         *                                   - X               *         4.* -           o                                     O X d X   O   X                 ,                     $ X ",
"O O O O @ X   O O         O O O O O O O O O O O O   KXHX    UX@ *.KX  AXe +X$X  W.jX*.mX  r   y AX+       PX  e :.mX  (.hX  UX  +   IX    KX@ AX%.. +   * * * *                 = F C O                                       X   O                               o                 X         ,                                             O O         o                         . .                     $ . ",
"O O O O O     O O O O O O O   O O O O   O O O O O *.fXCX#   IX    IX  ZXe oX+X  W.hX,.hX    O e AX        KX    ~.pX  $.mX# AX      IX    HX  KX+         .                     o d D <                                                                                                     . u                                             O O                               O O             O O           + ",
"O O O O O   O O O O O O O O O O O O O O O O   O O uXW.$X/.  IX    IX  ZXe oX+X  W.hX  NXIXiX  e AX        IXAXyXW.pX  $.MX: AX      IX    HX# ,.IXPXe                       O   % p 8 <                                                                                                                                                                   3 O             O   S P O           3 O         O # ",
"O O O O     O O O O O O O O O O O O O O < O O O   NXMXAXpX  IX    IX  ZXe @XoX  W.pX      KX+ e AX        KX    !.pX  $.mX# AX      PX    DX#     y AX  O                         i - @ O                             O           O   O O O               O                   3 P     O                                                         O       O P O                 h.S           O 3 O       O O O ",
"O O       O O O O O O O O O O   O O O O < O O O   UX  # PX  IX  ;.KX  CXr Q.hX  @X$X  e   UX  e HX        PX    *.mX  ~.hX  PX  +   KX:   UX  y O n.mX  O           O         O   . E 1 O                           O 3         O O   O C S   O O O O   O < O               O P P O   O O                 O O O                           O     O O   O > q                 k p.X           v         O O O O ",
"      O   O O O O O O O O O     O O O   O X   O e yX    hX  fXmXmX: *.mX    hXHXlX  7 CXKX~.  # yX        pX      iXAXMX    /.JXZX  y FXHX~.  @XAXZX  O O           O O             + &   O                         O 1                 @ 1   O O O O     @                   6.- O O O                 O O O O O                       O O O   O < O   4.      O O         3.f             X   O O O O O O @ ",
"    O O O O O O O O     O O   O O O       X X O O   O O   @       *     - O       O O       O O   O     O   O           O         O         O     *   O O                           d o     O                         *                 = * O   O         X                 X 3.X X                                                             X O O   -                 . p                   O O O O O O O ",
"  O O O O O O O O O O   O O   O O O O   O   O O O O O O O O O           X   O       O                               O                             *                             O   *       O                                           X                                     a                                                                 X                         $ $           O         O O O O O O ",
"O O O O O O O O           O O O O O O O O O O O O O O O O O         O     O                                                                       .                                                               O                                                           $ . .                                                           . .   O O O O                             O         O < < O O + ",
"  O O     O O           O O O   O O O O O O O O O O O O O O O   O     O   O O     O                 O       O                                         O                                                                                                   O                                                         O           O           O . .     O O                                         @ 1 < < O + ",
"          O O       O O O O O O O O O O O O O O O O O O O O     O O         O   O O         O O     O O         O O                 O O O       O O                                                             O     O O         O                 O O   O S         O 3   O                         O           O O           3           O         O                                           @ 1 4 3 1 2 ",
"          O   O O O O O O O O O O O O O O O O O O O O O         O       O     O O O         O O     O O O         O             O O O O O     O O P O                                                                 C <         O O               3     O Y O O     O 3                             O             O           @                                                               O @ 1 1 4 4 < ",
"O O     O O O O O O     O O O O O O O   O O O O O O X           O       O O       O       O @       O O                             O O         O c                                                                   > X         O                 X     g B     O   X -                             O                       * X                   .   O O                                     O @ @ 6 4 4 < ",
"    O O O O O     O   O O O   O O O O O O O O O O O X                                   O     o                                   O             X l X O                                             O                 d X                           X     d s   O     X o                                                                                 O O                                 O O @ @ ; 0 4 4 ",
"O O O O O O O O O O O O O O O   O     O O O   O O O   (..X.X.X.X.X.X.X.X.X.X.X.X.XoX,.  .     O   7 .X.X.X.X.X.X.X.X.X.X.X.X.X.XoX$.  O           o                                                   O               o                                   &   O       $                                                                                     O                                 O O # @ ; 0 6 4 ",
"        O O   O       O     O   O O O O     O O O : yX#                             *.yX        ,._.                              ~./.            .                                                                   .                                                                                                                             O O O   O O             O     O < 3 3 3 O < C S 1 6 F Z Z ",
"O O O O O O O   < 3 O O O O O O O O O O O O O     yX  O O   O O O O O O O O O O O O O + oX    y _.                  O     O         ,.*.  O           O                                                 O O O         O                                                                               O O O < O   < < O     O O       O O     O   O C g.3 O S < O   O O O O O O O C P P P S < 1 I D 1 6 F 0 0 ",
"O O O O O 3 3 O C P C O O O O O O O O < C C <   F.$.O O O O O O O O O O O O   O 3 < O O [.#   oX  O O < O O O O O O < 3 O O < C 3 3 O @X  O O O O O < 3 3 3 C 3 O O         O < < O O   O O O O       O O S S < 3 < < < 3 O     O   O O < < O O       O O O O       O < O O O O O O O O O O     O O O < 3 C P < O C 3 O   O O       O O O     O   O ..h.< 1 F O O     O O O O O X > z > z @ X f x @ @ 8 > 6 8 ",
"X O O   O O @ X O w z X O O O O O O O O 1 4 @   }.  O   O O O O O O O O O O   O C 3     c.,.  {.  O < 3 O O O O O O C P 3 O 3 g.S g.P [.2 < < < < 3 S P g.g.g.P C <   O O O O C S O O O O < < O O O O O O J g.C P < < C S 3 O O O O O < 3 < O O O O   O O O         O O O O O O O O O   O         O   @ O 8 6   X 8 @     O                       s 7.= X s *         X         * d = - = X o p * @ 5 : ; 7 a ",
"o     O O   X X   * k = O O O O O O O   * s =   }.  O O O   :   O X X   O O     * = O O %.i.  .X      : X X X O O   X x = O   0.f x s '.# * X X X X > x m M m x > X       O   ; g X       X X         O   x 0.0 x X X = = *     X   X * = X             X             *       X           O       O   * X s X   X =                           O   V j   $ u             .     $ i i u i $ . i i O < + # @ 1 5 ",
"i $   O O O O % +   & i . O O O O O O O O $ u . _.                  o o       O X ,     $.i.  .X      X X     o   + : * - X X k s d - '.o X X   X X * d j j j j - X           * - X   O   X X             d l J y   o o o X   *.      o . ,.BX,.                    . o                 O O             u i .   u u                         < < . i % $ % %                   . % $ $ .   O . O O < O @ 1 6 6 ",
"L O                 . % $ O O O O         . % $ _.        O O   F.CX    UX  O O   % %   $.,.  .X          . .   hXKXHX].u .   $ u i i ].$ $ $     $ u i 1.1.1.1.u $           % i $       . %             u i w E . $ u u $ :.LX    . $ $ UX-.#       . .           . .   O   .         O O             $ $     $                           @                         O                   O O O 1 @ @ @ @ ; 6 ",
"0 0 O   O O O O O O   O     O O O               _.            O   KXy iXyX  O O O       $.,.  .X                IX      $       . . . /..   .       . $ % % % % . .     o   O   $         .           O o   % X *           BX,.        y HX        .             .                   O X                                                   X               O O O O O O                 O O O @ 1 @ 1 @ @ 1 6 ",
"F F 1     O O O O O   O < O         O O O       _.  O O   O O O   *.AXUX  O     O   O O $.,.  .X      O       e KX  O             O   /.@   O                     # mXLXIXPX      KXPXUXoX  # PXIXUXyX    AXoXUX$.          UX  O     e UXUXUX  Q.UXPXUX,.  e jXbXUX              O O       <       3 3 O 3                                   < O         O P < < O O O < O     O       O @ O @ @ O @ @ @ @ 6 ",
"F F F <     O O O O O   C 3   O     O O O       _.  O O O   C C     AX_.< < O O O   O O $.,.  .X  O O O       r KX          O O       (.+ O P O         O           UX2   NX.X  yXjX  L UX    +   # UXO   KXyX. u   O     yXfX        O $.JX  A       .XAX< o UX,.                  O     O P O     P 3 O C         O                         2 O         > W   @   O   3 3             @ @ O O 1 O @ @ @ @ 6 ",
"F G F F O     O O O O   O v X O     O O O O     }.  O O     O !     UXAX  4         O O $.,.  .X  O O O O O   e KX        O O O       /.# O I <                   + UXD   lX+X  jX$X  L UX      O   UX    PX$.      O O   UXe           ,.KX  1       ,.DXO + UX                          > b       0.  = X O   O O O                       = X           4.X *       X ; 3 O       O O @ @ 1 O O O O @ @ @ 6 ",
"K F F K 0 O O   O O   O   X *                   {.  O O O     d X kXW.ZX,.- X O O     X $.,.  .X  O         O # KX      O     *       (.+ X m l         O O O O O + UX3.X lX@X  pXPXKXUXQ.    KXPXJXIX    PX%.        O *.DX            ,.KX  X *.IXKXPXCX* + UX                          l *   O X l   -     O                                         $ o           o = < 3 O       O @ @ O O O @ O @ @ @ 1 ",
"F F K K K 4     O O   O O       O O O O O O O   {.  O O O   O   $.UX  e IX  X O O   O   %.,.  .X  O O       O   PX+X_.(.      X       (.+ X = j   O               o UX=   lX+X  jX0X        yXlX    UX    PX%.          MXW.            ,.KX    JX,.  :.DX  + UX                        O o     O & $       O                         O O O             .           . % * * S 3       O @ @ O O @ O O @ @ @ 1 ",
"K K K K K K O     O O           O O O   O O O   _.  O O   O O   *.r O   ,.+   O         $.,.  .X  O O O           $XyXy             O (.@     u                   + UX+   lX+X  yXhX    e   $XlX  y UX    PX%.          UX    O         ,.KX    HXW.  @XZX  + UX                                                    O                                   O             % + * 0 3 O     O @ O O @ @ O S < < C 4 ",
"K F K K K K F O   O O       O   O O O       O   '.  O O   O   O O   O O       O     O O $.,.  .X  O O O                             O (.+                         + IX    lX@X    HXIXUXpX  + IXIXAXlX    KX%.        $XpX              :.AX    ,.UXPXhXlX  + IX                                    O             O                   O O O O                           % - = O O   < 3 3 C C 4 < F Y < @ Z 1 ",
"I K K K K K K F O O O O     < O < C   O O O O < .X  O     O   O O     O O       O O O   $.,.  .X  O   O O                         O   /.+ O O O         O       O             O O         O O           @     O     O       O               @ O           # .                                   O   3 <   O       O                 O O 3 3 O         O                 $ u o   O O Z D Z F 4 @ * M @ @ d ; > ",
"J ~ G K K K K K 4     O     < < < Y O   <   O g.{.+ O   O       O     < O           O   ,.y   @X  O       3       O                   .X    O O         O O                   O O O   O O                 O O           O O O O O       O O O             O O     O O       O                 O   O C O         O                   O X 4 @                             . % . O O @ W G > z ; X d = O @ ; @ : ",
"G W W K K K K G 8 X           :   = h         d l {.  O   O     O     O @   O       O   yX    n.&.        < O                     O e .X  O             O O                 O O O O O O O                 O O           O O O O         O O       O       O     O O O O     O                   O X m           O O                   * * X                                   O   z W 0 @ @ O O + O O @ O O @ ",
"K K ~ K K G q 8 - o             X   d           l M.W.                  *             yXe O     uXy     O   o                     + iX  O               O O                     X O   o     O               o O         o   X O O   O   X                 X   O O O                               X =               O             O                               O O O         O h.0 1 @ @ @ @ O O O @ @ @ @ ",
"K K F G q 8 8 : & % +   O O   O       . O       . . *.$X~.W.W.W.W.Q.Q.W.W.W.Q.Q.W./.$X+ O O O O   '..XW.W.Q.W.Q.Q.Q.W.W.W.W.W.W._..X  O                   O           O         O   O X                           O       O   3 3             O             O O O                                                   O                                           O O O     O O   l.T 6 1 @ O O @ O @ O O O @ 1 ",
"K G q 8 8 9 e & & $ .     O O O O O         O O         e r e e r r r r r e e r r +   O O O O   O     e e e e e e e r r r e r r O   O                                 O           O O O       O                               ; 3 O                       O O   .                                                     O                                       O O O O   O O   b Z.0 J @ @ O O O @ @ O O O O @ ",
"q 8 8 7 e r 7 o $ .         O O O O O       O O     O O                     O O     O O O   O           O O               O O O O     O                                                                     O                 * ; O                       O             O               O O O                   O   O O                         O O             O X O   X @   a.m K D @ 1 @ @ @ @ @ @ @ O O @ ",
"; 7 5 e 5 4 @ o .   O         O O O         O O     O O O O O O O   < <   O O O O O O O O   O O     O O O O         O   O O O O O O                                                                     O O                 O % o   O O                 O O           O O   O             O O           O O O       O O O                       O O             O O O O @   x 0.* ' C X @ @ @ @ @ @ @ @ O @ @ ",
": 5 5 4 4 0 * o .     O       O O O         O O     O O O O O O O   C S   O   O O <   O O O O O O   O O O O             O O O O                                                                   O O     O                 O $ $   O < O                             C <                 O O           O O O       O O                         O               O O   O O O o.< V z <   X X O @ @ @ @ @ O O @ ",
"5 2 4 4 4 * o .     O O O                     O     O O       O       9 X         @ X   O     : X   O   O O           O O O                                                                       @ O                   O         O O ;             O O O             >                                 o                                                       @     O   K J A i @ O   X X O O O O @ @ O O O ",
"< 4 4 0 6 * o .     O O O O O   O O           O O O O O     O O O O   * X   O O   X X O O   O X X       O O           O   X                                                     O O               X                                 O -               O               -                                             O O                                     O   O   O   4 j.~ 5 u @ O         O @ O O @ @ @ @ ",
"4 4 4 0 * o .   O O   O O O O                 O O O O O O O O O O   O         O       O O         O     O                           O O                                       O O O O                             O     O           3 O O         O                                                               O O O                   O   O       O O         O     A.W q . @ O               X @ @ @ @ @ ",
"4 4 0 6 X o .     O O O O O O                 O O O O O O O O O O   O         O O   O                 O                 O       O O O O           O                             O O O O                         O   O O             0 O O       O O                   O               O O                         O   O                 O O   O     O     O     O O   ) ] q O @ @ O               O @ @ @ @ @ ",
"Z F 0 ; o . .         O O O O O       O O     O O O O O O O O O O O     O O   O   O                 O O O O O           O O O O O   O       O O O                                   O                           O                   = O           O               O O                 O O O                       O       O O O O O   O       O   O C C   O O   O O O V.F 1 O D O O         O O       X @ @ @ ",
"q J 0 * o +   O O O   O O O O P 3     O O O O O   O O O O O O O O O O O O O O O S O         O O O O O O O O     < O   O       O O   O O             O O           O O     O     O <                             O   < O         O   u O             O <               O 3     O       < P                     O O <   O O   < O <               O X  .<   O     O   x. .J O F D O O O O                 X X @ ",
"6.6 > * .     O O O O   O O O O '     O   O O O     O O O O O O O O O O O   O O Y 3   O     O O O O O O O O     P C     O O O     O O C         O O O O     O     O O O O   O   O P                             O   C O         O   $ < 3           O Z O             O 4   O         8 ~                   O   X @   O   X O X O           O O   l k   O   O O O W D.{ 1 X ' O < O O                       O ",
"z e * o . O O O O O O   O O O   f d   O   O O     O O O O O O O O O O O O O   O = 4.      O O O       O   O   O ; 6.  O O O O   O   O 8       O O O O X     O O   X @   O     O   0.  O                           O 8 O       O O     1 Z           X =               = * O           l =   O     O         O   o     O   O   X     O         O   ,   O O     X   L.O.K O h = @ 4 O     O                   X ",
"0 : o $   O O O   O O     O O     $             O O O O O O O O O O     O O       -     O O O O       O     O     B   O O O   O O     X X             X   O O O O   X             3.  O   O                         -     O O O       = 6   O     O O X O O           .           O   ,   O   O                     O O O         O         O   O   O     O @   e.y.) 4 @ 1 O * @ O O         O O             ",
"6 X $ .   O O O   O O O O O   O O O         O O O       #         O   O O         .               O O         O O   +       @ @           O           O O     @ O       +     o   $       O     O     O O O                 O     O   u o O     O O                         O             O                     O     O   O                 O             O   6 D.! 8 4 1 1 O : <     O     O O O O           ",
"; o .     O O O O O O O O O O             O O O   oXPXKX  W.KXHXoX*.pX    $XDXKX,.  KXHX~.MXZXKX(.  O # PXKX/.  n.KX    W.lX    AXy         oXW.    lXe     NX  %.IXKX_.  MX    MXe PXCXLX+       /./.    %.IXHXhX  W.JXLX*.  uX,.    % . O O     O                             O O   O                               O     O   O O O         O     O O   O   Z.O.q > 1 @ @ + O 3 O O     O   O               ",
"* o .   O O O O O O O   O O O O O O     O O O O   UX      +X_.    ,.lX    lX*.    pXW.      mXe   O   mX%.      mXkXW.  _.UX  %.UX:.    O   PX      AXe     PX  HX        PX    IX    PX  O       KX      AX+   ZXe +X).  IX  hXW.  O     O O                                 O   O   O                         O O O       O O   O O     O O O   O O   O   h a.q 6 @ 4 O @   c < O           O O             ",
"* $   O   O O O   O O O O O O O O O O     O O     UX      @XoX+   n.lX    lX:.+   hX,.  O   MXL       BXL O O   UXy kX  yXpX.XhXpXQ.  O O *.jX      ZXe     PX  KX        PX    IX    PX  O     y mX      HX+   mX$.+X.X+ KX  hXM.< O   O O O                           O O     O C O   O                       O <     O   O O O O       O O O O O         0.8 0 O 0 @ @ @ X = O     O                       ",
"o .   O   O O O O O O O O O O O O O O O   O @     W.AXIX  /.KXFX%.,.lX    pXAXAX7 hX,.      MXL       NXR 0 O : ZX  PX  pXy lXmX(./.      mXy O     ZXe O   PX  KX  lXlX  AXmXvXLX  . PX  O     lX*.      KX+   MX%.(.AXNXyX  hXF.4 O   O O O                           O       X 7   O                   O O   *     O       O           O   O O     O   0 W 0 @ 4 0 O O O # O O O               O O       O ",
"$   O O   O O O O O O O O O O O O O O O         O     oXoXoX_.    ,.lX    lX%.    hX,.      MXy   O   CXr 6.  n.IXBXUXX pX*.lX@XoX{.  O   KX    O   AXe     PX  KX    KX  PX    IX    PX    O   PX        HX+   mX$.@X_.  PX  hXM.d   O   O O O O                   O           * *   O O                           O O               O O   O O O         | 4 6 ; F < O O O O O O   O         O O             ",
".   O O O   O O O O O O O O O O O O O O O         (.e CX,.@XhXi.*.,.CX,.e lXoXW.y .XhXr *.  CX$.      uXyX$.e mX*.  lXi.lX,.    $X$X    yX/.O       AXW.Q.  IX  cX_.e IX  IX    UX    IX      oX@X        lX).e UXO $XpX,.IX  lX,.X   O   O O                       O O       O .                         O O O     O O               O O O             K F I O J F O X O O O C O   O   O     O O O O < O     ",
"  O O O O O O O O O O O O O O O O O O O O O       .XlX/.  r $X0X/.@ +XyX,.$.$XyX,.  @XlXQ.  W.# O O O   yXkX%./.  O y %.,.7   O / %.    /.  O O     ,.$XuX  /.    pXjX*.  /.    (.    /.  O   ~.        O   pXkX*.  r $XyX+ e pX  O O O     O O                   O   O         O O     O                       O   O O           O O O O O           @ } b 1 @ ..3 O @ @ O 8 Y O     O O   O         1 O     ",
"O O O O O O O O O O O O O O O O O O O O O O     O     O O                         O       O         O           O             O       O     O O O O           O O       O         O O   O O O     O       O       O         O   O O O O     O O   O               O O       O             O O                     O O O O         O O O O O O         | 6 6   M x O O @ O + v C     O   O     O     * X       ",
"O O O O O O O O O O O O O O O O O O O O O O O     O O O O O     O O   O O   O O O O   O       O O O O O O .   O   O   O     O O O O O O O O     O   O     O       O O         O O O O   O O O   O O O         O O O     O O       O X         O O O O                   O O O   O O O O O         O O O   O         O O O       O O O     O   O O   q ~ 1 @ + , X @ O @ O 5 q C                   O           ",
"O O O O @   O O O O O O O O O O O O O O O O O     O O O O O O O < 3   O O O O O O O O   O O O O O O O   O P <   O   S O O O O O O O O O       O < <   O           O O O       O O O O O     O     O   O O O   O O O       O O O O     O <   O O O O O       O O O O O     O   O O   < <             O O     O       O O O         @ O O O O O < O O +.D 4 X 2 + O O O @ @ o b 3                       O       ",
"O O O     X O O O O O O O O O O O O O O O O O O       O O O O   O ; X O O O O O O O O O O O O O O O O   O | 6 O O   J 1       O O O O O O O   O < 4     O           O     O   O O O O O O         O   O O O O O O O         O O @       1     O O O O O         O O O O   O   O <   :   O O       X X         O   O O O O   O   X X     O   @ O   j.{ { O C C < O O O @ X p g O                   O O         ",
"O O O O O O O O O O O O O O O O O O O O O O O O       O O O O   O   X O     O O O O O O O O O O O O O     f l   O O s d     O O O O O O O O     X d       O O   O O           O O O O   O               @ O O O O O O O O O O   X   O   *       O O O O               O O     X #   X     O           O       O   O O O O O O       O O O   ; O 6 l.0.1 O T 0 1 O O @ @ + i   O     O                         ",
"O O O O O O O O O O O O O O O O O O O O O O O O O     O O O O   O O O O O O O O O O O   O O O O O O O   O   &   O O O X     O O O O O O           o       O   O O O       O O O O O         O     O         O O       O O     O O               O O   O   O O O O   O O   O     O     O   O     O   O     O O O   O O O O   O O       O O X     o.z h < ' 8 > @ O @ @ X O . < O O O O                         ",
"O O O O O O O O O O O O O O O O O O O O O O O O O O         O   O O O   O   O     O O     O O O   O O O O O   O O O   O O   O O O O             O         O   O O     O O O O   O O O O O       O O           O O     O O     O O O O O O       O O         O O O O           O     O O   O O O O   O O   O O O   O X O       O O   O   O X   G ~ 6 @ 6 x O O O O O @ X < < P O   O O O O O O                 ",
"    O O O O O O O O O O O @ X   O O O O O O O O O O     O                                                                             O         O O O O O O O O O O O O   O     O O O   O O     O O O             O O O O   O   O O O       O   O O O O   O O O O O   O O O O O     O O O O O O O   O O         O O O   < O     O O   O   X O @.1 1 1 1   O O O O O @ @ X M ; O   O O O O                   O ",
"    O O O                 O X O       O O O O   O   e @X_.)._._._._._._._.{.|.{._._._._._.{.{._._._._._._._._._._.'._._._._._._.oXQ.  O O       O O O O O   O O O O O O O O O O     O           O O O O           O O O O O   O O O O O O O O     O O O   O O O O O O 3 < O O           O O     O   O O         O O O < g.< O   O O O O O O l.U Z @ J 3 O O O O O O @ @ X -   O O O   O O O                   ",
"  O   O     O O     O O   O O O       O O @       %.oX      O               P I           < S   O     O O O         O O O       3 %.$X  O O O O O   O O O O O O O O O O O   O < O   < 3 O         O O O         O O O O   O   S <     O O O O     O O O   O   O O O O Y C O O     O     O O     O   O O O O O   O X   6.` O   O O O   X   ^ I.I 6 6 { < 4 < O O O O X @ .   O   O O   O                     O ",
"O O O O O O O O O O   O O O O O O O   O O @ O O   $X    O O O O O O O O O O O 9.*   O O O   M =   O   @ @     O O   O @ @ O     ~ N y Q.          O O O   O O O O O     O O O 1 O O O K O O         O O O O O O O O O   O   O v O O O O O   O       ; O O O O   O   = B X O O O O O O O O O     O O X O O O O O   X X 4.* O     X O X X * a.V.W @ c 8 6 J Z < < O O O @ O O O O                           O O ",
"O O O O O O O O O O O O O O O O O O O O O O O   ~.e O O O O O O O O O O O O   - ,     O     X :         X     O O O O O         = 4.  oX  O O O O O   O O O O O O O O O O O   :   O   d     O       O O O O       O O   O O O d   O O O O     O   O O O   O O   O O X X   O O O O O O O O O O O   O O O     O O O X o .         X   X   f a.X.@ 6 8 @ > 8 1 1 4 D S 3 < O O O       O O O O                 O ",
"O O O O O O O O O O O O O O O O O O O   O O O   }.  O O O   O O O O O   O   O O     O O O O       O O O     O O O                 %   (.+ O O O O O O O O O O O O O O O       O   O   o   O         O O O O     O O O O O O O     O O O O   O O     O O   O O   O O O O O O O O O O O             O           O O     O O     O O   O O h 0.1 @ 0 < # : X @ ; c W F Z 4 3 S O       O O O             O       ",
"O O O O O O O   O O O O O O O O O O O O O O O   }.  O O     O O O O O O   O O   O O O O O O O O O O O O O O O O O O O O O             /.+   O O   O O O   O     O   O O     O O O O   O   O         O O O O O O O     @ O   O O O   O O O O O O O O O O O     O @   O O O O O O O O O O             @     O   O O O O O   O O O O   O O b G @ @ 0 < + < <   : > g z 0 0 { g.O O     O   O           O O       ",
"O O O O O O O O O O O O O O O O O O O O O O O   }.  O O O   O O O O O O O   O         #     O O         O O O O O O O     O     O     (.o             O O   O O     O       O O O O O   O   O   O   O O O O   O   r mX    O   O   O O O O   O O     O O O     O   lX/   O O O                         AX$X  O O O X X O O O O O   O   ; { 1 X q 6 O X 4 < . & & , - ; : 6.G O O         O         O O O     O ",
"O O O O O O O O O O O O O O O O O O O O 3 < O   }.O < O < O   O O O   O O O < .XHXmXKX+ ,.AX  O %.DXHX~.  O O O O O O     O O O   O   (.o               O O O O O O O e O O   O   O O O O     O O O O O O     O   $.PX  O   < O O O O O O   O O O O O @ O     O   PX*.                    O O   y < < lX/.  O O O X @ O O   O       O 8 k.@ 1 I 1 O ; ; O O O # $ # @ i j <   O O O O             O     O   O ",
"O O O O O O O O O O O O O O O O O O O O O ;     }.O w X @ @   O O O O O O O  .X # HX    MXmXQ.  W.jX  IX+     O O O   O     O O 3     (.+ O O O         O O C 3       UX  O C   ;.y   O @   %.$.O   O   e *.e   # / PX  #   c.;.  @ O O O O   *.7   @   e *.+ O   PX*.O   : *.+   #   e *.    *.AXh 9 #   @   # :.e   @ o   e *.  @   e.U X M G @ < X O O O O O O @ O u o O   O O O O         O         O O O ",
"O O O O O O O O O O O O O O O O O O O O O   O   }.  X @ X X   O O O O O O   = l 7 HX    UX/ jX  W.hX  JXe O O O O O   O O   O O v     (.@ O O O O O     O X @ 9     KXUXPX7 / UXMXPXpX    AXHXCXUX,.  /.UXMXUXNX  / PX    AXJXDXKX  O O   e UXAXUXW.  oXUXmXUXi.  PX*.  ).UXmXUX,.  yXPXBXMX$.UXIXZX  HX(.  ,.UXmXUXXX  F.KXKXCXIXO * q.1 * N @ @ @ @ @ O O @ O X @ @ + O O     O O           O O O O O O < O ",
"O O O O O O O O O O O O O O   O O O O   O O O   }.  O O O     O O O O O O O   o e HX  7 HX  PX  ,.IXmXAX  O O O O O O O O O O   * O   (.+ O O O O O O O O O X *       UX    kX@X    UX  $.PX    KXn.  KX$.  Q.AX  / PX  %.PX    PX%.      hXyX        IXe   $XjX  PX*.  PXy   oXlX  UXO       ~.lX    AXQ.  HX*.  r PX  *.IX    PX;.- ~ O 6 @ @ < @ 1 @ @ < O O O @ @ @ O O O O O O         O O O O     ; 1 O ",
"O O     O   O O O O O O O   O O O O O O O O O O }.  O @ O O O O O O O O O     O e HX  Q.HX$XUX  W.hX  mX,.O O O O O O O O O O O   O O (.+ O O O O O O O O O O       e UX    lX@X  + UX@ :.PX    LXF.  PX*.  }.AX  / PX  ,.HX  o UXr       iXNXe       UX@   lXpX  PX*.  IX#   lXhX  UX# O O   oXmX    AXQ.  KX:.  / IX  ;.PX    PX*.W F @ 6 < O @ @ @ @ X @ @ < O 1 1 O O O O   O                 O O O @     ",
"O   3 < O O O O O O O O O O O O O O O O O O O O }.  O O O O O O X O O O O O O O 7 HX  lX/.%.MX:.W.hX  lX,.  O O O O O O O O O O O     (.+ O O O O O O O O O O       e UX    mX@X  + UX@ ,.PX    KXF.  PX*.  {.AX  / PX  ,.UXIXPX/.    O O   mXPXUX,.  PXPXIXlX    PX*.  PXIXIXlX  O UX# O O   oXmX    AXQ.  KX,.O / IX  ;.PX    PX*...1 X 4 Z O D < @ @ @ @ @ @ 6 1 @ O < < O         O     O O O O O O       ",
"O   3 h.6 X   O O O O O O O O O O O O O O O O O }.  @ @ @ @ O   O O O O O O O O e ZX  KX    !.pX*.IXKXlX  O O O @ O O O O O O O O     (.+ O O O O O O O O O O O O O e UX    lXoX  o UXo *.PX    KX,.  PX$.  ~.AX  / PX  ,.HX      O O O O O     $XlX  UX      O   PX*.  IX@     O   UX@ O O   oXbX    AXQ.  KX*.O / IX  *.PX    PX=. .O @ Q @ W Z X @ O O @ @ @ ; @ @ X ; 0 O         O     O O O @ O O   O O ",
"  O   ; 9.X O O O O O O O O O O O O O O O O O O }.  @ @ @ @ O O O @ O     O O O     H   @ O     O       @ O   @ @ O O O O O O O O     (.+ O O O O O O O O O O O O O e UX  O yXlX  *.UX  . UXQ.@XUX,.  kXlX,.HXNX  $.PX  e UX@ # ~.O O O O / t O lXpX  KX~.@ :.%.  PX*.  HX(.@ ;.*.  PXW.  L O @XBX    AX~.  mX$X  /.AX  :.PX    PXF.F @ ; > * m O 3 4 < O @ @ @ @ 1 1 @ ; X   O     O O O   O O ; @       O O ",
"O O   O o p   O O O O O O O O O O O O O O O O O }.  @ @ @ @ O   O O 1 O O O O O O O 1 X O O O O O O O O O O O O @ O O O O O O @ O     (.+ O O O O O O O X @ O O O O   lXUXY   lXIXKX$.    %.jX_.AX,.O   iXhX_.FX  r mX    }.IXPXhX  O O   (.KXIXvX  # e HXIXAXy   mX/ O # DXIXHX/ O y HXIXlX  # HXZX  jX,.O   CXIXHX# @ / lX    cXc.< @ F 4 @ O 1 0 J 4 1 @ 1 @ @ 1 1 1 <         O O O O O O X X O   O O O O ",
"    O O O   O O O O O O O O O O O O O O O O O O .X  O @ @ @ @ O O O X @ O O O O O < @   O O O O O O O O O O O O O O O O O O @ @ O     (.+ O O O O O O O X @ X O < < @     w.X       O O         KX,.O O     W.AX  O   # @ O       @ O O O O       @ O O       O @     O O       O O O       @ O     2     O @       @ @ O   o # X v.O ; T @ @ @ ; z { 4 1 1 Z 1 6 Z 4 I S   O O O O O O O O O O 4 3     O O O ",
"O O O O O O   O O O O O O O O O O O O O O O O O ~.r 1 @ @ @ @ @ O O O O O O O O O 1 @   O O O O O O O O O O O O O O O O O O O @ O O   oX  O O O   O O O X O X O 1 0   O   , X O O O       HXKXKXPX  O ~.UXAXUX/.  O O O @ @ O O O O O O O @ @ O O O O O O O O O O O O O O       O O O O O O O O O O O O O O O @ @ @ @ @ @ O     y. .O ' U @ @ 1 7 v q ; 1 q J 4 8 K 0 x.C   < P 3   O O O O   * ; O O O O O O ",
"O   O O O   O O O O O O O O O O O O O O O O O O O $X  1 @ 1 1 @ X O O O O X O O O @ @ O O O O O O O O O O O O O O O O O O O O @ @ O %.Q.  O O O   O O O O O O O X * O   O O O O O O     @   e y   @ O     / #   @ O O O @ @ @ O O O O O @ O O O O O O O O O O @ O O O O O O O O   O O O X X O O @ O O O @ @ O @ @ @ @ @ @ X O = s.4 X e.1 1 @ 1 2 7 0 4 F 8 G 1 8 9 -.l.3 * h c < O O O O O O X O O     O O O ",
"O O O O O O O O O O O O O O O O O O O O O O O @ O %.$X  O O O O             O O       O                   O O O         O O O O   %.$X  O O O O O O O O O O O O O O O O O X O O O O   O O O O   O O O O O @ O @ @ @ @ @ @ O @ O O O O @ O O O O O O O O O O X @ @ @ O O O O O     O O X O @ O O O O O O O O O @ @ @ 1 1 O   O = X.O : ..O @ ; c 6 ; 0 0 4 e ; 6 7 & 2.c O X * X   O O O O   O   O   O O O O O ",
"l   O O O O O O O O O O O O O O O O O O O O O O @ O 7 #X|.}.|.XX}._.}.}.}.}.}.'.}.}.}.}.}.}.}.}.}.}.}.}.}.}.}.}.}.}.}.}.}.}.}.}.oXn.  O O O O O O O O O O O O O O O O O O O O   O O O O O O O O   O @ O O @ @ @ @ @ O @ @ @ O O O @ @ @ O O O O @ @ @ O O O O @ @ O O O O O O O O   O O O O O O O O @ O O O O @ @ @ 1 @ O O   ! K O x K @ @ ; ; @ 8 ; ; o : @ 6 @ u a X O   O O O     O O O O O O   O   O O O ",
"d $ O O O O O O O O O O O O O O O O O O O O @ @ @ 1 1 O O O O S G           O < O     < O                   O O O O         O O   O O O O O O < O O O X O O O O O O O O @ O O   O O O O O O   O   O O O O O @ @ O X O O < C O O O @ @ @ O O O @ O @ O O O O O @ @ O O O O O O O O     O O O @ O O O O @ O O O @ @ @ 6 O O O   x.4 O v @ @ @ @ 1 1 @ @ @ O O @ 1 1 + + O O O O O O O O O O   @ @ O O O     O O ",
"      O O O O O O O O O O O O O O O @ O O @ @ @ @ 1 1 1 1 1 0 F w.s O O @ O X 1 : @ O 1 d O O O O O O O O O @ @ @ @ O O O O @ @ @ O O O O O 1 0 @ @ X @ @ @ @ O O O O O O O O O O O O O O O O O O   O @ O O @ @ O O O O 0 l.O X O @ O O O O O @ O O O O O O O O @ @ O O O O O O O O     O O O @ @ @ @ @ O O @ @ @ ; @ @ O   h b.< @ 4 @ O @ 1 @ @ @ @ @ 1 @ @ 1 1 O O O   O O O O O O O O   X O O O O O O O O ",
"O     O O O O O O O O O O O O O O @ @ @ O O @ @ @ 1 @ 1 4 4 F G 8 p   @ X @ O O @ @ O X ; @ O O O O O O O @ @ @ @ @ O O O O @ @ O X O O O O O v @ @ X @ 1 1 @ O O O X O O O O O O @ X @ 1 1 O O O     O O O O O O @ @ X h 4.O @ X @ O @ O O @ @ @ @ O O O O O O @ @ O O @ @ O O O O O     O @ @ @ @ @ O @ O @ @ @ ; @ @ O   q.^ O F D @ @ 1 4 1 1 @ @ 1 @ @ @ 1 1 1 O O     O O O   O O O O O O X : O O O O O ",
"      O O O O O   O O O O O O O @ @ @ @ O O @ @ @ 1 @ 1 4 0 0 q G #   O O X O O O O O O O O O O O O O O O @ @ X @ @ @ @ O O @ @ @ @ O O O O O X @ @ O @ 1 0 X O O O X O O O O O @ @ @ X ; 6 @ O O O   O O O O O X X @ X X . X O @ O O @ O O O @ @ O O O O O O O X 1 C @ O @ @ O @ O O O   O X @ @ @ @ O O O @ @ @ @ @ @ O X 0.1 X r.4 @ @ 6 F 4 4 1 O O @ 1 4 1 @ O O O       O O O   O O O O O O       O O O ",
"O   O O O O O O O O O O O O O O @ @ @ @ O @ @ @ @ 1 1 1 4 0 F G G 7   O @ X O O O O O O @ X O O O O @ @ O @ @ O @ O @ @ O O O O @ @ X O O O @ O @ X O @ @ @ O O X X O O O O O O @ @ @ X X @ X O @ O O O O O @ X @ @ O @ O X @ @ @ O O @ @ @ @ @ @ @ O O O O O O O ; F O O @ X @ O O O O O   X @ @ @ @ @ O @ @ @ @ @ @ @ O * } O s e.< @ @ 8 K 0 6 O O O 1 4 1 @ O O O O           O   O O O O O O O O O O O O ",
"< D S I O O O O O O O O X < 3 O @ @ O @ O @ @ @ 1 1 1 1 0 F F G G q   O @ X O @ O O O O @ X O O O O @ @ @ @ @ O @ @ O O @ O O O @ O @ O O X @ @ @ O < @ @ X O O X O O O O O O O @ @ @ O X O O O @ @ O   O O @ O @ @ @ @ @ @ @ @ @ @ @ @ @ @ O @ @ @ @ O O O O O O p 9 @ X X X X @ O O O O O   X @ @ @ @ @ @ @ @ @ @ @ @   x J O x 0 @ @ @ q F @ X O O O ; @ @ @ O O O O O             O O O O O O O     O O O ",
"O X g x 4.X O O O 1 X O @ 3 { - O @ @ O @ @ 1 1 1 1 1 0 F F K K G G X O @ X O @ @ O O O O O O O O O < O @ @ @ @ @ @ @ O @ @ O @ @ @ @ @ O X X X @ 1 1 @ @ @ X X O O O O O O O O @ @ O O O O O O O O O O O O X O O @ @ 1 1 @ X X @ @ O O O @ O X @ @ @ @ @ @ O X @ u # 1 X @ X @ O @ @ O O O O   O @ @ @ @ @ @ @ @ @ @ @ X } 3 @ 6 O @ @ ; z 4 O O O @ @ 1 < @ O O O O O O O O O         O O O O O O   O O O O ",
"O       * o O O O X X O O O * l @ @ @ O @ @ 1 1 1 0 0 0 F F K K G K :   @ X @ @ @ O X O O O O O < 4 4 4 1 @ @ @ @ @ 1 1 O 1 3 @ @ @ O @ O O @ @ O @ 6 * @ @ O O O O O @ O O O O 1 @ O O @ O @ O O O @ O O O X X O O @ 0 1 @ @ @ @ @ O O @ O O @ @ @ O @ @ @ @ X @   @ Z @ @ X @ @ @ O @ @ O O   X X @ @ @ @ @ @ @ X @ @ ; x.O @ 4 @ @ @ * 8 @ O < 1 ; * ; @ 0 1 O O O O O O O O O O         O O O O 3 S O   O ",
"O O O < O   O O O O O O O @ O O @ @ @ @ @ @ 1 1 1 1 0 0 F G K K G K w   X X @ @ @ X X O O O O O @ 6 8 6 6 @ @ @ 1 @ @ 6 1 1 { X @ @ X O 0 X @ @ O @ X @ @ 6 O O O O @ @ @ @ @ O 0 @ @ O @ @ @ O O @ @ O O O O X X O @ Q @ O @ @ @ @ O O @ O @ @ @ O O @ @ @ @ @ @ @ @ 8 O X @ @ @ @ @ @ @ @ O O   X X @ @ O @ @ @ @ ; @ ' l.O @ 1 @ @ @ @ 6 @ @ 1 1 O X @ @ ; @   O O O < O   O O O O             * w.Y O O O ",
"  O O O - X O O O O O O O @ @ @ @ 1 @ @ @ @ 1 1 1 1 0 F F F K K K K q X   @ @ @ @ O O O O O X @ @ @ X @ @ @ @ 1 1 1 @ X 1 Z c X @ @ X X ; X @ @ @ @ @ @ X > X O O @ @ @ @ @ @ @ 6 @ @ @ @ @ @ O O @ O O O O O X @ @ ; z @ O @ @ O @ O O @ @ @ @ @ O O O @ @ @ @ @ @ @ @ @ @ @ @ @ @ @ @ @ @ @ O O   X @ @ @ @ @ @ ; ; * D.J @ 6 1 @ @ @ @ @ @ @ @ O O @ @ @ @ O O O O > I < O   O O O O           , s   O O O ",
"O O O   X   O O O O O O O @ @ @ @ @ @ 1 @ @ 1 1 1 4 0 F F G G G G K G ;   @ @ @ @ O O O O O @ @ @ @ @ @ @ @ @ @ @ 1 1 @ < X q 0 @ @ @ @ X O @ 1 X X X @ X X O O @ @ @ @ @ @ @ @ @ @ @ @ @ @ @ O O @ O O O O O O @ @ @ 6 1 O @ @ @ @ O O @ @ @ @ @ O O @ @ @ @ @ O O O @ @ @ O @ @ @ @ @ @ @ @ @ O O   X X @ @ @ @ ; @ M D.< 6 0 @ @ @ @ @ @ ; @ @ < O @ @ @ O O O O   B *     O O   O O O O         O   O O O ",
"O X 3 C O O O O O O O @ @ @ O @ @ @ @ 1 @ @ 1 1 4 0 F F G G G K G K K 8   O @ @ X O O O O @ @ @ @ @ @ @ @ @ @ @ @ @ @ @ @ @ @ 6 1 1 @ @ @ O X 1 @ O X @ @ @ O X @ @ @ @ @ @ X @ @ @ @ @ @ @ @ O O X O O O O O   O X @ 6 1 O @ @ @ @ @ O @ @ @ @ O O O @ @ @ @ @ O @ @ @ @ @ @ @ @ @ @ @ @ @ @ @ @ O O   X @ @ X @ ; @ y.x.O 0 4 @ @ @ 1 1 @ @ @ @ @ @ @ @ @ O O X O o   O O O   O O O O O O O O   O   O   O O ",
"  O 3 h.b X O O O O O @ @ @ O @ O @ @ @ @ @ 1 1 4 0 F F K K K G G G G q o O @ X X O O X @ @ @ X @ @ @ @ @ @ @ @ 1 X @ @ X X @ 1 0 6 Z 1 X X @ Z 4   O @ @ @ X X X @ @ @ @ @ @ @ @ @ X X @ O @ O O O @ X @ @ O     O @ 6 @ @ @ @ @ @ @ O O @ @ @ O O O O @ @ @ @ @ @ @ X @ 1 @ @ @ @ @ @ @ @ @ O @ @ O O   X @ O @ 6 s J.T 1 0 1 @ 1 4 0 4 1 @ @ @ @ X @ 1 O O O O O O   O O O O O   O O O O O               O ",
"O O O * f - O O O O O @ @ @ O @ @ @ @ @ @ 1 1 0 4 @ O @ K O @ 1 ~ K 4 < 8 @     #   @   + #     O < X @     :                 @ * @ O H   @ O O X     @ @   @   e   @ @ @ @ O @ @ @ @ O O @ X X @ X X @ @ @ O O O O @ 6 1 @ @ @ @ @ @ O O @ @ X X O O @ O O @ @ @ @ @ @ @ 1 1 @ @ @ @ @ < 3 3 Z @ @ O O O X @ X @ ; l Z.1 ; 0 @ 6 G 0 0 0 1 1 1 4 @ @ @ 1 O O O O O O O O O O O O O O O O O   O O O 3 O O   X ",
"O O O O     O O O O X X X @ @ @ @ @ @ @ @ 1 1 1 H.JXPXZXw UXZXlX< 1 fXPX@   lXlX  HX# W.LXCXF.e JXK < O uXIXO iXLXKXdX~.LXFX|.< S A HX  FXR gXFXHXy IX  e HX: UXmX$X  @ @ @ @ X X @ 4 1 X O @ X @ O D O @ @ @ O < X @ 6 1 @ @ @ @ O O @ @ @ @ O O @ X X F 1 X @ @ @ @ @ @ 9 1 @ @ @ @ @ t.0 ' 4 X @ @ O O O O X @ ; N { @ 6 4 6 q q q 0 8 ; 6 F 4 @ 1 1 O O O O O O O O O O O O O   O O   O O   X N g.O     * ",
"X O O O O O   O O O O X X X O @ @ @ @ @ @ @ 1 0 1 1 ZX  >.bX  HXQ O KXkXc.O kXKXO JX@ KXO < < H FXe.S.Y KXkXE. . XqX; iX).O q o.y.w.HXi.bXG nXc.< < iX^.iXW.jX:.    ; @ @ @ X @ @ @ q Q   @ @ @ X * w.X @ @ @ O w @ @ ; 6 @ @ @ @ @ @ @ @ @ O O O @ @ X v X X @ @ @ @ @ X e @ @ @ @ @ X l * d X @ @ @ @ O O O O @ ; B.F @ G 0 G G q q 0 6 @ w F 1 @ 6 1 O O O @ < O   O O @ 1 O O   O O X @ O   - l X O O O   ",
"@ O O 1 1 X   O O O O O O O O O @ @ @ @ @ X X ; ; e AX  ;.bX  HXt 0 JX^.eX] ZX;X^.HX: MXqXu.g v DXs p.5.PXP.aX5.-XqX3.qXuXF.x h k B MXDX@ b xX=X,Xb.k.vXFX  $XlX$.  ; @ @ @ @ @ @ @ * g @ @ @ @ @ X f X @ @ @ @ ; X X 6 ; @ @ @ @ @ @ @ @ @ @ O O O @ X X O X X @ @ @ @ O + @ @ @ @ @ ; X @ @ @ @ @ @ @ @ @ O O @ M S.4 ; q g @.~ K G 6 4 A 9 1 @ ; 0 1 O O @ @ Z < O O X : @ O O   O O O O O       O O O   O ",
"; O O @ @ @ O O O O O O O O O O X X O X @ O O @ @ e AX  / UXLXuX  Q.pXw GXs ZXs mXMX: X ;XAX$X: AX  = i.hX@ KX  @X;X  @XmXfXy @ @ 7 NXKX< = hXsXsXq.O.VXgXb.D @XmXlX  @ X @ @ @ @ @ @ X @ @ @ @ @ @ O X @ @ X X @ X X ; @ @ @ @ @ @ @ @ @ @ X O @ @ X X X @ @ @ @ @ @ X @ @ @ @ @ @ @ @ @ @ @ @ @ @ @ @ @ @ @ @ * a.S.0 q 0 n m c W ~ F m ! 0 Y 1 6 ; 1 O @ @ 8 Y < O O O O O O O   O O O O O O O O @ 1 O O X ",
"* O @ @ O O O O O O O X O O O X @ O 1 < O O @ @ @ e AX  &.lXy lX  iXZXvXIX  BXe bXCX2 @ O   HX# AX  O 0XAXxXIX  XX0X  0X(.  O ; ; w AX[.aX  lX;.O s M aX-Xp.a.+.  UX  X X @ X X @ @ X X @ @ @ @ @ @ @ @ @ @ @ X X X X @ @ @ @ @ @ @ @ @ X @ @ @ @ @ @ X X @ @ @ @ X @ @ @ @ @ @ @ @ @ @ @ @ @ @ @ @ @ @ ; ; @ * d s.B.8 ^ K 7 ; 9 x c 0 = X 4.0 1 6 @ O X O & ' h.O X X @ O O O O   O O O O O O O X X O O X X ",
", O X O @ O O O O O @ @ O @ 1 * @ 1 1 D G X @ @ X e KX  *.AX  IXO UX  O JXn HX/ i.UX@ $XOXbX0Xe UX0XF.PX@   CX:.#XpX  0XNXiX}.  1 r PXO UX7 lXlXgX^.  hX Xz `.:XaXBXk.h.C @ X X X X X X X @ X X @ @ @ @ @ X @ X @ X @ @ @ @ @ @ @ @ @ @ @ X @ @ O O @ X @ X O @ X X X @ X @ @ @ @ @ @ @ @ @ @ @ @ @ @ X @ X X X j w.j.c +.F 6 ; ; ; > @ @ @ * < @ 1 @ O @ O i u.Y O O O O O O O O O O O O O O O O O O   O O O ",
"$ O O O O O O O O O 1 @ O O @ ; X @ @ @ x * @ X X @ y @ @ y @ r 9 / @ K 4.V y @ O %.X e }.F.  @ *.,.( / X @ 7 9 7 9 @ 2 :.,./ 4 6 6 R r.6.w h.H.i.[ W Q z c K [.{.g p.a.z.h.C 1 O X X X @ O O O X @ @ @ @ @ @ @ @ @ @ @ @ @ @ @ X @ @ X @ @ O O @ X X @ O @ O O O X @ @ X @ @ @ @ @ @ @ @ @ @ @ X O O O @ O X @ = Z.k.c c 0 0 1 1 @ @ @ X @ 6 4 @ 1 X 1 4   1.B 4 O O O O O O O O     O O O O O O O O   ; 1 O ",
"X O O   O O O O O O O X O X X O X @ @ X   @ O @ @ @ @ @ @ @ @ @ @ ; D K s @ 1 @ @ @ @ @ @ 1 ; ; @ @ 1 1 1 @ @ @ @ @ @ X @ @ D G > P b.M k 3 } _ q 0 0 q 0 6 c e.x.G = d k q.O.T D 3 O O O O O O O O O X @ @ @ @ @ @ @ @ X @ @ @ X @ @ X O O 4 1 O X O @ O O X O X X @ X @ @ O @ @ @ @ @ @ @ X X O O @ @ @ @ X X 6.y.+.W F 8 8 0 4 1 @ 1 1 @ 8 1 @ @ * 8 1 . u @ O O O O O O @ 1 <   O O O O O O O O O X X     ",
"O X X X O O O O O O   O O @ X O @ O @ @ O O @ @ @ @ @ @ @ @ @ @ ; ; P X.= Z ; @ @ @ @ @ @ 0 @ @ @ @ @ ; ; @ @ @ @ @ @ @ 1 4 G z 1 x.a.m O K M * ; 0 6 0 0 J 4 z q.r.F 1 @ X > M 0.l.I 3 < O O   O O O O X @ 0 1 @ @ @ 6 @ @ @ @ @ @ @ @ O O - - O X X @ X X X @ X X X X X @ O @ @ @ @ X O O O O @ @ @ @ @ X   X _ N ..W 0 > q 8 6 4 0 6 @ @ 1 1 1 @ ; @ O O   @ O O X O   X ; 7 O   O O O O O O O O O O       ",
"@ X X O O O O X @ O   O O X O X X @ O @ @ @ @ @ @ @ @ @ @ @ @ @ 6 ; h.q.j F > @ @ @ @ @ @ 6 ; @ @ @ @ @ @ @ @ @ @ @ @ @ Z 6 * ; Z r.6.= D ) * @ @ 1 0 6 @ c ~ k.1 j W U D 1 @ @ = x ` } T I 3 O     O O O X 6 G 1 @ @ X @ @ @ @ @ @ @ X @ @ X X O X O @ @ @ @ O @ O @ @ @ @ X X @ @ O   O O @ @ @ @ @ @ @ @ X * 0.] x.F 6 6 > 8 0 6 c 1 @ 6 0 0 Z X X O O O @ 1 O O O O O @ X       O O   O O O O O O O       ",
"X O   O O O O O O O O O O O O O @ X @ X @ @ @ @ @ @ @ @ @ @ @ 6 ; 1  .3.a q ; @ @ @ @ X @ @ ; @ 1 @ @ @ @ @ @ @ @ @ 1 4 0 1 O D h.) d O q d O X @ X @ ; 1 1 * m o.Z 0 c l.U D @ 1 6 8 c 0.Z.V.J 4 < O O @ X @ * 0 F @ @ 6 ; @ @ @ @ @ @ @ @ @ 1 @ @ @ @ @ @ @ 1 1 @ 1 @ O O X X @ O O @ @ @ @ @ @ @ @ @ @ @ X * 6.q.S.J 0 6 ; ; ; 0 6 @ * W 0 q @ O @ X O @ @ @ O O O O O   O O   O O O O O O O O O           ",
"X O O O O @ X O O O 1 ; O O 3 F X @ @ @ @ @ @ @ @ @ @ @ @ @ 1 @ ; 4 ^ l 2 8 ; @ @ @ @ @ @ @ ; @ @ 1 @ @ @ ; @ @ @ 1 1 6 6 0 Z v.Z.x * Z 8 X 1 1 @ @ @ @ @ 6 Z O > W 0 1 W S.S.U K 0 0 0 g h x ! } j.h.Z 1 @ @ X X 8 6 @ ; ; ; @ @ @ @ @ @ X X @ @ @ @ @ @ @ ; 1 6 v ;   O O O X @ @ @ @ @ @ @ @ @ @ @ @ @ @ X ; g 5.D.{ I 0 6 @ q F ; @ ; 0 0 1 O @ X O @ @ X @ O O O O O O O O O O O O O O O O O         O O ",
"O O O O O X X O O O @ > X   < v - @ @ @ @ @ @ @ @ @ @ @ @ @ 1 6 6 D ! s Z > @ @ @ @ @ @ @ @ 6 6 @ 6 1 @ @ 6 ; @ 1 0 0 ; 0 > F D.q.g 1 0 ; @ @ @ @ @ @ @ @ @ 0 { 4 * ; F c 7.7.! ~ K G K 0 6 6 8 ! ! ' X.I Z 4 3 X X ; ; @ ; ; @ X @ @ @ X O @ @ @ @ O @ X O @ q g X   O O O X X @ @ @ @ @ @ @ @ @ @ @ ; @ X X * 8 5.Z.r. .0 6 : q 1 @ ; 0 G 4 @ @ @ O O O @ @ 1 @ @ O O O   O O O O O @ @ O O         O O   > ",
"O O O O O O O O O O X @ O   X O X O X @ @ @ @ @ @ @ @ @ 1 @ 6 6 0 v.0.* F z ; @ @ @ @ @ @ @ @ 6 ; @ ; ; @ ; 6 1 6 6 6 ; ; @ Y N.6.X 1 6 @ @ @ @ @ @ @ @ @ 1 X 8 W 0 @ 6 q ; X * c } q 8 6 0 K I 0 z.W 8 b ! N.m.I < 1 @ @ ; 6 @ @ @ @ X O O @ @ @ @ @ @ 1 G c =   O   O X X X O X @ @ @ @ @ @ @ @ @ @ @ @ @ X * 8 6.Z.@.K 8 @ : @ 1 1 ; 8 0 1 @ @ @ X O @ X 0 1 @ O O O O X @ O X X @ ; @ O         O O O @ X ",
"X O O O O O O O O O O @ @ O O X @ @ X @ @ @ @ @ @ @ @   t / / ( ( Y.s.&.( / / / / 7   @ @ @ @ ; 6 @ O / / / / / / / / / n R c.t.; < 0 @ ; 1 4 1 @ @ @ @ @ @ @ X X @ 1 1 ; ; I 4 @ g c 1 0 0 x y.+.^ W q G c 6.p.Z.S.b.T 4 0 8 ; @ @ @ @ @ @ @ @ @ @ @ 0 ! > X O X @ O X X X X O @ @ @ X @ @ @ @ @ @ @ @ @ @ X * 8 6.Z.} ~ 0 1 ; 6 6 1 1 6 6 1 @ @ @ X X X - K < O O O O O - 6 O O X X O O       O O O O O   O ",
"X O O O O O X X @ O @ X @ X O @ 1 @ X @ @ @ @ @ @ O ,.#X!.F.F.F.H.E.-X/.H.F.F.F.F.^.0Xe @ @ @ 6   |.|.F.F.Q.F.F.F.F.F.F.F.Y.`.F.}.1X  1 @ @ 0 q 6 1 1 @ @ @ X 1 J 4 1 0 0 @ x e.D 1 ; ; 6 K J 8 ) r.^ q z b c b _ q.a.K.S.j. .F 6 @ @ @ @ @ @ 6 0 6 q N *   @ X @ @ X X X @ @ @ X @ @ X @ @ @ @ @ @ @ 1 @ @ X * > 3.Z...K 6 1 @ @ ; ; @ 0 4 1 @ @ @ @ @ X - K < @ X O O O   O O O O O O O O   O O O O O O O @ ",
"o O O O O O O X O O   O X @ X O @ @ @ @ @ @ @ @ O ~.F.  @ 1 6 ; I ! d 1 > ; @ @ @ X   0Xe @ @   yX7 O 1 1 1 ; ; @ 1 @ @ Z { ! ; Z ; pX  @ @ @ @ @ @ 0 0 1 1 @ 6 ! e.@ @ w 0 6 * ! c @ 1 1 8 t.q { l.~ F K G c c b N 6.7.q.J.T.S. .J 0 ; ; 6 G c ! 8 g * X @ @ @ @ @ @ @ @ @ @ X X @ @ @ @ @ @ @ @ ; ; ; ; @ @ * ; 3.J.j.K 6 6 1 @ @ @ > 8 G 1 @ @ @ X @ @ 8 Y < X @ O O O O O O O O O   O O O O O O O O O X @ ",
"@ X X O O 4 ; X   < Y 1 @ @ X @ @ @ @ @ @ 1 @ @ e XXO @ ; @ 6 0 k.0.; 6 ; 1 ; ; @ @ @   0X  @ ~.%.6 0 1 6 6 6 ; @ 1 1 4 { N x @ W B # }.@ @ @ @ @ X 1 F F 0 6 ; * x ; @ ; ; > 6 ; > @ ; ; ; > 6 b e.r.x.x.j.{ ~ ~ ~ +.} ! w.d.a.J.B.U F 0 ! ` b > * @ @ @ @ @ @ X X X X @ @ @ @ X @ @ @ @ @ ; ; @ @ ; @ ; ; @ ; ; 4.J.} U 0 ; ; ; ; 1 6 6 @ @ @ @ @ @ O & ' h.@ X @ X @ O O O O O O O O   O O O O O O O O X @ ",
"O O X X X @ - @ @ O 0 w.- X @ @ @ @ @ @ @ @ ; X ).7 @ @ 6 6 6 J I.9.j 0 8 @ ; ; 6 @ @ @ F./   oX  1 G q 6 6 6 ; 6 6 1 k.z.> * 4 ; *   XX  @ @ @ @ 1 0 q 8 6 6 1 1 X X @ @ @ @ @ 1 6 ; 1 ; 6 6 6 6 c b ] Z.Z.@.+.+.X.y.e.X.` M N 0.0.z.j...~ ' 8 @ @ X X 6 @ X X X X X X X X O O O @ @ @ @ @ @ @ @ @ @ ; @ @ X @ @ B y.@.j.4 @ @ @ 1 ; 6 1 @ @ @ @ @ @ O i ' D @ @ O O O O O O O O O   < O O O O O O O @ @ X 6.",
"O O O O O @ < X X O X O : @ @ @ X X @ @ @ @ @ O .X  @ ; 6 6 8 h.Z.4.5 8 6 6 6 ; ; @ @ @ &.F.  XXO 1 0 c 8 ; 6 ; 6 8 Z D.q.g 1 0 6 @ @ ).+ 1 4 0 0 0 0 q q 6 1 1 1 @ @ @ @ @ @ @ 6 6 6 6 0 0 6 6 6 6 q W r.Z.B.+.V.O._ b O.z.j.{ c ~ +.D.N.+.K F 4 @ @ X 7 6 @ @ X X X X O X O @ X @ @ @ @ @ ; @ @ @ @ @ @ @ @ @ 8 } Z.x.^ 4 1 1 6 6 0 1 @ @ @ @ @ @ X O i - 1 @ @ O O 3 4 O O O   X m k.< O O O O O O O X & j ",
"O @ @ O @ O 1 0 @   O O @ @ @ @ @ X @ @ @ @ @ O |.  ; ; 6 0 q v.K.4.O @ 6 ; ; ; @ @ @ @ &.n.  |.O 0 6 ; c 8 6 6 6 0 h.0.l @ K 8 ; 1 @ ).2 0 B.~ W q 0 8 8 > ; 6 0 0   6 @ @ @ 1 6 6 6 0 8 6 6 6 6 0 K } 8 Z.Z.z.@.X.! ^ c 6.w.` U S.S.J.0.N ~ Z 4 F Z 1 X @ @ @ @ X @ @ @ @ X X X @ 0 O X @ @ @ @ @ @ @ @ @ @ ; N e.L.K } 0 0 0 6 6 0 1 @ @ @ @ @ @ @ O # @ @ @ @ ; x Q 3 O   O O o 4.; O O O O O O O O O   O ",
"@ @ X O X @ 1 @ ; @ O X @ @ @ @ @ @ @ @ @ @ @ O |.  6 6 0 8 K I.y.f.dXuX@ 6 6 6 6 1 1 @ &.F.  |.@ 0 ; @ ; W G 1 !. XqXG.X F ` 0 1 6 J <X1 0 @.N.q q 0 6 8 ; ; 0 q 9 FXO 1 @ 1 6 0 6 6 c 6 6 6 0 0 K +.~ VXP.e.@.r.+.} ^ c q ^ } gXZ.Z.O.W < zXUXY.K q 0 6 1 @ @ @ @ @ @ X X X X X : 6 O @ @ @ @ @ @ @ @ @ @ @ * g 0.0.GXH 6 0 6 1 0 6 @ @ @ @ @ @ @ 1 @ @ @ @ O O o - X O   O O O O   O @ O O O O O O O O O @ ",
"X X O O O @ 1 0 X X @ @ @ @ @ @ @ X X @ @ @ @ O |.  6 6 0 8 U U.d.UXQ.|.PX  6 6 6 6 6 ; &.F.O |.O ; 6 ; ; 0 { X UXqXgXG.1 J c U } q q qXQ q 8 D.` 8 6 6 ; @ ; 6 8 9 UX@ 1 6 6 6 0 6 6 6 0 G G X.} ~ @.! LXY.` c b 0.V.S. .~ z.gXbX0.N ^ ..H.UX* e.S.U 0 ; ; 6 1 1 @ X X X @ @ @ X & @ X @ @ @ @ @ @ @ @ @ @ @ X g ` _ UXK 1 6 @ 8 U I 4 @ @ @ @ X 6 @ @ @ @ O @ O O   O     O O   O @ X O O O O O O O O O O @ ",
"X X X O X @ @ X @ @ @ @ 1 @ @ @ @ @ @ @ @ @ ; X |.O 6 6 0 0 U V.;XyX;   KX7 6 6 6 6 ; 6 ;.F.O |.X ; ; 6 ; 6 q @ UX0.N 8 h.@.^ } V.` 0  Xw.8 0 N u.6 6 6 ; 6 1 0 0 7 UXX >.1 ; 6 @ 7 F.>.@ o.' > H.H.Q ! LXE.} 4 #.q V.D.S.S.) UX' N } @.0.`.AXQ z 7.A.[.&.  6 6 7   ,.7 : @ O y   o # 7 @   &.F.: @ @ 7   7 :.@   d.0.UXH 1 6 6 z l.~ @ @ @ @ @ X @ @ @ @ O O O O O O O O O O O O O @ O O O O O O O O O O O O ",
"@ @ @ @ @ @ @ @ @ 1 @ 1 1 ; @ @ 1 Y | * @ @ @ X |.O 6 0 0 6 h.0.;XiX;   LXy ; 6 6 ; 6 1 &.F.  |.O ; ; ; 6 0 8 3 UXw.[  .x.V.N.O.) e.q |.z 8 q 8 ; 6 0 0 0 0 0 0 0 # UXPXBXUX7 1 F.PXnXUXaX> X AXDXBXqXq PXE.q UX X+.Z.K.K.y.u.GX  q W ! #.PXIXCX@ `.UXxXIXqX@ O PXJXDXF.HX  &.UXW.  MX$X  mXAXmXUXy X #XNXIXyX  PXZXGXUX9 1 ; 6 b { @ @ @ @ @ @ @ @ @ @ @ O O X O X @ X X X O @ X O O O O O O O O O O X O @ d ",
"@ @ 6 @ X @ @ @ @ 1 0 @ 4 6 ; 1 ; 6 w.B X ; 6 X |.O 6 0 c q b.a.;XiX*   KXn ; 6 6 6 4 0 &.F.  XXO ; 6 6 6 I k.l.UXVXJXC.V.r.V.r.O.W r.|.7 q 8 8 0 q q q 8 8 8 6 6 # UX    bX@Xq W   * >.LX  ( UX  8 c z LXP.qXbX8 @.e.J.q.* NX^...K { q ; i.CX  X GXi.f w.IXD O UXy   e UX  yXjXhX  PX*.@       bX#X  (.ZX    ~.BX  X UXH 4 8 6 b 4 @ @ @ @ @ X X @ @ X 4 3 O @ @ @ @ @ 4 @ O X O O O O O O O O O O O O X @ = ",
"@ X X X X X X X X @ 1 q 0 F 6 @ @ 1 ; @ 1 X @ @ |.O 6 8 8 K S.7.sXiX*   KXn ; ; 6 6 0 q =.F.  XXO 6 6 F Y b.K.0.UX; G N.N.N.V.V.r.X.@.=X# q 8 6 6 8 8 8 6 ; ; ; 6 9 UX@ ; bX0X6 0 w F.0XJX  [ PX  8 8   KXH.UX4 +.r._ M 8 @ UXX ) O.X.F X ^.ZX    HXY.U #.UXe.I UX7 ;   UX@ NX( HX  UXO ;   $.,.ZX#X  (.NX  O XXNXX h UXH 1 8 6 6 1 @ @ @ @ @ @ @ O O , +.C X @ @ 1 6 Q 4 O O O O O O O O O O O O O O O O O O ",
"@ @ @ @ @ @ @ @ @ 1 4 F q G c q G c b 8 0 z X X XXO 6 8 > Y B.3.$XgX    IX7 6 6 6 6 0 0 &.F.  XXO 0 Y b.Z.y.e.` UX; W ! z.x.V.D.r.Z.! 9X: ; ; 6 6 6 8 6 6 ; ; 6 6 v UX@ X bX$X  |.UXfXhXJX  &.PX  6 1   KX XUXW ] b z G ; 0XkX@ 8 > 8 K @ ~.ZX    KXF.y.A.UXk 0.UXH 6   KXy IX  UX+ PX    BXHXyXKX#X  (.NX  O oXNX  h UXw 4 ; 6 1 @ @ @ @ X @ @ @ O + 1.Q < X @ @ ; 8 X O O O O O O O O O O O O O O O O O O @ ",
"6 6 ; @ ; ; X @ 1 0 > q x > z > > > > 6 0 > ; X XX  0 8 0 h.y.4.X KXZXKXjX  q G q 8 6 6 &.F.  XX1 U S.J.0.} B.O.IXPXIXkX` B.D.D.Z.0.b  X9 6 0 0 6 6 0 0 6 6 6 8 8 ; UX@   lX#X  AXF.O n.LX  ( PX  K { O KXP.zXhXX 0 q ~ O UX[ 0 ; 6 q q @ ~.ZX    KXF.s ' UX0 f UXD.k.O jX).IX  PXF.MX  # UX    lX$X  (.BX  O XXMXO m UXH 1 6 6 1 @ @ @ @ X O X > Q < , @ X @ @ @ @ @ X < O @ O O @ O O O O O O O O O O O O @ ",
"@ ; @ @ X @ 1 4 1 ; @ 1 6 @ @ 6 1 @ 6 1 K g @ O |.O 0 8 q k.q.=.q   $XyX  q q q q 6 6 6 &.H.D <Xj.B.N.Z.r.j.S.D.X.O.O.O.S.V.S.D.D.Z.G |.; 0 q 6 0 0 0 0 0 0 6 6 0 7 UX/ # PX,.O lXfX@ fXJX< @ UXn.o.Y.F LXP.X UXL U ..} H.JX  ; ; ; 0 0 @ ^.AX    lXpX@ XXDX> 1 UX4.J.T |.JXmX  jXJX;XO O UX%.7 UX@X  ).CX  @ ,.LX: `.UXw 6 6 6 @ @ @ @ X X @ @ @ @ @ @ @ @ @ @ @ O O @ O @ @ O O X @ O O O O O O   O X O O O ",
"@ 1 ; @ @ 4 4 F 8 ; @ 1 0 6 6 6 6 0 6 6 G g ; @ |.O q 8 K b.q.c ^ z 6 ( 0 G q > 6 6 ; 0 c.Y.+.qXy.Z.y.S.D.Z.Z.Z.D.Z.D.D.Z.Z.Z.Z.a.y.V.<XU U 0 0 6 8 q q q 0 0 0 q ; yXGXPX0XO q 9 CXPX|.qX+.@.H.KXPXeXN jX=.@ ^.dX` ^ ! qXF.6 6 ; ; 6 6 @ >.pX  6   bXPXVX@ > * bX8 l y.c.BX~.O ,.MXn U O Q.KXKX*.'.  ,.uX  @   hXPXxX9XH 0 ; 1 @ @ X X @ @ @ @ @ @ @ @ @ @ @ @ @ @ @ ; 0 @ O O X X @ @ O O O O @ 4 @ X z k.3 ",
"@ 1 1 4 1 @ ; ; X @ 1 1 6 6 0 6 6 q W 0 q g ; X |.O q 8 T Z.7.{ ] g 8 q K q q 8 6 ; F h.Y.E.x ;Xh M ) ` e.0.b _ r.S.D.J.y.6.M b z z g  X0.L.D.l.{ J G q q 8 q q q q @     ; ~ ~ W @ @ } N.Z.Z.N.O.M M x @ 0 W W q ! b 8 O ; q 0 ; ; 6 0 6 @   6 ; 6     O W J 0 = l.J s 7.B.k.F X   * X.1 O     X   @     ; @ ;   X M @.~ F ; 1 @ @ @ @ @ @ @ @ @ @ @ @ @ @ @ @ @ @ X 8 ; @ O O 1 @ @ X X 1 O * 6.Y O , 4.W O ",
"@ 4 D 0 8 ; @ X X @ @ @ 1 6 6 6 6 6 0 q 8 8 ; ; F.[ q 8 h.e.l { N > q q G z 8 0 F J j.Z.-Xv 6 #XO K {  .` { { ~ r.y.q.3.h 6 0 8 8 q   #X  h m 0.Z.J.S.z.} q 0 q q G 0 0 0 q ~ z.} X.V.V.Z.D.D.Z.y.] G G G G W ^ W 8 q q 8 8 8 0 6 ; 6 q 6 ; 6 6 6 6 ; 6 0 8 ) j.q m ] U v d.K.b.F 6 > c ; @ @ @ @ @ @ @ @ @ @ @ * M 0.B.} F @ @ @ q 6 @ @ ; @ @ @ @ @ @ @ @ @ @ @ 1 @ @ @ @ X ; 1 O O X ; @   : * X @     O O ",
"Z J q > ; @ @ @ @ @ @ @ @ @ 6 ; ; 6 0 G 8 6 6 ;   yX  q k.e.N } N q K G z 8 K k.x.@.] x #X1 K R @XF j.x.@.e.q.x g g > 6 0 F U F 0 Z [.,.1 6 ; ; = m 0.a.K.Z.+.l.x.} } } +.{ +.D.@.X.V.Z.D.K.J.0.c ~ { l.} W ^ c 8 0 8 8 q 0 6 6 ; ; 6 0 6 ; ; ; 6 6 6 ; 6 6 > M l.J > N ..( l a.D.J 1 6 6 1 * X @ @ @ @ @ @ @ @ ; g 6.K. .J @ @ 8 ; @ @ @ @ @ @ @ @ @ @ @ @ @ ; q 1 @ O @ O X X O X @ O O O O O O O O O O X O ",
"0 6 6 ; @ 1 6 ; @ @ @ @ @ @ @ ; ; ; 1 F c 8 6 6 8 9 iX( T M 8 q g @ 6 ; 4 I j.e.6.s u.0XO j.l.j.E.qXe.6.f * X O O O O O < J B.@.~  X X6 ~ G G 0 6 0 ; z m 6.] Z.K.S.B.x.N.X.l.V.O.+.S.D.y.s.M z { z.r.^ o.c q 8 0 8 8 8 8 6 6 6 6 6 ; 0 ; ; 6 6 6 6 6 6 6 6 ; 6 m e. .0 x ` K m q.V.U G 6 ; @ @ ; @ @ @ @ ; ; ; 6 8 8.K.x.{ 4 6 ; 6 @ @ @ @ @ ; @ @ @ @ @ @ @ @ @ @ @ @ @ @ @ O O X @ O O O X @ @ O O @ @ O @ ",
"; 1 0 6 ; 6 6 ; ; ; @ 1 ; @ ; ; ; ; ; 0 c G 0 6 6 q   <XqX;XqXqXqX#X#X1XqXeX;X-X;X#XH.D b.S.Z.y.7.B OXOX@X@X#X#X@X<X<XqX;X;X;X;XOX#.z { +.^ ^ o.c 0 0 q q 6 8 x 6.q.Z.S.D.l.x.S.S.z.y.q.x c q K @.O.b q W q 8 6 0 6 0 6 6 6 6 0 F 6 ; q 6 6 6 6 6 6 6 6 6 6 ; 6 ; s 0.{ 0 8 )  .q m r.v.K 1 ; @ ; @ @ @ @ ; ; ; 8 8 u.J.B.} G 0 6 ; ; @ @ @ @ ; @ @ @ @ @ @ @ @ @ @ @ @ @ @ @ O O O @ @ O O @ @ @ O O X @ @ @ ",
"1 1 6 6 ; ; ; ; ; @ @ 6 6 ; ; ; 6 ; 6 0 z 0 Q q 8 q q v.0.x W b N c U z.0.3.d 1 Z  .S.J.p.7.m g ; 0 6 O O 3 I { } ^ _ s         @ 0 6 6 M ' q q q 0 ~ ~ ~ 0 0 0 6 8 z b _ X.B.D.K.] z 8 G { ^ W ^ W q 6 0 q q 6 6 6 6 6 6 ; 0 } q 1 @ F 6 6 6 ; 6 6 6 6 ; ; ; 6 ; 6 = M +.F > q.} F g q.S.k.1 ; ; ; @ ; ; ; ; ; ; b u.J.x.~ ~ F 6 ; ; @ @ @ @ ; @ @ @ 1 @ @ @ @ @ @ @ @ @ @ O O O O X O X @ @ @ X   1 < @ @ O ",
"6 ; 6 6 6 ; 6 6 6 6 ; 6 6 6 6 6 8 ; 6 0 > ; 0 ~ ~ c 4 m.=X X X X9X9X=X=X`.|. X<X9X=X6.l h 8 8 q q O n.[.<X<X9X=X`.`.`.).).).).).,.  0 0 @ @ @ 8 8 q ..} W W G K W q K K G G ^ r.Z.z 0 8 ~ z.X.^ W q 0 6 6 0 0 0 6 6 6 6 6 ; Q Q ; 6 @ U 0 6 6 6 6 6 6 6 ; ; 6 ; 6 ; ; ; x ` U 6 g 8 q M p.K.k.F 6 6 ; ; ; ; ; ; > M Z.Z.+.W W K 6 6 ; 6 @ @ @ @ @ @ 6 6 1 @ @ @ @ @ @ @ @ @ O O O O O @ O @ @ @ X > H < O O O ",
"6 6 6 6 ; ; 0 0 ; ; 6 ; ; 6 6 6 8 8 0 q z 6 0 q ..> 1X9Xq.o.S.D.Z.s.0.o.A.A.e.w.6.u.#X!.@ 0 F U U dXE.r.' v v 7 7 9 9 9 7 7 7 7 ;.yXL q q 6 @ @ @ @ 8 ! W { ..^ ~ ~ ~ K 0 q q ^ B.G J K q ! b > 8 c 0 6 6 0 6 6 6 6 6 6 6 6 0 ; 8 6 @ G 6 ; 6 6 6 6 ; ; ; 6 6 6 6 6 6 ; 6 z M +.F ; 8 c N 7.J.b.J 0 ; ; ; ; ; ; 6 M e.y. .G G G 0 6 8 6 @ @ @ @ @ @ ; 4 @ @ O 1 @ @ @ @ @ @ @ @ @ @ @ @ @ @ @ O @ X X O O O O ",
"; 6 6 ; ; 6 6 8 ; @ 6 ; ; 6 6 0 8 6 0 c c 8 8 q 4 qXT S.Z.D.T.J.y.t.Z.Z.e.e.@.` z q 1 H.Y.j.b.@.gXX 8 0 K K c 6 6 6 6 0 6 1 6 6 6   0X7 0 0 6 6 0 K 0 0 0 8 N c q W W ^ W ~ { ..D.@.X.^ ^ 8 ; ; 6 0 0 0 0 0 0 6 6 6 q 0 0 0 6 6 0 6 6 6 1 ; 6 6 6 ; ; ; 6 q 0 6 6 6 6 6 6 8 > 6.N.U 6 8 ^ W 8.a.U.T 0 6 6 ; ; ; ; z ] J.v.q G G G q 0 1 @ @ @ @ @ @ ; 6 6 g l.D @ @ @ @ @ @ @ @ @ @ O O O O O O @ O O O O O O ",
"; 6 ; ; ; 6 6 > ; 6 ; 6 6 6 6 6 8 0 q c q q q { H.E.S.K.D.K.y.y.e.r.@.V.V.0._ W K  .x.! qXz x #X9 8 F K K W ; 6 6 6 6 6 6 ; 6 6 6 6   #XO 6 1 6 4 W 8 ; 6 6 6 6 0 8 W ~ q q ^ N.K.O.W W 6 6 ; ; 6 0 0 0 0 6 0 6 6 6 0 { K 4 6 6 6 0 ; 6 1 ; 6 6 6 6 @ ; 6 6 6 6 6 6 6 6 6 6 6 ; k ` K 0 h X.K B 7.K.k.F 6 6 6 6 ; x r.J.b.G c W W G 6 1 @ @ @ @ @ @ ; 1 @ B z 1 @ @ @ @ @ @ @ @ @ O O O O O O X O O O O O   O ",
"; 6 ; ; 6 6 8 8 ; 1 6 0 0 6 6 8 q q G W W G { j.9XS.K.K.J.q.0.X.l.N.r.@.` ^  .k.V.y.0.x i.>.  @XX 0 0 8 K ^ 6 6 6 6 6 6 6 ; 6 6 6 6 @ |.o ; 6 6 1 @ @ 6 0 6 @ 6 6 0 0 6 6 0 G ^ Z.` G q q 0 ; @ 6 c q 6 0 0 0 0 0 6 6 q | F 6 6 6 0 6 0 1 @ @ 6 6 6 6 6 @ ; 6 6 6 6 6 ; 0 0 0 0 6 ; N +.F 8 ) ..q 4.J.b.K 0 0 0 6 m Z.J.x.~ W W W G 0 4 @ @ @ @ @ @ @ 1 @ O X X @ @ X @ @ @ @ @ @ @ O O O O O O O O O O O O O ",
"; 6 6 ; 0 0 8 6 ; 6 0 q W c q K G ~ { } } } b.S.9XD.J.Z.K.Z.+.N.B.V.V.B.B.e.O.0.M x q G >.F.O XX@ 6 0 q K Q ; 6 ; 6 6 6 6 ; ; 6 1 6 @ }.# 6 6 0 6 6 6 6 8 0 6 0 q > 0 0 6 0 } X.D.N.W q q 0 0 6 6 ' c 6 6 O 0 6 6 6 6 8 8 @ O 0 0 6 6 q 1 @ @ 6 6 0 0 0 6 6 6 0 0 0 6 6 6 8 0 0 8 6 > l V.I = 6.N. .N a.D. .q 0 6 g ] y.x...~ W G G K 0 1 1 @ @ @ @ @ @ @ X @ @ X @ 1 1 @ @ @ @ @ @ @ O O O O O O O O O O @ 5 ",
"; ; 6 6 F c z 6 6 6 6 0 F U { ^ ^ ~ } l.x.S.Z.Z.9Xy.d.#.S.T.Z.X.D.Z.N ] 0.x X q q G q q t.F.  XX@ 6 6 G q 8 ; 0 X     6 6 6 ; ; 1 6 @ }.# 6 0 0 6 6 0 0 0 6 6 0 0 q F K G q ^ @.K.D.@.~ ~ G G 0 q c 8 6 9 fXO F G q 6 0 @ #XpX@ 0 0 6 0 1 @ @ 6 6 6 6 q q 6 6 ; 6 6 ; ; ; 6 6 6 0 6 6 ; h 0. .; M e.} x 7.J.b.J 8 z X.y.B.} ~ ^ ~ W W K 0 1 @ 1 @ @ 1 @ @ @ @ @ @ @ @ @ @ @ @ 1 @ O O @ O # e ! B.h.Z @ @ @ # ",
"6 6 ; 6 0 z > 6 0 0 0 F q c c c G T b.D.K.q.0.z.9X0.e.x.S.Z.S.nXx x aXH.q >.pX@ q q q 8 =.F.  XX@ 0 0 0 6 6 0   yXPXGXt ; ; 6 6 ; 6 @ }.# 6 6 6 6 0 K { j.j. .l.B.x.B.C.Q q ~ O.K.D.r.b c ! ! q c W 6 O hXpX@ o.^ q 0 0 @ 0XjX@ q G 6 0 6 ; @ @ 6 0 6 6 6 6 1 6 ; 6 ; @ 6 0 6 6 6 ; 6 6 6 > b K 8 g c } ^ 6.a.b.J x e.Z.B.+.0 ~ { W W G 0 4 @ ; @ @ ; 1 @ @ @ @ @ X @ 1 4 4 < 6 4 1 @ @ + & a , * @ X @ @ O O ",
"; ; 6 6 q z ; 6 0 q 8 8 q q K  .b.S.J.y.0.O.x.y.qX .V.e.r.0.8 PXy.* LXhX  0XfX6 8 q 8 8 =.F.  XX@ 8 8 6 0 6 ; F.CX  / 7 6 6 6 6 ; 6 @ }.1 6 0 K K x.C.#.e.P.W.-.u.-.M.$.: ( Q ` L._ `.|.@ c 0 8 0 0 1   UX@ K 0 6 0   &.i.0XhXO 8 O }.|.O 6 0 &.@ 1 ( 7 6 6 >.6 /   ^.).  0 6 6 6 6 ; 6 6 0 ; 8 q 0 ; _ +.~ m q.B.~ r.e.@.} } x.U W G G G 4 1 @ @ 6 6 1 @ @ @ 1 1 + y ( G 1 2 @ O O       O O O O O O O O O O ",
"; 6 ; 0 c g 6 6 6 8 8 8 K j.b.D.a.q.0.0._ l.S.y.qXe.Z.M c ^ q bX3Xy.mXZX  xXH.W c 0 8 0 &.F.  XXX ; ; 6 6 ; X #XuXO @ ; @ @ 1 6 4 4 1 |.w W 6 w v n V # 6 9 @ ; @ / UX    PX^.6 qXUXkXlXLX  0 6 6 6 1 F.MX9 >.@ @ O pXKXlXPXiXO   IXhXkXUXO # UXO   UXlX  }.AX  hXPXhXBXVXO q w Q J 6 6 0 0 6 6 6 8 F 0 > _ j.q m e.V.Z.z.V.} W W W G q G F 4 G ..j.J 0 @ @ 1 @ ; # < O O O       O O O O O O @ O O O O O O O ",
"6 ; 0 8 8 8 8 8 0 0 G T b.D.J.q.u.' O.] j.N.Z.e.=Xh ..Z.N q K qXqXE.qXJXO JXn q 8 8 8 6 =.F.  XXX 6 6 6 6 6 6 ( UX$X:.1 q ; 6 6 W ' 8 }.: ; ; @ @ ; 6 6 0 0 6 6 6 / IX    HXH.~ 9XVXO   UX9 8 0 0 0   AX>.%.  @ @   UX@   0XfX  F.DX    JXF.  PX/ $.NXKX  hXyX  fXdXO # UXO ; 7 r ; 6 8 [ { G 6 6 6 N l.J v 0.j.F m y.K.D.X.0 z W G ^ { { #.n.M.u.G 0 @ @ @ @ @ ; q 4 O O O O O @ @ @ @ O O O O @ O O @ O X O ",
"G 0 0 c x 8 F G W U j.B.Z.0._ ` ` ) X.b.y.q.l.6.;X4 ^ } Z.b q H.bXqX XVXe UXO 8 q q 0 6 =.F.  XX@ 6 6 G 0 6 6 4 >.#XIX^.9 ; @ @ 1 @ @ }.@ ; ; 6 6 6 0 0 0 0 6 6 6 / IX    HXH.X.9XZX! @ UXt 0 6 0 0 9 UX  q @ @ @   UX7 O iXfX  ^.AX  1 JX^.  NX^.|.|.PX  HXi.  pXfX6 H UXO 1 1 @ 6 6 9 9 ; 6 6 6 0 ; m @.U 6 _ B.j.e.L.T.U q q b ( u.A.x.[ 0 4 @ G F 1 @ 1 @ @ X @ O O O O O @ @ @ @ O @ O X O O O O O @ X O ",
"x.V.#.n c I  .+.l.N.0.) ` ) ) ! ! { b.Z.6.{ M g @X; c c  .D.M 9 GXnXV.eX=XPXO ~ G G W q =.F.  XX@ 6 6 q 0 6 6 ; 0 6 F.lX  1 @ @ @ ; @ {.# 6 1 1 @ ; 6 0 0 6 6 0 6 / IX    HXH.^  XZX^ @ UXt 0 0 0 @ pXiX1 ~ @ ; @   UX7 O iXfX  ^.AX  0 JX^.  yXiXhX,.ZX: UX7   pXfXX / UXO 1 6 6 6 6 0 6 6 0 6 6 > 6 6 z ` +.{ 0.V.V.Z.T.T q 8 ` | &.Q G ^  .F a ^ D @ @ @ O X O O O @ @ @ @ @ @ O @ @ X 1 C O @ @ O O O O O ",
"G ^ [ n { x.D.a.y.O.N.#.v c { ` ! k.Z.9.R b G I =X* q W W T D.* KXJX] P.JXnX~ X.=.8 W c >.F.  XXX 6 6 ; ; 6 6 Q %.  kX$XO @ ; @ ; 6 @ {.# 6 6 6 6 6 1 0 0 0 G K 0 / IX    HXF.0  XVX6 O UX9 0 6 0   UX6 W ^ 6 6 6 K UX7 O yXfX  Q.AX  O HX^.O ,.MXCX7 iX).UX  O fXfX  a UXU J 6 6 0 0 6 6 6 6 6 6 0 0 q K q 0.S.U N y.K.D.j.K c W K W W H ( } F a c Z O O O O X @ @ @ @ @ @ @ @ @ @ O @ s v Z O X O @ @ O O # ",
"0 K j.x.V.Z.a.7.N W b v / W ! ! k.V.6.z q q T x OXX q { x.t.[ @.gXfXz.0.MX9XZ.0.; q q 8 =.F.  XXX 6 6 6 6 6 @ &.AXPXjX  6 ; ; @ @ 6 @ '.# 6 1 1 6 0 0 q q q X.L.e.# UX&.=.UXF.G  XLX`.$XPX  0 0 6 !.CX  q q 6 6 6   PX/.e KXpXO 7 UX/ L UX/ 4 # UXPX  F.KXZX    hXhXO 7 UXn  .6 0 0 0 6 6 0 K K G ~ 0 0 6 8 c m ` } y.K.V.z.U q 8 W c W 0 q q K y ) D < O @ @ @ @ @ @ @ @ @ @ @ @ @ O O O   O O O X @ @ O O + ",
"~ x.S.J.q._ ] 0.b q G W c G ~ k.D.q.} b G  .M ; |.X q W ! v t ~ c ; W S.z l.K.D.y.8 q 8 &.F.  |.X 6 6 6 6 6 ; @     O 0 6 6 ; ; 1 @ @ }.# 6 q q ; 6 G q 0 8 0 ; * @ ).HXMX>.F.@. XGXgXfX# q 8 0 X 0X&.6 0 0 6 6 6 6 y ZXHX%.}.O @ F.FXHXF.6 F   pX$X@ @ kX~.X X ^.).@ ; sX$.U 6 0 0 6 ~ K q ^ q 0 0 6 6 6 8 q 0 x e.y.T.} e.k.q q W ~ ~ G G v ~ E =.U < @ @ @ @ @ @ @ @ @ @ @ @ @ @ O O O @ @ O @ O O @ X @ O ",
"S.a.q.0.0.) N ^ ` N c 8 G c k.D.9.#.N !  .6.h @ OXO q c q q c q ~ X.W q B.] N.K.Z.0.8 q =.F.  |.X 6 6 6 0 0 6 6 ; 6 6 6 6 6 ; @ 0 0 @ {.# 6 q ! ; 6 6 0 0 6 q 0 6 0 X   O 6 6 W =XnX! 6 q q 8 0 q @ 6 6 6 0 6 6 6 6 6     @   @ 6 @ O O @ 8 0 6   O q 8 O @ 6 6 X @ 6 ;   -.G 6 6 6 6 q 0 ; 6 6 6 6 6 6 6 8 8 8 c z s.D.G q.b.G q c Q ~ G 0 $.~ t e 4 1 @ @ @ @ @ @ @ @ @ @ @ @ O @ O O @ @ @ @ @ O O @ @ @ @ ",
"0.6._ ) ! W W ! N z 0 8 q h.S.9.[ ..M { N h 6 ; |.@ 0 q q 8 q q 8 ~ @.x 0 z.` x.Z.O.' > >.>.  OX  6 6 6 6 0 ; 6 ; 6 6 6 1 ; ; @ q q X }.O 6 6 @ 6 6 6 0 6 0 q q ; ; 6 0 0 q 0 `  XnXr.W q q 8 0 0 0 0 6 0 q 6 6 6 6 6 6 6 6 @ @ @ @ q 6 ; 6 0 4 @ ; 6 8 0 ; 6 6 6 6 ; @ @ / G 6 6 0 6 6 6 6 6 6 6 6 0 6 ; 8 8 8 q h a.S.q q.S.{ q c b ^ { F 0 0 4 6 @ @ @ @ @ @ @ @ @ @ @ @ @ @ @ @ @ X @ @ @ @ @ @ @ @ 1 O X ",
"^ _ W W W ! b 8 6 0 q q I j.6.x 0 W  .) g 6 8 8 =.F.0 8 8 8 q q q 0 ^ ] q G z.! x.Z.r.0.;XO @ |.# 6 6 6 6 6 ; 6 ; 6 6 6 @ @ @ @ @ 6   $XO 1 ; 6 1 0 0 6 6 6 6 8 6 6 6 6 6 0 0 @.) V.V.W q q 0 6 0 0 6 6 Q o.; 6 0 0 6 6 6 6 6 @ @ @ 6 1 ; 1 W K 6 @ ; 8 q ; 6 6 6 6 @ @ @ Q F 6 0 6 6 6 ; 6 ; 0 6 6 6 ; ; 6 8 8 q B J.I.W 0.V. .W W e.D...~ I 0 6 1 @ @ @ @ @ @ @ @ @ O @ @ @ @ O O O O @ @ @ @ @ O X ; 1 O o ",
"W ~ W c z 8 q 8 0 F 8 I j.l > 6 0 G z 8 0 0 6 6 O 0X7 6 8 q q q q 8 q G W c G N.! S.Z.E.`.> q O iX  8 6 6 6 6 6 6 6 6 6 6 @ @ @ @   0X7 6 ; 6 6 1 6 q 6 6 6 6 6 6 6 6 0 6 6 8 q ^ @.` q 0 0 6 6 6 6 0 6 [ n.1 6 Q 0 6 6 6 ; q G @ 1 0 @ 1 @ W  .1 ; ; 6 8 6 ; ; 6 1 @ @ ; Q 0 6 6 6 6 6 6 6 6 6 ; 6 6 6 6 ; 6 6 8 l J.b.~ ] y.x.K c ! W G q q 0 0 6 @ @ @ @ @ @ @ @ @ @ @ @ @ @ * Q T D 1 @ @ @ @ O O O X O X ",
"O.N z 8 6 0 8 0 F 8 Y x.6.- @ ; 0 q > 0 6 0 6 6 ;   0X^.t 7 9 9 9 9 9 9 9 9 w H B.A.eX=XN r.g 8 7 iXi.7 7 7 7 7 7 7 7 7 7 7 7 7 *.0Xy @ 6 ; @ 6 ; 6 0 6 6 6 6 6 6 0 q q q ; 0 q G V.@.0 0 0 6 6 6 6 6 6 Q ( 6 6 q 6 6 6 6 6 q q ; G K @ @ @ 8 ~ 6 ; ; ; ; 6 6 6 6 @ @ @ ; q 6 6 6 6 6 6 6 6 6 ; 6 6 6 6 ; G 0 q q 6.J.^ X.~ 7.B.J 6 c W G q q 0 0 1 1 1 @ @ @ @ @ @ @ @ h } < X ; 6 1 @ @ @ @ @ @ O O O X O X ",
"m > 6 0 8 8 8 q 8 T b.9.B 0 > 0 0 q 8 > 6 6 6 ; ; F K t.^.}.).).).).).'.).'.|.). X X' D.Z.N.K.f q   >.).).).).).).).).).).).^.).,.  6 6 6 6 6 0 0 6 6 0 q 6 6 0 0 0 6 6 8 q 6 q G Z.V.8 8 8 0 6 0 0 0 6 Q Q 6 6 6 6 6 6 6 6 6 0 ; ..{ 1 ; @ @ 8 0 6 1 ; ; q 6 6 @ @ @ 1 ; 6 1 6 6 6 6 ; 6 6 ; 6 6 6 6 ; v { 6 c c q.U.c e.T 3.K.T 8 c G G q F 6 0 0 c J 1 @ @ @ @ @ @ @ X @ @ O O   @ @ @ @ @ @ @ @ O O O @ @ ",
"q 8 6 0 8 8 0 z F T M s 6 q 0 q ~ N > 6 6 6 6 ; @ 6 8 >                   O O X   0 O.} D.y.] y.> 8 @ O   O                     O 6 6 6 6 6 1 q A.q 6 6 0 6 6 6 6 0 6 6 6 q 0 q W V.V.8 8 8 0 6 0 0 0 6 W q 6 6 6 6 6 6 6 6 6 6 6 l.K H 6 @ @ 6 K 6 @ ; ; ! 0 6 @ @ ; 6 6 0 0 1 ; 6 6 6 6 6 6 6 6 6 6 6 ; 0 z } x a.I.8 0.T l a.k.0 c c G G 0 8 ~ ;.=.k.1 @ @ @ @ @ @ @ 1 @ @ @ @ O X @ @ @ @ @ @ @ @ @ @ @ 1 ",
"c > 6 6 8 0 8 J v.6.s 1 6 D X.' c z > 6 6 6 6 ; ; 0 O ).@XXXOXOXOX@X@X@X@X@X@X#X#XOXH.~ X.U.q.c O.9 |.@X@X@XXXOXXXXXXXXX@XXXXXXX#X( @ 6 6 6 ; 6 6 0 0 ; 6 6 6 6 6 8 0 6 6 1 0 K o.` O.0 0 0 6 6 6 0 0 6 q 0 6 6 6 6 6 6 6 6 0 0 0 ~ q q 0 6 @ ; G 0 6 6 ; c q @ @ ; 6 6 6 W 0 6 0 0 6 6 6 6 6 6 6 6 6 6 8 6 b } b J.S.b e. .m p.I.F 8 c W G W r.B.K Q F 1 @ @ @ @ @ @ @ @ @ @ @ X @ @ @ @ @ @ @ @ @ @ @ @ z 0 ",
"z 8 6 0 0 8 K v.p.B 2 q K ^ b z 8 6 6 ; 6 6 6 ; 6 7 uX9           O O O O   O O 6 X >.iX^ ! D.0.F.qX@       O   O       O       @ |.^.O 6 6 6 6 6 0 6 ; 6 6 6 6 0 q q 6 6 1 0 G X.^ @.} 0 0 6 6 6 6 6 6 0 0 6 6 6 6 6 6 6 6 6 8 0 0 6 q 0 6 6 ; q 0 6 6 0 8 0 @ ; 6 0 0 6 G 0 q 0 6 6 6 6 6 6 6 6 6 6 8 8 6 ) ~ w.K.b.N @.~ x 9.T. .W ^ @.N.@.~ F 6 0 0 6 ; 6 1 @ @ @ @ @ @ @ @ @ @ @ @ @ @ @ @ @ @ @ 1 @ X @ ",
"> 0 6 0 8 J x.0.m q 8 q 0 q q 8 6 6 6 6 6 6 ; ;   iX  0 6 6 0 6 6 6 0 0 6 0 8 0 0 { b 7 1XO.! A.;X@ z.x @ 0 6 6 6 q 6 ; 6 6 ; 1 @ X Q.:.6 6 6 6 6 6 6 6 6 6 6 6 6 0 0 6 0 6 6 W c X.V.} 0 0 0 6 6 6 6 6 q q 6 6 6 6 6 6 6 6 8 8 8 6 6 8 6 6 6 ; q G 1 ; 8 q q G W W W q q q q 0 6 6 6 6 0 6 6 ; 6 6 6 8 q 8 ! q w.K.j.6.j.8 > 4.J.D.V.N.` ~ G 0 q 6 9 q 1 6 6 1 @ @ @ @ @ 1 @ @ @ @ @ @ @ @ @ @ @ @ @ O o : q ",
"6 ; 0 > K b.a.w.! x ; 6 0 q > ; 6 6 6 6 0 6 ; ; F.&.0 6 6 6 6 6 6 0 0 0 0 0 8 8 0 0 Q > ).H ] #XB.0.q Z.N ; 6 0 6 6 q 6 1 6 ; @ 1 1   #X  6 6 6 6 0 6 6 6 0 6 6 0 0 0 0 0 6 6 G X.O.D.` 0 6 6 6 0 0 6 0 q q 6 q 8 8 6 6 ; 6 0 8 q 0 0 8 6 6 6 ; 8 ^ 0 @ y C.@.X.} ^ G q ^ W 6 6 6 6 6 6 0 q 6 ; 6 6 6 0 8 > c z w.U.G 0.U h ..x p.b.G q c W q 0 0 6 6 6 1 @ @ 1 @ @ @ @ 6 1 O @ @ @ @ @ @ @ @ @ @ @ @ O & j G ",
"0 0 8 F k.a.5.r ; 6 6 F W g 6 6 6 6 6 6 6 6 ; X XX  ; 6 6 q 8 6 6 0 6 0 6 6 0 8 0 0 8 G >.F.@ #X0 T.0.q V.z ; 0 8 6 6 q 0 0 ; ; ; 6 @ }.# 0 6 6 6 0 0 6 0 0 0 q ! `   q q 8 8 0 @.r.K.O.@ O O 0 6 6 6 6 0 0 ; 6 8 @ X 6 6 6 q ^ ^ 8 c 8 W W W c ` V.+.G 9 X W W q 0 6 8 6 q 0 6 6 6 6 6 q W 0 6 6 6 6 6 6 6 6 > q.b.8 ^ 4 s O.q 6.S.F q W G 0 0 6 1 @ 1 1 @ @ @ @ @ @ @ @ 1 @ @ @ @ @ @ @ @ @ @ @ @ @ O # X 4 ",
"8 6 0 k.y.5.> ; F U b 0 x 8 6 6 6 6 6 6 6 6 6 @ <Xd > 0 0 K x 0 6 0 0 0 0 0 8 8 8 8 8 q >.F.O <XX.} T.y.8 S.0.; 0 8 6 0 q ~ 8 1 6 6 ; }.2 q 8 0 0 q q 8 q q q q c 7 UX6 W q q q @.V.K.` pXUXiX! V.Z.Z.Z.Z.r.Z.K.K. XqXZ.O.` L.T.K.Z.e.UXeXK.J.y.J.K.K.r.X HX=.q 8 8 8 q 0 6 0 0 8 0 6 6 ; q 0 6 6 6 6 6 6 > G 8 y.k.g o.1 ; b K 3.Z.T q q q 0 0 1 @ 1 6 1 @ @ @ @ @ @ ; @ @ @ @ @ 1 @ @ @ @ @ @ @ @ @ @ X @ @ ",
"8 F h._ m G z ; 4 q 6 8 ; ; 6 6 6 6 6 6 6 6 ; O |.  6 6 0 6 ; 6 0 8     w 0 0 8 8 8 8 8 >.H.  |.{ Z.@.T.0.~ S.q   O   ; 6  .i.o 6 6 @ }.# 8 0 0 0 q 8 q 8 8 8 8 8 6 UX# q 8 8 q N.V.Z.) UXX ; ) G.0.0.0._ N _ e.> PX=.N c z ) e.] 8 x qXt.b z g N _ ! q   LX&.; ; 6 6 0 9 >.; 6 0 6 6 6 6 6 6 6 6 6 6 6 6 c G m K.k.z ~ 6 * h { z q.k.F q q 8 8 W e.b.4 @ @ @ @ @ @ ; @ @ @ X @ 1 ; 1 @ @ @ @ @ @ @ @ @ ; 8 W ",
"q h.O.l D b > 1 6 6 0 ; 6 6 6 6 6 6 6 6 6 6 ; O }.  ; 6 0 ; 0 ; 0   IXMX  0 0 0 0 0 8 8 &.H.0 OX@ x.y.O.T.Z.` gXUXIXUX;.6 K H.p 6 6 @ }.# 6 0 0 q c 8 8 6 8 6 6 0 6 UX@ ^ ^ `.qXH.` e.H.UX,.7 y UX!.Q c c q W ^ =.KX  8 0 6 z t.; #X8 F.c c @ ,.qX Xt 0   PXw ).,.  @ 7 mXuX( @ 6 6 6 6 6 6 0 6 ; 6 6 6 0 c 0 4.K. .z G 6 6 > } c 7.S.J q q X.Z.B.` F 6 1 @ @ @ @ @ @ @ @ O @ @ @ 1 @ @ @ @ @ @ @ @ @ ; 8 q 4 ",
"Y @.l 9 q q K c 0 8 ; ; 6 6 6 6 6 6 0 6 6 6 ; O |.  ; 6 6 6 6 6 6 >.bXPXO 0 0 0 0 0 8 8 =.F.O #XX q +.] @.T.M jX X* y KX  0 o.-.6 6 ; }.# 0 0 8 c z 8 8 8 q 8 0 q Q UXe.Z.gXJX;XIXqXx MXUXkXO hXUXlX=.6 0 0 c @ lX|.6 G q 0 # UXIXhX  UX=.@ ~.PX$XkXUXO   HXPXpXIX$X  @XIXNX|.O 6 6 6 ; 6 6 G 6 ; 6 6 6 6 c 8 q.D.q b K 6 ; > ! ~ 6.D.S.N.V.l.G 1 6 6 6 4 @ @ @ @ @ @ @ @ O ; z F < = ~ F 1 @ @ @ @ @ @ @ 1 @ ",
"X.k Z q G U N 8 8 > ; 6 6 6 6 6 6 6 6 6 6 ; ; O |.  6 6 6 6 6 6 @ iX).GX/ 6 0 0 0 0 0 8 =.F.  @X6 8 0 } r.@.e.kX{.r.0.PX  W q n 0 q ; |.# 0 0 q c 8 q c c 8 0 W N.K.UXM X PX/ @  XBXX v UX  6   UX@ 6 8 0 0 q   UXO 0 #.| 0 @ UX@ X   IX&.  bX|.O / UXO   KX>.; Q.AX    AXF.O ; @ ; 6 6 6 6 q 0 ; ; 6 6 6 0 > y.x.6 ! 0 ; 1 ; N ~ 8.J.S.~ K q G 6 8 4 6 0 1 @ @ @ @ ; 0 < > z w. .Z @ @ 1 @ @ @ @ @ @ @ @ @ @ ",
"5.e 0 0 0 W z 8 ; ; ; 6 ; 6 ; 6 6 6 6 6 6 ; @ O |.O 6 6 6 6 6 6   HX/ pX$X@ 0 0 0 0 0 0 =.F.  |.@ q 0 0 ^ c 1 vX|.0 N.PX  G q 0 ; q 6 }.# 0 8 c 8 8 8 8 W V.Z.0.) b UX:   PX>./ CXiX@ / UX  6   UX7 0 0 0 0 ; |.bXO 0 6 8 c 9 UX1 6   IX&.  NX#X@ [ IX@ O KXi.c |.ZX    GX^.@ @ @ @ @ ; ; 6 6 6 ; ; 6 6 6 0 = y.k.= X.1 ; ; ; b { B p.U.K c W G 0 6 6 ; 1 @ 1 @ @ @ ; 6 1 X @ X @ 1 @ @ @ @ @ @ @ O O O O @ O ",
"V ; q K b 8 6 > 6 6 ; 6 6 6 6 6 6 6 6 6 6 ; @ O |.O 6 6 6 6 6 6   UX:.).CX  6 6 6 6 0 0 &.F.  |.@ 0 ~ > 6 K @ jX9Xc 9 IX> ; 0 q ; 0 ; |.7 0 q q 0 0 } D.Z.y.] ; 6 7 UX@   KXAXBX$X  q n UX  6   UX: 6 6 0 0   KX&.0 6 6 6 6 @ UXc.{   IX&.  NX#X@ [ IXO O KXi.@ |.ZX    FX^.@ @ @ @ @ @ ; ; 6 1 6 ; 6 6 8 4 l K.h.d +.1 ; @ 8 ) K 0 4.S.T q G G 0 8 0 ; G 4 @ @ @ @ @ O O O @ @ @ X @ @ @ @ @ O O O   o ; 0 < ",
"7 > 0 G G z > ; ; 6 6 6 6 6 ; 6 6 6 6 6 6 ; @ O |.O 6 6 6 0 6 6 / IXpXiXPX  6 6 6 6 0 0 &.F.  XX@ 0 K e.= 0 1 kX[.Z.8 PX^ Z.> 0 0 0 ; |.7 0 6 W e.V.y._ z ; 6 6 0 6 UX;   IX7   O 6 8 t UX  6   UX7 6 6 6 6 / PX  6 0 0 6 6 @ UX7 F.K IX[   bX|.  / UX    KXi.@ |.ZX    GX~.@ 6 1 1 @ @ @ @ @ 6 6 6 0 6 8 1 4.K.K g K 6 ; @ ; ; ; 0 h y.k.G W K c e...W +.Z @ @ @ @ @ O @ @ @ @ @ @ @ @ @ @ @ X ; < @ a v K 3 ",
"8 6 6 6 q > ; 6 ; ; 6 6 6 ; 6 6 6 6 6 6 6 ; @ O |.O 6 6 0 6 6 @ pXpXO   PX/ 6 6 6 6 6 0 &.F.  XX@ 6 6 0 } > O lXbXgXGXfX6 S.J.z 6 q 6 }.# ^ V.e.0.z 8 0 8 c c c c 9 UX#   bXjX;.0X^.@ y UX  6   UX,.q 6 6 X xX#X@ 6 6 6 6 6 @ UX1 1   UXC.1 Q.UXiXPXPX    PXF.8 |.GX    ZX0X9 6 6 6 6 1 @ @ @ @ 6 6 0 0 0 ; 7.U.0 N J ; ; @ ; 6 = W 8 7.b.W W ! ! ~ ~ J 1 @ 1 @ @ @ @ X @ @ @ @ @ @ @ @ @ @ X m a.h.4 & > 4 < ",
"q c 8 8 6 ; ; ; 6 6 6 6 6 6 6 6 6 6 6 6 ; ; @ O |.O 6 0 6 0 0 @ F.9 6 @ >./ 6 6 6 6 6 6 &.F.  XX@ 6 6 6 K ' * ;. X XY.y.N W D.J.x 6 ^ qX' ` ! ; ; 8 q q q q 8 0 6 ; uX@ 8   hXCXpX7 6 7 uXO 6 O ~.AX&.6 6 O iX@ 6 6 6 6 6 6 0 iX6 8 O 0XQ q @ >.}.r UXO @ 0XC.^ >.XX@ 6 ( BX@X@ 6 6 6 6 6 @ @ @ @ 6 0 6 6 ; 7.I.; 0.J ; ; ; 6 6 = ] G M B.+.y.K.S.U 1 @ 1 1 @ @ @ @ @ @ @ @ @ @ @ 6 8 4 O X @ X * < @ # ; 4 < ",
"q 8 q z ; 6 6 ; @ 1 6 6 6 6 6 ; 6 6 6 6 ; ; @ O |.O 6 6 0 0 0 0 6 1 6 6 @ 6 6 6 0 6 6 6 =.F.O XX@ 0 0 ; 6 0 8 8 K ^ ~ D.J.m ~ Z.J.` O.=X; 6 8 0 0 q q q 8 8 0 6 6 8 @ 8 6 6 X O @ 8 6 6 O 0 6 6 O   @ 6 6 6 @ 8 ; ; 6 6 6 6 H @ 0 6 7 X 6 0 0 9   :.UX  0 ~ ^ q @ @ 8 8 6 O @ 0 6 6 6 6 6 6 1 ; 1 @ ; 6 0 ; q.k.g r.Z ; 6 6 6 6 ; M T l Z.b.+.} F 0 6 6 6 1 1 @ @ 1 @ @ @ @ @ 1 @ @ @ O O @ O O @ X O p z D < ",
"g @ ; @ ; ; ; ; ; @ 6 6 6 6 @ ; ; ; ; 6 ; @ @ O XX  6 6 6 0 0 0 6 6 1 6 6 6 6 6 6 6 6 6 &.F.  XXO ; ; ; 1 0 0 ~ g 0 ~ X.D.a.x ~ B.r.q ).: 8 q q 0 q q q 0 6 6 6 6 6 6 6 6 ; 6 6 6 q 0 @ 1 6 6 ; ; 6 6 6 6 @ ; 8 ; ; 6 6 6 6 0 0 6 6 6 6 6 6 / IXUXUX}.O @ G q 6 6 0 0 0 6 6 6 6 6 6 6 6 ; 6 6 0 G 6 @ 6 6 f Z.I g ^ 1 ; ; ; ; 6 6 g ~ j p.b.G W K 6 1 6 1 1 1 @ @ @ @ @ @ @ @ O O O O @ @ @ @ @ @ O @ @ 6 3 @ ",
"* @ X @ @ ; 6 6 ; ; ; 6 6 6 6 ; ; ; ; ; ; @ @ @ ).7 0 6 6 6 6 6 6 6 6 6 6 6 6 6 q q 6 6 F./   #X; ; 1 6 6 0 0 U e.* F +.r.D.y.W +.B.@.qXg ; 0 q 6 0 8 q q 6 6 6 6 6 6 6 6 6 ; 6 8 8 8 0 6 6 6 ; ; 6 @ 6 6 @ ; ; ; 8 8 ; ; 6 6 6 6 6 6 6 6 0 6   O   O 6 @ q 0 6 6 q ^ 0 6 6 6 6 6 6 6 6 ; 6 0 6 q 0 @ @ @ k S.F > F @ ; @ 6 ; 0 ; 6 8 9 7.U.U q G 0 0 1 @ 1 @ @ @ @ @ @ @ @ O O O @ @ @ @ @ @ @ @ O @ @ 6 < + ",
"@ ; @ @ ; @ ; ; ; ; 6 ; 6 ; ; ; 6 1 6 6 6 6 @ ; 7 |.1 c 6 6 6 6 6 6 6 6 6 6 6 0 W q 6   yX  @ ~.( ; 6 0 q 0 0 0 X.b ; U r.^ B.O.~ @.e.qXN.] 8 @ 6 6 8 0 8 6 6 6 6 6 6 6 6 6 6 6 q q q 6 @ 6 6 ; ; 6 6 6 1 @ ; 6 ; 8 8 6 6 6 0 6 6 6 6 6 6 0 6 6 6 6 6 @ @ 6 0 0 q q o.0 6 6 6 6 6 6 6 6 6 6 6 6 6 0 @ @ @ M x.1 b F ; 6 ; @ ; 6 6 6 8 0 3.Z.h.G 0 8 1 1 1 @ @ 1 @ @ O @ O O O X O @ @ @ @ @ @ O @ o 7 n 0.Y + ",
"* ; ; ; 6 6 ; ; 6 ; ; Z ..w.: ; 6 6 6 ; 0 ~ z 1 @ ~.F.X ; 6 6 6 6 6 6 6 6 6 1 6 6 @   0Xr @ 6 O uXt 1 G G 0 0 6 6 G q 8 W ^ F D.0.z gX! W X.L.M 1 q q 8 q 8 6 6 6 6 6 6 6 6 6 6 q q q 6 @ @ 6 6 6 6 6 6 1 @ 6 6 6 ; 6 6 q q 0 6 6 6 6 6 6 6 6 6 6 6 6 @ ; 6 G q 6 6 6 0 6 6 6 6 6 6 6 6 6 6 6 ; 6 0 @ @ ; q.x.1 c 0 ; 6 6 ; 6 6 6 6 6 6 > ) T F 0 6 6 1 1 @ @ 1 O @ O X O O @ @ @ @ O X @ @ @ 6 7 6 1 ; q 4 O ",
"g ; ; 1 ; ; @ @ ; ; ; 1 0 ; @ ; ; 6 ; 6 @ @ @ ; 6 X ,.$X~.F.F.F.F.F.F.F.F.F.Q.Q.F.^.$X7 @ 6 0 G O @X@XF.F.F.F.F.F.Q.H.H.!.Y.`.Y.eXqX6 +.0.8 } r.] c ; 8 q 8 0 6 6 6 6 6 6 ; 6 6 q q 0 6 @ @ 6 6 ; 6 6 6 @ ; ; 6 @ 6 6 @ @ ^ G 8 ; 1 1 6 6 6 6 6 6 6 6 @ @ 6 0 6 6 0 6 6 6 6 6 6 6 6 6 6 6 6 6 ; 6 6 1 6 = p.v.@ 6 1 ; 6 6 ; 6 6 0 6 @ 6 6 m ..F 0 1 6 @ @ @ @ @ O O O O X X @ @ @ x ~ J 1 1 O @ @ O O O @ O X ",
"@._ h * ; ; @ @ @ ; ; @ ; @ @ ; @ @ ; ; @ @ ; ; ; 6 @   y / / / / / / / / / / / / #   6 6 6 6 6 6 @ O / ( ( / / / / / #.[ / c.t.} D.M ^ D.e.8 q l.L.y.z q q 8 6 6 0 q 0 6 6 6 6 8 8 8 6 ; @ 6 6 6 6 6 6 6 ; 6 6 6 6 6 6 ; { 0 8 6 @ @ 6 6 6 6 ; 6 1 1 @ @ 6 6 6 6 6 6 6 6 6 6 6 6 @ 6 6 6 @ @ @ 6 6 1 1 = y.T ; 6 @ ; ; ; 6 6 0 6 1 8 0.J l Z.T 0 0 6 6 1 1 @ @ @ O @ 1 1 6 w G 0 8 1 1 @ @ O O @ @ @ # 6 1 O ",
"k.D.a.6.g = X ; @ 0 > ; @ @ @ ; @ @ ; ; @ @ @ ; ; 6 6 6 6 6 6 0 6 6 6 6 1 @ @ @ @ @ 6 6 6 6 6 6 6 6 0 0 0 8 6 @ 6 0 8 q W 8 > K ^ } D.! B.J._ q q +.T.L.e.8 8 8 6 8 q W q ; 6 6 8 8 8 6 ; ; ; 6 6 6 6 6 ; ; @ 6 ; ; ; 6 6 K @ ; ; 6 1 ; 6 6 6 ; 1 6 @ @ @ ; 6 0 6 1 1 6 6 6 6 6 1 @ @ ; @ @ @ ; 0 6 0 1 d V.D ; 6 @ ; ; @ 6 0 0 6 0 6 c K = 0.k.0 0 0 0 0 0 1 @ 1 e q F 1 @ 1 1 O O @ @ @ @ @ @ @ @ O e 6 4 O ",
"8 G  .I.J.w.=.q h 8 8 > @ @ @ @ @ 1 1 ; ; @ 1 @ ; ; 6 6 6 6 1 6 ; 6 6 @ @ @ @ 6 1 6 6 6 6 6 6 6 6 6 0 0 0 6 ; @ 6 6 6 0 q q 0 0 ~ W  .Z._ B.J.b ! c ^ V.T.Z.z 0 0 8 8 6 q 0 6 6 8 8 0 6 ; @ @ @ ; ; 6 6 ; ; @ 1 @ @ ; ; 0 0 6 6 ; 0 6 6 6 0 6 6 6 6 Q H 6 6 ; 6 6 6 6 6 6 6 6 6 1 @ @ ; ; @ @ ; 6 6 q 1 k b.3 z F @ ; ; ; 6 6 0 6 6 6 6 W 4 m l.( *.#.| -.#.;.[ h.3 X @ @ @ @ @ @ @ @ @ @ @ @ @ @ O O O @ 1 @ ",
"o.M q K S.J.p.] l = 6 z ; ; @ 1 ; ; @ @ ; @ ; ; ; ; 6 6 6 6 @ 0 0 > @ @ @ @ 1 6 6 6 6 6 6 6 6 6 6 6 6 0 6 6 @ @ 6 6 0 0 0 0 q 0 q ~ G z.K.0.S.e.c O.! W X.D.J.c 6 0 8 8 6 0 6 6 0 6 6 6 ; @ @ 6 0 q q q 6 6 6 6 6 1 6 ; G G ; 6 6 6 6 @ ; 6 6 6 6 6 6 0 6 6 6 q { K 6 6 6 6 6 @ 0 0 ; 6 6 @ ; ; 6 ; 0 6 0.l.@ 0.F @ ; 6 6 6 6 ; 0 0 6 ; q Z > X.~ &.,.o.F.c.x.T 4 1 @ @ @ @ @ @ @ @ @ @ @ @ @ ; ; 1 @ @ @ O @ ",
"G ~ } _ W } l.D.J.4.V ; > ; @ @ 4 ; @ 0 = @ ; 6 ; ; @ ; 6 q > 1 U M X 1 6 1 6 6 6 6 6 6 0 0 6 1 6 6 6 6 6 6 @ @ 6 6 6 0 0 0 0 q 0 0 c ~ S.J.O.D.! q ^ q 8 q } N.O.z ; 6 0 ; 6 0 q q 8 6 w 0 @ 0 q G G 0 6 6 ; 6 6 6 6 ; G 0 @ @ 6 6 0 0 @ @ @ @ @ 6 6 @ @ ; ; ; G F 6 6 6 6 6 6 q q 0 6 1 @ @ ; ; @ G 0 0.U X G 4 ; 6 6 @ 1 ; ; w 0 6 1 1 1 * _  ./ -.+. . .Z < @ @ @ @ @ @ @ @ @ @ @ @ @ O O @ w D @ X O O O ",
"z.V.0.8 c ~ { j.S.J.q.m z = @ @ 1 ; 1 K h @ @ 6 ; @ @ 1 1 ; @ 1 1 @ @ 1 6 6 6 6 6 1 6 6 6 6 6 1 1 6 6 6 6 ; @ @ 6 ; 6 6 6 6 0 0 q ; 0 W X.z.O.{ @.z 0 q ! b 8 F x.L.y.> 6 0 8 G W G q 6 6 1 @ @ @ 6 ; 1 6 ; ; 1 ; 6 6 6 0 ; 1 ; ; ; 6 0 6 ; @ @ @ @ 1 @ @ ; @ @ @ 6 0 0 6 6 ; 8 W q 6 6 6 1 6 6 6 ; 6 z a.k.; q 1 ; 6 6 ; ; ; @ 1 1 6 0 ; 1 o 4.D.o.>.x.I 1 6 1 1 @ @ @ @ @ @ @ @ @ @ @ @ 1 O @ @ 1 @ @ X O @ ",
"l.0.m K l.] ! | x.S.K.Z.y.3.s X ; @ @ @ @ @ ; 6 ; @ @ @ @ @ ; @ @ @ 1 1 6 6 6 6 6 1 1 1 6 6 6 1 6 6 6 ; 6 ; @ 1 6 6 6 6 6 0 0 6 F ^ ; 0 B.M K ^ l.Z.z 8 q ` W 8 8 B.T.K.b 8 8 6 8 8 8 0 ; ; @ ; 6 6 ; ; 6 6 6 6 6 ; 6 q 1 1 @ @ ; @ ; 6 6 6 6 @ @ @ @ @ @ @ 6 ; ; 6 0 0 6 6 6 8 q 0 6 ; 0 6 6 q 6 W 1 B L.T x U 1 ; 6 6 @ @ ; 6 @ @ ; 8 ; ! Z B a.U.J F 0 6 6 6 1 1 @ @ @ @ @ @ @ @ @ @ @ @ 1 @ @ @ @ O @ O @ ",
"B.H.t.O.l.B.y.>.} l.S.J.S.K.p.h * @ 6 ; ; @ 1 ; ; @ 1 q W c z 6 ; ; 1 6 0 6 ; ; 6 ; ; 1 1 6 1 1 1 6 6 6 ; @ @ 1 6 6 6 6 6 6 6 0 0 { ^ 6 J @.8 { z.Z.e.> q 8 q ) q ~ N.V.K.e.> ; 8 8 0 6 6 6 @ @ 6 6 6 6 ; 6 @ @ @ ; ; 6 q 6 6 ; @ @ ; 6 6 6 6 @ @ @ @ @ @ ; @ @ ; 6 6 6 6 6 0 6 6 6 6 0 6 0 8 c ] U O m S.Z ' U @ ; 8 8 8 q G c ~ G 0 r -.N.k.1 h V.k.1 6 1 1 1 @ @ @ @ @ @ @ @ @ @ @ @ @ @ @ @ @ @ @ O @ O @ ",
"G * 4 I ` W q q 0 K j.r.y.+.z.V.q.B X @ @ @ @ # @ @ 0 Q c c 8 6 ; @ @ 1 6 @ 1 6 1 1 @ ; @ 6 6 1 1 1 1 1 @ @ @ ; ; ; ; 6 6 6 ; 6 6 0 0 6 6 0 c 1 ~ z.Z._ 8 c q 6 0 q q } @.D.J.z 6 8 8 6 6 6 @ @ ; 6 6 6 ; 6 @ @ @ 6 6 6 6 6 1 @ @ @ @ 6 6 6 @ @ @ @ @ @ @ ; @ @ @ 6 6 6 6 6 0 0 6 0 0 0 6 0 6 c q G * 0.b.1 W 4 ; c W ~ ^ ~ o.K K K 0 0 1 W U D s x z. .4 @ 1 6 ; 1 @ @ @ @ @ @ @ @ @ @ @ @ @ @ @ @ @ @ @ @ @ ",
"@ ; ; @ 1 K ^ b 8 K j.S.p.l F  .x.e.q.k * @ ; ; @ 1 6 q 8 0 6 ; ; @ @ @ @ @ 4 6 ; 1 1 1 @ X @ ; 6 1 1 @ G n a 6 ; 6 6 6 6 0 w 6 6 6 6 q c 6 1 q 6 ..S.J.N q c 8 0 0 q c ~ X.@.D.] > ; ; 6 6 @ @ 6 6 6 6 6 6 @ @ 6 G 6 ; 6 1 @ @ @ @ @ ; 6 6 ; @ @ @ @ @ @ ; 6 ; 6 6 ; 6 8 8 q 8 8 0 ; > > > h y.K.K.Z.K.b.q q q q ^ X.+...~ o.U G q 0 6 1 @ q 4 ; b Q 0.S.~ W q | D @ @ 1 1 1 1 @ @ @ @ @ @ @ @ @ @ O O @ @ @ ",
"> @ @ 1 0 W W W W q K k.Z.5.f 0 F k.S.J.q.B ; ; @ @ X O o @ 6 ; ; ; ; 1 0 b 6 0 6 6 0 F o.W.e @ 6 6 1 0 j.C.Q c 6 6 6 6 0 G W 8 0 8 6 0 ~ q ; J o.~ z.D.Z.x q 8 0 8 8 0 0 q G { N.L.0.; 0 6 ; ; ; 6 0 6 6 6 6 0 q 6 6 ; ; 6 ; ; @ @ @ ; 6 6 6 ; ; ; ; ; ; 6 6 6 ; ; 8 q 8 8 8 > g N 0.y.J.K.J.K.D.B...] z.! o.X.+.} } ~ ~ G K G G q q 0 6 @ m ..< ; 8 ] z.x.U 4 1 1 ; 1 1 1 @ @ @ 1 1 @ 1 1 1 ; 0 1 @ @ @ @ @ ",
"8 ; @ 4 G 8 q q K W W  .B.y.] N 8 G G h.D.6.b W ^ ^ c.,.-.r 6 8 6 6 6 4 ~ ! ; 6 0 6 6 0 K 1 @ @ 6 1 1 0 0 6 0 6 ; @ 6 6 6 6 6 6 6 6 6 6 0 W z @ } Z.q D.D.y.8 q 8 q W 8 6 q ) c X.V.K.) ; 6 6 ; 6 8 8 6 6 6 0 q 1 @ @ @ @ 6 @ ; @ @ ; 6 6 6 6 ; ; @ 6 6 ; ; 6 6 6 8 > z N M q.J.Z.J.D.V.z.} } z.+.{ q ! V.U ! ^ ~ ~ ^ ^ ~ W G G G q 0 6 6 1 ; ` D = ) ..K ` +.0 6 0 6 6 1 1 @ 1 @ @ @ @ w q 1 @ @ 1 @ @ @ @ @ ",
"6 ; 1 J ! / 0 0 K } W  .+.z.0.m q 0 q F v.0.8 G ~ 1 :   X 6   / t O # # @ # 7 O O 9 #   # @ O # # @ @ 1 @ O 7 @ 9 O # : 0   0 @ 6 @ e / @ 0 N.z 0 +.] { D.K.q.; q q W c 6 6 0 q W ` ' ~ +.z * @ 6 8 8 ; 6 G 0 @ @ @ @ @ @ 0 6 ; ; 6 ; 6 ; 8 6 ; @ ; ; 6 ; ; = > c b 0.J.T.Z.Z.S.} W q 0 8 ; 6 q q @ M ~ e...F q q W ^ ~ ~ ~ ~ G G q 0 6 1 @ * b Z 8 ! C ; z 0.Z.J @ 0 6 6 1 6 1 1 @ @ @ @ @ @ @ @ X @ ; ; 1 O ",
"@ @ 4 K W 8 q q G K W { ..x.y.3.q q K W ! ! g 8   ZXbXUX%.  ZXlXZX0XW.AXIXbX  CXHX  jXPXAX~.lXCXGX&.@ @ ~.jX  UX  AXbXGX  PX  {.pX~.HXMXF.6 F W ; 0 K ! { U.K.N 0 8 8 q q ; 6 6 ! G ` c q V.r.8 ; ; 6 6 0 0 6 ; @ ; ; ; 6 q 0 ; ; ; 8 6 8 q 8 @ ; ; ; > z w.L.Z.^ G q X.+.K ~ 0 0 6 ; 6 6 8 0 6 @ - w.I h D.U 0 q q W ~ ~ ~ ~ G G G G 4 @ @ @ z J O z G O x ] r.x.Z @ 6 6 1 6 6 1 1 1 @ @ ; @ O @ @ X o ; < O ",
"@ 1 6 0 0 G G G q G G W W ~ { ` W c q T V.e.6.f   KX# y CX@ HX    IX  r MX    AXNX#   jX&.  BXe   @ @ O Q.pXyX).  KXO     BXe GXo LXO O @ 6 ; 0 0 6 0 G ~ { U.y.6 q q 6 8 q 6 8 6 8 6 0 ^ X.} B.! g 8 0 6 ; @ ; ; ; ; 6 ; q q 6 ; 6 8 6 ; h M 0.] e.e.! W ` } G 1 @ @ 0 0 1 1 6 ; 6 6 ; > 8 1 @ * z r.~ W V.j.0 q q W ~ ~ K G G G G F 0 @ @ @ X 1 O = o.S   0 G W ..0 1 6 1 @ @ @ 1 @ @ @ ; 1 O @ O % i c 3 O ",
"@ 4 q 0 0 q q q 0 q G W W G ~ ~ O.` ] z J b.J.4.X KX# :.MX9 JXX   IX  / NX  :.jXuXQ.  kX>.  bX).(.@ @ O Q.pXKX    HXW.^.@ F.$XAX  lXpX:.  6 6 6 0 0 6 6 G G j.V.c 8 8 0 > G q 8 8 8 6 0 W ~ G F V.K.e.[ 8 8 ; ; ; ; ; 6 6 6 ; ; ; > z z 0.L.K.D.+.W W c q q 6 1 8 @ ; 6 6 ; ; 6 ; ; ; 8 0 @ X * ' I 1 K 6 0.x.0 q q W ~ ~ ~ G G G G G 0 1 @ @ @ @ @ O 8 Z O X ; 0 q ~ Z 1 @ @ @ @ @ 1 @ @ @ @ @ O @ $ p ) P O ",
"1 4 ; 6 0 0 0 0 q 6 0 0 q 0 G I l.0.X.m > I I.9.* NXCXUX@ 7 JXX   IX  / NX  uX(.,.jX  lX>.  lX0XyXO @ X Q.hXHX    AX@X$XO   PXF.6   }.NXyXO 6 6 6 0 0 6 6 G 0 U N.z q 8 q > q 8 8 c 8 0 8 W X.8 q Z.T.V.X.c.X.c 8 6 6 ; * x y.y.] e.! q c @.} q 6 6 q q 6 8 8 6 @ ; @ ; @ @ @ @ @ * 8 1 6 @ @ ; 0 q 6 4 X 6.b.F q q G ~ ~ ~ G G G G K 0 1 @ @ @ @ @ O X 0 3   O @ 6 8 ' G O @ 1 @ @ 1 @ @ ; z c ! 1 O X c D O ",
"0 b g 9 6 ; 6 6 6 0 6 0 q g 6 0  .q.) ` N W T e.s KXO JX7 # JX*   IX  n NX  BXkXjXHX  lX>.  NXr   O @ X Q.uXfXF.  KXO   @   MX7 6     @ JX  @ 6 6 0 6 0 0 0 } b  .Z.N ; 6 0 8 6 6 6 ; ; ; ; q ` c ! O.^ ^ > @ @ ; b e.O.) e.D.z.F 0 0 6 6 8 8 ; ; 6 8 6 > ] b ; @ r w 0 0 @ @ @ ; G 4 @ X ; 6 ; 8 q 0 6 @ h x.K q q q W ~ ~ ~ G G G K 0 1 @ @ @ @ @ @ O @ @ @ @ X @ g 7.L.h.1 @ @ 1 1 1 @ @ 6 0 0 3 @ X ; 6 1 ",
"J ` =.y 8 z 8 8 6 6 ; 6 F 8 ; 1 I l.e.z.0.N K S.3.IXe !.mX  KX0XjXkXO =.AX  UX    IX# MX,.  MXlXlXF.O @ ^.lXO UX  LXfXlX=.  HXy   yX0XBXOX@ 6 6 6 6 0 q G z 0 e.q S.L.N N N 0.0.M 0.0.0.y.q.0.) y.J.J.J.J.K.Z.e.O.@.r.r.O.W G 0 0 0 0 6 6 8 8 8 6 6 8 8 ; c W 1 @ O w @ 6 @ ; 6 6 6 ; * ; ; 6 0 0 0 1 6 1 = X.K q q q G ~ ~ ~ G G G G 0 1 @ @ @ @ @ @ O X 7 1 @ @ @ * b O.l.D @ 6 6 1 1 1 @ @ @ @ @ O , 8 F 1 ",
"W W ; @ 6 0 8 8 0 8 > ; 6 0 0 0 0 K { B.y.6.c v.J.8.- O n 6   ~.i.  0 0 n > e X @ 7 # 7 @ @ # $.%.7 6 0 0 w : r 9 7 &.&.0 6 7 6 6 # F.;.O 6 6 6 ; ; 6 8 W O.e.O.O.N.S.Z.D.Z.T.K.V.D.V.r.D.D.N.! X.S.D.D.S.N.} { 0 6 6 6 6 6 ; ; @ X ; @ X ; ; ; @ ; 6 8 8 0 6 6 6 ; : W.1 X @ @ @ * z c 0 6 6 6 6 8 0 8 6 = a.} q q q q W W ~ ~ G G q 0 6 @ @ @ @ @ @ X X 9 Z O O @ X @ 0 q ~ F 1 1 1 1 1 @ O O @ @ + p z D 1 ",
"0 8 ; ; ; 6 6 6 ; 6 8 ; 6 0 6 ; 0 W q T B.0.^ V.S.7.l : 6 9 ; 0 c > ; 4 G z 8 @ ; @ X @ @ @ @ @ ; ; @ @ @ @ @ @ @ @ 1 0 X @ @ @ @ @ X X * z b c c ^ ^ o.} B.K.W 0 G q 0 6 0 ~ W 0 0 0 ; 6 ; @ 0 q 0 0 0 1 @ @ @ @ @ X @ @ @ @ @ @ @ 8 q q 0 6 @ @ @ @ @ @ 1 1 1 1 1 O =.c.@ ; 1 @ @ q q 0 6 0 8 8 c G 8 W * p.b.q q q q W ~ W G G K q 0 1 @ @ @ @ @ X @ O X 1 O O X @ @ s W 0 c F < @ @ 6 1 1 @ @ @ + , c Y 0 ",
"6 6 8 8 6 ; 1 ; ; ; ; @ 1 6 1 ; 6 q 8 8 J ..U.a.w.x.3.# K q N 0 c > 1 @ 1 q b 8 0 * O O O X @ 0 c X X @ @ @ @ @ @ 1 @ O X * = ; > x ! ! O.V.' 0 6 6 0 1 1 < j.~ ; 0 G 6 6 @ ; ; ; ; ; ; ; ; @ @ 6 8 8 ; 6 0 6   O O @ X O X @ @ X X @ q q 6 @ @ X X X @ @ @ @ @ @ @ @ X c.K @ @ @ @ @ 6 6 6 6 6 ; q 0 8 X.1 l x.F 0 0 0 q ~ W G G K 0 0 1 @ @ @ @ @ @ @ O @ @ O O X X @ @ 8 F 0 W J < @ 6 F 1 @ @ @ + - c A ; ",
"6 ; 1 6 6 6 ; ; 1 8 > @ 1 ; 6 F ] m ; 0 q j.x.D.e.S.7.j 1 G m @ 6 ; 1 ; 6 @ 6 6 6 @ @ @ O @ 8 1 O X X O X X @ @ ; g z ! Z.Z.' q G 0 @ @ 1 1 X @ 1 6 6 @ @ ; 6 F 8 6 1 6 1 8 6 ; ; 6 q 0 0 0 6 6 6 8 q q 0 6 Q 0   O X @ @ @ @ @ @ ; @ @ @ 6 @ @ @ @ @ @ @ @ @ @ @ @ @ > 8  .1 X @ 6 @ 1 ; ; ; ; 6 q 0 ; ^ J = @.J 6 0 6 q W W G G G 0 0 1 @ @ @ @ @ O @ @ @ 8 1   O O @ @ O @ 4 6 ! J 1 @ 4 1 @ @ @ O , v j.` ",
"@ @ @ @ 1 0 0 6 1 1 ; @ @ @ 1 D k.7.B ; 0 K ` ~ k.S.Z.3.: 0 > @ 0 z ; @ 1 1 6 6 6 1 @ ; 6 0 X O @ X 8 x c W W W ^ W 0 1 6 1 @ @ X @ ; ; 6 o.N @ @ @ @ X 6 q q 0 0 6 ; 1 0 q q 8 8 6 @ @ @ 6 6 6 q q 8 0 q 6 1 6 @ X X 1 1 6 6 ; 8 0 @ 6 6 6 6 @ @ 6 @ @ @ ; ; @ 1 @ @ > G 1 4 @ 6 6 6 @ 1 1 6 ; 0 q 6 ; 8 J * 0.{ 6 0 6 0 W G K G G 0 0 1 @ @ @ @ @ O @ @ O ; 4 X O O X 1 @ O @ 0 6 W J < O 1 6 6 < < + = { C ",
"@ @ @ @ @ 1 @ @ @ @ @ @ X @ 1 1 F K c z ; J ..N q I b.6.> 1 * @ F g ; 1 1 ; 6 6 6 ; 6 W 8 1 1 @ @ q Q W q 1 O 1 @ @ @ @ ; ; ; ; 6 F 0 @ 1 W 6 @ X @ @ ; 6 0 6 6 6 6 @ @ 6 6 q 0 0 8 6 ; @ @ @ @ 6 q q 0 6 6 @ ; ; ; @ X @ ; q q 6 @ @ 6 0 0 0 8 1 1 @ @ ; ; @ @ @ @ 1 @ 1 O @ 6 ; 1 1 ; 1 6 6 6 0 0 6 6 6 0 @ 7.z.0 0 6 0 q W K G G F 1 @ @ @ @ @ @ X @ @ @ @ @ O O O   : 0 1 @ @ 0 c o.{ @ ; F 4 1 @ X X O O ",
"@ @ @ @ @ @ @ @ @ 1 6 0 ; ; @ 6 ; 6 4 0 8 6 I X.b 6 Y O.m z > @ 0 x ; 1 ; @ 1 6 1 0 8 ; @ 1 6 6 @ 1 @ 6 8 ; 8 0 @ @ @ 1 6 6 1 1 1 1 1 ; @ @ @ X @ ; 6 6 6 6 ; @ ; ; @ @ 6 8 q 8 8 8 8 8 ; 6 6 @ @ 6 0 6 6 0 6 ; ; ; @ X @ w q 6 0 G 6 1 6 6 6 6 1 @ @ @ ; ; 1 @ @ @ @ @ 1 @ ; 6 ; 6 6 6 6 ; ; 6 6 0 0 0 6 0 @ 4.D.F 8 0 8 q W ~ G G 0 6 @ @ @ @ @ @ @ @ @ @ @ @ @ O O     > F < @ O ; M e.j.Z F 1 @ ; ; q 0 # ",
"@ @ 1 1 6 @ @ @ 1 1 6 0 6 1 0 6 @ 1 @ @ 1 ; 0 G c 0 U B._ b > ; 4 8 @ 1 @ @ @ ; 6 6 6 q z ; ; @ 0 8 0 6 ; @ 1 @ @ @ @ @ @ @ @ @ @ ; @ @ X @ @ ; 6 6 6 6 6 0 0 0 q 0 6 0 W ! W G ~ q 0 0 0 0 6 6 ; 8 ; @ @ 6 6 6 6 6 @ @ @ @ 6 1 @ H q 1 @ @ @ @ @ @ 6 ; ; ; @ @ @ @ @ @ 6 @ 8 6 ; 6 6 6 6 6 ; ; 6 6 6 0 6 6 1 l K.U 6 0 8 8 W ~ G G 0 1 @ @ X @ @ @ @ @ @ @ O @ @ O O O   o q F < O ; M +.l. .Z 4 @ @ @ 1 1 + ",
"@ @ 1 0 ; @ @ @ @ @ @ @ @ 1 0 ; ; @ @ 1 1 1 0 G W c q S G.d.>.u.=.=.&.&.&.=.u.>.>.n O 0 q 6 X X 1 @ + ;.;.;.;.=.&.&.&.&.&.&.=.;.w > 6 1 ; 6 0 6 6 6 6 6 6 6 6 0 G 6 @ @ 1 6 6 6 G 0 6 6 6 6 6 @ 6 0 6 c 8 @ 6 6 6 6 6 6 @ @ @ @ @ 1 6 6 6 @ ; 6 6 0 6 ; ; @ @ @ @ @ @ ; 8 6 6 6 @ @ 1 1 6 6 6 6 6 1 ; 6 ; 6 6 f a...6 0 8 8 W ~ G G 0 1 @ @ > Q 1 @ @ @ O @ @ @ @ @ X O     - W F 6 1 1 0 ^ +.T 1 6 1 @ @ 1 @ ",
"X @ @ 1 @ @ @ @ @ @ @ @ @ @ 6 @ 6 ; 6 6 6 0 q G K 6 F.#XE.&Xd.H.H.P.d.F.i.H.H.i.,.F.0Xn 1 c = @   #X{.,.,.,.,.,.,.,.i.i.,.n.n.n.{.qX  ; @ 6 6 6 0 6 6 6 ; 6 6 1 0 0 X @ 1 6 6 6 6 0 0 6 6 6 6 ; 6 ; @ q ! c 6 @ 1 6 6 6 ; @ X 1 6 6 @ @ 1 6 6 6 0 0 6 6 6 1 @ @ @ @ @ 8 8 0 6 1 @ @ 1 1 @ 6 6 6 6 6 ; ; 6 ; 0 g p.S.F 6 8 q G W W G 0 @ @ @ @ 6 1 @ @ @ @ @ @ @ @ @ @ O O X * d { I 1 6 @ 6 W 0.V.F < 1 1 1 O ",
"0 h ; @ @ @ @ @ @ @ @ @ @ ; @ @ ; 6 6 0 0 8 8 q 0  XG.8 b.J.5.q G ~ c q 8 G b ! 8 6   ;Xn 8 x X uX@ @ @ @ ; ; @ ; 8 q 6 6 @ @ 1 0 @ iX  6 6 6 6 6 @ 6 6 ; 6 6 6 6 6 X @ 6 6 6 6 6 0 0 6 6 6 6 6 6 6 6 @ @ @ 6 ; z > * 1 1 1 X X 6 6 1 1 6 6 6 6 1 @ @ 1 @ @ @ @ X @ @ ; ; 1 7 6 @ 1 1 1 @ 1 1 6 6 @ @ ; ; 1 ; 6 6.S.J 0 q q q W ~ K 4 @ @ @ @ @ @ @ @ @ X O @ @ @ 1 @ < = h c 5 v { K 6 2 e 8 M y.B.J ; @ X # ",
"Z > * @ @ @ @ @ @ @ @ 1 6 6 ; @ 6 6 6 6 6 @ 6 q [ <Xe.` x.S.7.x c 8 X @ 1 c 0 1 @ 1 0 < aX; }  X( ; 6 N M b b c 8 6 ; 6 q ; X 1 ~ 6 # XX@ 6 @ @ @ 6 1 6 6 6 6 6 1 6 X @ 6 6 6 6 6 0 0 6 6 6 6 6 6 6 6 6 ; X X @ 1 c c ; @ ; O m b 1 6 1 6 6 6 1 1 6 @ @ @ @ @ @ O @ @ ; 6 @ a Q 1 1 1 @ @ @ 6 6 6 @ @ 6 1 @ ; 6 s r.U 0 0 q q G G F 4 @ @ @ @ @ O O X X @ @ @ O @ @ @ @ > 0 3 O , ) ..K 4 X 0 q W @.x.{ ^ v x ",
"@ @ @ @ @ @ @ @ @ @ @ @ @ ; @ 1 ; ; 6 @ @ 6 1 4 |.H { ..r.{ S.w.v 8 @ @ 1 8 6 6 ; @ @ 1 F./   @X@ q ~ } W q q 6 w q 6 6 ! x X 1 1 @ O XXO @ @ @ @ ; ; 1 6 6 6 6 @ @ @ @ @ ; 6 6 6 6 6 6 W c 6 0 6 0 8 8 q q 6 X X O 4 0 0 6 @ ` z.@ 1 1 @ 1 1 1 @ @ 0 6 @ @ @ O @ @ @ ; 6 @ a #.4 @ @ @ @ @ ; 0 6 @ @ @ 1 @ @ 6 8 0.x.F q q q q G F 1 @ @ @ @ @ O O 8 8 @ @ @ @ @ @ 6 1 1 < O     - ^ { K 8 c ^ K K ..{ 0 8 ' ",
"@ @ @ @ @ @ @ @ @ @ @ @ 6 @ @ 1 6 ; @ 1 G q q @ @XO J v.y.) I.p.u.g * @ 0 8 6 ; 1 @ 1 @ %.F.  .X@ 6 1 1 1 1 @ @ @ @ @ O q > @ 6 @ @ @ '.# @ @ @ ; ; @ @ @ ; @ ; @ @ @ @ @ ; 6 6 6 6 6 q o.c 0 q 0 0 q G G G 0 6 @ X O O O 1 8 0 1 @ @ 1 ; 1 1 1 6 @ 1 0 @ @ O @ @ @ @ ; 8 6 a C.4 @ @ 1 @ @ ; 0 1 6 @ @ @ 1 ; 0 ; 6.x.K q q q q G 0 @ O @ @ @ @ O X X ; < O X @ ; ; 1 1 @ O       X n ' ` ..T D Z 4 6 z ^ K < ",
"@ @ @ @ @ @ @ @ @ @ @ ; ; @ @ 6 8 q q 0 0 0 0 6 XXO U b.y.N b.J.w.v ; 1 6 6 6 6 ; @ @ @ &.,.  XX@ ; @ @ @ @ @ @ O O @ @ 0 @ 1 1 1 @ X '.# ; 6 @ @ ; @ @ ; 6 6 ; ; @ @ @ 6 0 6 6 6 6 6 q ~ 6 @ 1 0 6 6 6 6 6 6 6 8     X   O 1 1 6 1 @ @ 6 0 1 @ 1 @ @ @ @ X X @ @ @ ; @ 8 6 y G.Z ; @ @ @ ; ; 0 1 @ @ @ @ @ 1 ; @ h x.U G q q G G 4 @ O @ X X @ @ @ O O O : > 1 > w 6 @ @ O O X O ; 9 ' b.Y Z # ; O * z ^ T 4 ",
"@ @ @ @ @ @ @ @ @ @ @ 6 ; ; 6 1 6 0 6 1 0 0 0 @ |.O J l.y.) x.S.p.s i.&.1 0 8 6 @ @ @ X &.n.  XX@ ; @ @ @ @ @   ^.7 @ @ ; @ @ @ @ @ @ ).+ @ @ @ @ @ 6 0 0 0 0 6 @ @ @ @ 1 1 @ @ 6 6 6 q 0 1 1 1 q q @ ; ; 6 6 6   IX0XX X     O @ @ @ @ 6 6 @ @ @ @ @ O @ @ @ @ @ @ @ @ ; 0 ; o.F @ @ @ 1 6 0 0 1 @ @ @ @ @ @ ; 1 * o.U G G q G z 6 O ; @ @ X @ O O X @ @ X 8 F @ @ @ 8 @ @ @ @ O @ < 0 U A 9 e v 0 1 6 F D 4 ",
"@ @ @ @ @ X @ @ @ @ @ @ 6 6 @ @ @ @ @ ; 6 0 ; @ |.  Z x.y.@.0.v.e.= hX#X@ @ @ ; 6 ; X X &.,.  |.O ; @ @ @ @ O   KX*.@ @ @ @ @ @ @ @ g '.@ @ @ @ @ 1 1 1 1 1 1 @ @ @ O @ @ @ @ @ 6 6 6 0 0 @ @ 1 6 0 1 @ 6 6 @ ; O yX>.0 0 @ X     O O O @ 6 6 1 1 1 @ O X @ @ @ @ @ @ @ 8 0 1 0 4 @ @ @ @ @ 6 6 1 @ @ @ @ @ ; g W * _  .G G W G N A.4 ; F O O O X * ; @ @ 6 1 @ O @ X 8 0 1 @ @ @ X O X 7 q N ` ^ U Z   s 1 < ",
"@ @ X @ @ @ @ @ X @ 1 0 6 @ @ @ @ ; ; @ 1 8 > O |.O Z S.e.l.b  .z.g fXXX@ @ @ @ @ 6 ; @ %.,.  XXO @ @ X X @ @   AX&.@ 1 Q @ @ @ ; 1 V.OX@ @ @ @ @ @ ; ; ; @ @ @ @ / 7 @   ,.# @ 0 q 6 q 0 # ^.^.O 1 9 :.O @ / / @ / 6 6 O >.}./ X X   O O @ 1 @ @ 6 @ X @ @ @ @ @ @ @ 1 6 6 1 6 @ ; 1 @ @ @ 1 1 @ @ @ @ @ @ 1 > o.< 6.N.` G G G 0 4 1 @ < @ X * > 6 1 @ ; 1 < O @ @ @ * 6 1 @ @ O X <   - x ^ } ..{ J > M ..Z ",
"@ @ @ @ @ @ @ X O 1 6 ; @ @ @ @ 6 ; ; ; 6 8 6 @ |.  Y Z.w.F G ^ +.! sXXX@ X @ @ @ @ 1 1 &.i.  .XO @ O O X @ @   AX%.@ 1 6 @ @ @ @ 1 1 ).# @ @ @ @ @ @ @ @ @ @ @ @ F.IX  }.JX  @ 0 6 6 q O KXjXmXPX    UX>.O UXy   PXF.O ).IXkXPX/ 8 6 X O O   UXr @ 0 6 @ @ @ @ @ @ @ @ 6 ; @ @ @ @ @ @ @ @ @ @ @ @ @ 1 1 @ @ @ q < k S.j.~ W W F O @ @ @ X X 6 6 @ @ @ @ @ O O X X O * g @ @ @ @ X O @ X ; F F ~ J q b ^ Y G ",
"@ @ @ @ @ @ @ X @ 6 6 @ 1 ; ; 1 6 8 6 ; 6 ; 6 @ XXX k.Z.d 0 K X.c h.zXoXO ; @ @ @ X @ @ &.F.X XXX X O @ @ @ @   FX*.@ 1 6 @ @ @ @ @ @ '.+ @ @ @ @ @ @ @ @ @ @ @ @   ZX(.UXy 7         8 w       UXr @ F.HXpXhXO   KX,.  HX*.    1 @ ; @ @     PX# @ @ @ 1 6 6 @ @ @ @ @ 1 1 1 1 1 @ @ @ 1 @ @ @ @ @ @ 1 @ @ 1 X N 0 s r...~ W G 4 @ O X @ 6 1 @ @ 1 1 @ @ @ X O X @ @ ; h ~ 1 > l c 1 O   X @ # : 8 z ! +.~ W ",
"@ @ @ @ @ X O 1 c ; 1 @ 1 6 ; 1 6 ; 6 @ 1 1 @ @ @X; x.q.g G K ! 8 P kXOXO ; @ @ @ X @ @ &.n.  OX> * O @ @ @ @   FX&.@ 6 @ @ @ @ @ @ X ).+ @ @ @ @ @ @ @ @ ; ; @ @ @ 7 UXhX    AXPXPXUXi.@ @ Q.).UXr @   ZXUX  6   KX,.  mXbXn.7 @ 1 @ ;   KXUXUXUXUXe @ @ @ @ @ @ @ @ @ @ @ @ 1 @ @ @ @ 6 1 @ @ @ @ @ @ @ @ @ @ z  .@ O.x.~ W G 1 @ @ @ @ O @ @ @ O @ @ @ O O O @ @ @ 1 = c 1 * m  .4 O O @ @ @ - q W W ~ ~ ~ ",
"@ @ @ X X @ 6 9 # @ 6 ; 1 @ @ @ 1 ; 6 ; @ 1 @ 1 @X6 B.7.q 0 J M 8 ; dX-XX @ ; X X @ @ @ &.,.  }.q > @ @ @ @ @   HXt     @ @ @ @ @ @ X ).+ @ @ @ @ @ @ @ @ 8 6 @ @ @   UXyXO 9 @ # 2 9 0 e UXfX}.UXr @   bXKX  6   KX,.@ @ jXZXUX/ @ 1 1 0     PX    ; @ O @ @ @ 1 @ 6 6 6 @ @ 1 @ @ @ @ @ 6 @ @ @ @ @ @ 1 @ X @ @ 0 O x z.{ W F 1 ; @ 1 O X ; @ 1 @ X @ 1 O O O O @ @ @ @ x 4 @ > 4 6 6 O O O X X @ 0 q G F 4 ",
"@ @ 1 6 q G q @ O 1 6 ; 6 @ @ @ 6 ; 6 ; ; 1 6 1 @X0 z.l 8 h D ` z %.UX( f ; 7 X X X @ X $.n.  }.6 ; @ @ @ @ X   lXIXUXuX  @ @ @ @ @ X ).+ @ @ @ @ @ @ @ 6 8 @ @ @   lX0XUX# 6 @ @ @ 0 6 ^.BX    UXt @ &.KXlX0XO   KX,.@ @     kX0XO 1 1 1 O   HX7 X ; @ @ @ O O @ @ @ 6 8 8 @ @ @ @ @ @ @ 1 @ @ @ 1 @ @ @ @ @ @ @ 1 @ s N...W F 1 1 1 @ @ @ 1 1 @ O O @ O O O O @ @ @ X O = 0 @ 6 4 O @ @ O   X = s > 0 1 2 , ",
"@ @ @ 1 6 1 @ @ @ 1 6 6 ; 1 @ @ 0 ; 6 @ @ @ ; O OXq e.h ..l G W 8 * O  .6.> @ @ @ ; X X &.,.  .X@ ; @ @ @ c > ;         6 @ @ @ @ q X ).+ @ @ @ @ @ @ @ 8 6 @ @ @ $.UX  uXMX  @ @ @ 8 6 >.IXr ^.UXt   KXQ.# UX@   LX,.O ^.:.r IX,.O @ @   }.#XF.oX$X# @ 1 1 6 ; X O O O @ c 8 1 @ @ @ @ @ @ @ @ @ X X @ @ @ @ @ @ @ 1 * r.l.~ Z @ O O @ @ @ @ @ O O X X O O X @ @ O O O O * m 4 @ @ O   = g - B 5.@..._ 6.h s ",
"1 ; ; z ; X X @ @ 6 0 8 ; @ @ 1 0 ; 6 ; @ @ 1 W ;XX.q.m +.= c 0 G z - Y ] l o X 4 6 O X &.,.  |.@ ; @ @ 1 1 1 8 > X @ @ @ @ @ @ 1 1 O ).+ @ @ @ @ @ @ ; 6 @ @ @   @XW.@   jX@ ; 8 ; 8 0   0XHXfX Xr L fX  O #X~.  uX/   }.CXHXXX  @ @ X   pXhXhXhXkX; @ 1 @ 6 0 6 ; ; X X b G X c O @ @ @ @ @ @ @ > ~ O @ @ @ @ @ @ 1 o 6.l.K Z * 1 O @ @ @ @ @ @ @ @ X @ @ @ O O O O O X X > 8 * g c ; ; g Q 5.a.v.D q X.r.y.",
"4 q b > @ @ X @ @ 6 0 ; @ @ @ 1 6 ; 0 > 6 ; J V.qX+.0.q ^ 8 8 ; K 0.v 1 x.9.V X ; @ X @ %.,.  XX@ ; @ @ @ @ @ 1 @ ; ; X @ @ @ @ @ @ O ).@ @ @ @ @ @ @ ; @ @ @ @ @ O @ 6 ;   8 8 c q 8 1 ; O   O O @ @   6 6 O O 8 X ; 6 @     O @ @ @ @ 6 X O   g ! O 1 1 @ @ 1 1 6 q 8 ; q 0 @ c < @ @ @ X @ @ O @ Z O @ @ @ @ ; @ 6 o 4.V.K 4 X 1 @ @ @ @ @ @ @ X X @ @ O O O O O X X O O * v 0 z L r 6 6 k 9.D.I.K * * > _ ",
"H c ; O X @ @ @ @ 1 1 @ @ @ @ @ 6 8 q z ; 1  .` Y.P.M 0 W 8 ; ; J } z ; h.K.4., ; @ * O }.@   @XO ; X @ @ @ X @ @ 1 8 ; @ @ @ @ @ @   $X  @ @ @ @ @ 6 @ @ @ @ @ @ 1 6 6 0 0 0 6 6 6 ; @ @ @ @ @ X @ @ @ @ 6 1 @ 1 1 1 6 6 6 6 @ @ ; ; 6 6 6 6 6 1 D @ @ @ 1 1 ; @ @ 1 6 G W 6 6 1 1 @ X @ X O O X @ @ @ @ @ @ ; ; 6 8 ; 8.K...6 @ @ @ @ @ @ @ O X O O @ X O     O O @ X X X ; ; y v | Q ^ F h X.k. .U q @ X k ",
"K 0 X @ @ @ @ @ @ @ @ @ @ @ @ 6 6 8 q > @ { 0.! 4 dXX q q ; @ @ 0 F 8 ; J I.p.= 0 : X r oXO @ 7 ;X  X @ @ ; @ X @ @ w @ 1 @ ; ; ; O ^.%.@ @ @ @ @ 6 6 @ @ @ @ @ @ @ O @ @ @ @ 1 @ 1 ; @ @ @ @ @ @ @ @ @ @ 1 @ @ @ @ @ 1 @ @ @ @ @ 6 6 0 6 ; 8 8 8 ; ; @ @ ; ; ; @ @ @ 6 6 1 1 6 0 ; ; @ @ @ ; * X @ @ * > > ; 8 8 6 q 8 4.K.k.1 ; @ @ @ @ @ @ X @   % X X X o X X X X ; ; 0 0 0 0 q D C 3 6 8 F 1 @ 1 6 8 8 f ",
"1 ; * X @ 1 @ @ @ @ @ @ @ @ @ 6 0 z z 6 J B.0.N K _ uX&.          O O     Y m     X i.$X  @     ;.$X7                           : XXF.O @ @ @ @ @ @ @ @ @ @ @ @ @ O % $ @ @ @ X @ @ @ @ @ @ @ @ @ @ @ @ @ @ @ @ @ ; @ @ @ @ @ ; 6 6 6 1 6 6 6 6 0 6 ; @ 6 8 6 6 6 ; ; 8 ; ; : 9 6 0 8 8 > 8 8 8 0 @ @ ; 6 0 @ @ 1 @ @ 4 = Z.v.1 @ @ @ @ @ @ X @ @ & V B 0 @ @ 1 1 1 1 1 1 1 6 0 8 0 4   - h ~ ! 4 @ @ ; 8 z M ",
"D F * X @ @ 1 @ @ @ ; @ @ @ @ 0 G b 8 4 j.l.e.8 x.0.  !.OXOXXXXXXXXX@XOXXX<X;XOX@XXX&.X X @ l V a # _.OX+X+XoXXX.X.XXXXXoXoXXX$X+X9 ; ; ; v ; ; 8 ; ; ; ; @ @ @ @ : =.y X @ , , - V a e : o , , @ ; X @ @ @ @ @ ; 8 6 @ @ O @ 6 6 1 6 6 6 1 6 @ 6 6 @ @ @ 6 1 6 1 ; q q 8 z c ~ 0 6 6 6 6 6 0 6 ; @ @ @ 6 1 @ @ @ . o @ X N h.1 O @ X : ; @ @ @ @ ; ; K Y 1 1 @ @ @ @ @ @ ; 6 6 0 c 1 O f ....{ J > 4 < - g m ",
"0 6 X @ @ @ @ @ 1 6 6 ; @ 1 6 0 ) b ; J ^ } 8 F z.6.8 b             < ;   C N =   O F x X k.V.' 7 ; < 3 @                   O 4 1 0 q 8 0 0 1 0 6 @ @ 1 1 @ @ @ 1 4 U F @ @ | ! F l.~ G q q Q Q 6 @ ; 8 6 6 8 q v v ; X * ; ; 6 6 6 e e 7 6 7 a a a %   ; # a a a a 2.V y ; 0 0 1 @ ; 7 , r 6 @ ; 0 0 6 8 6 @ X ; 9 B 0.0 = { 4 # ; 6 1 6 1 @ @ @ 1 6 1 1 @ 1 @ @ @ @ @ ; ; 4 1 1 8 L d z Y 4 Z 1 1 4 + d 5.0.",
"0 z s * @ @ @ @ 1 0 8 ; @ @ 1 K 0.h 0 X.] ' @ { y.4.@ u.).}.'.}.}.}.{. X'. X9X X}.^.7 O X 3 < < 0   ,.{.{.{.{.}.}.|.'.).{.)._.{.F.  @ 1 1 @ ; ; @ @ @ @ @ @ @ X X @ O O X @ 4 4 @ 1 4 4 1 1 4 4 6 ; 6 4 0 0 6 F F F 0 q q w q 0 6 q c W W q c [ #.#.#.q @ ; ( #.o.O.Z.D.+.~ 0 6 1 @ 8 W K G F 1 1 1 1 @ q q 8 8 6 @ 3 { { 1 G 4 1 @ @ @ @ 1 @ @ @ @ @ @ @ 1 1 1 @ @ @ @ g 0 1 @ @ : h 6.h.F < X X < O o 3.7.k.",
"4 K z g g ; @ @ 1 0 6 ; 6 ; 0  .0.m e.e._ > W b.a.s qXF.# @ @ @ @ @ @ 4 : D ' - @ e }.(.  X X X t yX%.@ o o @ O 1 v : o o @ @ @ / 0X$.@ @ @ q 8 @ @ @ @ @ @ @ @ X O O X @ @ @ @ @ @ ; 6 ; ; ; 6 0 6 1 1 @ @ @ @ < @ 6 6 0 0 1 6 6 1 0 0 0 0 4 Z J J I Z 1 1 Z D J I I I D Z 1 1 @ @ 1 1 1 1 1 @ @ @ @ @ @ 1 @ 8 Q G ; > q 6 1 4 @ X @ ; > ; @ @ @ @ @ @ @ @ @ @ @ 1 @ X > 0 1 @ X - l l.g.0 1 X @ X * = l j.I ",
"6 6 6 0 q > > > ; 6 6 6 0 6 0  .e.Z.s.B z W } U.7.pX8 > 6 ; ; ; 6 ; X 1 6 Z 0.h @ ;   :.Q.X @ O uX  @ @ X @ @ @ 1 G 1 8 ; ; ; @ @   $Xe @ @ 6 0 ; ; @ @ @ @ @ @ @ X O X X - : @ ; ; 8 0 0 0 6 1 1 1 @ @ @ @ X X X > ; 6 6 6 6 6 6 6 1 6 6 ; ; @ @ @ @ @ O @ X ; 6 1 @ ; @ @ 1 ; @ @ @ @ @ O @ @ @ @ @ @ @ 6 1 O 1 4 ; x ) q @ @ 1 @ @ @ @ 0 6 1 @ @ @ X @ @ @ @ @ @ @ > q 6 6 < O s M g.4 8 0 < X ; ; c K P 1 ",
"1 6 0 0 0 q z g ; ; ; ; 6 0 0 K b.T.q.h G ~ ..T.d.F.z 8 8 ; @ @ 6 8 X 1 6 F e.m ; 8 :   oXO O oX@ X @ @ @ @ @ @ 1 ; O @ 6 8 > X @ @   $X  @ 1 @ @ @ 6 6 ; ; @ @ @ X O O 1 ~ ; ; 8 8 0 6 1 @ @ @ @ @ @ @ @ @ X ; 8 0 6 ; ; ; 6 6 6 6 6 6 6 6 6 6 6 6 6 @ O @ @ 8 1 1 @ ; @ @ @ @ @ @ @ @ @ @ @ @ @ @ @ @ 1 1 @ @ @ X @ @ K J 4 1 6 > * X X @ 6 1 6 ; ; ; ; @ @ @ O @ X ; 1 1 @ O d m T D 1 * q Z X * > K D 4 @ ",
"@ @ 1 @ 1 F c g c x 8 z 6 ; 6 ~ b.O.q 6 q 0 h.V.OX@ 6 0 > @ @ @ 0 8 @ O c ~ e.M 0 0 ; X :.:.  .XO X @ @ X @ X O 1 @ O X O 4 6 z ; @ O }.@ ; @ @ @ @ 6 6 8 6 @ @ @ O X X 6 q 8 6 6 6 6 1 @ @ @ @ @ @ @ @ O @ ; ; 0 6 6 6 ; 6 1 6 6 ; 6 ; 6 ; ; ; ; ; @ @ O X ; 1 @ @ 1 @ @ @ @ @ @ @ @ @ @ @ @ @ @ @ @ @ @ @ O O @ X @ 1 ; 1 O O 1 z b b 8 @ 6 1 @ ; 6 6 6 @ @ X @ X * 6 @ 1 # - 3.@.T 4 @ @ q ; e f c S 1 1 @ ",
"@ 1 ; @ @ 1 1 1 0 q G c x x _ +.` _ h 1 8 4 T b OXO 6 0 g X o @ 4 0 - 1 { ~ N.M @ @ @ X %.,.  .XO X O @ @ @ X O @ @ X @ @ O 1 0 6 6 X }.7 @ @ @ @ @ @ @ 6 6 ; ; ; * @ @ ; @ @ @ 1 6 6 @ @ @ @ @ @ @ @ X g ; @ 6.8 O O 6 6 6 8 ; 1 1 6 6 6 6 6 ; 6 6 @ @ X * 0 @ @ @ @ 1 @ @ @ @ @ @ @ @ X @ 6 1 @ @ O @ @ @ O X @ ; 6 1 ; ; @ @ O @ @ 0 G W 0 1 O X @ 1 6 6 @ X O X ; 0 1 O + f 6.j.~ Z @ @ > r l 7.h.S @ @ @ ",
"@ 4 8 * @ @ @ 1 @ 1 0 X.r.O.^ W @.e.b ' * F @.g |.O 6 W h > X @ 1 0   < F Z x.m @ X 1 X %.,.  .XO X @ O @ @ X O   # O   # @ @ @ 1 @ @ |.# @ X @ @ @ @ @ @ @ ; q q ; @ @ @ @ @ ; @ ; ; @ @ @ @ @ @ @ @ ; ^ 8 6 D.O UX$XX 6 0 Q 6 6 1 6 1 ; 6 6 ; 6 ; @ 1 ; z @ @ @ @ @ & 9 @ @ @ @ @ @ @ @ @ 1 1 @ @ @ @ @ O O X @ @ 1 @ @ @ @ @ @ X X @ O 1 G q ; @ @ @ @ @ 6 ; ; * * 8 0 O X l k.D b 0 1 X ; > 3.@.g.< X X X ",
"@ 4 6 @ @ X ; @ z ) { U F 1 4 U r.K l.M ; { 0.X |.X 0 ^ 8 X X X @ O pXn.4 4 x.M * @ @ @ %.,.  .XO X @ @ @ @ X y lX  / lX  ; @ @ @ 1 1 }.: > @ @ @ @ @ @ ; 8 q q 1   O X @ X 6 6 @ @ ; ; @ @ O @ @ X ; 6 q q 0 F O #X/ ; 6 1 1 1 ; 6 1 6 ; 6 ; ; ; ; @ ; 8 0 O @ @ @ @ e W < @ @ @ @ @ @ @ @ @ @ @ @ @ X @ @ X X @ @ @ @ @ @ @ @ @ @ @ @ O X @ 1 q q ; @ @ @ O @ ; g b 8 1 - k c Y 1 m W < X f h c P < X * ; @ ",
"@ 1 1 @ 0 N m ! W 0 @ @ 1 @ 4 } x U z.c q ..M @ OX  G b X X X @ @   mXQ.1 1 x.w.d ; @ @ &.,.  .XO X @ @ @ @ X / HX  JX*.9 @ @ @ @ ; @ {.2 6 ; ; X @ ; 6 0 q 0 1 O :.# X O ,.9 @ @ @ ; 6 @ r oXoXX ; w F.@ 1 >.( @ >.0 0   F.$X:.@ 1 6 6 1 6 6 7 6 6 @ ; W 1 O @ @ @ @ 1 F O @ @ @ @ @ @ @ @ @ @ O @ @ O X X X @ @ @ @ @ @ @ @ @ @ O O @ @ X @ @ @ 6 c 8 ; X O @ @ ; c ~ r l 6.T 0 x 6.^ C X k ~ Z 1 X > 0 4 4 ",
"@ 6 > b N.0.z 6 @ @ @ @ 6 6 F G b { q K K N.3.O |.  K h * X @ @ @   bXQ.@ 4 S.s.4.; ; @ &.,.  .XX X @ X X @ X ( AX*.CX  1 O @ @ @ 6 @ ).+ @ 0 c g 8 8 6 6 1 @ @   jXpX  # UXO @ @ ; ; 0 @ HXuXlXIX    UX>.9 UX7   IX,.O 0XKXiXHX7 ; 6 ; 6 6   UX7 ; ; 0 6 @ O X @ @ @ 1 < @ @ @ @ O O @ @ @ @ @ X @ O     X @ @ @ @ @ @ @ @ @ @ @ 1 X X X X @ @ @ @ O 6 8 8 @ O @ ; ; 0 B 7.z.I ~ ] e.l.Z = l U F ; @ 1 S 3 ; ",
"M r.e.` W @ @ @ @ @ ; ; 6 6 6 F ! q 8 q  .V.f @ OX  ~ m ; @ X * =   bXQ.1 0 U.J.6.; ; ; %.,.  .XX * @ @ @ @ O %.MXHX: @ O * X X > ; O ).+ @ 6 q G q 8 0 @ @ @ @ X ,.HX  F.AX          6 9       UX7 @ Q.GXjX0X@   PX>.  KX/     6 6 6 ; 6 7 O IXr 7 0 0 1 @ @ O @ @ @ @ @ @ @ @ @ @ @ @ @ @ @ @ O @   - * @ @ @ @ @ @ @ @ ; X X @ 1 O X * z 1 @ 1 @ @ X @ 6 0 @ = > 1 6 M x.h.Z < q X.l.F x ^ I 4 4 < 1 + p * ",
"0. .{ 8 ; ; ; ; 1 6 ; 6 6 6 ; F c 8 6 0 k.0.1 ^ -X  } m ; ; 1 F q   bX!.; ! S.J.x @ @ ; &.,.  .X@ * @ X X * = =.mXAX$.X X _ ; 6 0 X   ).# ; 6 6 6 1 0 ; ; ; @ @ @ @ UX  fXuX  KXIXIXUX&.; 7 XX#XUX7 6   ZXPX  q   PX>.  NXMX^.y @ 6 6 ;   KXPXUXPXUX7 1 @ @ @ X X @ @ @ @ @ @ @ @ @ @ @ @ @ @ O @ @ @ 6 H 4 @ @ ; ; @ @ @ ; Q 1 @ 6 @ X X 1 4 @ @ @ X X @ O 1 0 m c 6 s x P L 6 X ; m _ ~ W h.4 < O   X   - 6.",
"6.D F 8 6 ; ; ; 6 6 6 6 6 6 ; 0 8 8 0 F l.m Z X.OX; _ > ; ; ; 1 @   bX^.F o.x.q.d @ @ @ &.,.  .X; s * g f m N u.DXr JX  ' q 0 8 = = * '.# ; 8 6 1 @ @ 1 q 8 ; @ X   PXe HX:.@ O O O O @ / UX;XQ.UX7 6   NXPX  8   PX>.6 @ pXmXUX/ 6 6 6 0     PXO   6 @ ; ; ; v @ @ @ @ @ @ @ @ @ O @ @ @ @ @ O @ @ 1 1 1 1 @ @ @ 1 1 @ @ 1 1 4 @ 6 6 1 X @ 1 @ ; @ @ @ X X X = N ! 3.5.O.m 3.0.x f 4.7.r.U J @ @ X s > @ O c ",
"> 0 ; - # @ @ @ 6 ; ; ; ; 1 6 1 q > 6 ~ X.= D ! |.Z N = @ @ ; ; ;   MX^.Z ~ k.y.s X X > =.F.  |.z h z W ^ 0 q &.HX  AXQ.4 6 q q ! ) m '.: c b > > s * @ 1 0 8 8 *   lXQ.UXO @ @ @ ; ; ; OXbX    UX7 @ F.AXkX;X@   PX>.6 @ O   bX@X@ 6 ; 6 @   AX7 0 @ 1 ; 6 ; K 1 X 1 @ @ X @ @ @ @ @ @ @ @ @ @ X @ @ @ @ @ @ @ @ @ @ @ @ @ @ @ X 6 1 1 * > ; ; 6 6 ; ; > > > m b _ 7.J.D.a.a.J.Z.q.q.J.I.} q q ; * > 0 4 X @ ",
"1 c 6.j # ; @ @ @ @ @ ; 6 ; ; @ 8 > 8 @.4.V I > }.< q g f X 1 6 = X $X&.Z q j.y.h ; 6 W >.F.  XXq W 8 1 O 6 6 e yX  e fX  6 q 0 0 4 4 |.# 0 q 6 q b z 8 ; ; 0 q > = /.JXHX  @ @ @ ; 8 ; ,.IX%.#XUX7   UX:.7 UX#   IX,.O #XF.:.UX*.6 6 6   0XuX'.iXdX# ; 1 6 1 1 O @ @ @ @ @ @ @ X @ @ X @ O @ X X @ @ @ @ @ @ @ @ @ @ @ @ @ @ @ @ @ 0 @ s ! 0 1 ; 2 + @ @ 1 ; z F x q.S.x.x.b.k.h.U ..j.b.{ 0 6 e d ; < @ X O ",
"F k.e.f * @ @ ; ; ; ; @ 6 6 6 6 8 x } D.9., K = oXO q G z g = 0 m l = ; q 8 ..y.M ; @ @ &.F.  @X1 1 @ X @ 0 @ X   @ O   ; 8 6 @ ; 6 1 {.# X 1 @ < < < @ 1 6 ; 0 8 ' X MXhXO @ @ ; 8 8 0   #XZX0X,.9 ( yX  O |.F.X 0X( @ `.bXVXQ.O 8 6 6 O 0XyXiXyXpX@ ; @ 6 0 @ X @ @ @ @ @ @ @ @ @ O X X O X O X @ @ @ @ @ 1 @ @ @ @ @ @ @ + X @ X 1 # k J @ @ : p V = @ @ > 8 q l r.k.U J 0 I 0 6 z G q ! c z 1 z J < X X X ",
"z J J 6 * ; 6 ; 6 ; ; 6 0 8 q q W N l.K.5.4 ! ; XXO 8 0 F ) l G } ! g > 0 b } y.u.* - c >.F.  .X@ - u . 8 @ X @ @ @ O # e # @ ; 8 ; O ).# 7 , : = p a X * g 8 8 ! 6   ZX,.X ; ; > 8 8 8 8 X   @ @ 6 @ @ 0 ; X ; 8 @ 9 8 q @ O @ 0 q 0 6 ; X > 0 @ O ; ; ; q 0 6 @ @ @ @ @ @ @ @ @ O X X X O X X @ @ @ O @ @ @ @ @ @ @ : X   a , @ @ g g m J : ; > Q ~  .4 X > ; 3.0.x.I K 8 0 4 6 8 M W = m W F 3 O C O X X X ",
"0 @ 8 6 8 > ; ; 6 0 q 0 0 0 6 0 ~ _ x.a.l J ! ; |.; ; ; F o.> 0 G ) m g K _ @.K.w.=.=.; >.=.  oX@ m V j 8 X @ ; @ * : n B j 8 q ; ;   }.X N 0._ ] 0.m f N ! q c 6 lXUXhX  > 8 8 q 8 8 c c 8 8 8 8 8 6 6 8 9 z 8 8 j V V 8 ; 7 j j 6 6 6 ; z ! 6 1 : & u u 5 7 e @ @ X : X X @ O O X X X X X X @ @ @ @ ; ; @ @ @ @ @ * 6 8 6 > ^ J @ 6 W ~ D < 4 < 3 3 4 4 = q g 6.x.h.J M ~ D @ @ ; m @.N q C 1 @ @ O O O O X ",
"> 4 0 8 G 8 = ; 0 8 0 6 0 6 6 0 U ] S.p.= ~ 8 6 #.!.@ ; ! x * 6 F F q 8 ~ e.N.D.Z.r.> O 0X  @ }.H b.^ c 1 @ 1 1 6 0 F U  .G 0 0 x M   $X< I I F U l.@.^ F 1 ; ' q   O   8 6 0 0 0 8 q ! W q 0 z x z 8 0 q W G q c } r.Z.c 8 c _ Z.0 6 0 ; ) ` ) > v v B B B V n 8 @ 8 m 8 x ; ; @ ; ; 0 @ X @ @ @ @ @ 1 6 4 @ @ @ @ @ 1 1 1 < 1 4 1 X 6 q <   O @ X O X @ > q 8 U Y P 6 x Y 1 X X * k } U D < @ @ O X X X @ X ",
"6 6 J c z 0 6 ; g p ; 6 6 ; 6 0 ~ O.V.3.0 ' = 1 O ;Xt 8 ) h ; 6 ; z z b  .+.@.Z.L.z   !.,.@ 1   dXO ! ; @ X X @ ; > 8 q q 6 6 6 K   uX@ @ X ; b _ G F 3 1 ; _ q @ X * q 6 @ ; ; 6 8 8 q 0 6 6 b ` q 6 6 6 8 q z 8 G T T q 8 0 K T 0 6 6 > ) F U 0 F J U k.h.Q +.J @ 0 } D I 4 1 1 1 1 1 @ @ @ @ @ @ @ @ @ 1 @ @ @ @ @ @ @ @ X X @ @ X ; 8 < O X O O X X X ; 8 c G W 0 1 4 4 @ @ * s x D 4 < O X X @ @ @ O X X ",
"0 > G K q > 6 ' 9.f ; ; 6 6 6 0 ~ @.y.8.I x * 6 G   #X|.#.n n ( [ ( / / / #.c.L.s.u.;Xu.X * X 1 @ iX^.t t t n n [ n / L t t t t ,.0X: * > x b G 4 1 X @ @ N ~ 1 ; 6.7.l f k s = ; > : 8 6 1 ; c W 6 ; 6 ; > x M x x m x x z 0 6 6 6 6 6 ; ) ; 6 ; 1 6 1 1 c ..Y @ @ ; I 1 1 O @ O O O @ @ @ @ @ @ @ @ @ @ @ ; @ @ @ @ X X @ X X @ @ * > q < O X . O X @ n f z ^ ` K } 4 6 ; > g ; 8 c 4 1 O O X @ O @ @ @ X X ",
"0 c z 6 0 q ~ v.M k l p # 8 q c { D.p.s W > ; ; c b ; v `.^.^.^.~.!.!.!.^.[.[.,X XF.@ ; 8 h s * m = / !.^.^.^.[.^.Q.Q.Q.Q.Q.Q.!.%.  > b q 6 1 1 @ * @ X z ^ 6 8 z S.D.y.q.p.5.3.5.5.5.f s B V r e * @ ; ; g ) ^ z M 0.] ) N x 8 8 ; ; 6 ; ! 6 6 8 > ; @ 8 K I 0 @ ; @ 0 @ < X X O O X @ @ @ @ ; @ @ @ @ @ @ @ @ @ @ @ @ @ @ X @ @ @ = c W < X   , l = , 3.q.{ { T F F F 8 q q q D * z 4 @ @ O X O @ @ @ @ @ o ",
"q x 8 8 q F q z U r.5.5.V ; W ! { U.4.0 0.s ; 6 ) M b 0.=                 @ 1 +.l   ; 6 6 q M N X.z *   X                       = x q 0 1 @ X * ; ; ; 8 ~ q 6 > y.~ k.k.b.D.J.y.Z.D.Z.0.0.p.9.5.8.B j f j V d 9 - b ` ] _ ) ! 0 ; > > 6 ; b 8 > = g h g 6 0 6 ; 6 @ @ 6 6 X X @ X * * X @ @ @ @ ; * @ @ @ @ @ ; @ @ @ @ @ X X X X * s b W 1 X * * 6.} V 5.V.Y G K m q 0 z c 0 4 1 * 0 < @ @ @ X X @ @ @ ; ; : ",
"F b G G > 6 F q W k.V.7.l 0 G W l.J.8.U 0.* ; ^ e.b 0 =XOXXXXXXXXXOXOXOXOX;X;XqX;X#X!.  g ! ^ G 1 y OX;X#XOXOXOXXXXXXXXXoXOXOX;X#X;.O ; @ ; > 8 ; 8 6 W 0 0 8 N K.8 ~ W ..b.I.S.Z.Z.y.] ..S.U.Z.Z.0.6.7.9.9.5.4.8.8.-.V v z 8 8 ; 8 8 6 > ) z k 3.6.M b > 1 ; 6 1 ; ; @ ; @ X * X s g > @ @ * ; > h g * ; > s > > X X X * * * = = s m ) ^ 4 ; ; ; 0 I 5.a.b.` z M N U > z G 0 1 @ d 0 @ @ @ @ @ X @ X @ @ @ > ",
"0 8 G F ; ; 8 G q } v.@.f q G ^ S.a.B j.x > ' } G r iX9     X * = > > g 8 ^ c l.6.* %.iXz ) 1 O W.|.@ O O @ 6 g X     X ; @ F >   !.}.O ; 8 q 0 6 6 c 0 6 8 6 e.z.q x M W ~  .j.b.S.J.y.8.u.#.G.H.,.n.H.S.D.Z.J.J.a.p.9.9.3.x f k - 8 ; = N g N _ r.] _ x ; x 8 @ @ @ @ @ ; X s M ; b x z * x q > m m z > g m z q 6 @ @ ; ; ; ; 6 > ) ! K 4 * * * * * 5.S.x.r.+.c T F 0 K K q 6 X j c X @ @ @ @ @ @ X X @ @ f ",
"6 > 0 6 6 6 > 8 F q ~ c q z M { U.a.x ^ z W z 6   iXs 3.l M m ) ` W ~ G K K ^ S.p.5.m 7 1XO * / |.@ 6 1 6 1 F 0 ; > 8 F 0 6 J 6 ; X i.,.6 0 6 6 ; ! q ; ; 6 h K._ g ] O.c c c c G ..b.j.A.Z.y.Z.Z.e.0.r.@.+.j.x.S.S.I.U.U.V.b 6.9.5.l V 8.f.f.8.-.=.v K K ; K K ; * ; ; X @ @ * x.O 6 q q @ 1 Z @ q G 0 @ @ 7 : # ; X X * = = f 3.3.w.5.6.N 3.5.7.l l 0.k.K W U K 0 @ 6 0 0 q K Z * o.D X @ @ X X O X X X O s ",
"8 8 > - ; 6 0 8 6 0 G b W j.6.e.K.6._ M h ) h M !.C.e._ ^ 8 y 9 0 8 8 z z ^ _ S.J.q.m ; ).: X $X  ; @ @ ; @ @ @ 1 1 1 1 X 6 6 6 6 H O #XO 1 ; ; 8 ^ ; ; 6 6 e.K.~ X.x.~ W q c z z c W ( H.k.b.S.K.Z.+...{ ~ c } +.{ ~  . .U F ~ B.B.` e.Z.y.a.p.9.9.4.l g > ; 0 ; ; * > ; @ @ @ < @ @ ; # * X X * * j V d s k 4.3.3.h g g 6.7.7.q.y.Z.J.S.j.} N.l.T W V.T l 6.F 6 4 1 6 ; 6 1 4 0 6 4 Z ; 6 O   @ X X X O o = ",
"0 0 z g > , 5 1 > z G q K k.z.D.Z._ O.0.0._ ! 6 @X~ _ c z b z 8 c W W b c ~ e.T.K.r.8 8 =.i.O |.X ; @ @ @ @ @ @ @ @ @ @ @ * ; 1 4 4 @ }.# @ @ > ! 0 ; @ 0 ; D.z.F U K W ^ b G G c ! b ,.c.F G { I.x.] _ x l j 8 H : 6 c 6 > > 8 ~ J F U k.b.I.I.U.D.Z.y.k l h > = f V V * X X = j = * = B 3.l = = f 3.3.6.m s M m 8 q 0 8 G U I X.V.h.j.v.J 0 J Y 4 k r.I 6.V.g.1 @ @ 6 1 4 @ @ X 1 @ @ X 1 1 O O O O O O X s ",
"0 G W b b x - 0 F 8 z c 0 ~ j.b.r.] e.@.^ c c > #Xz _ q ~ { 8 c W q ~ W m w.U.S. .! ; ; &.i.  XX  @ @ X 1 X @ @ @ @ @ @ X ; ; @ @ @ @ ).# @ ; ' 0 6 ; ; ; 6.K.G 6 ! 0 G J K 8 q G ~ W G.} 0 q G F I U  .] p.7.3.X UX;X- V k h ; = j s s 8.8._ M _ 0.0.` 6.6.m f 3.5.5.9.6.= = k 3.m ; * x x 8 ; 1 6 @ 6 6 1 @ @ 1 1 6 0 6 c 0 ; l y.U m { F 0 1 1 @ 8 l.~ z h.P O X @ ; 0 1 @ @ @ @ @ O X O 1 X O O O   . o * ",
"0 0 K { ~ W > 0 6 q c z c ~ K ..{ j.O.b c b N N qX` ! 8 q q q G > ! N q.q.Z.l.b c z * @ &.i.  |.  @ @ @ X , X X O y O   ; @ 7 ; ; ; X '.# ; 8 0 0 ; ; ; > K.N.8 b +.6 8 ; 8 q 0 q W ^ D.~ 8 @ > h 8 8 0 U b.S.y.6.-X9.9.9.7.M m 7.9.9.7.p.a.a.a.q.a.q.k M N c > z c q W q ; ; 1 1 1 6 ; @ 1 1 1 ; ; ; @ 1 6 6 ; 6 ; ; 0 ; 6 G : 3.b.K 0.I Z @ @ @ > x ~ F 4 C O X X @ ; 1 1 @ * > @ @ @ X @ @ @ O O O   & l f ",
"8 q q 8 8 0 0 ; 6 G G G c x G ! W ^ ~ c ~ } } } <X8 8 c c q 8 q dXfXq.N.IXR W z q b s @ &.i.  XXO @ @ @ z = X :.UXNXUX^.O 8 ; 6 6 ; X '.# z 8 6 0 6 8 ; ` T.^ z e.[ |.'.^.F.@ 6 6 q ~ S.1 >.pX0X' b ' `.  1 [.A.j. XU.D.N.9XgX`.z.I.b.l.b.I.x.c. .j.{ 6 6 6 ; 6 6 6 6 6 ; 1 6 @ 1 6 1 1 @ ; ; 6 1 1 @ @ ; ; ; ; 6 6 ; 8 z 0 F d 7.k.0 O.I 1 @ ; ; ; q F 1 1 1 X X X @ 6 1 @ X s z 1 O @ @ @ @ O O O O   , 3.x ",
"q 8 q z > > ; 6 0 0 6 F ^ b ) ! ! ) ! c G K ~ b =X> W ! c c W q qXzXS.< LXr ! > x y.= @ &.,.  XXO @ @ @ J ;   ZX/     PX  K 6 @ ; @ @ ).: c 6 6 6 0 8 6 r.D.q W V.>.lXfXCXAX  ; 6 0 G j.# CXqXlXIXO O IXF.t UX@   IXn.C dXZX1XCXw J Z 4 0 0   UX# q 6 ; 1 1 1 1 @ ; ; ; ; @ @ @ @ @ @ @ @ 1 @ @ @ @ @ @ @ @ @ ; ; 6 6 > e.K 4 f a.h.> W D @ * ; ; 1 < 1 @ X @ X O X @ ; v @ X = G 3 O X O X @ O O O O O - 3.c ",
"c q c b x z > 6 ; ; 0 F ^ G ! G  .{ ~ c q q ^ ! =X8 W W c q M y.gXdX@   KX#.N 6.Z.G ; @ &.,.  XXO @ @ @ 1 @   HX/ @ + IX  1 1 ; ; @ @ '.v @ 6 6 6 6 6 6 Z...0 O.} ; @   UXy 8         K ; O 3 O UX9 ) H.HXxX#Xf   PX:.  LX/     8 6 ; ; ; n 9 UX/ / ; ; 6 1 @ @ @ @ @ ; @ @ @ @ @ @ @ @ @ @ @ @ @ @ @ @ @ @ @ ; ; ; ; 0 h.h.: l e.g.* q 1 > > 6 ; < O O O @ @ X ; @ @ 1 0 D O > 4 < X X O X < O O   O   * f 4 ",
"c q ~ ! x g s > ; ; 6 G q q 8 0 G q G W q G } W #XO c b B 6.J.z.qXiXX   KXQ +.x.G @ @ @ &.i.  XX  @ @ @ @ X   HX/ X + IX  @ ; @ @ @ X  X6 @ 6 6 ; ; @ ! U.q 8 N.0 0 X hXhXO   PXUXUXUX( O n yXpXUX9 U @ CXKX  }   PX:.  mXCX#X&.@ 6 ; ;   GXJXUXJXPX@ ; @ @ @ @ @ @ @ @ @ @ @ @ @ @ @ @ @ @ @ @ @ @ @ @ @ @ @ @ ; ; 6 0 0 0 = 5.z.D g q ; > 6 4 ; @ O X   @ @ O 1 1 @ 1 < < @ ; 4 O O O O X 1 *       . = = 1 ",
"r q ^ ^ b z h > ; ; 8 b z z ; 8 8 q G q q ~ ^ q OX; ! 6.a.T.l.1 ;XiX;   LX| J 0 > ; @ @ &.,.  XXO @ @ @ @ @   HX/ @ # IX  @ ; @ 1 * m  X# @ 6 ; @ 6 @ N.j.q ^ o.8 0 t UX  7 ;         ; *.UX'.,.UX7 1 O ZXPX@ W   PX>.0   $XjXUX( 6 0 6 8     UX    7 @ @ @ @ @ @ @ @ @ @ @ @ @ @ @ @ @ @ @ @ @ @ @ @ @ @ @ @ @ 6 6 q 6 8 ; s 9.v.1 g G @ 6 Z @ 1 @ O O O O O O O O @ @ @ O X ; < O X X O X 1 8 0 O   o = ; @ ",
"4.V t c b c x g g 8 W N x > 0 c 8 8 q z c K W c OX; 0.L.U.~ 8 * ;XuXX > LXt ; 8 ; @ @ @ &.,.  XXO @ @ @ @ @   HXr O   IX  @ @ ; X b Q ).# ; ; ; ; ; b S.F q ..c q   AX^.O X ; ; ; 6 6 @ #XlX    UX# X Q.NXhXyX1   PX:.7 X     bXXX@ 6 6 6 1   BXO   ; @ 1 @ @ @ @ @ @ @ @ @ @ @ @ @ @ @ @ @ @ @ @ @ @ @ @ @ @ ; ; ; F 0 6 6 s y.h.@ ; J @ < <   O O O O X   O O   X X @ O X ; 8 > g X O X X O @ 4 @ . o = 1 @ ",
"5.5.V $.z ! ! ! z q ^ ` z ; K 0 8 q G b z W ^ c =Xq.U.x.q 6 g 0.[ UXqXiXPX  6 ; ; @ @ @ &.,.  XX  @ @ @ @ X * $XZX(.bXjX  @ ; ; > ^ 1 ).# ; ; ; 6 ; y.@.0 q ~ G 6 ^.UX@XiXuX  @ 6 8 8 6 >.UX,.uXUX7   UX%.# UX: $ UX:.o uX}.!.UX/ ; 6 @   fXkX;XhXkX# @ @ @ @ @ @ @ @ @ @ @ @ @ @ @ @ @ @ @ @ @ @ @ @ @ @ @ @ @ ; ; 6 6 6 e k +.D = 4 6 ; O X O O   O O O     O X X @ @ @ X > 0 0 m 0 O O X X * ;   , s > 1 @ ",
"Z.9.5.5.2.n ! ! q W ~ ) 8 q q 8 c c W z N ! ! 0.eXl.F 8 = m X.X.e.[ $XOXO 7 ; ; ; @ @ @ &.,.  XX  @ @ @ X 6 v   ,.yX~.  # 6 z m ! 1 X '.# 6 6 6 6 x L.! q q q q 6 >.|.$X#X#XO ; 6 q 0 ;   ^.bX}.%.# / }.  X Q.i.j -Xv W F.hXlX>.X ; ; ;   XXOXOXXX$X@ @ @ @ @ @ @ ; @ @ @ @ @ @ @ @ @ @ @ @ @ @ @ @ @ @ @ @ @ @ 6 6 0 6 ; , 3. .4 ; 4 @ 4 @ - 1 O O O X O O     & - X X O X g 4 < 1 D @ @ @ ; s g @ j 3.g 1 @ ",
"b.S.a.9.5.8.2.V c c ^ b ; q > q W c c O.) M y.S.<XO ; h 0.N ] x.J 6 X @ ; ; 6 ; ; @ @ @ &.,.  XX  @ @ 1 X Z 4 X @ O X X ; 8 W K 6 ; @ '.# 6 6 8 ; y.T.8 z b q 0 6 6 1 6 1 @ 6 ; ; V ; 6 ; X   X o , X   h g O 0 j.T 1 D 1 O   @ ; ; @ @ ;   * c O X ; @ @ @ @ @ @ @ ; @ 1 @ @ @ @ @ @ @ @ @ @ @ @ @ @ @ @ @ @ ; 6 6 0 8 7 j q.h.= 8 4 1 < X 6 C   O   O X     X * 3.M O X , > 4 O @ O O @ @ @ > x 6 f 3.q 1 @ ",
"O.v.m.D.p.9.5.8.c _ 0.> 8 c c W z c +.` q.K.B.4 OX  N 0.] e.{ 4 6 ; 6 ; ; @ ; ; ; @ @ @ %.i.  XX  @ @ @ @ @ X @ @ @ * x z 0 0 6 @ 6 @ '.2 6 0 8 8 T.x.0 ' ` 0 6 ; 6 G 1 1 0 6 ; 6 B > > 6 g M : 8 q @ @ J D @ 1 D C @ @ 1 @ @ @ @ @ @ @ @ X 6 K 4 * ; @ 1 @ @ @ @ @ @ @ 1 1 @ @ @ @ @ @ @ @ @ @ @ @ @ @ @ @ @ @ 6 ; 0 8 r 8.r.g.g ~ 4 1 O X 1 < O O X O O     X 1 G k.4 X f 6.4 X @ X @ X X @ ; 8 1 s m 0 @ @ ",
"N ! l.v.I.K.9.7.e.0.h 8 W W q c W W ' J.U.l.8 ; `.' ` r.N.F 1 ; ; 6 ; ; @ @ @ ; ; @ @ @ F.n   oX  @ @ @ X @ @ @ X * b W 1 @ ; ; ; ; O @X  6 8 6 ` U.G q z.G 0 0 8 0 6 y , 1 1 0 0 l.0 q ; K  .4 4 1 @ @ @ @ @ @ @ X @ @ @ @ @ @ ; @ @ @ @ X ; q @ ; ; @ @ @ @ @ @ @ @ @ 1 1 @ @ @ @ @ @ @ @ @ @ @ @ @ ; @ @ @ ; 6 0 q W n 9.S.Z > J 4 @ X @ 1 O   O O O O       O O 3 4 X s ~ P + O X @ @ X X = ; 7 s ; 1 @ @ ",
"..) 0...v.I.B.y.p.7.M =.q 8 c b B u.K.x.~ x = x Q qX0...0 6 ; ; ; ; 6 @ X X ; ; * X @   yX  @ F.&.@ @ X @ @ X = > 6 0 1 @ @ ; ; @ ; t }.O 6 q = Z.B.q c X.z 8 8 0 6 6 ) c @ @ 1 0 J 6 0 ; Z Z 6 @ @ @ @ @ X @ @ @ @ X @ @ @ @ @ @ @ @ @ @ @ ; W @ ; ; @ @ 1 @ @ @ @ @ @ @ 1 @ 1 @ @ @ @ @ @ ; @ @ @ 6 6 ; ; 1 6 6 0 8 q B p.I.q h Z 1 @ X @ @ O X   X X X O O     X @ O @ ; 0 F * h X X @ X * k h j k 6 @ @ @ ",
"{ +.` c } @.j.v.Z.7.9.6.g W ) 6.a.D.{ q ) m _ _ e.E.[.  ; ; @ @ @ ; X o # X X # & X   yX7 # X   ;Xn   @ X X > y 5 @ @ X @ @ @ ; O : iX  : ; 6 M K.{ z e.} c c q 0 6 0 Y Z @ @ @ @ 6 6 ; ; 6 1 6 @ @ @ @ @ X X @ @ @ @ @ @ @ @ @ @ @ @ @ @ @ ; W @ ; ; @ @ 1 @ @ @ @ @ @ 1 1 @ 1 @ @ @ @ @ @ ; @ @ 6 6 6 6 6 ; 6 6 8 0 6 4.a.v.x ' 4 @ X X @ X X O O   X O   O     X X X @ @ 1 1 1 x K O X @ = 3.6.3.3.0 @ @ @ ",
"U ` M N ` M 6.+.b.b.Z.6.6.` y.L.D.! 8 c 0.] e.Z.e.x *.;X).^.^.^.^.^.`.(.^.^.!.`.!.).$X@ ; > ; ;   '.oX!.`.`.`.`.'.!.^.^.^.^.^.^.|.|.  b 8 8 z J.Z.W ~ l.K K G q 6 ; 6 6 * @ @ X a 6 0 6 ; 6 ; 1 @ @ X ; @ X X @ @ @ @ @ @ @ @ @ @ @ @ @ @ X * c @ ; ; 1 @ 1 @ @ @ @ @ @ 1 1 @ 1 @ @ @ @ @ @ @ @ @ 1 6 6 ; ; ; ; 6 8 8 * 5.J.h.x j.4 X X X @ X X O O   O O X O     X @ X @ ; < @ O O D 1 X @ * k ] 6.6.4 @ @ @ ",
"Y U N 0.r.{ ! ] ^ k.h.k.O.Z.U.l.K q z e.X.z.x.h.l.> 6   9 r r r r L L t e r L t t @   6 0 0 1 1 @ X   n L H R R t r r r r r r r O 1 F F 0 8 c T.+.q ~ J 6 q q 6 6 ; ; ; 1 ; ; X 2.@ ; 0 ; q 6 1 @ @ @ ; X X X @ @ @ @ X @ @ @ @ ; @ @ @ @ * h c @ @ ; 1 @ 1 @ @ @ @ @ @ @ 1 @ 1 @ @ @ @ @ @ @ @ @ @ 6 6 ; ; ; ; 6 8 > s 5.K.I q I @ X @ X X O X X X O O   X       X @ X > ; 1 O @ X O @ X @ X s N 6.) 3 @ @ @ ",
"6 I h.X.c ^  .K m M ) Y g.h.K 0 g b ..r.X.T 4 F J ; 6 ; @ 1 1 1 0 0 1 1 @ 1 4 1 @ @ @ @ 4 1 @ X * z 0 1 1 1 4 4 1 @ @ @ @ @ 6 ; ; 6 6 6 0 ; e.D.W q W 6 0 8 0 6 ; ; ; @ @ @ 0 - u.= 0 > ; ) c @ @ @ 1 1 @ @ @ X @ X @ X X @ @ @ 6 @ @ @ @ @ K c @ @ ; @ @ @ @ @ @ @ @ @ @ @ 1 @ @ @ @ @ @ @ @ @ @ 1 ; ; ; ; ; ; 8 8 z d 5.D.J z 4 X X @ ; X O   X X O O X   O     X X X s 0 @ @ O @ X @ X @ O * h 6.c 1 @ @ @ ",
"; c _ J I q z } l.! m m 0 F 6 h 0.^ V.O.0 > ; ; ; @ ; @ ; @ @ 1 6 @ @ @ @ @ @ ; @ X @ @ @ @ * m z 4 @ @ @ @ @ 6 ; @ @ @ @ ; ; ; ; ; ; 8 0 z K.r.c ) ! 6 8 q 6 6 ; ; ; 6 @ @ 6 { Z.N ; 8 0 k.F @ @ @ @ @ @ @ @ @ @ @ @ @ X @ @ @ 6 1 @ @ @ @ 0 c 6 @ @ @ @ @ @ @ @ @ @ @ @ 1 1 @ @ @ @ @ @ @ @ @ @ 6 ; ; ; ; 6 6 8 8 q B 9.I.K q 4 X X @ @ v X O O   O O X   O O   X O X ; 4 @ X O O @ X O O , f = g 0 1 X @ @ ",
"1 ! g ; G J U ` 0.o.~ ; f f c l.K j...1 8 h ; @ * @ ; ; ; @ @ 1 1 @ @ @ @ @ @ ; ; @ @ X * ; q 0 @ @ @ X @ @ @ 6 ; X @ @ @ ; ; 6 6 ; ; 8 6 ` T.^ c } 0 6 8 0 6 ; ; ; ; 6 @ @ @ { v.J > 8 6 Z 1 @ @ @ @ X X X @ @ @ @ @ @ X @ @ @ 1 @ @ @ @ @ 6 c 0 @ @ @ @ 1 1 1 @ @ @ @ @ @ @ @ @ @ @ @ @ @ @ @ @ @ ; ; @ 6 6 6 8 8 6 B a.b.q G 1 @ @ X X 4 D O   O   X   O         O X @ 4 @ * = * O X X   p l l k 6 @ @ @ @ ",
"G b ; 8 0 0 U j.~ b M Q ` 6.} ~ K ~ 6 6 q g @ * ; @ @ ; ; @ @ @ @ @ @ @ @ @ @ ; @ @ X d h @ 1 @ @ X X X @ @ @ 4 6 @ @ @ @ ; ; ; 6 ; 6 0 @ B.x.W c ~ 1 0 0 6 @ @ 1 6 @ @ @ @ @ K J ; c 8 ; @ X X @ @ X @ X X X X @ @ @ @ X @ @ @ @ @ @ @ @ @ 1 z 0 @ @ @ 1 1 1 @ @ @ @ @ @ @ @ @ @ @ @ @ @ @ @ @ @ @ @ @ ; 6 6 6 6 8 # 3.D.h.N J @ @ O O X   < O         O O O     O X = ; < @ @ ; w @ O O . j 3.0.M 0 @ @ @ @ ",
"` > 0 4 6 > G ! D U b } x.J ~ q G 8 1 6 c z * 1 ; X @ 1 ; @ @ > * @ @ @ @ @ @ X * * 8 G 1 X ; X @ @ X X X @ @ 1 0 ; @ @ ; x ; ; ; ; 1 6 6 S.~ b ' q ; 0 0 @ @ @ @ @ @ @ @ @ @ 0 6 6 0 8 ; 1 @ @ @ @ @ X @ ; > X X @ @ @ X @ @ @ @ @ @ @ @ @ ; v 0 @ @ @ @ 1 @ @ @ @ @ @ @ @ @ @ @ @ @ @ @ @ @ @ @ @ @ 1 @ @ 6 6 6 8 ; 5.S.Y x J O X X X       O       X X O O     O X s 8 O X O < 1 1 O   & f 6.+.N 4 @ @ @ @ ",
"q @ @ ; 0 4 G g 6 D Y I 1 1 6 0 c ; 1 Z F 8 ; @ @ X @ @ @ @ @ 6 * @ X @ @ @ @ s m 0 4 1 X ; ; @ @ @ @ X @ @ @ @ 4 ; @ X W ) ; 6 6 ; 6 ; _ N.b ` +.6 8 0 ; ; @ @ @ @ @ @ ; ; @ 6 8 6 0 8 > 1 X @ @ @ X X X 1 0 X X @ @ @ @ @ @ @ @ @ @ @ X @ 6 x 8 @ @ 1 @ @ @ @ 1 1 1 @ @ @ @ @ @ @ @ @ 1 1 1 1 1 1 @ @ @ @ 6 6 6 q 8 7.b.D q D X X X O     O       X X @ O O     O X g G < X @ O O O @ O & f M } c 4 @ @ @ @ ",
"6 * 1 1 & 5 q > X 5 2 @ @ @ 1 q 8 @ @ 1 4 6 @ @ ; ; ; X X @ 1 @ @ X @ @ X - 8 ^ q @ @ X @ F @ @ @ @ @ @ @ @ @ @ 1 6 ; @ Y F 0 > ; 6 ; > J.e.0.O.^ > 6 6 ; @ 6 @ @ @ @ 6 6 1 @ 6 6 ; 8 > 4.6 @ @ @ @ @ @ X @ 4 X X @ @ @ @ @ @ @ @ @ @ @ * a a v q @ ; 1 @ @ @ @ 1 1 1 @ @ @ @ @ @ @ @ @ 1 1 1 1 1 @ @ ; ; @ 6 6 6 0 g p.b.0 0 3 X X X O O O       O   O O O O     O X > Z < X X O O O O . , k ! ~ q 1 @ @ @ @ ",
"@ : # = j ; 8 g d a & @ # & 5 y # @ @ @ 1 ; @ @ 6 6 ; ; X X @ @ @ @ X X h z Z Z @ @ @ @ @ X @ @ @ @ @ @ @ @ @ @ 1 6 ; @ 1 6 0 8 6 8 ; e.K.@.] r.N z 8 ; ; X ; ; ; ; ; 1 1 @ @ 6 1 6 q G ..6 @ @ @ @ @ @ @ X * @ @ @ @ @ @ O X @ @ @ @ @ ; B V v c ; 1 1 @ @ @ @ 1 1 1 @ @ @ @ @ @ @ @ 1 1 1 1 1 @ @ @ 6 6 @ ; 6 8 0 f a.k.g q O X O O X O O   O O O O O O O         X ; 1 @ O @ O O O   o j 3.} b 8 1 @ @ @ @ ",
": p 0 ~ 0 6 c b M = ; ; = - v 1.u @ @ @ 6 ; @ @ 1 1 @ ; ; ; @ X O X d x q 1 1 @ X @ @ X @ @ @ @ @ X X @ @ @ @ X 1 6 * @ @ ; 8 8 8 8 6 K.V.} e.N.~ b z z * n @ 6 @ ; 6 1 @ @ @ ; ; 6 q q J @ @ X @ @ @ @ @ @ @ @ @ @ @ @ @ X   @ @ 6 @ @ 6 ^ ] O.c 8 @ 1 @ @ @ @ @ @ @ @ @ @ @ @ @ @ @ @ 1 @ 1 @ @ @ @ 6 6 ; 6 6 6 2 B y.h.g J < X O O O O O O O O   O O O   O       * ; < X @ @ - X X O , l 3.X.M > @ @ @ @ @ ",
"x 0 D 4 1 4 G I D 1 1 0 F ` 6.B 1.+ @ @ ; ; @ @ @ @ 1 1 6 ; ; * f m W 4 1 @ @ @ @ @ @ X @ @ @ @ @ @ @ @ @ @ X @ @ x ; ; ; 0 8 8 q 0 G U.X.} Z.W W J ~ q h 4.@ > ; ; ; ; @ @ @ ; ; 6 8 q z ; @ ; ; @ @ @ @ @ @ @ X @ @ @ @ ; X O @ 6 @ X 6 ~  ...! 6 @ @ @ @ @ @ @ @ @ @ @ @ @ 1 @ @ @ @ @ @ @ @ @ @ 6 6 ; ; 6 6 6 : 5.Z.J 8 D O X O O O X   X O   O O X O O     X X = 6 @ @ @ @ ; F O X = l 6.] 3.z O @ @ @ @ ",
"4 @ @ X ; 0 0 1 @ ; 1 4 D k.+.l 1.u @ @ 6 ; @ @ @ @ @ 1 6 6 6 z b F 1 X X @ @ @ @ @ @ X X X @ @ @ @ @ @ @ @ @ * 5 K ; ; ; 0 6 8 8 ; 0.B.^ O.@.9 N q 0 1 T ~ ; q 1 @ ; ; ; @ @ @ 6 6 q c c 6 @ 8 ; @ @ @ @ @ @ @ @ @ @ @ @ 1 @ O @ 1   @ 0 K J G W 6 @ @ 1 @ 1 1 1 @ 1 1 @ @ @ 1 @ @ 1 @ 1 1 @ @ @ 1 6 6 6 6 6 6 8 - 7.S.F 6 1 X @ X O O O   O O O O O O O O O o @ X s 4 O O O O O C < o = 3.0.` 3.q @ @ @ @ @ ",
"@ @ @ 1 ; 1 ; ; @ @ @ @ 0 T g.M V u @ @ 6 ; @ @ 9   ,./ z 6 7 F.7 @   7   X @ @ @ @ o e r @ @ @ @ o @ # : # t n M 3 : X 9 O [ :.; z J.+.! @.qXJX1   @X( Z Z 6 0 @ 1 6 ; ; X e i.  8 8 v =.  ; 0 @ @ 7 r e ;   >.*.@ r # r @ e ,.O n UX/ 0 F 0 > q ; @ @ 1 @ 1 1 1 1 1 @ @ @ @ 1 @ 1 1 1 @ @ @ @ @ 1 1 ; 1 ; 6 ; 0 V q.b.q * 1 o $ % % . O   X   X X X X X X O X @ * d 4 O O X O @   & p , l X.~ m 0 @ @ @ @ @ ",
"; @ @ 4 @ 1 8 @ @ @ @ @ G @ P j.f # @ 1 @ ; @ @   NXfXbX0 :.IXpX_.  ~.UX&.  $X;XO   ZXlXBXt X X oXpX  UX  PXhXVXO PX  yX#X0XNXlX>.e.D.^ ! F IX  6 0XyX7 @ O X 6 X @ O 6 @ ,.KX0XUX# F.UXxXxX  #XuX# UXhXjX  CXfXhX,.MXUXjXt PXpX#X@ / MXX q q z 8 ; ; @ 1 @ @ @ 1 1 1 1 @ @ @ @ @ 1 1 1 @ @ @ @ @ @ ; 6 6 ; 0 n ; B a.v.m z 5 u 1.1.i o X X X X X @ @ X ; @ @ O O @ c 4 O O   O O + & j j m { 0 g 4 @ @ @ @ @ ",
"; @ @ @ @ 4 > @ @ X 1 6 6 X D Y 6 o & @ 6 ; @ @ O PX  O O hXi.  O   MX.XiX  @X#XO   HX#   @ @   }.#XjX,.  IX  O   AX7 LX  IX  ; g K.l.! ] @ IXO @ KXkX@ ).CX'.  F.(.0XO O bX%.  0X`.H.xX= IXX OX0X: HX    @ JX    O 7 AX  kX:.  O J / VX@ 0 0 M q ; ; @ 1 @ 1 @ @ @ @ @ @ @ @ @ @ @ 1 1 6 @ @ @ @ 6 6 ; 6 ; 6 6.) 3.J.k.m X.= - f l l x ; @ @ @ O @ O O @ 1 O O O * 0 < O   + %   X * z M ) I 6 ; 1 @ @ @ @ @ ",
"; @ @ @ 1 0 ; @ @ @ 1 8 @ @ 1 Z 6 = i 2 6 @ @ @   PX$X%.  jXF.X @   UX  HX  @X#X    CX}.@XO @ O }.pXAX    PX(.|.  ~.1XMX  MXjXF.m K.X.! N.  UXO O lX,.: KX  KX# pXiX@ 6 O bX,.X pX|.H.GX=XAX  OX0X: PX).!.o KX  @ @ r AX  }.AX/.  9 n AXX r 7 _ 6 ; 6 @ @ @ 1 @ @ @ @ ; @ 1 @ @ @ @ 1 1 1 @ @ @ @ 6 6 ; ; 8 z ~ k.6.K...M  .8 0 K U h.g.D @ O @ X X X O O < O O   s ; + &   o , * X * x 0.} D > = 1 @ @ @ @ @ ",
"; @ @ @ @ 1 > X @ @ q > @ @ @ @ 4 f i u @ ; @ @ 6 X ).PX/ jXF.@ @ # KX  UX  @X#X    CX_.}.O @ O }.pXAX    KX^.'.X   UX&.8   ^.MXeXe._ ` o.  IX  O lX,.e CX  AXr fXF.; 6 O MX>.@ pX|.H.GXE.ZX@ OX0X: PX^.F.@ KX  ; @ r AX    ,.uXAX  / DX> n g O.6 6 ; ; 1 1 1 1 @ @ @ @ @ @ @ @ @ @ @ 1 1 1 1 1 @ ; 6 ; ; 8 W { H 6.S.T O.Y Z 4 Z C S 3 O O O O O @ @ O O + . . . - e & - = X ; q 4 X c 6.} 4 d > 1 @ @ @ @ @ ",
"@ @ @ X g 0 z ; 6 6 q @ @ @ ; 1 D ! j i ; ; @ @ 6     }.oXhX:.O   F.AXhXPXt #X|.    HX@   X ; X }.@XjX,.  IX    ;   AX@ 8 * > ' GX` ` @.W   IXO X lX,.t CX  ZXe fXF.6 6 O bX&.@ 0X`.P.nXq MX=.}.yX7 HX    @ KX    @ r DX        UX  / ZXq ! ! ~ @ 6 ; 1 @ 1 1 1 1 @ @ @ @ @ 1 @ @ @ @ @ @ @ @ @ 6 6 6 ; 6 6 D U V 7.v.K +.D < O O   O O         O < < @ O   % % X X 6 6 z q 1 O C Z > h ! U 4 s 6 @ @ @ @ @ @ ",
"@ @ @ c M z > ; 1 q ; @ @ ; 1 @ P  .k a @ @ @ @   NXyXUX7 >.IXiX}.lX,.  oXuX}.KXNX%.ZXlXBX,.X X #XfX@ UX  PXkXCX/   PX7 X fXaXKX*XO.^ +.! O IX  X mXF.  KXXXPX  jXQ.0 6 ; F.PX0XUX8 P.UXbXJX  CX^.7 UXkXMX  ZXfXxX# y JX  ).lXlXhX  &.nXY K ^ Q @ ; 6 1 @ 1 1 1 @ @ @ @ @ @ 1 @ @ @ @ @ @ @ @ ; 6 6 6 6 6 6 ; 4 V p.k.> ~ Z X X X @ O & i + o +   O O X X   X = = * 1 1 Z S C O X * f 3.` D 6 s 6 @ @ @ @ @ @ ",
"@ @ Z Y 1 q > @ 1 8 X @ 4 4 @ @ Z g.c - , @ @ @ 6 # ,.@ 9 > 7 ,.# @ O X   9 X 7 e @   e r @ ; ; @ @ ; : 7 # y t 6 8 ; 0 c ; H.L.z.X.X.^ { 0 #XJXX # ; 7   F.X 8 # 6 0 6 6 @ t i.@ ' y.K.t.M X.;.X 6 7 t y q   :./ @ @ # 6   $.&.  ( UX;.Z r ! ~ @ 6 1 @ ; 1 1 1 1 @ @ @ @ 1 @ 1 @ @ ; ; @ @ @ @ 6 6 6 6 6 8 0 > 3.J.k.z F 4 @ X X X X X j - * * X O   O O O   4 Z 4 3 < < < O X X * k 6.} Z * f 6 @ @ @ @ @ @ ",
"@ @ 1 1 4 8 ; @ 0 @ @ @ 1 @ @ @ 1 P F - p O @ @ ; ; ; ; 8 b X @ @ @ X X 1 6 @ X X @ @ @ @ @ @ ; ; ; ; ; ; 0 0 ; 6 ; 8 8 N c y.K.@.` o.~ K q X 7 8 0 ; 6 0 F 0 6 6 6 0 6 6 8 q q ! ` Z.T.e.Z.^ 8 0 6 ; 0 0 8 6 ; ; > @ 1 @ ; @ ; ; B N n ; V x q ; 6 1 6 ; 1 1 1 @ @ @ 1 1 1 1 1 @ 6 ; ; @ @ @ @ 6 6 6 6 0 6 0 9 4.U.h.M K ; @ @ @ X @ @ 8 ~ 4 1 1 O O O O O O O 1 @ O   O O   X * = l ] U Z = f 1 @ @ @ @ @ @ ",
"@ @ @ @ 4 8 @ @ 6 @ @ @ @ @ @ @ @ 4 D g * @ @ 1 6 ; 6 6 ! c @ @ @ @ X X 1 @ @ @ @ @ @ @ @ @ @ ; ; ; ; ; ; 8 8 ; ; ; ; W ! ! K.Z.` X.~ q 8 8 q 8 8 6 ; 0 0 0 6 ; ; 6 6 6 6 8 q q ! X.K.T.r.S.~ 8 8 6 ; 0 6 8 > ; 1 h f @ ; ; ; 8 8 0.J.] q M ) 6 6 6 1 @ 6 6 ; 6 @ @ @ @ 1 1 1 @ 6 6 @ @ @ ; 6 ; 6 6 6 6 8 8 0 j 7.S.K 0.J ; @ @ @ @ @ X @ P D < O O   O         * > O O O     X = f M } J 1 = s 1 @ @ @ @ @ @ ",
"* @ @ @ 4 ; @ 0 @ @ @ @ @ @ @ @ @ 1 P 0 * @ @ 1 1 6 6 6 ] > @ @ @ X @ X X @ @ @ @ X @ @ @ @ ; ; 6 ; ; 6 6 8 8 ; ; > 8 ~ G e.T.+.^ X.q 8 8 8 8 8 8 6 6 6 6 6 6 6 6 6 6 6 6 8 c q ! O.K.T.O.V.G 8 n ; 0 6 6 8 8 ; @ W W ; ; ; ; 6 8 r.K.r.G ` { 6 ; 6 6 @ ; 6 6 6 6 6 1 @ ; 1 @ @ 6 6 @ 6 6 6 6 6 6 6 6 6 8 G 0 j p.b.W X.D 1 @ @ @ @ @ X X @ O     O   O         * ; O   O O X * s l _  .Z @ s s 1 @ @ @ @ @ @ ",
"> ; X @ 1 ; 6 7 X @ @ @ @ @ @ @ @ @ 4 1 ; @ @ 1 1 ; 6 K ) ; @ @ @ X @ @ X X @ @ @ X @ @ @ ; ; ; ; ; 6 6 6 8 8 > 8 8 q t n J.D.^ ^ X.z 8 8 z N 8 8 8 6 6 6 6 6 6 6 6 0 6 8 c c 8 ! r.T.T.O.Z.v z 6.= 8 8 0 0 0 ; ; Z 4 > ; ; ; 0 q r.T.G.q } { ; 6 6 6 1 1 6 6 6 1 6 6 ; ; ; 1 @ 6 @ 6 6 6 6 6 6 ; 6 6 6 0 W 0 d y.b.8 } Z @ @ ; @ O X @ X O O   O   O O     O   X 1 O O O X X s k l ^ J 1 + s z @ @ @ @ @ @ @ ",
"> = ; @ 1 ; 8 X O @ @ @ @ @ @ @ @ X @ 1 @ @ @ 1 1 6 6 U c ; @ @ X @ @ X X @ @ @ @ X @ @ ; ; ; ; ; ; 6 8 6 8 8 8 8 > v 8.q.T.G.b O.^ c 8 q q ` > q 8 6 6 6 8 6 8 6 8 0 8 8 W c c ^ e.T.K.O.Z.0.W x.8 q z 6 6 6 6 ; 6 ; 0 6 0 0 0 0 @.D.J.M W ~ 6 6 6 6 6 6 6 6 6 1 6 6 6 6 6 1 @ 1 1 6 6 6 6 6 1 6 6 ; 8 8 8 G l Z.h.x U 4 @ @ @ @ O @ X   -   O O X O O O O O   X < O O O X * h 3._ ~ F @ : f > 1 @ @ @ @ @ @ ",
"0 8 * X ; m > X O @ @ @ @ @ @ @ @ X @ 1 @ @ @ @ 1 6 6 ~ > ; @ @ @ @ X X X @ @ ; ; @ ; @ = = ; ; ; ; 6 6 8 q z x g m 7.p.S.K.a.M r.W c z q K U 8 8 8 0 6 8 8 8 6 8 8 6 8 8 G c c ! e.K.K.e.D...K T 0 q q 6 ; > > 6 6 ; 4 6 6 6 0 z X.S.T.y.z W 6 6 6 6 6 6 6 6 6 1 6 6 1 6 6 1 1 @ @ ; ; 6 6 6 6 6 ; c 8 8 c ^ 3.D.h.b I @ X O @ @ O O X   f l   O O     O   O X ; < O   X X * g N .. .q @ * 3.> 1 @ @ @ @ @ @ ",
"6 ; ; ; ! M X O O @ @ @ @ @ @ @ @ 6 1 1 ; X * & ; 6 0 c ; @ @ @ @ @ @ X @ @ @ ; @ @ ; ; 6 g ; ; ; > 8 8 8 q x d 8.q.K.S.x.T.y.y.O.c c z 8 0 8 8 8 8 6 6 8 8 8 6 8 8 6 8 8 q q b ` Z.K.K.y.B.U q 0 q 0 0 6 6 8 6 6 6 6 6 6 ; 6 ; 6.] z.S.J.m W 6 6 6 6 6 6 6 6 6 1 @ 1 1 1 ; @ @ 1 @ ; ; 6 6 6 6 6 > ~ q c n h q.S.{ W Z @ @ O X O O O O O   l.3   O O       O X @ O     X * g z K I J 0 1 X l 8 @ @ @ @ @ @ @ ",
"; ; 8 0 ^ * X X @ @ @ @ @ @ @ @ 1 @ @ @ ; @ - @ 1 6 6 - >.,.,.,.<.,.,.,.,.,.,.,.,.%.  6 F q ; ; 8 X 9 i.F.G.!.].P.*XY.H.E.E.E. X[ @ W z 8 8 8 0 8 8 6 6 c 8 8 0 8 8 8 8 8 c q ! ` J.K.K.Z.N.z 8 q 8 6 ; 6 0 0 0 ; 8 ; ; 6 ; ; 6 @.O.@.V.D.q.q 6 6 6 6 6 6 6 6 6 1 @ 1 1 6 6 ; @ 1 @ ; ; 6 6 6 6 6 8 ~ G L i.6.x.v.X.c 4 X X X X X O O   X O C C     O O   O     X O   o = s k b K F 0 6 O X s 4 1 @ @ @ @ @ @ ",
"@ 1 @ J Z X X @ O @ @ @ @ @ @ @ 1 @ @ 1 @ 6 > ; 6 O `.OX:.=.&.&.&.&.&.&.&.&.=.=.=.i.0X&.@ 6 ; 8 X ;X}.u.C.F.d.L.E.Y.t.G.G.Y.E.P.'.uX6 c 8 8 8 8 8 8 6 8 W 8 8 8 q q 8 8 q c c ! ] K.T.K.D.r.c q q 8 0 6 6 0 6 6 6 0 ; 1 ; ; 6 6 { ..O.V.x.J.c 0 8 6 6 6 6 6 6 6 1 1 6 @ 6 6 ; ; 6 6 6 6 6 6 ; > 8 W ! K -.9.a.l.{ _ ) 1 @ X X X X   O O O   O O O O X         X O O X s 3.l m ! W z z 6 @ - s 1 @ @ @ @ @ @ @ ",
"X @ 6 1 1 @ @ @ @ @ @ @ @ @ @ @ @ @ 1 1 ; Z 6 @ O XX>.* ; ; * X @ X X @ X @ @ ; ; ;   XX( 6 z X pX@ c W w.p.K.I.U b N @.0.r.U.s.-.  aX; 8 8 8 8 z 8 6 q K q 8 8 8 q 8 8 q c c ! O.K.T.K.Z.@.W q 8 8 0 0 6 6 ; ; 6 0 @ 6 @ @ ; ; G K O.B. .D.0.; 6 6 6 6 6 6 6 6 6 6 6 6 6 6 6 ; 6 6 8 0 6 > z c c K ~ H 5.p.S.k.N 0.j.1 @ @ X X X X X X X         X @ O O     X O O X * M O.` ^ N M M x ; d f @ @ @ @ @ @ @ @ ",
"* > @ O @ @ @ O @ @ @ @ 1 @ @ @ @ @ 1 6 ; 1 1 @ / [.G > ; @ ; X X @ @ @ @ @ @ ; ; ; ;   0XO q |.( b ( 6.a.D.b.~ x M X.@.y.@.U.J.u.x ; #X; 8 8 q W 8 8 q G q 8 8 8 0 q q q c q W O.K.T.K.S.+.G 0 8 6 8 6 6 6 ; ; 6 6 ; ; ; 6 ; ; c c O.+.K z.a.s 0 6 6 6 6 6 6 6 6 6 6 6 6 6 6 6 6 ; c 8 z b W G J G $.B 5.K.b.{ M r.k.4 X @ X @ @ O X = * X     X X @ O O O O X O   X * q h.K K N M 6._ > k h 1 @ @ @ @ @ @ @ ",
"z X O O @ @ @ X O @ @ @ @ X ; @ @ @ @ q 1 X 1 @ }.1 c ; - : @ @ @ @ @ X X @ @ ; ; ; ; 6 F.>.@ #X* 8.4.a.I.k.~ m 0.] V.l.B.0.S.K.d.v 8 OX; 8 8 8 K 8 > 0 6 8 0 8 8 0 8 8 8 q q W r.K.U.D.V.} q z x 0 8 0 ; 6 6 6 6 6 ; ; > 6 ; 6 c z X.O.W ^ T.N 6 6 6 6 6 6 6 6 6 6 6 6 6 6 6 6 6 6 ~ J G ~ K Z 4 - u.5.y.S.x.^ G k.T 1 :   X O O X X X @ * X   * X O O O   O X O   * = > 0 F q W ! X.} F s h 1 @ @ @ @ @ @ @ ",
"; O X O @ @ ; X @ @ @ O @ ; ; @ @ @ 6 8 @ @ @ O |.X b = 4.= @ @ X @ * > * @ ; ; ; ; > 8 &.F.  $X8.7.Z.v.T b 6.O.l.r.+.U z.0.B.T.s.=.z  X9 z 8 8 8 8 6 6 6 0 8 8 8 8 0 0 0 q q W r.K.D.D.B.( 6 c ! ; 0 6 ; ; ; 6 6 1 ; ; 8 6 ; ; q 0 _ e.b ~ b.z.6 6 6 6 6 ; ; ; ; ; 6 6 ; 6 6 0 6 0 I D Z D 4 ; f l 5.p.b.b.h.Y F U F 6 d f   & X O X O 8 X 1 O   @ O O         O * = 8 q q g z c W ~ J Z = 6 @ @ @ @ @ @ @ @ ",
"O X O O @ @ ; X @ @ @ @ O 1 @ @ @ @ 6 ; @ @ @ O |.> > ` l * @ @ @ ; ; 6 * @ ; ; ; ; 8 8 =.F.V ;X7.D.l.K x 0.0.+.+.j.K W l.y.N.U.a.w.z |.7 c 8 8 8 8 8 6 6 6 8 8 q 8 O 8 z 8 q W e.K.K.Z.V.M > K { > ; ; 6 6 6 6 ; ; @ 6 0 6 6 6 8 0 ) z.] c D x.q   @ 6 6 6 6 6 6 6 6 6 6 6 6 6 0 0 Z 1 @ > > f l 6.p.U.h.Z { Z O c 8 8 > N   d * O     * @ < O   O O O       X O o ; G F q x c G W W q 1 = ; @ @ @ @ @ @ @ @ ",
"X O O O O @ ; X O O X @ @ @ @ @ @ @ 6 ; X @ @ O XXg r h.; @ @ @ @ ; 6 6 ; ; ; ; ; ; > g =.`.5.9XS.j.z m 0.@.@.} T U 8 c j.Z.e.I.K.w.z  X9 c 8 8 8 8 8 8 > 6 8 0 q : UXO m q q X VXIXr.Z.Z.0.z q c 8 8 > 6 6 1 ; 1 ; ; 1 1 6 6 6 6 6 Q ..@.c 1  .= BX/ 1 6 6 6 6 6 6 0 0 6 6 1 1 1 1 ; X s k f h ^ y.Z.b.dXbX1 9 UXX 0 c > Y 1 X q O     < S O       O   O     O O X 6 F F 0 K T J G G 0 1 = ; @ @ @ @ @ @ @ @ ",
"* O X X @ 1 @ @ X O X @ X ; @ @ @ @ 6 * @ @ @ X @X> r A 1 X @ @ @ ; X X ; ; ; ; ; 8 > V d.&XZ.qXJ g M ` } @...U 8 q 8 q U S.y.b.T.d.V `.7 q 8 8 6 6 q 8 ; 6 6 0 0 7 UXO 6 y 8 c L.E.S.Z.N.I @ ; G 8 q @ O O @ @ @ ; X   O 6 ; @ 0 @ q K ..W ; F C.PX  6 6 6 0 @ O @ 6 q 1 1 O O 1     d k m ~ J 0 y.b.h.qXxXO 9 UXX > 0 ; O O O D O X O   < O     X X O       O X * 6 F 0 0 J D F 0 K F 1 * 1 @ @ @ @ @ @ @ O ",
"X O X # O @ @ X X @ O O X ; X @ @ 1 1 X @ @ @ X @Xg d 5 1 @ @ @ ;   BX'.X ; 6 ; > > j 4.L.,XY @Xh 0.X.@.} h.G 8 q q q 8 K S.y.z.U.a.8.`.7 q 8 8 8 0 G 0 6 6 8 6 0 6 UXn.dX].X b E.E.Z.x.c.jXjX}.0 F 1 Q.lXpX,.@ ;   $XlX#X  @ F.  #XOX6 K ~ ; O vX;X@ 6 6 0   |.jX#X6 @ F.7 kXiX  fXjX7 W U c.dXxXY.P D qXxX< 7 UXX c   0XlX.X  O Q.  $X!.      O O O O O     O   ; 0 0 0 0 0 0 0 8 0 H 1 ; 1 @ @ @ @ @ @ @ O ",
"X @ > > O O @ * X @ X O @ X @ @ ; 1 ; @ @ @ @ @ 1X6 g & # @ X :     MXQ.    : g > k 9.J.Y.Y.X -X6.} } } I G q 6 6 ; 6 ; G x.y.@.S.J.8.'.7 q 8 8 8 8 F 6 ; 6 6 8 6 1 UXlX|.UX&.! eXVXy.W UX}.!.IX{.1 n.IXF.oXUXo   jXMX,.AXuX  pXIXhX>.8 0 ~ 8   UXK ; 6 6 @ ;XHX).kX( O lXLX,.MXUX/.iXKXO O hXOX XUX;.O 0XvXO 2 UXO @ vXxX,.JX$X  jXIXhX$.  X     O O O     X O   ; 0 6 4 0 4 4 0 q 6 4 1 ; @ @ @ @ @ @ @ @ @ ",
"@ 4 G * X O @ @ X X X O @ @ @ @ @ @ ; X @ @ @ 1 #X3 g , i X X   DXBXIXGXZXjXX g l p.D.v.c.F.* ;X~ { T K q q @ |.@XOX#X#X6  .V.0.S.K.w.+X7 c z 8 8 8 0 ; > 6 8 8 ; # UXO @ nX#Xb eXnXZ.G.PX    JX^.O pXpX  7 UX*   PXy   ^.BX  uXfX  6 q 0 Z Z (.vXZ q 1 1   AXF.O   < O lX$XX !.CX  7 UX  i X * < ZX^.  0XvX  # UX    UX7 O }.lX  hX0X    O O O O           X O * = 6 1 4 4 4 3 4 0 0 4 1 ; @ @ @ @ @ @ @ @ @ ",
"@ S 3 @ O @ @ @ @ X @ X @ X @ @ @ 1 > * X @ @ 1 OX< q j a o @ @ }.Q.GXuX^.F.s 5.q.b.h.8 u.H.0 <XG G F 8 z q O kXlXlXlXlXX ~ S.q.B.T.q.:X: z z z 8 8 > > 8 8 8 8 z > UX- 0 nX0X_ eXnXZ.P.PXX   KX~.  fXfX  7 UX<   PXQ.,.KX$X  uXhX  6 c 0 @ O KX%.4 Q 6 @ O pXLXiXF.    lX0X  }.ZX  r UX  V 4.pXvXIXQ.  0XlX  # UX    IXF.F.PX{.  hXuX        O O           X   * > 6 1 4 1 1 @ @ 1 1 9 * @ @ @ @ @ @ @ @ @ @ ",
"= ; * X @ X @ ; * X X X ; X @ @ ; ; 8 * @ @ ; 6 OXO K l - o @ 6 @   BX/.& h 7.y.k.I > h u.P.8 @X4 6 6 q z 8 q X O O @ @ W W B.y.N.T.a.-Xh 6.N x z z g 8 8 8 8 8 8 9 UX; 4 nX0Xe.eXnXV.P.PXX X KX!.  fXfX  7 UX@   LXlXhXF.  O uXhX  6 c 6 @ t UX  > } z @ 1   /.yXUX!.X lX0X< {.ZX  e UX  3.UX#X( HX!.  0XlX  # UX    IXjXfX,.    hXuX  O O     O         X X O   ; F 1 1 1 @ O @ @ ; f f @ 1 @ @ @ @ @ @ @ @ ",
"= * * * = = = ; s s = ; ; @ @ ; > 0 ; X X @ 6 8 XXO Y c = & @ ; ;   hX].8.7.S.h.6 s 3.} G.P.3 @XX 6 0 0 0 ; 0 6 6 0 q q W W b.Z.N.U.K.=X6.6.6.N N N x z 8 8 8 $.6 A UX@ 1 bX#XV.eXnXB.A.PX    KX`.s uXpX  : UX    PXe     O O uXhX  6 c 1 O hX0X- s K ^ @ @   X   iXpX  lX0XO {.ZX  r UX* s.UXO O ZX~.O 0XlX  # UX    IX#         hXuX      $ % % % % .     @   * @ 4 1 1 1 O @ X O X s h @ 1 @ 1 @ @ @ @ @ @ ",
"1 1 X + 1 6 ; 0 z s s g * * ; 0 > 8 > ; @ ; 8 z |.  J F s , ; 8 > - , 5.p.b.Y 6 f 6.! G C.Y.  XXX 6 6 6 6 6 ; : 6 6 q q G W k.S.e.S.K.=Xe.} X._ _ N x g z z 8 v g 9 UX$X|.UX/ V.eXVX@.] JXZXKXUX`.m n UXMXIXUX    hXMX).jX).  fXlX  @ c @   UX@ x 4 3 { h X yXuX'.UX:.O mXiX  .XHX  y UXs ..UX1X$XUX(.  iXmX  : UXO   lXlX_.lXQ.  lXpX  O . u u & o * * X   O O X 1 < O O O O O O O O * 6 1 1 @ @ @ @ @ @ O @ ",
"O O > > @ 1 1 4 Z 4 4 ; ; @ 1 0 > z h > ; ; W m XX  ; F z = 9 6 - 4.9.K.x.K = k ` T G U c.i.  |.X 6 0 6 ; > 6.> ; 6 0 0 G c { b.e.S.K.9Xt.~ U ^ @.^ ) z z 8 z M m l u.uXhXu.z Z.R.E.B.J.= u.: VX[.Y 0 > u.X UXo @   XXfX).  X &.:.O @ c ; 9 Q.< { x O D q.k ( 0XhX:.O O :./   t i.O , `.) h.R sX;X@ ( O / :.O 4 ~.  @   +XfX/.    -.$.      X s s = * ; X X O O O < O O O O O O O   X * @ @ @ @ @ @ @ @ @ @ @ ",
"  * 4.* O 1 @ < 1 6 4 1 @ @ @ 4 0 q z ; ; 1 } h XXO ; 0 0 > a j 3.p.U.k.x k m ^ Y 0 0 0 =.i.  XX  ; 6 6 8 z 0.* ; ; 6 8 c c ~ x.e.B.D.9Xw.v G U ..! _ N b q W ..b ) N k M _ M D.S.+.l.D.P.8 @ UXH.F F n.1 =.UX* = *     X @ @ @ X @ @ H 8 @ 3 4 0 0.X < r.q.Z C O @ @ @ @ X X ; ; = 3.3.l.{ @ X 6 C O . O   + < O X X @       X X X X   O   X 6 Z D C C < ; O     O O O O O O O O   * * @ @ @ @ @ @ @ @ @ @ @ ",
"O D 1 O O @ @ O @ * @ @ @ @ @ 1 1 G z ; 1 4 T N i.:.; 6 8 > V 5.J.m.h.K M 6.X.K 0 6 6 @ OX@ X OXO ; ; ; F I Y ; ; ; 6 q K G W  .V.+.z.eXq.' g W { { ` _ N x ` { ) ` _ 0.z.U O.S.z.O.l.l.gXPXIXkXX > ; BXIXPX X8 = = * * X @ @ X ; @ @ F 8 g ; X 1 ..; X ~ L.8 @ @ X @ @ @ 1 @ ; 6 f 5.0.+.W 1 0 D < $ % o . & o X X X X O   O O O @ 1 O O   O 3 S C < O O @ O O     O O   O O O   X * ; @ @ @ @ @ @ @ @ @ @ @ ",
"@ S O   O O O O 1 > ; ; @ X @ @ 1 G z @ ; 6 I b   yX  ; e l 7.V.v.H > N O.+.! g 0 ; @ / |.@ ; # ;X  > > q F 8 6 ; 6 6 0 G q c { N.q 9XE.J.w.8 W ~ ~ U { ^ N 6.6.N ! O.z.T K N.k.@.y.] x.0.    < { 8 z =     J I F q s k f * : # @ @ @ 4 4 8 s ; @ D c @ 3 S.6.X @ ; @ X @ @ @ X 7 l q.v.~ Y X 4 3 O X = = * * ; * X X X O O O O O O < O O O     O         X O       O O O O O O   o * @ @ @ @ @ @ @ @ @ @ @ @ ",
"X O O O O O O O < ; ; > X X @ @ 1 ! g @ 6 6 J c 8 X uXu.3.e.k.C X = X W ! 8 ; X   @ !.@X  ; 6 @ / 0Xn X * * X               O 1 | ;XE.D.J.6.z W W W K K ~ @.0.0.] X.@.h.J c N.K @.Z.] } J.z 0 F K F K K 8 q c q H q b N h f k f ; @ @ @ 1 4 q = ; 1 W ; X ..a.= @ ; @ X X * * @ f l x.j.J W ; < @   X > ; @ X 1 1 @ O O O O O O O O O O O   O             X O         O O O O O   * * @ @ @ @ @ @ @ @ @ @ @ @ ",
"X     O O O   O < 6 6 > X @ @ > q ! ; 1 0 6 0 q z > = %XqX<X@X|.-X-X=X;XqX#XOX|.OX'.n   ; ; ; @ @ O ^.OXOX#XOXOXOX|.|.|.|.XXXX@X X! l.D.K.q.x W q W x c ~ @.l.z.X.0...G c c +.G j.D.e.~ D.x 6 0 q 0 F K F q b h l 6.) } ^ m 3.3.f * ; : X 1 4 0 > & 5 2 i 4 K.M X ; @ @ * = > * 3.` +.O.q g 4 O O O @ 0 Z 3 < 1 @ O O O O                       O O       @ O     O O O O O       * ; @ @ @ @ @ @ @ @ @ @ @ @ ",
"X   X X   O X X 1 1 0 > O @ > 8 G c @ 4 6 6 q q h 3.p.S.h.Z * M ] h 0.{ G 8 ; @ X X ; * * ; ; ; @ 6 1 4 4 8 g = = X O O X @ @ @ K j.| S.K.q.b W G G ! ! ^ +.+.@.j.X.W x l _ { 8 U b.e.! B._ ; 8 8 8 6 q q G ~ ~ _ 7._ G ) 0.e.0.c h k f = X @ @ 1 a a 9 p - B.y.X 6 ; @ ; ; 9 s ! h.U ..c D C O O O X 1 < O   O X O                 O O   X *   O O       X @   O O O O O O     X * @ @ @ @ @ @ @ @ @ @ @ @ @ ",
"X X d X O * * @ < 1 0 X > ; 0 4 G ; @ 1 @ 8 6 z 7.a.b.{ z > x r.r.X...W c c 0 ; 0 * = f * ; = ; @ @ 4 Z 4 0 q K q ; ; @ ; 6 0 8 K ` ] S.D.Z._ K c G ^ ! X.} e.0.e...G ! 0.^ ` x q j.V.) N.y.> z q 8 z q 0 F K K ..l.} q N _ @.k.I W m 3.k s = X # g f f l h U D.h X 1 @ ; y z m Y P D Z J 3 O   O   @ O @ O     O O .   O X   O       O   * X O             @     O   O O   X X * * @ @ @ @ @ @ @ @ @ O O @ @ ",
"X 6 ; O @ 1 @ < < O 6 ; ; 4 < 1 q X @ 1 6 > s 0.Z.v.~ k k h } ..X.T K 8 _ 8 6 ; 6 ; q > ; ; ; @ @ @ @ 1 1 0 0 J 0 ; ; ; ; ; > 8 G 0.e.b.S.Z.7.! W K { ^ O.] e.y.e.^ W X.v.{ X.m x ^ V.0.e.y.x W F q q G 0 0 G G K T U q W X.j.U G G X.O.! k k k s z G F { U Z v.y.* @ ; * h 3.} g.< 4 5 S O X O O   O O O O   o O   * *   X   O O O     O @ @ O O           O X   X X O O X X X * ; @ @ @ @ @ @ @ @ @ @ O @ @ ",
"< Z O O C < O X X ; 0 1 < O O 6 ; X @ @ 0 l 7.B.l.] N m N 6.O. .G 0 8 q ! X - ; ; - R 6 X 5 u & X ; @ @ @ 1 6 0 6 @ @ @ ; ; 6 q G v.l.z.B.Z.y.! G K K ^ 0.e.y.Z.x.~ b e.T K { ^ ) ) x.e.e.V.N q 0 0 q q 6 8 b x F Z 4 0 K { U G b b U h.I ~ ) m 3.6.o.Z Y K 0 D S.z ; ; 6 5.0.k.4 O * a : O O   O   X O O O   o X O * g   X X O     X X   O O O O           O X X X @ O X X X o * @ @ @ @ @ @ @ @ @ @ @ @ @ @ ",
"@ O   O O O X * ; 1 1 O X X @ z X X ; 6 F y.Z.X.0.7._ ` 0.q.6.6.m f 3.0.b k 3.f f 3.3.k k l B s * ; * * X ; ; = j p , X ; ; 0 G q  . .O.x.S.Z.0.8 8 8 ) O.V.J.B.N.K } l.F 0 ~ U ^ 0.l.B.e.Z.0.0 0 0 0 0 6 8 c c 0 @ 1 1 q G G c W W G ~ q F I { _ 7.5.k 6 0 8 ; h.X.; 6 > M k.Y 6 * X 6 g O O     X X O O O   # O   O D < X @ O     X @ O   O O             X @ < @ 1 O X ; X * * @ @ @ @ @ @ @ @ @ @ @ @ @ @ ",
"X     O   = s > < O @ X X O 8 > X * ; ; h.b. .J ..) ) ^ x.l.N m z x 3.m f 3.3.f 3.5.5.3.5.5.5.3.g > f f s f f 5.5.5.k > > 8 z N M _ e.r.z.S.V.7.x z z 0.@.B.D.z.x.0 { T F 0 c q ^ 0.} j.V.J.p.0 4 0 4 4 4 0 F F 0 @ @ 1 6 0 6 c G J G q z > 4 K { k...c > 8 8 f q o., 6 = ^ k.S c f @ @ J O       X O O       , @     O O O O O     O O O               O   = ; < O @ O * * < * ; 1 @ @ @ @ @ @ @ @ @ @ @ @ @ ",
"* O O X = 8 0 O O O O O X @ z ; 1 1 0 4 g...F I Y X.} P g.Y P D D Y Y J J h.J J h.j.{ ~ +.e._ z 6 6 > > > g g 7.9.5.k > 8 > h 6._ 0.q.y.e.Z.B.q.M x b r.r.S.x.+.T 0 K 0 e 6 J 0 ^ r.) } j.S.V.; 1 @ @ 1 1 1 1 1 1 1 O @ 4 4 4 0 Z 4 4 Z T 4 1 6 q U Y P Z 6 c x z 0.4.f g } W 3 8 K < O Z O       O O O       o @ O   O     O O       O O                   * g < X X   * : 7 * @ @ @ @ @ @ @ @ @ @ @ @ @ @ @ ",
"* X = * 4 3 O O   O O   @ 6 x O 4 4 4 < J m * > ^ } D 1 1 6 1 @ @ 4 Z 1 4 S < Z P P P P g.g.U G < 4 D Z Z D D h.v.k.6 1 1 6 K  .^ z.N.r.r.e.B.y.6.x ) O.V.v.h.h.F 0 Z 2 i 5 Z 0 } k.b ) { v.v.7 X X @ @ @ 1 O @ O O O O O < < 1 3 < @ 1 F 4 1 1 F q 4 < 1 4 F ) c q.p.3.K W I ; 1 S O   0 O       O O O       X 6 O                     O                   X z < X o - = e > * @ @ @ @ @ @ @ @ @ @ @ @ @ @ @ ",
"= = > < < O   O O   X O 1 8 ; O < 1 O O U M > G Y F * @ 1 @ X @ 1 X @ 1 @ X O X X @ O X @ < c * @ O @ O @ < 4 D Y D @ 1 ; 8 K J ~ l.k.z.x.z.B.Z.q.B [ e.x.h.K ~ z 4 6 = V a 1 8 ! T T ~ ! ~ Y v * @ @ @ @ @ @ @ X X O X O X X O O O @ @ 1 1 @ @ F F @ @ @ ; 0 ` G } U.r.K F J @ < O O   @ O   O O O O O         4 O X   X         O O O                       8 @ . - f = 8 f ; @ @ @ @ @ @ @ @ @ O @ @ O @ @ ",
"; 4 < O O O     O @ @ O 1 q X O @ X X > T 6.m F Z 6 * X @ @ X X @ X @ 1 @ X   X X X X X X 1 D @ X O X @ X X @ X ; * = s s g z 8 W { j...} +.N.K.y.f.w.Z.j.G x 6.z 6 ; 8 l p % F K c U I ] z 0 M = 6 < O X X X X X O O X O O X O X X X X O X @ O 1 4 1 X * ; ; K ! K v.b.c Z > @ <   O O @ O     O   O O         < O X   X O       O O O                       ; @ % - k z g l 6 < @ @ @ @ @ @ @ @ O @ O @ @ @ ",
"1 < O   X     O O O O O q ; O @ @ @ O x { 7.l * 1 6 * X @ @ X X @ X @ 1 @ X X X X X X X X 1 4 @ X X X X X X * ; ; ; > > > q q 0 U F X.} X.} V.D.Z.7.p.B.` c N ' 0 ; 6 J ..B p Z I F 0 J ..F 1 o.c * < @ @ @ o . X X O X X X X O X > X X O X @ O < 1 @ ; > h q Z @.x } l.I 0 6 4 O       O O     O O           . O O O   O < O     O O O         O O           * @ , s h ~ s h 1 @ @ @ @ @ @ @ @ @ @ @ @ O @ @ ",
"O     X *   O @ O O O ; c @ O @ X X 4 N U q.8.o @ 6 > X @ @ @ X @ X @ 1 O X X X X X X O X X X X X X X * * * ; * ; 6 6 0 Z F 0 0 0 8 ` W ] ` B.S.D.J.K...^ W ..T q 0 6 J g._ d 1 6 0 0 F Y Z 1 h.D 4 O X @ 4 = s X X X X X X X O   6 @ @ O @ 1 X @ @ O ; 8 c G Z .._ ! ..Y 1 D < @ O O   X O     O     O       u     O O O < O     O                 O         * > * 3.x G l ; 4 @ @ @ @ @ @ @ @ @ @ @ @ @ O O ",
"  O O 1 O O   X X X @ q z O X @ X @ D G I y.8.- ; 1 > ; @ @ X X     @ @ O X X O         @ X   X @ * = > X   @ @ @ @ 1 1 1 4 6 6 ; q K { X.} l.x.D.T.S.I ! ~ I 0 q 0 4 @ I T z @ ; 6 6 1 D 1 @ D 4 1 @ * X > f h O @ X O @ @ @ O O 1 O X O @ 1 X @ X @ 4 P P J 4 J B.I } m < 3 < @ @   O @ O     O     O O     u o         O                 O X       O         z > m ^ q l 6 O @ @ @ @ @ @ @ @ @ @ @ @ @ @ @ ",
"O   8 @ O X + X X @ < W ;   X @ @ @ Z 8 ..J.5.* @ ,.; ; X >.@   oX0Xy   :.O   :.: /.:./.O :.yX=.X ; 6   }.yXL   Q.uX*.O 1 ,.O 9 y F.^.[.Y... XE.z.T.Z ;XqX6 0 &.H 4 1 1 6 Y A u 1 6 ; 1 @ @ @ @ ; ; @ ; X ; G ~ O @ @ O O O O O O O O O X O 1 X @ 1 < 3 3 3 Z 1 3 v.Y J Q < O < X ; O O @ O O O O         X X , >     O   O     O   O           O     O       . n > q Y 4 > 4 @ @ @ @ @ O @ @ @ @ @ @ O O @ @ ",
"O X B   X * X @ @ O 1 c   O X X @ 1 4 h z.J.7.=   PX7 ; @ UX  xX;X/.:.  UX    UX+ $XUX.X*.HXi.'.O < O jXyX/.t ).mX,.LXy &.UXe ^.hX!.xXMXH.dXxXgXnX^ VXqX[.PX  mXF.@ @ @ 1 Z 1 1.@ 1 ; ; * & X O 6 @ @ 6 X 3 S S O @ @ O O   X X O O   X X @ < < < < O O O O @ O < P S 3 P < O O O 3 O   O O O O O         X o o q O   O O O   O O   O O O O   O O O           * k 6.6 F 6 1 1 @ @ @ @ @ @ @ @ @ @ O @ O @ @ @ ",
"  I     @ @ @ O O O 0 6   O O O @ @ 4 b k.D.M =   JX7 > o PX  PX        IX    IX  o KX  yX^.    @ O   KX# O O lX:.  $X.X,.mXpXi.sX= #XqX1 dX Xz UX@ IXW 3 KX@ lX,.X @ @ @ @ = 3.X ; @ ; ; a   O 4 @ O 6 @ O < <   @ @ O O O @ @   O X X X O O < O O O O O O O O O O O O < O X   O < O O @ O   O O O X   X X O u F <   O                         O         * * * 3.6.F > s @ @ @ @ @ @ @ @ @ @ @ @ O @ @ @ @ @ ",
"< P O O < O O O   @ q X   O O O O O D K g.x.N *   JX7 h o PX  PX  !.$.  JXhXhXKX  @ KX  / UXjXy   X   KX@ O   lX,.  $X.X:.yXHX&.fX> 0XqX3 dX<XG.KX< UXJ O KX# lX,.X @ @ 1 @ q 0.O @ @ 1 6 - O O 1 1 O 1 1 X X   O @ @ O   O < < O   X 1 < O O O O O O O O O O O O   O       X X   O O O @ X   O O O @ @   X O , 0 O   O O O                               d * = M @.Y = = @ @ @ @ @ @ @ @ @ @ @ @ @ @ O O O @ ",
"O     O O O     O 1 ;     O     O @ C 4 D j.N *   HX9 x   PX  PX  !.KX  PX: e PX  @ KX  O O *.UX      KXo O   lX,.  $XoX,.hXuX#XdXD 0X1XO qXnXUXU 3 UX<   KX@ lX,.O @ @ 1 O S U & @ @ 1 1 c X O 1 @ X 1 @ O X O O @ O O X   O O O O O < < O O O O   O O O O   O O O O O   O O O O       ; O O       X O O O O * c O   O O O                               * F * b j.D g 6 1 @ @ @ @ @ @ @ @ @ @ @ @ O O O O @ ",
"  X   O         O 0 X   O O   O X X < ; c ..M X   KX<   @ PX  PX    HX  IXO   IX  + KX        IX      KX      jX=.  $X).>.lXr IXiX< 0X#X  gX[.qX0XO UX    KXO lX*.  O O @ O 3 P p X ; @ 1 F O O @ @ X @   O X O O O O   O O       O O O   O O O O O O   O   O O     X   O   O O O       @ < O   X X * O O < O O Z <                                       O P < 0 g.D g 1 1 @ @ @ @ @ @ @ @ @ @ @ @ @ @ @ O O ",
"X   O O       O @ 6   O O O   O @ @ O z b j.M o   MXFXPX  KX  ^.PXBXkX  KX    PX  + HX  ,.KXHXyX      W.IXAXW.e UXmXKXO ,.lX  AX$XX qX@X; gX XC IXO 1XKXSXhX  pXKXIXn O @ O O @ d X @ @ 1 Z o O X 7 @ @ O O O O O O O O O O     O O O O O O O   X   O X O O       X X         O O       1 O O O X X ; O O       C <                   O                 $ u % $ 5 E 1 ; @ @ @ @ @ @ @ @ @ O @ @ O @ @ @ O O O ",
"O             X 6 @   O   O   O 1 O < K q k.l * ;   O   c   v +   @   :   o @   @ X   @         X   O     o = f   #   4 O   9   X M 8 X ` F I U   ~ < X @   7       O O ; X   @ z X * @ @ ; *   O 1 1 @ O O O O O   X   O O O     O     O O O   X X X X O         O O O                 O O O O O @ 1 O         @ O   O                                 % j j j u j s X @ @ @ @ @ @ @ @ @ @ @ @ @ @ @ @ O @ @ ",
"O O     X X * = ;   O O   O   O O O 3 D v j.6.* @ @ 1 0 0 0 8 a   X X O O     O             O O O O     O   G 1 4 < < @ @ @ @ 1 8 ] 0 z ^ K F 0 F 0 4 F X @ @ @ X X O X 7 X X < K = f X X ; ; O @ 4 < O O O O O O   X X   O         o o O O O O @ X X O O O   O O O O             O     O O     O 1 4 O       X O O O O                             X   o k 3.l k l k * @ @ @ @ @ @ @ @ @ @ @ @ @ @ @ @ @ @ @ ",
"  O     * = * 1 O O         O O   O 4 4 m k.5.* @ @ @ Z 6 0 q = X X X O O                   O O O O O   O O S 3 < O O X @ @ X ; c ] ; ` J 0 0 6 0 1 1 D 1 @ @ @ O O X @ 6 X   O F > m X O 4 6 O X 6 O O O   O O O O @ X O X   O O O = f     O O O O O O O O     O O O O       O O O O   O O     X X q < O       O O O                     O       X l $ , f m N 3.k z 1 @ @ @ @ @ @ @ @ @ @ @ @ @ @ O O @ @ @ ",
"O   X = = ; < O         O     O X X @ J c k.7.* * @ @ 4 1 6 G > X X O O O O             O O O   O O     O O O O O X X @ @ @ @ @ G N m ~ 4 1 0 > 6 @ @ 1 @ @ O O @ O X @ 0 O O O Z J J @ @ 4 < O * : X @ X   O O O O @ @ O X     O   = h   O   O O O O O O O O     O   O   O O O   O O   O     X X   8 O O O   O O O     O O     X X X X         % $ - - = l ` K W q F 4 @ @ @ @ @ @ @ O @ @ @ @ @ @ O O @ @ @ ",
"X X s ; < O     O O   O O     X ; @ @ D 8 k.6.j X @ @ 1 6 0 F ; X X X X O O             O O     O     O O     O O O @ @ O @ @ @ G M ) 0 > 6 q 0 1 @ @ @ @ + O @ @ X X @ 4 O   O 4 F Z @ @ @ @ O @ 1 O @ @ O O O O O @ @ O O O   O   < Y       O O O O O   O O         O O O O O       o . O   X @ O S < O + .   O       X X   O O O O O O   O $ i , - m k k c 0 4 4 1 @ @ @ @ @ @ @ @ @ @ @ @ O @ @ @ @ O O O ",
"* ; 6 < O O     .       X X X ; @ < < D q T 6.V X @ @ 1 6 q 0 ; X X X X O O           O                       O   O O O O @ X @ ! ] K 8 m ; 0 1 @ @ @ O O u % O @ X X @ 1   O O X ; @ @ X O @ . < 1 @ ; @ X   O O O O @ X O O       O S   O     O O O     O O     X O O O O O         , o       ; + O O   O X X X X X X X X O O O O O O O $ $ $ d 3.k l s 8 0 1 1 @ @ @ @ @ @ @ @ @ @ @ @ @ O O @ @ @ @ O O O ",
"> 4 <   O       * X   X * X @ 4 @ @ X Z 8 { 9.4.X @ ; 6 6 6 0 ; ; X X X X O O         O                   O O O   O O O O @ @ ; X.~ Z G c 1 0 @ 1 @ @ O O , % O O @ * X @ X   O X 1 @ @ @ O @ o O O @ 6 @ X     O O O ; X                 O     O   O     O O   O O O O O O O         : :   O   < O X O X X X X @ @ @ @ O O O O O O O     $ & = 3.3.k g 0 4 4 1 @ @ @ @ @ @ @ @ @ @ @ @ @ @ @ @ @ @ @ @ O O O ",
"> = o X   O   s s X O @ @ @ 3 O X X @ D 8 +.p.l X @ @ ; 1 ; > * * X X X                                         O       O O @ 1 U Z 0 J Z 1 1 @ @ @ @ @ O d ,   O O ; X = = O O X @ @ X @ X @ : O X @ 0 1 @       O   ; ;           O       X X   O O O O O O O O O O     O O       O & 9     O O X X   X O @ 6 O < O < O O O         $ o * s s s c F 4 3 1 @ @ @ @ @ @ @ @ @ @ @ @ @ O @ @ @ @ O O @ @ @ O @ ",
"f s s X     O v X O O 3 < X X O @ X @ 4 0 b.a.B X ;   / ).|.'.'.'.'.'.(.(.(.(.(.(.(.(.(.(.(.(.(.(.(./././.(.(.(.(././././.(.'.{.H.  1 4 4 1 @ @ @ @ @ @ < W * O O < 1 @ > @   X d @ @ @ O O 1 8 X X @ 6 6 @     O O   1 1             O   O   ;       O O O O O O O O O         O     u L O       O O O @ O O 1 O O O O O         . $ & - s s = 6 Z Z 1 @ @ @ @ @ @ @ @ @ @ @ O O O @ @ @ @ @ @ O O O O @ @ @ ",
"g s f X O   S 4 O O O O O O O O O X @ 4 0 v.a.j X   $XQ.7 7 : : # : # # # + + + + + + + + + + + + + + + + + + + + + + + + + # 2 &.yX/ @ @ @ @ @ @ @ @ O < D ; O O O < 1 Z <   X g X @ @ O O 1 0 X @ 1 1 6 @ X   O O   < 1 O       O   O O O O 1 O   O O O O O O O O O   O   X X O O   p / O       O O O O O O < O     O O . . X o & o s k = ; 1 4 1 @ @ @ @ @ @ @ @ @ @ @ @ @ @ O O @ @ O @ @ O O O @ @ @ @ @ ",
"1 x =   O   C O   O     O O O O O X @ 1 q k.y.B   0X@ @ 1 4 8 ; 1 6 * X X X   O O         O O               O O O O   O O O 4 1 ;   $X7 @ @ @ @ @ @ @ O O S 1 O   O < O 5 O O 1 Z @ @ @ O O < 4 @ @ 1 6 0 1 @         O @ O   O     O O O O O 1 @ O O O O O     O   X       * *       p v < O       O   O .   O O . $ . O X * * , , s k k > 1 1 @ @ @ @ @ @ @ @ @ @ @ @ @ @ O O @ @ @ @ O O O O @ @ @ @ @ @ @ ",
"D W   O     X O O X O   O O O X O X X 1 b j.y.4.%.i.X @ @ 4 0 ; 7 1 @ X X X   O O O         O               O O O         O < @ 1 1   #X  O O X ; X O O O < <     O O @ d X O < 4 @ @ @ O O O 1 @ @ 1 1 0 1 @     O O O O O O O       O O O O O @   O O O X X X X X X X O O ; @ O     p | <         .   O % % O   . o X X X = * = k k s 8 6 @ @ @ @ @ @ @ @ O @ @ @ @ @ O O O O @ @ @ @ O O O O @ @ @ @ @ @ @ ",
"F 1   O         X O   O O O O X X X X 4 ! ..y.3.'.  ; @ X 1 4 > 6 @ @ X X O O O O                             X O     X d X X @ @ @ * }.  O O X @ X O O O O O & .   O X d X O O @ @ @ @ O O O @ 1 ; @ 1 0 6 @ X   O O   O   @   O   O O O     O @ O O O O X O O O O X X O O < C       , ..3 . . $ u u u   . j     X = * X o > = s k f 6 4 1 @ @ @ @ O @ @ @ @ @ @ @ @ O @ @ @ @ @ @ @ O @ @ @ @ @ @ @ @ @ @ @ ",
"0 O O O   O O X *   O O O O O X X @ X 3 ^ +.Z.k OX  @ @ X @ 4 8 6 @ @ X X   O                 O   X X *   O O @ O O X * = * X @ X @ @ ).+ O O O 1 X O O O O O o . O   1 D @   O @ @ @ @ X X X @ 1 1 1 6 4 q @ @   O O O   X = X   O O O     X   O O O O O O O O O O O O O   . # & u u i ( i u $ . o , - X X 3.* X X * X + X f h = > 0 4 1 @ @ @ @ @ @ @ @ @ @ @ @ @ @ O @ @ @ O @ @ @ O @ @ @ O @ @ O O @ @ @ ",
"@ O O O O O   > X     O O O O   O X X 3 { ..S.f -X  @ @ X @ 4 0 8 @ @ X X X O O                   * X ;   O O @ O   X 0 1 1 @ @ @ 4 O (.+ O O O @ O O O O O O = u     C S O O O r @ @ @ X X ; @ a @ 1 @ 4 F 6 @ O O O O X O * X O O O o   o = X O : # O O O O   Q.# O O . u i a i 1.i 1.;.: - = s f f = * X 8 6 X $ 2 e @ * f s ; 4 < < @ @ O @ @ @ O O @ @ @ @ @ O @ @ @ @ O O O @ @ @ @ @ O O @ O O O @ @ @ ",
"O O   O O O O @   O   O O O O O O O X 4 K  .k.4.-X  X @ @ @ Z O   O X       @     o X             9         @     @ O   O 1 @ @ @ < O (.o O O O X X O     O O 6 i . O < O O O   PX*.X @ X @ 6 @ 1.@ 1 @ 1 F 1 1 @ O X X   O 1 O O   O   UX  > X   hXhX    O   . UX$X. + $ i -.UX  f f V 0.g s = > > q 4 1 X 0 Z % u : > s * = 6 1 @ @ @ @ @ O O @ @ O O O @ @ @ @ O @ @ @ @ O O O @ @ @ @ @ O O O O O O @ @ @ ",
"      O O   1 O     O O O O O X X X X 4 K ` @.q.-X  @ @ @ @   BXZX!./ JXHXn   jXuX    AXZX*.$XNXAX  MXBX+X    BX/.  Q.AXZX# X O X @ O ).@ X O X O O O X O O O 1 , . O       @   KX$.    @ 1 4 X p   O 1 1 O 6 6     X O   @ < O O     $XjX  D <   pXpX    O   u :   & o     d IX* f f * x X G 4 D Y Y S C X < 5 u j l s = @ @ 1 @ @ @ @ @ @ @ O @ @ O O @ @ @ @ @ @ @ @ O O O O @ @ @ @ @ O O O @ @ @ @ @ O O ",
"X         O O X     O X O X X X @ X @ 1 W x V.q.-X  @ @ X @ ~.1X  X ,.uXO KX  mXMX  _..X    lXe     KX  KX  # lXmX  $XQ.%.kX  @ O @   '.@ X X X O O X * O   O 1 h X   CXHXkX    KX^.AXxXO 6 O !.KXKX).O 7 bX    hX).  y jX    O O O   IXy X C <   iXiXlXCXy   . jXe s   uXDXxXLXO J R GXLXdX3 C 0 G 0 O O . % - k 3.k = 1 1 @ @ @ @ @ @ @ @ O O @ @ O O @ @ O @ @ @ O O @ @ @ O @ @ O @ @ @ O O @ @ @ @ O @ O ",
"    X     O O     O O O O O X X @ X @ 1 } G D.y.-X  @ @ X @ y PX`.* i.yX  HXy pXxX7 oX.X    hX$X.X  KX,.CX  /./.HX  $X(.,.hX  X X O * '.@   O O   O X X     O < G   AXoXy .X    AXbXe lXlX  e UX( y IX/   UX7 O UXBX  oXmX  X O O O $.KX    + +   0XPXy (.IX    IX%.* ;XNXL [.PXC 3 IX_.I JX}.* * * X     # = k l k z 4 1 @ @ @ @ @ @ @ @ @ @ @ @ O O O @ @ O @ @ @ O @ @ @ @ @ @ O O O @ @ @ @ @ @ @ @ O @ O ",
"    X       O O O O O O O O O O O X @ 4 K U I.e.-X  @ @ X @ O / 0XxX/ UXHX/ @XyXjXQ..X.X    hX).,.  PX&.NXo jX~.ZXy ).ZXUX  X X X O ; '.+ O O X     < O X     < P   UX7     @   JX*.@ F.AX  ,.HX8 = ZX^.  KXn.;.hXPX  lX@X  O O O   lX(.. $ % &   uXfX  o UX    IX%.O MXXXC c.IXO   UX% 2 fXuX  X @ + +   * k k g q 4 @ 1 @ @ @ @ @ @ @ @ @ @ @ @ O O O @ @ O @ @ @ @ @ @ @ @ O @ @ @ @ @ @ @ @ O @ @ @ O O O ",
"O X X   O O           O O O O O X X @ Z K Y v.y.-X  @ X X @ @   O KX:.yX    MX}.oXhX/.oX    lXe     PX  MX# JX/.pX@X@X!.kX%.O X O O Z {.+ O O @ X   < O X   O O 3   hXUXCX].    HX,.O !.SX  F.HX0 > AX).  hX$X@X).JX@ KX*.  O O O   UX  o o * =   uXhX  + UXO   IX%.O NX#X  $.PX    UXuXkXUXt @ + u % * X * s > 6 1 1 @ @ @ @ @ @ @ @ @ O @ @ @ @ @ @ @ @ @ O @ O O @ @ @ O O @ @ @ @ @ @ @ @ @ O O O O O O O ",
"X < O               O O O O O X X X @ Z F F l.y.-XX X * X X r ZXLX=.=.$XO   lX    lX  NXZX,..XMXAX@ bXmXyX  jX  # pXQ.[.e pX  X O @ C {.+ O O @ X O O O O     O O +   $.M.UX$.  HX,.X ~.SX  F.HX3 A AX{.O ).kXhX*.lX/ UX# @ O     .XlX  X * * -   uXhX  # UX    PX%.  MX@X  $.PX  o UX].`.@ O O % p = f = * 6 1 1 @ @ @ @ @ @ @ @ @ @ @ O O @ @ O O @ @ @ @ O O @ O @ O @ @ @ @ @ @ @ @ O O @ @ O O O O O O O ",
"@ O X X X     O O O O   O O X X @ X @ 1 0 q B.Z.-X* @ @ X X @   O 9 ;   1 @   : X   :             P <     X   O O   < 3     @ X O X O (.+ O O @ O O O O O O   O O &       DX,.  HX,.X ^.SX  >.KXO 2 SXQ.O / AXAX# XXuXUX  O       LX$.X @ 1 @ Z   uXhX  # UXO   PX$.  lX'.  n PX    UX. !   + $ * k k = ; @ 1 1 @ @ @ @ @ @ @ @ @ @ @ @ @ @ @ @ O O O O @ @ @ O @ @ @ O O @ @ @ @ @ O O O O O @ @ @ O @ O O @ ",
"X O X X X   O   O O O X O O O X O X X 1 ; N b.e.-XX @ X X X @ 1 0 5 ; @ X X X X X X           O   3 < O   O @ O   O O       O O O O   (.+ O O @ O X   O O O         SXmXMXPX    PXF.@ }.JX    PXbXmXIX. 5   UXPX  t UXNX  O     :.PX  O < 3 4 C   pXlX  # UXO   UX*.  Q.UXhXLXPX    kXJXbXPX-.= s l f 6 1 @ @ @ @ @ @ @ @ @ @ @ @ @ @ @ @ @ @ @ @ @ @ O @ @ O O @ @ O O O @ @ @ @ @ @ O O O O @ @ @ @ @ @ @ @ ",
"O O O O         O     X X X X   X X X @ 8 M k.e.=XX @ X @ X @ @ : 5 = X X X * X X                         O O     O O       X O O O   (.+   O @ X X O     O   O O : o :.[.  O O e @ 1 1 o.8 0   F.`.  a : @ 9 7 1 @ y @ X X O O 7 # 4 O O < O O X # # @ O t O O e   *   &.!.o # O &   M.[.7 s f = > 0 1 @ @ @ @ @ @ @ @ @ @ @ @ @ @ @ @ @ O @ @ @ @ @ @ @ @ @ @ O O @ @ O @ @ O O O O O O O O O @ @ O O O @ @ ",
"O O @ O   O   X X       O   X X X X X @ K m  .y.;XX ; * X X o @ g 5 > * @ X ; X X X o           O         O O   O       X   X O O X   _.  O O @ O O O O       O   4 *   P <   O O + 2 3 h.0 1 @ 1 X.z g > @ 1 1 1 1 1 @ X O O O O O O O O O O X O * * X O X X   . X - , + + 5 u u u % , ! ; f s ; 1 1 @ @ @ @ @ @ @ @ @ @ @ @ @ O O @ O @ O @ @ @ @ @ @ @ @ 1 @ O @ @ @ @ @ O O @ @ O O @ O O O @ @ O O @ @ @ ",
"O X O     O   X X O X O   X X X X X X 1 Y N +.Z.!.i.* ; X @ : 1 8 a 6 = ; @ * ; * = d   X   X           O O O   O O O O O   O O   X   $X    O @ @ O O O     O O   4 ;   < u .   X X e < P 4 1 < 4 h.L 8 0 1 4 1 1 1 1 @ X X         O X     X X X ; s X X o . $ u p p p u 5 a p , , = k ) ; * 6 1 @ @ @ @ @ @ @ @ @ @ @ @ @ @ @ O @ @ @ @ @ @ @ @ @ @ @ @ @ O @ O O @ @ @ @ O O @ @ @ @ @ @ @ O @ @ O O @ @ @ ",
"X X         O X X O O X X X X X X X X 1 I b j.J.V ;X9 X X = = Z > a ; x ; @ * ; * f s   X O O   O O O O O O O O O O O O O O O O X   yX# @ O O O O O       O   O O 3 1   $ i .   X s l X C < O < 3 P R D Z 4 1 1 1 1 1 @ X X X       X X X X X X @ @ 6 % % i u , j j f l k f 3.3.3.k s k b 6 1 1 @ @ @ @ @ @ @ @ @ @ @ @ @ @ @ @ @ @ @ @ @ @ @ @ @ @ @ @ @ @ @ O O O @ @ @ @ @ @ @ @ @ @ @ @ @ @ @ @ O O @ @ @ ",
"X X         O O   O O O @ X X X X @ @ @ D ~ k.a.8.  #X`.t n r H n n r B r e r r e ( e e e e e e e e e e e e e e e e e e e e e e :.0Xe O   $ O O               O   1 @   * s X X X s M X @ @ @ O O 4 { S C @ @ 1 1 1 1 ; ; X X X X   X X X @ + $ % 5 E 1.i V l k 3.5.3.5.3.k 3.5.3.k s 8 0 1 @ @ @ @ @ @ @ @ @ @ @ @ @ @ @ @ @ @ @ @ @ @ @ @ @ @ @ @ @ @ @ @ @ @ @ @ @ @ @ @ @ @ @ @ @ @ @ @ @ @ @ @ @ @ O O @ ",
"X X   O     O O   O   @ @ @ X X X @ @ @ F W k.J.8., X t !.|.~.^.|.`.^.`.`.~.^.^.[.[.~.~.~.~.~.~.Q.~.~.~.Q.Q.~.~.~.Q.~.~.~.~.~./.;.  X O u 1.. O X X X       X O   @ @   = = X O < J T O @ @ O O O 1 W O O < O @ 1 1 @ ; > * X X X X X % & O & p p j l 5.5.5.5.3.3.5.3.6.7.3.3.6.b 0 0 1 4 @ @ @ @ @ @ @ @ @ @ @ @ @ @ @ @ @ @ @ @ @ @ @ @ @ @ @ @ @ @ @ @ @ @ @ @ @ @ @ @ @ @ @ @ @ @ @ @ @ @ @ @ @ @ @ O O @ ",
"O       % u u .     O O O @ X X X @ @ @ 0 c k.J.5.d - 6 4 D X D T @ 4 q = @ @ @ 1 Z O       O     O       .                     O # X   , p   O X X   X X X X   O @ @   4 F O O < P P @ X O O   O 1 H   O O O O @ 1 @ ; g o u % o * o , - * k 5.5.5.5.5.5.5.5.M ` O.X.X.e.M N ~ F 4 1 @ @ @ @ @ @ @ @ @ @ @ @ @ @ @ @ @ @ @ @ @ @ @ @ @ @ @ @ @ @ @ @ @ @ @ @ @ @ @ @ @ @ @ @ @ @ @ @ @ @ @ O O @ @ @ @ @ O @ ",
"O X X X u u u $ o     o   X X X @ @ @ @ 0 c k.K.5.l - ; 0 1 X D Y @ 4 F > ; @ @ X @ X         O O O . . . $             O O X X X X X * 3.s X X ; X   X X   O   O @ @ O C P O O O 1 4 @ X X O   O 2 H   O O O O < @ @ ; 7 1.a j s = f 5.5.s 3.5.5.5.5.7.7.e.z.{ U j.` ) ) b q F 4 1 @ @ @ @ @ @ @ @ @ @ @ @ @ @ @ @ @ @ @ @ @ @ @ @ @ @ @ @ @ @ @ @ @ @ @ @ @ @ @ @ @ @ @ @ @ @ @ @ @ @ @ @ O O @ @ O O @ O @ ",
"  * X = s s * X o X X o   O O X X X @ 1 D 0 k.D.6.3., @ X X X < 1 @ 1 4 > = @ @ X X X @ o O O O O   - X o o     X X     O O O X X X O ; N ; X O 1 @ O O O O O O O 1 O   O O O   O @ @ O X   O O   a 5   X     X X @ @ 5 1.V 5.5.5.f k 5.5.k 3.7.7.0.+.b.k.k.k.! c x h > 0 0 1 1 @ @ @ @ @ @ @ @ @ @ @ @ @ @ @ @ @ @ @ @ @ @ @ @ @ @ @ @ @ @ @ @ @ @ @ @ @ @ @ @ @ @ @ @ @ @ @ @ @ @ @ @ @ @ O O @ O O O @ @ @ ",
"O @ X = f s * X X X * *   X O @ X X X @ 4 > z.b.0.3.o @ X @ o @ @ @ X 4 8 g ; @ X @ X X X X O X O X s X * * X   X X         O   X O < C h.C O O 1 @ O O   O O   O @ O       O   O @ X O X X     O a r   X X X X X X * V 4.5.5.5.3.m h 6.0.x ^ x.x.k.Y g.Y ~ N l = s > 6 1 1 @ @ @ @ @ @ @ @ @ @ @ @ @ @ @ @ @ @ @ @ @ @ @ @ @ @ @ @ @ @ @ O @ @ @ @ @ @ @ @ @ @ @ O @ @ @ @ @ @ O O @ @ @ @ O O O O O O @ @ @ ",
"< < 4 D Z 1 O X X X X X X X X X X X X X 1 m r.k.y.3.* @ X ; X X @ @ @ 1 q = ; ; * X X X X   O   O @ * X 6 X X O O O   X O O   O < O O C Y 3 O O @ O O O         O @ X O   O O   X X X O @       X z q   X X X X * - p 3.5.5.y.0.r.b ! l.l.! W h. .U H F 8 k k h 6 4 4 1 @ @ @ @ @ @ @ @ @ @ @ @ @ @ @ @ @ @ @ @ @ @ @ @ @ @ @ @ @ @ @ @ O O @ @ @ @ @ @ @ @ @ @ @ @ @ @ @ @ O O O O O O @ @ @ O @ @ O O @ @ O ",
"O < C P P 3 < < O 1 1 @ O O @ X X X X @ 1 ] 6.} a.5.* ; * * X X @ @ @ 1 Z ; ; @ @ @ 1 @ O O O   O S 3 < Z 1 O O O O   X O O   O   O X @ 1 O   O O O O       X O O X *   O O O O X @ X O : O   O X x q   X X X X * V l 5.9.Z.v.k.x.! W ^ ] N q F F c l s = g 8 0 1 @ @ @ @ @ @ @ @ @ @ @ @ @ @ @ @ @ @ @ @ @ @ @ @ @ @ @ @ @ @ @ @ @ @ @ O O @ @ @ @ @ @ @ @ @ @ @ @ @ @ @ @ O O O O O O @ @ @ @ @ @ @ O @ @ @ ",
"O O O O O O O O O < O O O X @ @ @ X X @ Z ..3.} J.3.= ; 6 @ X X @ @ @ 1 Z 6 ; @ @ @ 1 @ O O   O O C < < 3 O O O O     @       O     X @ O     O O O       X O O O @ X O O   O O X @ X X :   O   O I Z   X X X X p V 5.q.D.v.g.K ! x 8 c N x z g z f k = ; 6 1 1 @ @ @ @ @ @ @ @ @ @ @ @ @ @ @ @ @ @ @ @ @ @ @ @ @ @ @ @ @ @ @ @ @ @ @ @ @ @ O O O @ @ @ @ @ @ @ O O O O @ @ @ O @ @ @ O @ @ @ @ @ @ O O O @ @ ",
"  X O   X O       O O O     X @ X @ @ @ D j.M x.J.V , 1 1 @ @ X @ @ @ @ 3 1 > * @ @ X X O     O O O   O O O         O <     O X O X X O O X   O O   X   X O O O O 3 3   O   O O @ @ @   e       O P C X X       V 5.5.x.v.P X > < 2 * ; g h f s * * X O O O               @ @ @ @ @ @ @ @ @ @ @ @ @ @ @ @ @ @ @ @ @ @ @ @ @ @ @ @ @ @ @ @ @ @ @ @ @ @ @ @ @ @ O O O O O @ @ @ @ @ @ @ O @ @ @ @ @ @ O O O O O ",
"X = O O O   O O O O O     X O X X X @ X Z k.M b.Z.2.i ; @ X X X X X @ O < O s = @ X X X O   O   O   O O   O         O O     X X O O O O X X   O X X X X O O O O O 3 <         X @ @ @ X e     O O 4 1 @   *XE.E.E.E.E.P.P.P.E.E.E.E.E.E.E.E.E.E.E.E.E.E.E.E.E.E.E.E.E.E.*X  @ @ @ @ @ @ @ @ @ @ @ @ @ @ @ @ @ @ @ @ @ @ @ @ @ @ @ @ @ @ @ @ @ @ @ @ @ O O O @ @ @ @ @ @ @ @ @ @ @ @ O O @ O @ @ @ @ @ O @ O O ",
"* X O O X X     O     O * X X X X X X X 4 h.7.v.y.4., X X X O O O O   O O @ > * O X X X X X O O O X X O O O O O O O O O   O O X O O O   O O     X X O O O O O X   # O O       O O X X X ; O     X @ @   wX9                                                             w 5X@                                       1 @ @ @ @ @ @ O O O O O @ @ @ @ O O O O O @ O @ @ @ @ @ @ @ @ @ O O O O @ @ @ @ @ O @ @ @ ",
"1   O O O X O       X X d X   X X X X X 4 h.6.k.L.3X4X5X5X5X5X5X5X5X5X5X5X4X4X4X5X5X5X5X5X5X5X5X5X5X5X5X5X5X5X5X5X5X5X5X3X  O X O O     O O     O O O O O     X   .           O O O X O 7         @   6X#                                                                 # eXE.E.E.*XE.E.E.E.E.E.E.E.E.E.E.E.E.*XP.  @ O O @ @ @ @ @ @ @ O O @ @ @ O O O @ @ @ @ @ @ @ @ @ @ @ @ @ @ O O O O @ @ @ @ O @ @ @ ",
"C   O O O             X X O   O X X X X 1 h.x V.4XE.*X3X3X4X4X3X4X3X3X3X4X3X3X3X3X3X3X3X3X3X3X3X3X3X3X3X3X3X4X4X3X3X3X3X4X5X#.w c c v c w w w Q Q Q Q Q Q Q Q Q v Q v v v v v Q Q Q Q $.-.v v w w Q wX#                                                                     @ wX4X4X3X3X4X4X4X4X4X4X4X4X3X3X4X4X3X5XE.w Q 6 O @ @ @ @ @ @ @ O @ @ @ O O O @ @ @ @ @ @ @ @ @ @ @ @ @ O O O O O @ @ @ @ O @ @ @ ",
"O     O O O O         3 O O O O O @ O @ 1 P V.5XE.5Xt.[ #.#.#.#.#.#.#.#.#.#.#.#.#.#.#.#.#.#.#.#.#.#.#.#.#.#.#.#.#.#.#.#.#.#.C.C.C.C.C.C.C.C.C.C.C.C.C.C.C.C.C.C.C.C.C.C.C.C.C.C.C.C.C.C.C.C.C.C.C.C.O                                                                         O #.#.#.#.#.#.#.#.#.#.#.#.#.#.#.#.#.#.#.C.t.3XC.  @ @ @ @ @ @ @ @ @ @ O O @ @ @ @ @ @ O O @ O @ @ @ O O O O O @ @ @ @ O O O @ @ ",
"    O X O         O O < O   O O O O O X O c.5XE.wX9                                                                                                                                                                                                                                                                         E.t.O @ @ @ @ O @ @ @ @ O @ @ @ @ @ O O O O O O @ @ @ O O O O @ @ @ @ @ O O O O O ",
"  X   O O O X o     X O     O X O X @   #.5XE.wX9                                                                                                                                                                                                                                                                             E.t.  @ @ @ @ O O O O @ @ O @ @ @ @ @ O O O @ @ @ @ @ @ @ @ @ O O @ @ @ O O O O ",
"X X     O   s *   O     O   O X O X   [ 5XE.wX9                                                                                                                                                                                                                                                                                 E.t.  @ @ @ O @ O O @ @ O O @ @ @ @ O O O O @ @ @ O @ @ @ @ O O @ @ @ O O O O ",
"X O O   O X h X       O O     O O O Q 5XE.wX9                                                                                                                                                                                                                                                                                     E.#.  @ @ @ @ @ @ @ @ O O O O @ @ @ O @ @ @ @ O O O O @ @ O O @ @ @ @ O O O ",
"X O     O D @ O     X       O   X O 5XE.5X9                                                                                                                                                                                                                                                                                         E.t.  @ @ O @ @ @ @ O O O @ @ @ @ O @ @ @ @ O O O O O @ O O @ O O O O O O ",
"X O   O O P O X X O   O X X X X X ; 5X3X#.                                                                                                                                                                                                                                                                                            E.t.  @ @ @ @ @ O O O @ @ O @ @ @ @ O O O @ @ @ @ O O @ @ @ O O O O @ O ",
"X X X O O 3 O X X O O X X X X X X ; 5X4XQ                                                                                                                                                                                                                                                                                               E.#.  @ @ @ @ O @ @ @ @ O @ @ @ @ O O O @ @ @ @ O O @ @ @ @ O @ @ @ @ ",
"X X X O X   @ X X X O O X X X X X ; 5X4X(                                                                                                                                                                                                                                                                                                 E.t.  @ @ @ O @ @ @ @ O O @ @ @ @ O O @ @ @ @ O O @ @ @ O @ @ @ @ @ ",
"X X O O   X @ X X X O O O X X X X ; 5X4X(                                                                                                                                                                                                                                                                                                   E.t.  @ @ O @ @ @ @ O O @ @ @ @ @ O @ @ @ O O O @ @ @ O O O O @ O ",
"* * X X O @ X X X X O O O X X X X ; 5X4X(                                                                                                                                                                                                                                                                                                     E.t.  @ @ @ @ @ @ O @ @ @ O O O @ O @ @ O O O O @ @ @ @ @ O O O ",
"= * * X X X @ O O X X O O X X X X ; 5X4X(                                                                                                                                                                                                                                                                                                       E.t.  @ @ @ @ @ O O @ @ O O O @ O @ @ O O O @ @ @ @ @ @ O O O ",
"* * = * @ @ X O O X X O X X X X X ; 5X4X(                                                                                                                                                                                                                                                                                                         E.#.  @ O @ @ @ @ @ @ @ O @ @ @ @ @ O O O @ @ @ @ @ O O O O ",
"1 @ ; X @ ; * X O X X O X X X X X ; 5X4X(                                                                                                                                                                                                                                                                                                           E.t.  @ @ @ @ @ @ @ @ @ @ @ @ @ @ O O O @ @ @ @ @ O O O O ",
"3 1 1   X = = @ @ @ X O X O X O X ; 5X4X(                                                                                                                                                                                                                                                                                                             E.#.  @ O @ @ O @ @ @ @ O @ @ O O O O @ @ @ O O O O O O ",
"1 4 1 @ @ ; X X = ; X X       X X ; 5X4X(                                                                                                                                                                                                                                                                                                               E.#.  @ O O O O @ @ @ @ @ @ O O O O @ @ O O O O @ @ @ ",
"X ; * ; 1 1 O * ; @ * * X X X X X ; 5X4X(                       NXmXe + pXhX$X  $X    y pXhX_.  oXCX+X.XuXpXoX$.hXjX,.y pXhX/.                                                                                                                                                                                                                            E.t.  @ @ @ @ O O @ @ @ @ @ O O @ @ @ @ @ O O @ @ @ ",
"X * = = 6 1 @ 1 @ @ * * * s = X * ; 5X4X(                     HXy y + %.NXy e + KX    .XpX$.# *.MX  # : uX$X: hX/.%.+ .XpXe CX-.                                                                                                                                                                                                                            E.C.  @ @ @ O O @ @ @ @ @ O @ @ @ @ @ @ @ @ @ @ @ ",
"@ 1 ; = * * 6 0 * @ ; * = f * * = > 5X4X(                     IX      %.kX    + KX    _.@X    /.yX      $X].  hX:.    _.yX  +X@X                                                                                                                                                                                                                              *Xw O @ @ @ @ O O @ @ @ @ O O @ @ @ @ O O O @ @ ",
"O 4 4 @ X * * * * 0 ; ; > > ; = s g 5X4X[                     _.UXAX  y UXHX.X+ KX    Q.IXKX,.~.yX      $X_.  $XKXPXe _.yX  $XoX                                                                                                                                                                                                                              9 G.O @ @ @ @ @ O @ @ @ @ O O @ @ @ @ O O O O O ",
"O 1 4 6 ; ; * * = ; ; 8 K 1 @ > > > 5X4X[                         W.kX$.kX    + KX    ].+X    /.yX      $X_.  fX:.    ).yX  $XoX                                                                                                                                                                                                                              w A.O @ @ @ @ O O @ @ @ @ O O @ @ @ @ @ O @ @ @ ",
"@ ; ; ; ; 6 6 6 ; ; > z q 1 0 F 0 7 5X4X[                     :   Q.jX%.lX    + KX    .X$X    ,.jX      $X.X  hX,.    .X$X  jXW.                                                                                                                                                                                                                              w C.O @ @ @ @ O O @ @ @ O O O @ @ @ @ O O @ @ @ ",
"; ; ; @ ; 6 6 4 6 6 8 8 * * > 0 0 0 5X4X(                     iXAXAX  e CXNXlX  MXNXpXy CXNXpX  jXHXlX  (.W.  ~.CXZXoX%.CXZXpX                                                                                                                                                                                                                                9 C.O @ @ @ @ O O @ @ O O @ @ @ @ @ @ @ @ @ @ @ ",
"@ 1 < 1 @ @ 1 1 1 6 8 8 ; * = ; ; 8 5X4X(                                                     .                                                                                                                                                                                                                                                               9 C.O @ @ @ @ @ @ @ O @ @ @ O @ @ @ @ @ @ @ @ @ ",
"3 3 < < < < < @ 1 1 6 6 @ ; ; * * : 5X4X(                                                                                                                                                                                                                                                                                                                     9 C.O @ @ @ @ @ @ @ @ @ @ O O O O @ @ O @ O O O ",
"5 O O O O O O @ @ 1 4 @ @ 8 1 @ 1 ; 5X4X(                                                                                                                                                                                                                                                                                                                     9 A.O @ @ @ @ @ @ @ @ @ @ O O O O @ @ O O O O O ",
"& o $ $ % o   $ # @ O + ; ; @ < 1 5 5X4X(                                                                                                                                                                                                                                                                                                                     9 A.O @ @ @ @ @ @ @ @ @ @ @ @ @ @ @ O O O O O O ",
"= * - o , o o p o X o & ; : o X # u E.5X(                                                                                                                                                                                                                                                                                                                     @ E.  @ @ @ @ @ @ @ @ @ @ @ @ @ @ @ O O O @ O @ ",
"f k f f f s s k = = f s > = = = = l s 4X(                                                                                                                                                                                                                                                                                                                       C.G.  @ @ @ @ @ @ @ @ @ @ @ @ @ @ @ @ @ @ O O ",
"f k f k k k l k s s k s f s s s k 3.l 0.#.                                                                                                                                                                                                                                                                                                                    9 ( C.P.  @ @ @ @ @ @ @ @ @ @ @ @ @ @ @ @ @ @ O ",
"g g s f s f k s = g f s s = = = f k f 0.#.                                                                                                                                                                                                                                                                                                                    w rX7 E.0 @ @ @ @ @ @ @ @ @ @ @ @ @ @ @ @ O @ @ ",
"q 8 q 8 8 c c 8 8 8 8 8 8 0 8 8 G q 0 o.#.                                                                                                                                                                                                                                                                                                                    O 6XE.v t.O @ @ @ @ @ @ @ @ @ @ @ @ @ @ @ O @ @ ",
"8 8 q q q q q q q q q 8 8 8 8 q 0 0 6 o.#.                                                                                                                                                                                                                                                                                                                      [ 4Xw o.@ @ @ @ @ @ @ @ @ @ @ @ @ @ @ @ @ @ @ ",
"8 8 8 8 z 8 8 8 8 8 8 8 8 8 8 8 8 8 6 o.#.                                                                                                                                                                                                                                                                                                                    9 [ @ t.Q @ @ @ @ @ @ @ @ @ @ @ @ @ @ @ @ @ @ @ ",
"c c z z z z z z z 8 8 8 8 8 8 8 8 8 6 o.#.                                                                                                                                                                                                                                                                                                                    Q eXw t.| @ @ @ @ @ @ @ @ @ @ @ @ @ @ @ @ @ @ @ ",
"c c c c c c c c c c q q c 8 z z 8 8 8 o.#.                                                                                                                                                                                                                                                                                                                    O wXP.[ | @ @ @ @ @ @ @ @ @ @ @ @ @ @ @ @ @ @ @ ",
"b c b c c c c c c c c c c c z c z 8 8 o.#.                                                                                                                                                                                                                                                                                                                      [ 3X[ Q @ @ @ @ @ @ @ @ @ @ @ @ @ @ @ @ @ @ @ ",
"! ! ! b ! W W W G q q q c c c c z 8 8 o.#.                                                                                                                                                                                                                                                                                                                    9 #.O t.[ @ @ @ @ @ @ @ @ @ @ @ @ @ @ @ @ @ @ @ ",
"! ! ! ! W W W G G G G G G c c c c 8 8 o.#.                                                                                                                                                                                                                                                                                                                    7 rXw t.Q @ @ @ @ @ @ @ @ @ @ @ @ @ @ @ @ @ @ @ ",
"^ ^ ! W W W G G G G G G G G G c q q 8 o.#.                                                                                                                                                                                                                                                                                                                    O 6XE.[ | @ @ @ @ @ @ @ @ @ @ @ @ @ @ @ @ @ @ @ ",
"~ W W W G G G G G G G G G G G G G q q o.#.                                                                                                                                                                                                                                                                                                                      [ 4X[ | @ @ @ @ @ @ @ @ @ @ @ @ @ @ @ @ @ @ @ ",
"~ W W W G G q q q q q q q G G G G q q o.#.                                                                                                                                                                                                                                                                                                                    9 #.O C.| @ @ @ @ @ @ @ @ @ @ @ @ @ @ @ @ @ @ @ ",
"W W c q q q q q q q q q q q G G q q 0 o.#.                                                                                                                                                                                                                                                                                                                    9 rXw t.[ @ @ @ @ @ @ @ @ @ @ @ @ @ @ @ @ @ @ @ ",
"c c c c q q q q 8 8 q q q q q q q q 0 o.#.                                                                                                                                                                                                                                                                                                                    O 6XE.[ [ @ @ @ @ @ @ @ @ @ @ @ @ @ @ @ O @ @ @ ",
"c c c c q q q q q q 8 8 q q q q q q 8 o.#.                                                                                                                                                                                                                                                                                                                      ( 4X[ | @ @ @ @ @ @ @ @ @ @ @ @ @ @ @ @ @ @ @ ",
"c c c c c q q q 8 8 8 q q q q 8 q q 8 o.#.                                                                                                                                                                                                                                                                                                                    w t.O t.| @ @ @ @ @ @ @ @ @ @ @ @ @ @ @ @ @ @ @ ",
"c c c c q q q q q q q q q q q q 8 8 8 o.#.                                                                                                                                                                                                                                                                                                                    6 rXv t.| @ 1 1 1 1 @ @ @ @ @ @ @ @ @ @ @ @ @ @ ",
"c c c c c q q q q q q q q q q q q 8 8 o.#.                                                                                                                                                                                                                                                                                                                    7 5XE.[ ' @ 1 1 1 1 @ @ @ @ @ @ @ @ @ @ @ @ @ @ ",
"c c c c c c q q q q q q q q q q q q 8 o.#.                                                                                                                                                                                                                                                                                                                    7 5XE.[ | @ @ 1 1 1 1 @ @ @ @ @ @ @ @ @ @ @ @ @ ",
"! c c c c c c c c c q c q q q q q q 8 t.#.                                                                                                                                                                                                                                                                                                                    7 5XE.[ | @ @ 1 1 1 1 @ @ 1 @ @ @ @ @ @ @ @ @ @ ",
"! ! b c c c c c c c c q q q c q c q c ; 5X                                                                                                                                                                                                                                                                                                                    6 wXt.#.| @ 1 1 @ 1 @ @ @ @ @ @ @ @ @ @ @ @ @ @ ",
"! ! ! b b b b c c c c c c c c c c c c q c 5X                                                                                                                                                                                                                                                                                                                  w E.  C.| @ 1 @ @ 1 @ @ @ @ @ @ @ @ @ @ @ @ @ @ ",
") ) ) ! ! ! b ! ! c c c c c c c c c c c q c wX                                                                                                                                                                                                                                                                                                                O   [ *X  1 1 @ @ @ 1 @ @ @ @ @ @ @ @ @ @ @ @ @ ",
"_ _ ) ) ) ) N ! ! ! ! ! b b c c c c c c c c c wX                                                                                                                                                                                                                                                                                                                Q *X  6 1 1 1 @ 1 1 @ @ @ @ @ @ @ @ @ @ @ @ @ ",
"] ] _ _ ) ) ) ! ! ! ! ! b ! b c b b c c b b c c wX                                                                                                                                                                                                                                                                                                              6X  6 1 6 1 1 1 @ @ @ @ @ @ @ @ @ @ @ @ @ @ @ ",
"O.] ] ` ] _ _ ) ! ! ! ! ! ! ! b ! b b b b b b c c wX                                                                                                                                                                                                                                                                                                          w P.@ 6 1 1 1 1 1 1 1 @ @ @ @ @ @ @ @ @ @ @ @ @ ",
"X.] ] ` ` ` ` ` ` ) ) ) ) ) ) ! ) N N N N N ) b c b wX                                                                                                                                                                                                                                                                                                        #.#.1 6 1 1 1 1 1 1 1 @ @ @ @ @ @ @ @ @ @ @ @ @ ",
"+.X.X.X.X.X.` ` ` ^ ^ ` ` ` ) ) _ ) ) ) ) ) ) ! ! b ! wX                                                                                                                                                                                                                                                                                                      [ t.6 6 1 1 1 1 1 1 1 @ @ @ @ @ @ @ @ @ @ @ @ @ ",
"X.X.X.X.X.X.^ ^ ` ^ ^ } } ` ` ` ] ` ` ` _ ` _ ! ! ! ! ! wX                                                                                                                                                                                                                                                                                                    9 P.@ 6 6 1 1 1 1 @ @ @ @ @ @ @ @ @ @ @ @ @ @ @ ",
"X.X.X.` X.} ^ ^ ^ ~ ~ } } } ` X.X.X.` ` ` ` ^ ^ ^ ^ ^ W ^ wX                                                                                                                                                                                                                                                                                                  7 P.@ 6 6 1 1 1 1 @ @ @ @ @ @ 1 @ @ @ @ @ @ @ @ ",
"X.X.X.` ^ ^ ^ ^ ^ ~ ~ } } } } X.} } X.X.` ^ ^ ^ ^ ^ ! ! W W wX                                                                                                                                                                                                                                                                                                9 P.; 6 6 1 1 1 1 @ @ @ @ @ @ 1 1 @ @ @ 1 @ @ @ ",
"} } } ^ ^ ^ ^ ^ ^ ~ ~ ~ } ~ ^ } } } } ^ ^ ^ ^ ! ^ ^ ! W W W W 5X                                                                                                                                                                                                                                                                                              9 G.; 6 6 1 1 1 @ @ @ @ @ @ @ 1 @ 1 1 @ 1 @ @ @ ",
"{ { { ^ ^ ^ ^ ^ ~ W ~ ~ ~ ~ ~ } } } ^ ^ ^ ! ! ! ! ! ! W W W c q 5X                                                                                                                                                                                                                                                                                            #.C.8 8 6 1 1 1 @ @ @ @ @ 1 1 1 @ 1 @ @ @ @ @ @ ",
"K K ~ ~ ~ ~ ^ W W W W W W W W ~ ^ ^ ^ ^ ~ ! ! ! ! ! W W W W q q q 5X                                                                                                                                                                                                                                                                                        6 5XX 8 8 6 1 1 @ @ @ @ @ 1 @ 1 @ @ 1 @ @ @ 1 @ @ ",
"K K K K K K ~ W W W W W ~ W ~ ~ ^ ^ ^ ^ ! W ! W ! ! W W W c q q q q 5X                                                                                                                                                                                                                                                                                    # wX; q q 0 1 1 1 @ @ @ @ 1 1 1 @ @ @ @ @ 1 @ 1 @ @ ",
"G K K K K K K K G W W W W W W ~ W ! ! ! W W ! ! ! W W c c c q q q 8 w 5X                                                                                                                                                                                                                                                                                # 6X4X6 q q 0 1 1 @ @ @ @ 1 1 1 1 1 @ @ @ @ @ @ 1 @ @ ",
"q q F G K K K K G G G G G W W W W ! ! ! W ! ! ! ! ! W c c c c q q q 8 c 5X                                                                                                                                                                                                                                                                            # wXE.5X0 q 0 4 1 @ ; @ @ @ @ 1 1 1 1 1 @ @ @ @ @ 1 @ @ ",
"q 0 0 0 0 q G G G K K K G G G W W ! ! ! ! ! ! ! ! ! ! W c c W q q q q 8 c 5X                                                                                                                                                                                                                                                                        9 6XG.P.E.0 0 4 4 1 ; ; ; 1 @ 1 1 1 1 1 1 1 1 @ 1 @ 1 @ @ ",
"0 0 0 0 0 0 0 0 0 0 F G G K G G ~ ^ ! ! ! ) ) ` ! ! ! ! c c W q q q q q q q 5XG.G.G.G.G.G.G.G.G.G.G.G.G.G.G.G.G.P.G.                                                                        9 P.P.P.P.G.G.G.G.G.G.G.G.G.G.G.G.G.G.G.G.G.G.G.G.G.G.G.G.G.G.G.t.t.t.t.t.t.t.t.t.t.t.t.t.t.t.t.t.t.t.t.t.t.t.t.t.t.t.t.t.t.t.t.t.t.t.t.t.t.C.P.G.P.P.P.5X  @ @ @ 0 4 4 4 ; > ; ; 6 ; 1 1 @ 1 1 @ 1 1 1 1 1 1 @ @ ",
"0 0 0 0 0 0 0 0 0 0 0 0 G G K K K ~ ~ ^ ! ^ _ _ ) ! ! ! b b b c c c c c c q @ q w 8 w q q q q q q w w 8 8 8 w w 0 #.5Xw 9 w w w w w w Q Q Q Q Q Q Q Q Q Q Q Q Q Q Q Q Q Q Q Q w w w w w 9 #.wX^ r.` o.^ o.^ o.W o.q W W #.W o.Q o.W o.W #.W o.W o.W o.W o.t.5X*X*X*X*X*X*X*X*X*X*X*X*X*X*X*X*X*X*X*X*X*X*X*X*X*X*X*X*X*X*X*X*X*X*X*X*X5XE.w 6 0 0 0 O q 0 q 8 0 4 4 6 > > ; ; ; ; 6 1 1 1 1 1 @ 1 @ 1 1 1 @ @ ",
"0 0 0 0 0 0 0 0 0 0 0 0 0 0 G K K ~ ~ ~ ~ ^ ` ` ) ^ ! ! b b b b c c c b c c q 8 8 8 8 q q q q q q q 8 8 0 0 0 0 8 6 @ wXwXwXwXwXwXwXwXwXwXwXwXwXwXwXwXwXwXwXwXwXwXwXwXwXwXwXwXwXwXwXwXwXwX9X9XA.wXC.wXt.eXt.eX#.eXt.rXo.rXo.rXo.rX#.rX' rX#.rX#.rX| rXo.rXt.wX5X5X4X4X4X5X5X5X5X5X4X4X4X5X5X5X5X5X5X5X5X5X5X5X5X5X5X5X5X5X5X5X5X5X5X5XC.  6 6 0 0 0 0 0 0 0 0 4 4 6 > > > 8 6 6 6 1 1 1 1 1 1 @ 1 1 @ @ @ @ @ ",
"0 0 0 0 0 0 0 0 0 0 0 0 0 0 0 q K K K ~ ~ ~ ^ ` ) ) ) ! ! N b b b b b b c c c 8 8 8 8 q q c z c c q 8 8 0 0 0 0 8 8 q @ q 8 8 8 w w q q q z c c c c c b b c c W H W W Q ^ { { { { ..+.+.X.X.^ ! ) ) ! b c c c q c q q q w 0 0 0 0 0 w 0 0 0 0 0 0 0 0 q q q q H H c c W W ^ ^ W W W W W q w w w q q w w 8 8 8 q q q w w w 8 8 8 8 0 0 @ 0 6 6 0 0 0 0 0 0 6 1 4 1 6 > > 8 q 0 6 1 1 1 1 1 1 1 @ 1 1 @ @ @ @ @ ",
"0 0 0 0 0 0 0 0 0 0 0 0 0 0 0 0 q G K K ~ { ~ ^ ^ ^ ) ) _ ) b b b b b b c c z z z 8 8 8 c c c z z c 8 8 8 8 8 8 8 8 8 8 8 8 8 8 8 8 8 8 z z c c b b b b b c W G G G W W ~ K K K K { { } ..} ~ ^ ` ` ) ! b b c c c q q q 8 8 0 0 0 6 0 0 0 0 8 8 8 8 8 8 8 q q q q q q q c W W W W G q G q q q q 0 q q 0 6 0 q q q q 8 8 0 0 0 0 8 8 8 8 6 0 6 0 0 0 6 0 0 0 4 1 6 > > 8 q 8 0 6 1 6 1 1 1 1 1 1 1 @ @ @ @ @ 1 ",
"0 0 0 6 0 0 0 0 0 0 0 0 0 0 0 0 0 q G G K ~ ~ ^ ^ ^ ^ ` ` ` ! b ! b b b c c c c c c c c c b b x x x z 8 8 8 z 8 z z 8 8 8 8 8 8 8 z z z z z c b b b b ! W W G G G G G G G G G G G ~ { { { ~ ~ ~ ^ ` ^ ! ! b b c c c c q 8 8 8 0 0 0 0 0 0 0 8 8 8 8 8 8 8 q q q q q q q q G G G G G G G q q 0 0 0 0 0 0 0 6 0 8 q q q 0 0 0 0 0 8 8 8 8 6 0 6 0 0 0 0 0 0 4 4 1 6 > > 8 q q 0 6 6 1 1 1 1 1 1 1 1 1 @ @ @ @ @ ",
"0 0 6 6 0 0 0 0 0 0 0 0 0 0 0 0 0 q q G G K ~ ~ ~ ^ ^ ` O.` ! W W W W W c c c c c c c c b b b b b x z z z c z z z z z 8 8 8 z z z z z z z c c c b ! W W G G G G q G G G G q q q q G K K { K K ~ ~ } ^ ! ! ! b c c c c c 8 8 8 0 0 0 0 0 0 0 8 8 8 8 8 8 q q q q q q q q q G q q G q q G q q 0 0 0 0 0 0 0 0 0 0 0 0 0 0 0 0 0 0 0 0 8 0 0 0 0 0 0 0 0 0 4 4 1 ; ; > 8 q q q 0 0 6 1 1 @ 1 1 1 1 1 1 1 @ @ @ @ ",
"6 6 6 6 6 0 6 6 6 0 6 0 0 0 0 0 0 q q q G G K ~ ~ ^ ^ ` O.^ W ~ ~ ~ ~ W W W G G c q c c c c c W ! c c c c c c c c c c z z z c c b b b b b c c W W W W G G G q q q q q q q 0 0 q q q G G K G G ~ ~ { ~ ~ ^ ! ! c b b c c z 8 8 8 0 0 0 6 0 8 8 8 8 8 8 q q q q q q q q q q q q q q q q q q q 0 0 0 0 0 0 6 0 0 0 0 0 0 0 0 6 0 0 0 0 0 0 0 0 0 6 6 0 0 0 4 4 @ ; ; 8 q q q q 0 6 6 6 1 @ @ 1 @ @ 1 1 @ @ @ @ @ ",
"6 6 6 6 6 6 6 6 6 6 6 6 0 0 0 0 0 0 q q q G G W ~ ~ ^ ` O.! G K K K K G G G G G q q G G W G G G W W c c c c c c b c c c c c c b b b b ! W c G W W K K K G q q q q 0 q 0 0 0 0 q q q q G W G G G K K ~ ~ ~ ^ ! ! ! b b c c z 8 8 8 8 8 8 8 8 8 8 8 z z c q q q q q q q q q q q 0 0 0 q q q 0 0 0 6 0 0 6 6 6 0 0 0 0 6 6 6 6 6 6 6 6 6 6 6 0 6 6 6 0 0 4 4 1 ; ; ; 0 q q q q 0 6 6 6 1 1 1 @ @ @ @ @ @ @ @ @ @ ",
"6 6 6 6 6 6 6 6 6 6 6 6 6 0 0 0 0 0 q q q G G W ~ ~ ^ ` ] W G K K K K G G G G G G G G K K K G G G G G q q q q q c c c c c c c b W c c W W G G G G K G q q 0 0 0 0 q 0 0 0 0 0 q q q q G G q q G G K K K ~ ~ ~ W ! ! ! b b c c 8 8 8 8 8 8 8 8 8 q q q q q q q q 0 0 0 0 q 0 0 0 0 0 q q q 0 0 0 6 0 6 6 6 6 6 6 0 6 6 6 6 6 6 6 6 6 6 6 6 6 0 0 0 0 4 4 1 1 ; ; 6 0 0 0 q q 0 0 6 6 1 1 1 @ @ 1 1 @ @ @ @ @ @ ",
"6 6 6 6 6 6 6 6 6 6 6 6 6 6 0 0 0 0 q q q q G W W ~ ^ X.` W G G G G G q q q q q 0 0 G K K K K K K G G G q q 0 G G q q q q c W W W W W G G G G G G G q 0 0 0 0 0 0 0 0 0 0 0 0 q q q q G G q q q q G G K K ~ ~ ~ ^ ^ ! ! b b c q 8 0 8 8 8 8 8 q q q q q q q 0 0 0 0 0 0 0 q q 0 0 0 0 q q 0 6 6 6 6 6 6 6 6 6 6 6 6 6 6 6 6 6 6 6 6 0 0 6 6 6 6 6 1 4 1 @ ; ; 6 6 0 0 0 0 0 0 0 6 6 1 1 1 1 @ @ 1 @ @ @ @ @ @ ",
"6 6 6 6 6 6 6 6 6 6 6 6 6 6 0 0 0 0 q q q q q W W W ^ O.` W q q q q q q 0 0 0 0 0 0 0 0 0 q G G G G 0 q q q q G G G G q q q G G G G K K G F 0 q 0 0 0 0 0 0 0 0 0 0 0 0 0 0 0 q q q q q G q q q q q q G K K K K W ~ ! ! b b c 8 8 8 8 8 8 8 q q q q q q 0 0 0 0 0 6 0 0 0 0 8 q 0 0 0 q 0 0 0 0 6 6 6 6 6 6 6 6 6 6 6 6 6 6 6 6 1 6 6 6 6 6 6 1 1 1 1 1 @ ; ; 6 0 0 0 0 0 0 0 0 6 6 1 1 1 1 @ @ @ 1 @ @ @ @ @ ",
"6 6 6 6 6 6 6 6 6 6 6 6 6 0 0 0 0 0 0 q q q q W W ^ ^ O.) c q q q q q q 0 0 0 0 0 0 0 0 0 0 0 0 0 0 0 0 0 0 0 F F F 0 F G q G G G G F G G q 0 0 0 0 0 0 0 0 0 0 0 0 0 0 0 0 0 0 q q q q q q 0 0 0 q 0 0 F K G G K ~ W W ! c c q 8 8 8 8 8 0 0 q q q 0 0 0 0 0 0 0 6 0 0 0 0 8 q 8 0 0 q 0 0 0 0 6 6 6 6 6 6 6 6 6 6 1 1 6 6 6 6 1 1 6 6 6 6 1 1 1 1 1 1 ; ; 6 6 6 6 6 0 0 0 0 0 6 6 6 1 1 1 1 @ @ 1 @ @ 1 @ @ ",
"6 6 6 6 6 6 6 6 6 6 6 6 6 0 0 0 0 0 0 q q q q q W ! ^ O.! c q q 0 q q q 0 0 0 0 0 0 0 0 0 0 0 0 0 0 0 0 0 0 0 0 0 0 0 0 q G G G 0 0 0 0 0 0 0 0 0 0 0 0 0 0 0 0 0 0 0 0 0 0 0 0 q q q q q q 0 0 q q q 0 0 q q q G K G W W W W q 8 8 8 8 0 0 0 0 0 0 0 0 0 0 6 0 0 0 0 0 0 8 q 8 8 0 0 0 0 0 0 0 6 6 6 6 6 6 6 6 1 1 1 1 1 6 6 1 1 1 1 1 6 6 1 1 1 1 1 @ ; ; 6 6 6 6 6 0 0 0 0 0 6 6 6 6 1 1 @ @ @ 1 @ @ @ @ @ ",
"6 6 6 6 6 6 6 6 6 6 6 6 6 6 6 0 0 0 0 q q q q G W ^ ^ O.! q q q 0 q q 8 0 0 0 0 0 0 0 0 0 0 0 0 0 0 0 0 0 0 0 0 0 0 0 0 0 0 0 0 0 0 0 0 0 0 0 0 0 0 0 0 0 0 0 0 0 0 0 0 0 0 0 0 0 q q q q 0 0 0 8 8 q 0 0 0 0 q q G G G G W G q 0 0 0 0 0 0 0 0 0 0 0 0 0 0 0 0 0 0 0 0 0 0 8 8 0 0 0 0 0 0 0 6 6 6 6 6 6 6 6 6 1 6 6 6 6 6 1 1 1 1 1 6 6 1 1 1 1 1 @ ; ; 6 6 0 6 6 6 6 0 0 0 0 0 6 1 1 1 @ @ @ 1 1 @ @ @ @ @ ",
"6 6 6 6 6 6 6 6 6 6 6 6 6 6 0 0 0 0 0 0 q q q G W ~ ^ O.! q q q q q 8 0 0 0 0 0 0 0 0 0 0 0 0 0 0 0 0 6 6 6 6 0 0 0 6 6 0 0 0 0 0 0 0 0 6 0 0 0 0 0 0 0 0 0 0 0 0 0 0 0 0 0 0 0 0 8 q q q 0 0 0 0 0 0 0 0 0 0 0 q G G K K G q q 0 0 0 0 0 0 0 0 0 0 0 0 0 0 0 0 0 6 6 0 0 0 8 0 0 0 0 0 0 0 6 6 6 6 6 6 6 6 1 1 1 1 1 1 6 6 1 1 1 1 1 1 6 1 1 1 @ @ @ ; ; 6 6 6 6 6 6 6 6 0 0 6 6 6 1 1 @ 1 @ @ 1 1 @ @ @ @ @ ",
"6 6 6 6 6 6 6 6 6 6 6 6 6 6 6 6 0 0 0 0 q q q q W W } O.W q q q q 0 0 0 0 0 0 0 0 0 0 0 0 0 0 0 0 0 6 6 6 6 6 6 6 6 6 6 6 6 0 0 6 6 6 0 0 0 0 0 6 0 0 0 0 6 0 0 0 0 0 0 0 6 0 0 0 8 q q q 0 6 0 0 q 0 0 0 0 0 0 0 0 0 G G G q 0 0 0 0 0 0 0 0 0 0 0 0 6 6 6 0 6 6 6 6 0 0 0 0 0 0 0 0 0 0 0 6 6 6 6 6 6 6 6 6 1 6 6 1 1 1 6 1 1 6 6 1 1 1 1 1 @ @ @ @ ; 6 6 6 6 6 6 6 6 6 0 6 6 6 6 1 1 1 1 1 1 1 1 1 @ @ @ @ ",
"6 6 6 6 6 6 6 6 6 6 6 6 6 6 6 6 0 0 0 0 q q q q W W } X.W q q q 0 q 0 0 0 0 0 0 0 0 0 0 0 0 0 0 0 0 6 6 6 6 6 6 6 6 6 6 6 6 0 0 6 0 0 6 6 6 0 0 6 6 0 0 0 0 0 0 0 0 0 0 0 6 0 0 8 8 8 q 0 0 0 0 0 8 0 0 0 0 0 0 0 0 0 0 q q 0 0 0 6 0 0 0 0 6 0 0 0 0 6 6 6 6 6 6 6 6 0 0 0 0 0 0 0 0 0 0 6 6 6 6 6 6 6 6 6 1 1 6 6 6 1 1 6 6 6 6 6 1 1 1 1 1 @ @ @ @ 6 6 6 6 6 6 6 6 6 6 0 6 6 6 6 6 1 1 1 1 1 1 1 @ @ @ @ @ ",
"6 6 6 6 6 6 1 6 6 6 6 6 6 6 6 6 0 0 0 0 q q q q W ~ X.X.W q q q q 8 0 0 0 0 0 0 0 6 6 6 6 0 0 6 6 0 6 6 6 6 6 6 6 6 6 6 6 6 6 6 6 6 6 0 6 0 0 0 6 6 6 6 0 0 0 0 0 6 6 0 6 6 0 0 0 8 8 q 0 0 0 0 0 0 8 0 0 0 0 0 0 0 0 0 0 0 0 0 0 0 0 0 0 0 0 6 6 6 6 0 6 6 6 6 6 6 0 0 0 0 0 0 0 0 6 0 0 0 6 6 1 1 6 6 6 6 6 6 1 6 1 6 1 1 1 1 6 6 1 1 1 1 @ @ @ @ ; ; 6 6 6 6 6 6 6 6 6 6 0 0 0 6 6 1 1 1 1 1 @ 1 1 @ @ @ @ ",
"1 6 1 1 6 6 1 6 1 6 6 6 6 6 6 0 0 0 0 0 q q q q W ^ X.` W q q q 8 8 0 0 0 0 0 0 6 6 6 6 6 6 0 6 6 6 6 6 6 6 6 6 6 6 6 6 6 6 6 6 6 6 6 6 0 0 6 0 6 6 6 6 6 0 0 0 0 0 6 6 6 6 6 0 0 0 8 8 0 0 0 6 0 8 q 8 0 0 0 0 0 0 0 0 0 0 0 0 0 0 0 0 6 6 6 6 6 6 6 6 6 6 6 6 6 6 6 6 0 0 0 0 0 6 6 6 0 6 6 6 6 6 6 6 6 6 6 6 6 6 1 1 1 1 6 1 1 1 1 1 1 1 @ @ @ @ ; 6 6 6 6 6 6 6 6 6 6 0 0 0 0 6 6 6 1 1 1 1 1 1 1 1 1 @ @ ",
"6 1 1 1 6 1 1 6 6 6 6 1 6 6 6 6 6 0 0 0 0 q q q W ^ X.` c q q 8 8 8 0 0 0 0 0 0 0 6 6 6 6 6 6 6 6 6 6 6 6 6 6 1 6 6 6 6 6 6 6 6 6 6 6 6 6 6 6 6 6 0 6 6 6 6 6 0 0 6 6 6 6 6 6 6 0 0 0 0 0 0 0 0 6 0 8 0 0 0 0 0 0 0 0 0 6 6 6 0 0 0 0 0 0 0 6 6 6 6 6 6 6 6 6 6 6 0 6 6 0 0 0 0 0 0 6 6 6 6 6 6 1 6 6 1 6 6 6 6 6 6 6 1 @ @ 1 1 1 1 1 1 1 @ @ @ @ @ 1 6 6 6 6 6 6 6 6 6 6 0 6 6 6 6 6 6 1 1 @ 1 1 @ @ @ @ @ @ ",
"6 1 6 6 1 1 1 6 6 6 6 1 6 1 1 6 0 0 0 0 0 0 q q W ^ X.) c q q q 8 0 0 0 0 0 0 0 0 6 6 6 6 6 6 6 6 6 6 6 6 6 6 1 1 6 6 6 6 6 6 6 6 6 6 6 6 6 6 6 6 6 6 6 6 6 0 0 0 0 6 6 6 0 0 0 0 8 8 0 0 0 0 8 8 0 0 8 8 0 0 0 0 0 0 0 0 6 0 6 6 6 6 6 0 0 0 6 6 6 0 6 6 6 6 6 0 0 0 0 0 0 0 6 6 6 0 6 6 6 6 6 1 1 6 6 6 6 1 6 6 6 6 6 @ ; 6 6 1 1 1 1 1 @ @ @ @ 6 1 6 6 6 6 6 6 6 6 0 6 0 0 0 0 6 6 6 1 1 1 @ @ 1 1 1 1 1 @ "
};
