/* XPM */
static char *eb3594ef4faf445bb6ff65e2ca7515f4Xo2K1lcI8mNRhamk[] = {
/* columns rows colors chars-per-pixel */
"266 800 256 2 ",
"   c #000203",
".  c #0B0202",
"X  c #000A05",
"o  c #0B0B03",
"O  c #000509",
"+  c #0B040B",
"@  c #000B0C",
"#  c #0B0C0C",
"$  c #130202",
"%  c #1B0202",
"&  c #150907",
"*  c #011304",
"=  c #011B03",
"-  c #0B1805",
";  c #00120D",
":  c #0B130C",
">  c #011B0C",
",  c #161607",
"<  c #000413",
"1  c #000D12",
"2  c #0B0B14",
"3  c #00041B",
"4  c #000C1B",
"5  c #150A14",
"6  c #001313",
"7  c #0C1313",
"8  c #011A14",
"9  c #00141A",
"0  c #001B1B",
"q  c #0B1A18",
"w  c #121414",
"e  c #151717",
"r  c #141B1B",
"t  c #1B1D1D",
"y  c #260504",
"u  c #360404",
"i  c #261706",
"p  c #2D1312",
"a  c #012303",
"s  c #012B03",
"d  c #02230C",
"f  c #0B2708",
"g  c #022B0C",
"h  c #152607",
"j  c #023402",
"k  c #053A07",
"l  c #02330C",
"z  c #15370E",
"x  c #012314",
"c  c #012B14",
"v  c #01231C",
"b  c #0B2619",
"n  c #012B1C",
"m  c #17251A",
"M  c #023314",
"N  c #063915",
"B  c #02331C",
"V  c #023B1C",
"C  c #2B2D11",
"Z  c #000323",
"A  c #000C23",
"S  c #0C0F21",
"D  c #00032C",
"F  c #000C2B",
"G  c #001423",
"H  c #001C23",
"J  c #0B1A25",
"K  c #00142B",
"L  c #001C2B",
"P  c #181C23",
"I  c #16112B",
"U  c #000333",
"Y  c #000C33",
"T  c #01083B",
"R  c #011433",
"E  c #011B33",
"W  c #01143B",
"Q  c #011C3B",
"!  c #2A1126",
"~  c #012323",
"^  c #0B2727",
"/  c #012B23",
"(  c #01242B",
")  c #012B2B",
"_  c #1C2323",
"`  c #162827",
"'  c #013324",
"]  c #023B23",
"[  c #01332C",
"{  c #0B3728",
"}  c #023B2C",
"|  c #16312D",
" . c #012433",
".. c #012C33",
"X. c #0A2B34",
"o. c #01243B",
"O. c #012C3B",
"+. c #023334",
"@. c #023B33",
"#. c #0A3837",
"$. c #02343B",
"%. c #023B3C",
"&. c #163938",
"*. c #232626",
"=. c #242B2B",
"-. c #2A2C2C",
";. c #2E2E2F",
":. c #26342C",
">. c #2A3535",
",. c #353939",
"<. c #460C07",
"1. c #453122",
"2. c #044707",
"3. c #035706",
"4. c #044618",
"5. c #154D12",
"6. c #055718",
"7. c #2D4B11",
"8. c #036212",
"9. c #044628",
"0. c #045728",
"q. c #15522B",
"w. c #024334",
"e. c #03433C",
"r. c #054A38",
"t. c #18443C",
"y. c #045738",
"u. c #2F4A35",
"i. c #036328",
"p. c #19622F",
"a. c #046339",
"s. c #2F642F",
"d. c #474D28",
"f. c #010F4A",
"g. c #011945",
"h. c #012C43",
"j. c #012748",
"k. c #013343",
"l. c #023C43",
"z. c #01344B",
"x. c #043B4A",
"c. c #163446",
"v. c #012A54",
"b. c #023855",
"n. c #323B45",
"m. c #023C62",
"M. c #453F41",
"N. c #024344",
"B. c #064945",
"V. c #03444B",
"C. c #034B4C",
"Z. c #174D49",
"A. c #055847",
"S. c #03534B",
"D. c #044757",
"F. c #044C53",
"G. c #055757",
"H. c #3A4645",
"J. c #2E504E",
"K. c #245853",
"L. c #056448",
"P. c #056558",
"I. c #146754",
"U. c #306956",
"Y. c #064962",
"T. c #065963",
"R. c #355268",
"E. c #056566",
"W. c #056B74",
"Q. c #0A7078",
"!. c #286663",
"~. c #2B6B64",
"^. c #2D7269",
"/. c #327872",
"(. c #454949",
"). c #48514F",
"_. c #4A5656",
"`. c #55595A",
"'. c #51675A",
"]. c #555C63",
"[. c #5B6464",
"{. c #526F6E",
"}. c #666062",
"|. c #66696A",
" X c #68756C",
".X c #6A6E71",
"XX c #6B7473",
"oX c #697877",
"OX c #727474",
"+X c #747977",
"@X c #747B7B",
"#X c #7B7C7D",
"$X c #887A79",
"%X c #36865C",
"&X c #34847B",
"*X c #35847B",
"=X c #548B6F",
"-X c #6C8973",
";X c #78827D",
":X c #888F7D",
">X c #067B84",
",X c #567587",
"<X c #6C7986",
"1X c #7A7E82",
"2X c #058993",
"3X c #388D83",
"4X c #3B9489",
"5X c #3E9C91",
"6X c #049AA5",
"7X c #03A6B2",
"8X c #4F8F8C",
"9X c #7B8483",
"0X c #788786",
"qX c #74908F",
"wX c #43A498",
"eX c #75A694",
"rX c #48B2A5",
"tX c #79A0A7",
"yX c #02B9C4",
"uX c #03CED9",
"iX c #858989",
"pX c #89918E",
"aX c #8B9594",
"sX c #969999",
"dX c #90A49A",
"fX c #A2A09B",
"gX c #949BA3",
"hX c #9DA4A3",
"jX c #8EB0AC",
"kX c #A6A9A9",
"lX c #ABB0B0",
"zX c #ACB4B4",
"xX c #B7B9B9",
"cX c #CABCB7",
"vX c #B3C3BB",
"bX c #B7BCC2",
"nX c #97C2C2",
"mX c #BCC4C3",
"MX c #B0CBC9",
"NX c #C3C4C4",
"BX c #C5C9C9",
"VX c #CBCCCC",
"CX c #CBD0CF",
"ZX c #CDD3D2",
"AX c #D3D4D4",
"SX c #D6D9D9",
"DX c #DBDCDC",
"FX c #DBE0DF",
"GX c #DDE1E2",
"HX c #E3E4E4",
"JX c #E6E9E9",
"KX c #EBECEC",
"LX c #EDF1F0",
"PX c #F3F4F4",
"IX c #F7F8F8",
"UX c #FEFEFE",
/* pixels */
"O O O O O O O O O O O O O O O O O O O O O O O O O O O O O O O O O O O O O O O O O O O O O O O O O O O O O O O O O O O O O O O O O O O O O O O O O O O O O O O O O O O O O O O O O O O O O O O O O O O O O O O O O O O O O O O O O O O O O O O O O O O O O O O O O O O O O O O O O O O O O O O O O O O O O O O O O O O O O O O O O O O O O O O O O O O O O O O O O O   O O O   O O O O O O O O O O O O O O O O O O O O O O O O O O O O O O O O O O O O O O O O O O O O O O O O O O O O O O O O O O O O O O O O O O O O O O O O O O O O O O O O O O O ",
"O O O O O O O O O O O O O O O O O O O O O O O O O O O O O O O O O O O O O O O O O O O O O O O O O O O O O O O O O O O O O O O O O O O O O O O O O O O O O O O O O O O O O O O O O O O O O O O O O O O O O O O O O O O O O O O O O O O O O O O O O O O O O O O O O O O O O O O O O O O O O O O O O O O O O O O O O O O O O O O O O O O O O O O O O O O O O O O O O O   O O O O O O O O O O O O O O O O O O O O O O O O O O O O O O O O O O O O O O O O O O O O O O O O O O O O O O O O O O O O O O O O O O O O O O O O O O O O O O O O O O O O O O O ",
"O O O O O O O O O O O O O O O O O O O O O O O O O O O O O O O O O O O O O O O O O O O O O O O O O O O O O O O O O O O O O O O O O O O O O O O O O O O O O O O O O O O O O O O O O O O O O O O O O O O O O O O O O O O O O O O O O O O O O O O O O O O O O O O O O O O O O O O O O O O O O O O O O O O O O O O O O O O O O O O O O O O O O O O O O O O O O O O O O O O O O O O O O O O O O O O O O O O O O O O O O O O O O O O O O O O O O O O O O O O O     O O O O O O O O O O O O O O O O O O O O O O O O O O O O O O O O O O O O O O O O O O O O ",
"O O O O O O O O O O O O O O O O O O O O O O O O O O O O O O O O O O O O O O O O O O O O O O O O O O O O O O O O O O O O O O O O O O O O O O O O O O O O O O O O O O O O O O O O O O O O O O O O O O O O O O O O O O O O O O O O O O O O O O O O O O O O O O O O O O O O O O O O O O O O O O O O O O O O O O O O O O O O O O O O O O O O O O O O O O O O O O O O O O O O O O O O O O O O O O O O O O O O O O O O O O O O O O O O O O O O O O O O O O O O O O O O O O O O O O O O O O O O O O O O O O O O O O O O O O O O O O O O O O O O O O O O O O ",
"O O O O O O O O O O O O O O O O O O O O O O O O O O O O O O O O O O O O O O O O O O O O O O O O O O O O O O O O O O O O O O O O O O O O O O O O O O O O O O O O O O O O O O O O O O O O O O O O O O O O O O O O O O O O O O O O O O O O O O O O O O O O O O O O O O O O O O O O O O O O O O O O O O O O O O O O O O O O O O O O O O O O O O O O O O O O O O O O O O O O O O O O O O O O O O O O O O O O O O O O O O O O O O O O O O O O O O O O O O O O O O O O O O O O O O O O O O O O O O O O O O O O O O O O O O O O O O O O O O O O O O O   O   ",
"O O O O O O O O O O O O O O O O O O O O O O O O O O O O O O O O O O O O O O O O O O O O O O O O O O O O O O O O O O O O O O O O O O O O O O O O O O O O O O O O O O O O O O O O O O O O O O O O O O O O O O O O O O O O O O O O O O O O O O O O O O O O O O O O O O O O O O O O O O O O O O O O O O O O O O O O O O O O O O O O O O O O O O O O O O O O O O O O O O O O O O O O O O O O O O O O O O O O O O O O   O O O O O O O O O O O O O O O O O O O O O O O O O O O O O O O O O O O O O O O O O O O O O O O O O O O O O O O O O O O O O O   O O ",
"O O O O O O O O O O O O O O O O O O O O O O O O O O O O O O O O O O O O O O O O O O O O O O O O O O O O O O O O O O O O O O O O O O O O O O O O O O O O O O O O O O O O O O O O O O O O O O O O O O O O O O O O O O O O O O O O O O O O O O O O O O O O O O O O O O O O O O O O O O O O O O O O O O O O O O O O O O O O O O O O O O O O O O O O O O O O O O O O O O O O O O O O O O O O O O O O O O O O O O O O O O O O O O O O O O O O O O O O O O O   O O O O O O O O O O O O O O O O O O O O O O O O O O O O O O O O O     O O O     O O   O O O ",
"O O O O O O O O O O O O O O O O O O O O O O O O O O O O O O O O O O O O O O O O O O O O O O O O O O O O O O O O O O O O O O O O O O O O O O O O O O O O O O O O O O O O O O O O O O O O O O O O O O O O O O O O O O O O O O O O O O O O O O O O O O O O O O O O O O O O O O O O O O O O O O O O O O O O O O O O O O O O O O O O O O O O O O O O O O O O O O O O O O O O O O O O O O O O O O O O O O O O O O O O O O O O O O O O O O O O O O O O O O O O O O O O O O O O O O O O O O O O O O O O O O O O O O O O O O O O O O O O O O     O O O O O O ",
"O O O O O O O O O O O O O O O O O O O O O O O O O O O O O O O O O O O O O O O O O O O O O O O O O O O O O O O O O O O O O O O O O O O O O O O O O O O O O O O O O O O O O O O O O O O O O O O O O O O O O O O O O O O O O O O O O O O O O O O O O O O O O O O O O O O O O O O O O O O O O O O O O O O O O O O O O O O O O O O O O O O O O O O O O O O O O O O O O O O O O O O O O O O O O O O O O O O O O O O O O O O O O O O O O O O O O O O O O O O O O O   O O O O O O O O O O O O O O O O O O O O O O O O O O O O O O O O O O O O O O O O O O O ",
"O O O O O O O O O O O O O O O O O O O O O O O O O O O O O O O O O O O O O O O O O O O O O O O O O O O O O O O O O O O O O O O O O O O O O O O O O O O O O O O O O O O O O O O O O O O O O O O O O O O O O O O O O O O O O O O O O O O O O O O O O O O O O O O O O O O O O O O O O O O O O O O O O O O O O O O O O O O O O O O O O O O O O O O O O O O O O O O O O O O O O O O O O O O O O O O O O O O O O O O O O O O O O O O O O O O O O O O O O O O O O O O O O O O O O O O O O O O O O O O O O O O O O O O O O O O O O O O O O O O O O O O O O O ",
"O O O O O O O O O O O O O O O O O O O O O O O O O O O O O O O O O O O O O O O O O O O O O O O O O O O O O O O O O O O O O O O O O O O O O O O O O O O O O O O O O O O O O O O O O O O O O O O O O O O O O O O O O O O O O O O O O O O O O O O O O O O O O O O O O O O O O O O O O O O O O O O O O O O O O O O O O O O O O O O O O O O O O O O O O O O O O O O O O O O O O O O O O O O O O O O O O O O O O O O O O O O O O O O O O O O O O O O O O O O O O O O O O O O O O O O O O O O O O O O O O O O O O O     O O O O O O   O O O O O O O O O O O ",
"O O O O O O O O O O O O O O O O O O O O O O O O O O O O O O O O O O O O O O O O O O O O O O O O O O O O O O O O O O O O O O O O O O O O O O O O O O O O O O O O O O O O O O O O O O O O O O O O O O O O O O O O O O O O O O O O O O O O O O O O O O O O O O O O O O O O O O O O O O O O O O O O O O O O O O O O O O O O O O O O O O O O O O O O O O O O O O O O O O O O O O O O O O O O O O O O O O O O O O O O O O O O O O O O O O O O O O O O O O O O O O O O O O O O O O O O O O O O O O O O O O O O O       O O O O O O O O O O O O O O O O O O ",
"O O O O O O O O O O O O O O O O O O O O O O O O O O O O O O O O O O O O O O O O O O O O O O O O O O O O O O O O O O O O O O O O O O O O O O O O O O O O O O O O O O O O O O O O O O O O O O O O O O O O O O O O O O O O O O O O O O O O O O O O O O O O O O O O O O O O O O O O O O O O O O O O O O O O O O O O O O O O O O O O O O O O O O O O O O O O O O O O O O O O O O O O O O O O O O O O O O O O O O O O O O O O O O O O O O O O O O O O O O O O O O O O O O O O O O O O O O O O O O O O O O O O O O O O O O O O O O O O O O O O O O O O O O ",
"O O O O O O O O O O O O O O O O O O O O O O O O O O O O O O O O O O O O O O O O O O O O O O O O O O O O O O O O O O O O O O O O O O O O O O O O O O O O O O O O O O O O O O O O O O O O O O O O O O O O O O O O O O O O O O O O O O O O O O O O O O O O O O O O O O O O O O O O O O O O O O O O O O O O O O O O O O O O O O O O O O O O O O O O O O O O O O O O O O O O O O O O O O O O O O O O O O O O O O O O O O O O O O O O O O O O O O O O O O O O O O O O O O O O O O O O O O O O O O O O O O O O O O O O O O O O O O O O O O O O O O O O O O ",
"O O O O O O O O O O O O O O O O O O O O O O O O O O O O O O O O O O O O O O O O O O O O O O O O O O O O O O O O O O O O O O O O O O O O O O O O O O O O O O O O O O O O O O O O O O O O O O O O O O O O O O O O O O O O O O O O O O O O O O O O O O O O O O O O O O O O O O O O O O O O O O O O O O O O O O O O O O O O O O O O O O O O O O O O O O O O O O O O O O O O O O O O O O O O O O O O O O O O O O O O O O O O O O O O O O O O O O O O O O O O O O O O O O O O O O O O O O O O O O O O O O O O O O O O O O O O O O   O O   O O O O O O O O ",
"O O O O O O O O O O O O O O O O O O O O O O O O O O O O O O O O O O O O O O O O O O O O O O O O O O O O O O O O O O O O O O O O O O O O O O O O O O O O O O O O O O O O O O O O O O O O O O O O O O O O O O O O O O O O O O O O O O O O O O O O O O O O O O O O O O O O O O O O O O O O O O O O O O O O O O O O O O O O O O O O O O O O O O O O O O O O O O O O O O O O O O O O O O O O O O O O O O O O O O O O O O O O O O O O O O O O O O O O O O O O O O O O O O O O O O O O O O O O O O O O O O O O O O O O O O O O O O O O O O O O O O O O O O ",
"O O O O O O O O O O O O O O O O O O O O O O O O O O O O O O O O O O O O O O O O O O O O O O O O O O O O O O O O O O O O O O O O O O O O O O O O O O O O O O O O O O O O O O O O O O O O O O O O O O O O O O O O O O O O O O O O O O O O O O O O O O O O O O O O O O O O O O O O O O O O O O O O O O O O O O O O O O O O O O O O O O O O O O O O O O O O O O O O O O O O O O O O O O O O O O O O O O O O O O O O O O O O O O O O O O O O O O O O O O O O O O O O O O O O O O O O O O O O O O O O O O O O O O O O O O O   O O O O     O O O O O O O O ",
"O O O O O O O O O O O O O O O O O O O O O O O O O O O O O O O O O O O O O O O O O O O O O O O O O O O O O O O O O O O O O O O O O O O O O O O O O O O O O O O O O O O O O O O O O O O O O O O O O O O O O O O O O O O O O O O O O O O O O O O O O O O O O O O O O O O O O O O O O O O O O O O O O O O O O O O O O O O O O O O O O O O O O O O O O O O O O O O O O O O O O O O O O O O O O O O O O O O O O O O O O O O O O O O O O O O O O O O O O O O O O O O O O O O O O O O O O O O O O O O O O O   O O O O   O O O   O O O O O   O O O O O O O O ",
"O O O O O O O O O O O O O O O O O O O O O O O O O O O O O O O O O O O O O O O O O O O O O O O O O O O O O O O O O O O O O O O O O O O O O O O O O O O O O O O O O O O O O O O O O O O O O O O O O O O O O O O O O O O O O O O O O O O O O O O O O O O O O O O O O O O O O O O O O O O O O O O O O O O O O O O O O O O O O O O O O O O O O O O O O O O O O O O O O O O O O O O O O O O O O O O O O O O O O O O O O O O O O O O O O O O O O O O O O O O O O O O O O O O O O O O O O O O O O O O O O O O O O O     O O O O     O O O     O O O O O O O ",
"O O O O O O O O O O O O O O O O O O O O O O O O O O O O O O O O O O O O O O O O O O O O O O O O O O O O O O O O O O O O O O O O O O O O O O O O O O O O O O O O O O O O O O O O O O O O O O O O O O O O O O O O O O O O O O O O O O O O O O O O O O O O O O O O O O O O O O O O O O O O O O O O O O O O O O O O O O O O O O O O O O O O O O O O O O O O O O O O O O O O O O O O O O O O O O O O O O O O O O O O O O O O O O O O O O O O O O O O O O O O O O O O O O O O O O O O O O O O O O O O O O O O O O   O O O O O O O O O O O O O O O O O O O ",
"O O O O O O O O O O O O O O O O O O O O O O O O O O O O O O O O O O O O O O O O O O O O O O O O O O O O O O O O O O O O O O O O O O O O O O O O O O O O O O O O O O O O O O O O O O O O O O O O O O O O O O O O O O O O O O O O O O O O O O O O O O O O O O O O O O O O O O O O O O O O O O O O O O O O O O O O O O O O O O O O O O O O O O O O O O O O O O O O O O O O O O O O O O O O O O O O O O O O O O O O O O O O O O O O O O O O O O O O O O O O O O O O O O O O O O O O O O O O O O O O O O O O O O O O O O O O O O O O O O O O O O O O O O ",
"O O O O O O O O O O O O O O O O O O O O O O O O O O O O O O O O O O O O O O O O O O O O O O O O O O O O O O O O O O O O O O O O O O O O O O O O O O O O O O O O O O O O O O O O O O O O O O O O O O O O O O O O O O O O O O O O O O O O O O O O O O O O O O O O O O O O O O O O O O O O O O O O O O O O O O O O O O O O O O O O O O O O O O O O O O O O O O O O O O O O O O O O O O O O O O O O O O O O O O O O O O O O O O O O O O O O O O O O O O O O O O O O O O O O O O O O O O O O O O O O O O   O O O O O O O O O O O O O O O O O O O O O O O ",
"O O O O O O O O O O O O O O O O O O O O O O O O O O O O O O O O O O O O O O O O O O O O O O O O O O O O O O O O O O O O O O O O O O O O O O O O O O O O O O O O O O O O O O O O O O O O O O O O O O O O O O O O O O O O O O O O O O O O O O O O O O O O O O O O O O O O O O O O O O O O O O O O O O O O O O O O O O O O O O O O O O O O O O O O O O O O O O O O O O O O O O O O O O O O O O O O O O O O O O O O O O O O O O O O O O O O O O O O O O O O O O O O O O O O O O O O O O O O O O O O O O   O O O O O O O O O O O O O O O O O O O O O O O ",
"O O O O O O O O O O O O O O O O O O O O O O O O O O O O O O O O O O O O O O O O O O O O O O O O O O O O O O O O O O O O O O O O O O O O O O O O O O O O O O O O O O O O O O O O O O O O O O O O O O O O O O O O O O O O O O O O O O O O O O O O O O O O O O O O O O O O O O O O O O O O O O O O O O O O O O O O O O O O O O O O O O O O O O O O O O O O O O O O O O O O O O O O O O O O O O O O O O O O O O O O O O O O O O O O O O O O O O O O O O O O O O O O O O O O O O O O O O O O O O O O O O   O O O O     O     O O O O O O O O O O   O O O ",
"O O O O O O O O O O O O O O O O O O O O O O O O O O O O O O O O O O O O O O O O O O O O O O O O O O O O O O O O O O                   O O O O O O O O O O O O                       O O O O O O O O O O O O O O O O O O O O O O O O O O O O O O O O O O O O O O O O O O O O O O O O O O O O O O O O O O O O O O O O O O O O O O O O O O O O O O O O O O O O O O O O O O O O O O O O O O O O O O O O O O O O O O O O O O O O O O O O O O O O O O O O O O O O O O O O O O O O O O O O O O O O O O O O O O O O O O O   O O O O O O O O O O O O O O O O ",
"O O O O O O O O O O O O O O O O O O O O O O O O O O O O O O O O O O O O O O O O O O O O O O O O O O O O O O O O @   6X7X7X7X7X7X7X7XyX@ O O O O O O O O O O   Q.V.C.F.F.F.F.F.F.G.(   O O O O O O O O O O O O O O O O O O O O O O O O O O O O O O O O O O O O O O O O O O O O O O O O O O O O O O O O O O O O O O O O O O O O O O O O O O O O O O O O O O O O O O O O O O O O O O O O O O O O O O O O O O O O O O O O O O O O O O O O O O O O O O O O O O O O O O O O O O O O O O O O O O O O O O O O O O O O O O O O O O O O O O O O O O O O O O O ",
"O O O O O O O O O O O O O O O O O O O O O O O O O O O O O O O O O O O O O O O O O O O O O O O O O O O O O O O O   uX6XK.!.!.!.!.!.!.T.uX. O O O O O O O O   7X2 ~ #.@ 9 0 9 H O ( 9 O O O O O O O O O O O O O O O O O O O O O O O O O O O O O O O O O O O O O O O O O O O O O O O O O O O O O O O O O O O O O O O O O O O O O O O O O O O O O O O O O O O O O O O O O O O O O O O O O O O O O O O O O O O O O O O O O O O O O O O O O O O O O O O O O O O O O O O O O O O O O O O O O O O O O O O O O O   O O O O O O O O O O O O O O O O O O O O O ",
"O O O O O O O O O O O O O O O O O O O O O O O O O O O O O O O O O O O O O O O O O O O O O O O O O O O O O O   O O Z.  1 O O O O O O 1 ..@ 2   O O O O O   7X@ ^ 2X2X#.2XK.T.2X^ 2Xc.  O O O O O O O O O O O O O O O O O O O O O O O O O O O O O O O O O O O O O O O O O O O O O O O O O O O O O O O O O O O O O O O O O O O O O O O O O O O O O O O O O O O O O O O O O O O O O O O O O O O O O O O O O O O O O O O O O O O O O O O O O O O O O O O O O O O O O O O O O O O O O O O O O O O O O O O O O O O O O O O O O O O O O O O O O O O O O O O ",
"O O O O O O O O O O O O O O O O O O O O O O O O O O O O O O O O O O O O O O O O O O O O O O O O O O O   @ C.W.W.9 ~ ..c.+...$...+.c...( 6 G.E.G.9   O O 7X@ O @ H H O H 7 6 H 6 ..9   O O O O O O O O O O O O O O O O O O O O O O O O O O O O O O O O O O O O O O O O O O O O O O O O O O O O O O O O O O O O O O O O O O O O O O O O O O O O O O O O O O O O O O O O O O O O O O O O O O O O O O O O O O O O O O O O O O O O O O O O O O O O O O O O O O O O O O O O O O O O O O O O O O O O O O O O O O O O O O O O O O O O O O O O O O O O O O O ",
"O O O O O O O O O O O O O O O O O O O O O O O O O O O O O O O O O O O O O O O O O O O O O O O O O   9 Q.E.V.~ ( H O   O 0 H 0 H 0 @     0 ^ ( #.T.Q...+ 1 O O X.6X2X2X2XW.G.E...) 6 O O O O O O O O O O O O O O O O O O O O O O O O O O O O O O O O O O O O O O O O O O O O O O O O O O O O O O O O O O O O O O O O O O O O O O O O O O O O O O O O O O O O O O O O O O O O O O O O O O O O O O O O O O O O O O O O O O O O O O O O O O O O O O O O O O O O O O O O O O O O O O O O O O O O O O O O O O O O O O O O O O O O O O O O O O O O O O O O ",
"O O O O O O O O O O O O O O O O O O O O O O O O O O O O O O O O O O O O O O O O O O O O O O O   @ >XT.) ) 9   H F.G.G.V.#.%.) l.l.F.G.E.G.^   1 ) ( F.>X(   O ` /.!.^.&.Z.2 1 J J 1 O O O O O O O O O O O O O O O O O O O O O O O O O O O O O O O O O O O O O O O O O O O O O O O O O O O O O O O O O O O O O O O O O O O O O O O O O O O O O O O O O O O O O O O O O O O O O O O O O O O O O O O O O O O O O O O O O O O O O O O O O O O O O O O O O O O O O O O O O O O O O O O O O O O O O O O O O O O O   O O O O O O O O O O O O O O O O O O O ",
"O O O O O O O O O O O O O O O O O O O O O O O O O O O O O O O O O O O O O O O O O O O O O O   T.W.( ..O 1 G.T.l.@   O   @   0 O ~ @ H @ J F.E.E.~   ..( G.>X              O O O   O O O O O O O O O O O O O O O O O O O O O O O O O O O O O O O O O O O O O O O O O O O O O O O O O O O O O O O O O O O O O O O O O O O O O O O O O O O O O O O O O O O O O O O O O O O O O O O O O O O O O O O O O O O O O O O O O O O O O O O O O O O O O O O O O O O O O O O O O O O O O O O O O O O O O O O O O O O O O O O O O O O O O O O O O O O O O O O O O ",
"O O O O O O O O O O O O O O O O O O O O O O O O O O O O O O O O O O O O O O O O O O O O O @ 2X$.+.@ 1 W.F.@         O 1 @ 6 @ 9 9 H H 0 ) ^ X.0 G.Q.~   $.( >X)   O O O O O O O O O O O O O O O O O O O O O O O O O O O O O O O O O O O O O O O O O O O O O O O O O O O O O O O O O O O O O O O O O O O O O O O O O O O O O O O O O O O O O O O O O O O O O O O O O O O O O O O O O O O O O O O O O O O O O O O O O O O O O O O O O O O O O O O O O O O O O O O O O O O O O O O O O O O O O O O O O O O O O O O O O O O O O O O O O O O O O O O O O ",
"O O O O O O O O O O O O O O O O O O O O O O O O O O O O O O O O O O O O O O O O O   1 O ( >X~ (   E.G.O 9       9 6 9 0 0 0 ~ ( ) ..+...X.^ ^ ^ ..@ G.Q.O 9 ) T.F.  9   O O O O O O O O O O O O O O O O O O O O O O O O O O O O O O O O O O O O O O O O O O O O O O O O O O O O O O O O O O O O O O O O O O O O O O O O O O O O O O O O O O O O O O O O O O O O O O O O O O O O O O O O O O O O O O O O O O O O O O O O O O O O O O O O O O O O O O O O O O O O O O O O O O O O O O O O O O O O O O O O O O O O O O O O O O O O O O O O O O O O O O ",
"O O O O O O O O O O O O O O O O O O O O O O O O O O O O O O O O O O O O O O O O   ..2X..W.( @ F.2X@ @ @   @ 9 0 9 9 9 6 1 6 9 0 H ~ ..+.$.^ X.X.^ ^ ..7 >XW.  $.$.W.l.>X  O O O O O O O O O O O O O O O O O O O O O O O O O O O O O O O O O O O O O O O O O O O O O O O O O O O O O O O O O O O O O O O O O O O O O O O O O O O O O O O O O O O O O O O O O O O O O O O O O O O O O O O O O O O O O O O O O O O O O O O O O O O O O O O O O O O O O O O O O O O O O O O O O O O O O O O O O O O O O O O O O O O O O O O O O O O O O O O O O O O O O ",
"O O O O O O O O O O O O O O O O O O O O O O O O O O O O O O O O O O O O O O O O O O ..T.+.  2XG.  9   @ ~ H H 0 6 0 ) %.+.+.+.%.N.F.C.l.l.^ X.^ X.X.^ +.J C.6X@ +.+.W.  @ O O O O O O O O O O O O O O O O O O O O O O O O O O O O O O O O O O O O O O O O O O O O O O O O O O O O O O O O O O O O O O O O O O O O O O O O O O O O O O O O O O O O O O O O O O O O O O O O O O O O O O O O O O O O O O O O O O O O O O O O O O O O O O O O O O O O O O O O O O O O O O O O O O O O O O O O O O O O O O O O O O O O O O O O O O O O O O O O O O O O O ",
"O O O O O O O O O O O O O O O O O O O O O O O O O O O O O O O O O O O O O O O O O ..E.+.  6X+.@     H ~ 0 9 9 ..$.) H 0 6 9 0 H ~ ..#.V.T.l.^ ^ X.X.X.X.X.#.^ 7X6 +.$.W.  O O O O O O O O O O O O O O O O O O O O O O O O O O O O O O O O O O O O O O O O O O O O O O O O O O O O O O O O O O O O O O O O O O O O O O O O O O O O O O O O O O O O O O O O O O O O O O O O O O O O O O O O O O O O O O O O O O O O O O O O O O O O O O O O O O O O O O O O O O O O O O O O O O O O O O O O O O O O O O O O O O O O O O O O O O O O O O O O O O O O O ",
"O O O O O O O O O O O O O O O O O O O O O O O O O O O O O O O O O O O O O O O O 6 W...  6X(   O @ ( 0 0 9 $.%.H 6 0 0 H 0 H ~ ) ..$.%.l.#.X.#.V.^ ^ X.X.X.X.+.~ 7X@ +.V.l.O O O O O O O O O O O O O O O O O O O O O O O O O O O O O O O O O O O O O O O O O O O O O O O O O O O O O O O O O O O O O O O O O O O O O O O O O O O O O O O O O O O O O O O O O O O O O O O O O O O O O O O O O O O O O O O O O O O O O O O O O O O O O O O O O O O O O O O O O O O O O O O O O O O O O O O O O O O O O O O O O O O O O O O O O O O O O O O O O O O O O ",
"O O O O O O O O O O O O O O O O O O O O O O O O O O O O O O O O O O O O O O O   2X( O 2X)     1 0 0 1 ~ $.9 6 0 9 0 9 1 6 9 H ~ ( ^ #.#.%.l.^ ~ N.N.^ X.X.X.X.V.^ 7XO ..Q.6 O O O O O O O O O O O O O O O O O O O O O O O O O O O O O O O O O O O O O O O O O O O O O O O O O O O O O O O O O O O O O O O O O O O O O O O O O O O O O O O O O O O O O O O O O O O O O O O O O O O O O O O O O O O O O O O O O O O O O O O O O O O O O O O O O O O O O O O O O O O O O O O O O O O O O O O O O O O O O O O O O O O O O O O O O O O O O O O O O O O O ",
"O O O O O O O O O O O O O O O O O O O O O O O O O O O O O O O O O O O O O O   W.) H T.F.    @ 9 9 @ +.~ @ 9 9 6 @ 0 ) +.) ) ) +.l.V.V.N.X...^ X.^ ..G.^ X.X.X.X.l.l.2X@ H 2X  O O O O O O O O O O O O O O O O O O O O O O O O O O O O O O O O O O O O O O O O O O O O O O O O O O O O O O O O O O O O O O O O O O O O O O O O O O O O O O O O O O O O O O O O O O O O O O O O O O O O O O O O O O O O O O O O O O O O O O O O O O O O O O O O O O O O O O O O O O O O O O O O O O O O O O O O O O O O O O O O O O O O O O O O O O O O O O O O O O O ",
"O O O O O O O O O O O O O O O O O O O O O O O O O O O O O O O O O O O O O O ~ T.$.  2X    @ ~ 0 6 V.0 0 0 0 6 ) %...0 9 9 0 ( ( ) ..#.C.T.N.^ ^ +.X.^ G.X.+.X.#.+.) >X~ ..$.G.O O O O O O O O O O O O O O O O O O O O O O O O O O O O O O O O O O O O O O O O O O O O O O O O O O O O O O O O O O O O O O O O O O O O O O O O O O O O O O O O O O O O O O O O O O O O O O O O O O O O O O O O O O O O O O O O O O O O O O O O O O O O O O O O O O O O O O O O O O O O O O O O O O O O O O O O O O O O O O O O O O O O O O O O O O O O O O O O O O O ",
"O O O O O O O O O O O O O O O O O O O O O O O O O O O O O O O O O O O O O   >X( O W.O 6 O ( H 6 V.9 H H 9 H l.( 6 0 H 0 H H @ @ $.%.l.N.X.^ C.#.^ X.X.^ G.X.$.V.V.l.~ 2X  ..Q.@ O O O O O O O O O O O O O O O O O O O O O O O O O O O O O O O O O O O O O O O O O O O O O O O O O O O O O O O O O O O O O O O O O O O O O O O O O O O O O O O O O O O O O O O O O O O O O O O O O O O O O O O O O O O O O O O O O O O O O O O O O O O O O O O O O O O O O O O O O O O O O O O O O O O O O O O O O O O O O O O O O O O O O O O O O O O O O O O O O O ",
"O O O O O O O O O O O O O O O O O O O O O O O O O O O O O O O O O O O O O X.F...~ N.O   H 0 6 %.9 0 0 6 ..$.1 0 0 0 9 9 ( 6 0 H ~ X.X.N.$.X.^ #.F.^ X.#.) T...C.G.%.N.F.F.9 +.W.  O O O O O O O O O O O O O O O O O O O O O O O O O O O O O O O O O O O O O O O O O O O O O O O O O O O O O O O O O O O O O O O O O O O O O O O O O O O O O O O O O O O O O O O O O O O O O O O O O O O O O O O O O O O O O O O O O O O O O O O O O O O O O O O O O O O O O O O O O O O O O O O O O O O O O O O O O O O O O O O O O O O O O O O O O O O O O O O O O ",
"O O O O O O O O O O O O O O O O O O O O O O O O O O O O O O O O O O O O   Q.~   Q.  9 1 9 1 ( H 6 6 @ ..~ @ 6 9 @ 0 $...1 @ @ 0 ) #.V.V.^ X.X.X...G.) #.$.$.G.V.C.F.V.$.2XO ..W.O O O O O O O O O O O O O O O O O O O O O O O O O O O O O O O O O O O O O O O O O O O O O O O O O O O O O O O O O O O O O O O O O O O O O O O O O O O O O O O O O O O O O O O O O O O O O O O O O O O O O O O O O O O O O O O O O O O O O O O O O O O O O O O O O O O O O O O O O O O O O O O O O O O O O O O O O O O O O O O O O O O O O O O O O O O O O O O O O O ",
"O O O O O O O O O O O O O O O O O O O O O O O O O O O O O O O O O O O O 0 T...( %.O   6 9 1 +.@ 6 @ ) H 1 6 6 6 $...O       O 6 H ^ J X.V.X.^ X.X.X.G.^ l.F.G.G.F.G.V.C.F.G.9 l.F.O O O O O O O O O O O O O O O O O O O O O O O O O O O O O O O O O O O O O O O O O O O O O O O O O O O O O O O O O O O O O O O O O O O O O O O O O O O O O O O O O O O O O O O O O O O O O O O O O O O O O O O O O O O O O O O O O O O O O O O O O O O O O O O O O O O O O O O O O O O O O O O O O O O O O O O O O O O O O O O O O O O O O O O O O O O O O O   O O ",
"O O O O O O O O O O O O O O O O O O O O O O O O O O O O O O O O O O O   yX0 O E.  O   O H l.9 H H ~ $.9 H 9 ) N.@           O 1 J ^ X.X.J l.V.X.X.#.C.W.F.G.F.Q.F.T.T.V.$.2X  H 7X9 O O O O O O O O O O O O O O O O O O O O O O O O O O O O O O O O O O O O O O O O O O O O O O O O O O O O O O O O O O O O O O O O O O O O O O O O O O O O O O O O O O O O O O O O O O O O O O O O O O O O O O O O O O O O O O O O O O O O O O O O O O O O O O O O O O O O O O O O O O O O O O O O O O O O O O O O O O O O O O O O O O O O O O O O O O O O O O O O ",
"O O O O O O O O O O O O O O O O O O O O O O O O O O O O O O O O O O O l.7X( @ F.O     H H +.0 0 6 N.6 0 0 ) )         O 9 H H ) $.X.^ X.X.) $.C.X.G.F.E.G.G.G.T.W.T.T.F.T.Q.) ) F.7X  O O O O O O O O O O O O O O O O O O O O O O O O O O O O O O O O O O O O O O O O O O O O O O O O O O O O O O O O O O O O O O O O O O O O O O O O O O O O O O O O O O O O O O O O O O O O O O O O O O O O O O O O O O O O O O O O O O O O O O O O O O O O O O O O O O O O O O O O O O O O O O O O O O O O O O O O O O O O O O O O O O O O O O O O O O O O O O O ",
"O O O O O O O O O O O O O O O O O O O O O O O O O O O O O O O O O O O V.G.H #.0 O   @ 6 +.1 9 6 ..9 9 9 0 H         ( ~ @     6 ^ #.V.X.X.+.+.N.T.V.F.V.W.F.G.F.W.G.T.T.F.C.W.@ X.>X  O O O O O O O O O O O O O O O O O O O O O O O O O O O O O O O O O O O O O O O O O O O O O O O O O O O O O O O O O O O O O O O O O O O O O O O O O O O O O O O O O O O O O O O O O O O O O O O O O O O O O O O O O O O O O O O O O O O O O O O O O O O   O O O O O O O O O O O O O O O O O O O O O O O O O O O O O O O O O O O O O O O O O O O O O O O   O O O ",
"O O O O O O O O O O O O O O O O O O O O O O O O O O O O O O O O O O O ( N.@ G.  O @ 0 6 +.6 9 1 +.1 9 @ N.      O +.O       O 0 ^ ^ J C.$.+.$.l.W.F.G.G.E.T.T.T.W.E.E.E.G.G.>X  ..#.  O O O O O O O O O O O O O O O O O O O   e *.#   O O O O   _ *.O   O O O       *._   O O O           @ O O     =.O   O O   # *.t   O O O @   O O O O O O   e *.#   @ O O O O O O O   w *.7   O O O     O O O     O O O     O O O           O O O @   2 =.e   O O O O O O O O O O O O O O O O O O O O O O O O O O O O O O O O O O O O O O O O O O O O O   O O O ",
"O O O O O O O O O O O O O O O O O O O O O O O O O O O O O O O O O O O   $.  G.    9 9 H ~ 9 9 ) H 9 9 ( ~       +.            6 X.^ X.^ F.%.l.%.C.W.F.G.G.W.G.T.T.W.E.W.T.G.2X1 +.  O O O O O O O O O O O O O O O O O O O   DXUXIXUX#X  O O e PXUXIXUX[.  O   kX*.DXIXUXAX  O O ;.IXIXUXBX    `.`.mXIXUX=.    kXUXIXUXDX  O O O UX;.  O O O   DXUXIXUXXX  O O O O O O   BXUXIXUXaX  O   iXAX  O   DX#X  O   IX(.  O w IXIXIXIXiX  O O   sXUXIXUXNX  O O O O O O O O O O O O O O O O O O O O O O O O O O O O O O O O O O O O O O O O O O O O   O O O ",
"O O O O O O O O O O O O O O O O O O O O O O O O O O O O O O O O O O O   c.7 #.@ O ~ 9 +.9 0 9 $.6 0 6 $.6 1   )           0 $.l.) ( +.%.%.T.$.G.T.W.T.E.E.Q.E.W.E.>XW.W.W.W.>XX.X.@ O O O O O O O O O O O O O O O O O O   hXJX    >.UXe O   DXxX    (.UXw O   iXUX9X    IX.X  O ;.UXw t e O   ,.UXsX  kXVX  ,.UXt     HXlX  O O UX>.  O O   lXGXO   (.UX# O O O O O   OXIX#   =.UX;.    iXDX  O   HX+X  O   IX(.  O w UX=.e ;.UX|.    ;.UX*.  O IXOX  O O O O O O O O O O O O O O O O O O O O O O O O O O O O O O O O O O O O O O O O O O O   O O O ",
"O O O O O O O O O O O O O O O O O O O O O O O O O O O O O O O O O O O O ..( ) O @ ~ 9 +.9 H 9 +.0 H ~ +.0 H @ 0         C.W.G.>X2X^ $.%.l.V.T.E.E.W.Q.W.W.Q.Q.Q.Q.>XW.W.W.T.W.F.9 9 O O O O O O O O O O O O O O O O O O   NXhX  O O UX,.O   IX(.O O + UX-.O   iXDX  O   CXaX  O ;.UX  O O O   ,.UXO   iXKX  |.LX  O   pXAX  O   UX>.  O O   BXsX  O O UX*.O O O O O   sXBX  O   UX[.    iXDX  O   HX+X  O   IX(.    w UXw     zXxX    `.IX  O   xXkX  O O O O O O O O O O O O O O O O O O O O O O O O O O O O O O O O O O O O O O O O O O O   O O O ",
"O O O O O O O O O O O O O O O O O O O O O O O O O O O O O O O O O O O @ X.X.H @ @ 0 6 +.6 0 0 ..9 9 ..H 0 0 )         +.%.V.W.Q.F.2X..V.C.C.W.E.W.W.>XW.W.Q.>XW.W.>XQ.W.Q.W.W.T.6 ^ O O O O O O O O O O O O O O O O O O   NXkX  O O UX,.O   IX`.  O O UX=.O   iXHX  O   AXpX    ;.UXO O O O   ,.UXO O t ;.  |.PX  O   sXVX  O   UX>.  O O   aXKX  O # IX_ O O O O O   sXAX  O O ,.7 O   iXDX  O   HX@X  O   IX(.  O w UXe O   xXxX    `.IX  O   BXkX  O O O O O O O O O O O O O O O O O O O O O O O O O O O O O O O O O O O O O O O O O O O O O O O ",
"O O O O O O O O O O O O O O O O O O O O O O O O O O O O O O O O O O O 6 H c.@   1 6 1 ) 1 6 0 H 6 1 ) 1 6 1 (         %.V.F.H G.F.2XE.G.T.T.W.Q.W.W.>XW.Q.Q.>XQ.Q.>X>XQ.Q.W.W.Q.O ) O O O O O O O O O O O O O O O O O O   NXkX  O O + O O   IX`.  O O UX=.O   iXHX  O   AXpX  O ;.UXO O O O   ,.UX+ O O O   |.PX  O   sXVX  O   UX>.  O O O   JXDX  @   O O O O O O   sXAX  O O O O O   iXDX  O   HX+X  O   IX(.    w UXe O   xXxX    `.IX      mXkX  O O O O O O O O O O O O O O O O O O O O O O O O O O O O O O O O O O O O O O O O O O O O O O O ",
"O O O O O O O O O O O O O O O O O O O O O O O O O O O O O O O O O O O 0 q Z.O @ 6 0 0 +.9 0 ( ~ 0 9 +.9 0 9 $.@     6 0 F.1 $.6X2X2X6XW.W.W.>X2X>X>X2X>X>X>X2X>X>X2X2X>X>XW.W.>XO X.  O O O O O O O O O O O O O O O O O   NXkX  O O O O O   IX`.  O O UX=.O   iXHX  O   AXpX  O ;.UXO O O O   ,.UXO O O O   |.PX  O   sXVX  O   UX>.  O O O O   KXDX  O O O O O O O   sXAX  =.*.=.2 O   iXDX  O   HX@X  O   IX(.    w UXe O   xXxX    _.UXPXPXPXUXlX  O O O O O O O O O O O O O O O O O O O O O O O O O O O O O O O O O O O O O O O O O O O O O O O ",
"O O O O O O O O O O O O O O O O O O O O O O O O O O O O O O O O O O O 0 q Z.@ O 9 H 0 +.0 0 ( ( 0 0 +.9 0 9 %.O   1 0 ~ F.0 ) F.6XyXuX2X>X2X2X2X2X2X6X2X2X2X6X2X>X2X2X2X2XQ.Q.Q.O X.  O O O O O O O O O O O O O O O O O   NXkX  O O O O O   IX`.  O O UX=.O   iXHX  O   AXpX  O ;.UXO O   O   ,.UXO O O O   |.PX  O   sXVX  O O UX>.  O O O O O   KXJX  @ O O O O O   sXAX  IXIXUX`.    iXDX  O   HX@X  O   IX(.  O w UXe O   xXxX    ).IX*.;.;.;.t   O O O O O O O O O O O O O O O O O O O O O O O O O O O O O O O O O O O O O O O O O O O O O O O ",
"O O O O O O O O O O O O O O O O O O O O O O O O O O O O O O O O O O O 6 H c.@ O 9 H 0 $.0 H ( ) H 0 +.0 H 0 (   ( H 0 l...G.+.%.9 0 V.2XyX7X6X2X2X2X2X2X2X2X6X2X6X2X2X2X2X>X>XQ.@ )   O O O O O O O O O O O O O O O O O   NXkX  O O     O   IX`.  O O UX=.O   iXHX  O   AXpX  O ;.UXO O iX7   ,.UX  O O O   |.PX  O   sXVX  O O UX>.  O O O # + O   KXHX  O O O O O   sXAX      IX).    iXDX  O   HX@X  O   IX(.  O w UXe O   xXxX    _.IX    O     O O O O O O O O O O O O O O O O O O O O O O O O O O O O O O O O O O O O O O O O O O O O O O O O ",
"O O O O O O O O O O O O O O O O O O O O O O O O O O O O O O O O O O O O X.) ~ O @ 9 1 ..@ 9 9 ) 6 9 ( H 9 6 9 @ 9 9 9 0 ) ~ +.) ~ 0     @ F.7XyX6X2X6X2X6X6X6X2X2X6X2X2X2X2X2XT.6 J O O O O O O O O O O O O O O O O O O   NXkX  O   kXP O   IX`.  O O UX=.O   iXHX  O   AXpX  O ;.UXO # UX-.  ,.UX  O O O   |.PX  O   sXVX  O O UX>.  O O   BXzX  O O UX,.  O O O O   sXCX  O   IX).    iXDX  O   GX#X  O   IX(.  O w UXe O   xXxX    `.IX  O   OX`.  O O O O O O O O O O O O O O O O O O O O O O O O O O O O O O O O O O O O O O O O O O O O O O O ",
"O O O O O O O O O O O O O O O O O O O O O O O O O O O O O O O O O O O O ..( ) O O 9 @ ) @ 6 @ ..@ 6 6 ) 6   O ) 1 6 @     @ O             @   0 Q.7XyX7X6X7X6X6X6X6X6X2X2X2X6XV.0 9 O O O O O O O O O O O O O O O O O O   NXkX  O   UX,.O   IX(.  O O UX-.O   iXHX  O   AXpX  O ,.UX  + UX-.  ,.UX  O O O   |.LX  O   aXAX  O O UX=.        NXsX  @   LX].  O O O O   sXBX  O   UX).    aXAX  @   KXOX  O   IX(.  O w UXw     NXxX  O `.IX  O   VXzX  O O O O O O O O O O O O O O O O O O O O O O O O O O O O O O O O O O O O O O O O O O O O O O O ",
"O O O O O O O O O O O O O O O O O O O O O O O O O O O O O O O O O O O   c.+ N.  O ~ 0 +.0 H 9 $.9 H 9 %.9 O   +.0 ~ O                     ) 6 ~ @ 9 %.>XuXuX7X6X6X7X6X6X2X2X7X^ X.@ O O O O O O O O O O O O O O O O O O   #XIX*.O XXUX7 O   BXDXw # iXUXO O   pXHX  O   SXaX  O t UX;.n.UXw   ,.UX  O O O O P UX_.# P IXpX  O   UX1X`.|.,.  pXIX*.# `.UX_ O O O O O   |.UXe w HXUX`.    (.UXt # BXIX1X  O   IX(.  O w UX|.`.pXUX,.  O e UX`.# ;.UX_.O O O O O O O O O O O O O O O O O O O O O O O O O O O O O O O O O O O O O O O O O O O O O O O O ",
"O O O O O O O O O O O O O O O O O O O O O O O O O O O O O O O O O O O   $.  G.  O H 0 ~ ) 0 0 ( ) 0 0 ( ~     O V.6 ~   9 6 6 9 O       +.O ( H @ ) @ O 6 G.6XuXyX7X6X7X6X2XyXO $.  O O O O O O O O O O O O O O O O O O O   kXUXUXPX,.  O O   VXUXUXLX=.O O   |.xX  O   lXXX  O   OXUXUX[.  O ;.AX  O O O O   _.IXUXUXkX  O O   AXAXDXDX#X    lXUXUXIX_.  O O O O O O   lXUXUX+X=.}.  O   sXUXUXsX2 #X  O   AX,.  O 7 AXSXDXVXu.  O O   (.IXUXUXpX  O O O O O O O O O O O O O O O O O O O O O O O O O O O O O O O O O O O O O O O O O O O O O O O O ",
"O O O O O O O O O O O O O O O O O O O O O O O O O O O O O O O O O O O $.V.6 G.O   9 0 6 $.6 0 1 %.1 0 9 (     1 6 l.~ 6 9 0 H 0 O   @ +.O       ..  @ 0 +.6   6 W.7XuX7X6X6X6X  ( F.  O O O O O O O O O O O O O O O O O O O     +   O O O O O     +   O O O O     @ O @     O O @     O   O O     O O O O O O     +     O O O O           O O     +     O O O O O O O O             O O O         O   O O O     O O O           O O O @     +     O O O O O O O O O O O O O O O O O O O O O O O O O O O O O O O O O O O O O O O O O O O O O O O O O ",
"O O O O O O O O O O O O O O O O O O O O O O O O O O O O O O O O O O O l.W.( +.( 9 O 0 9 +.0 0 0 ) ~ 0 6   +.  H 0 1 ( $...( 9 O 6 ~ H         ( @     @ %.6 0 1 ..  H W.yXuXT.9 X.2X  O O O O O O O O O O O O O O O O O O O O O O O O O O O O O O O O O O O O O O O O O O O O O O O O O O O O O O O O O O O O O O O O O O O O O O O O O O O O O O O O O O O O O O O O O O O O O O O O O O O O O O O O O O O O O O O O O O O O O O O O O O O O O O O O O O O O O O O O O O O O O O O O O O O O O O O O O O O O O O O O O O O O O O O O O O O O O O O ",
"O O O O O O O O O O O O O O O O O O O O O O O O O O O O O O O O O O O +.uX0   G.O   0 6 @ +.@ 6 @ %.@ O   O +.@ 9 6 6 @ 0 ~ 9 9 @           ~ 6     1 N.1 6 6 ~ H 6 0     E.H ) W.6X  O O O O O O O O O O O O O O O O O O O O O O O O O O O O O O O O O O O O O O O O O O O O O O O O O O O O O O O O O O O O O O O O O O O O O O O O O O O O O O O O O O O O O O O O O O O O O O O O O O O O O O O O O O O O O O O O O O O O O O O O O O O O O O O O O O O O O O O O O O O O O O O O O O O O O O O O O O O O O O O O O O O O O O O O O O O O O O O ",
"O O O O O O O O O O O O O O O O O O O O O O O O O O O O O O O O O O O   2X..1 T.@ @ 1 0 9 +.0 0 0 6 N.      O V.9 6 0 0 H O               ..1       0 6 6 0 @ l.@ 0 0 O   T.  H 6X  O O O O O O O O O O O O O O O O O O O O O O O O O O O O O O O O O O O O O O O O O O O O O O O O O O O O O O O O O O O O O O O O O O O O O O O O O O O O O O O O O O O O O O O O O O O O O O O O O O O O O O O O O O O O O O O O O O O O O O O O O O O O O O O O O O O O O O O O O O O O O O O O O O O O O O O O O O O O O O O O O O O O O O O O O O O O O O O O ",
"O O O O O O O O O O O O O O O O O O O O O O O O O O O O O O O O O O O O @ E...6 F.    H 0 6 N.6 0 0 ( )     O 9 $.$.~ 9 9 H     9 6 6 9 (         1 ~ H H 9 $.0 0 ( O   ~ N.~ F.$.O O O O O O O O O O O O O O O O O O O O O O O O O O O O O O O O O O O O O O O O O O O O O O O O O O O O O O O O O O O O O O O O O O O O O O O O O O O O O O O O O O O O O O O O O O O O O O O O O O O O O O O O O O O O O O O O O O O O O O O O O O O O O O O O O O O O O O O O O O O O O O O O O O O O O O O O O O O O O O O O O O O O O O O O O O O O O O O O O ",
"O O O O O O O O O O O O O O O O O O O O O O O O O O O O O O O O O O O O   Q.( @ W.O @ @ ( 0 ~ $.9 H 6 @ )     ~ 0 9 +.+.%.+.@ ( %.+.$.~ 0 ~ @ O 6 0 1 ~ 0 ~ $.0 ~   @   Q.  ( Q.  O O O O O O O O O O O O O O O O O O O O O O O O O O O O O O O O O O O O O O O O O O O O O O O O O O O O O O O O O O O O O O O O O O O O O O O O O O O O O O O O O O O O O O O O O O O O O O O O O O O O O O O O O O O O O O O O O O O O O O O O O O O O O O O O O O O O O O O   O O O O O O O O O O O O O O O O O O O O O O O O O O O O O O O O O O O O O O O O O ",
"O O O O O O O O O O O O O O O O O O O O O O O O O O O O O O O O O O O O O H T.$.@ E.    @ 0 1 ) ~ 6 9   @ ..1 6 9 9 6 @ 6 0 9 9 6 @ 6 9 9 6 @ %.~ @ 9 9 1 l.@ 6 0     ..+.~ l.F.O O O O O O O O O O O O O O O O O O O O O O O O O O O O O O O O O O O O O O O O O O O O O O O O O O O O O O O O O O O O O O O O O O O O O O O O O O O O O O O O O O O O O O O O O O O O O O O O O O O O O O O O O O O O O O O O O O O O O O O O O O O O O O O O O O O O O O O O O O O O O O O O O O O O O O O O O O O O O O O O O O O O O O O O O O O O O O O O O O ",
"O O O O O O O O O O O O O O O O O O O O O O O O O O O O O O O O O O O O O   Q.( 6 G.9 ~     0 @ $.H         +...@ @ 1 6 6 6 6 6 6 6 6 6 @ ~ %.@ 6 6 6 @ l.O 9 0 O 0   Q.  ) >X  O O O O O O O O O O O O O O O O O O O O O O O O O O O O O O O O O O O O O O O O O O O O O O O O O O O O O O O O O O O O O O O O O O O O O O O O O O O O O O O O O O O O O O O O O O O O O O O O O O O O O O O O O O O O O O O O O O O O O O O O O O O O O O O O O O O O O O O O O O O O O O O O O O O O O O O O O O O O O O O O O O O O O O O O O O O O O O O O O O ",
"O O O O O O O O O O O O O O O O O O O O O O O O O O O O O O O O O O O O O O @ Q.+.  7X  @   O ~   H 0         9 %.$.H 0 9 9 9 9 9 0 ( $.$.) 6 H H 0 H V.6 H ~ @ @   2X9 $.F.$.O O O O O O O O O O O O O O O O O O O O O O O O O O O O O O O O O O O O O O O O O O O O O O O O O O O O O O O O O O O O O O O O O O O O O O O O O O O O O O O   O O O O O O O O O O O O O O O O O O O O O O O O O O O O O O O O O O O O O O O O O O O O O O O O O O O O O O O O O O O O O O O O O O O O O O O O O O O O O O O O O O O O O O O O O O O O O O O O O O O ",
"O O O O O O O O O O O O O O O O O O O O O O O O O O O O O O O O O O O O O O O F.$.+.+.>X            9 )       6 9 9 H ..+.+.+.+.+.+.) 0 9 0 0 H 1 +.$.6 0 H 9   O l.W.0 H >X  O O O O O O O O O O O O O O O O O O O O O O O O O O O O O O O O O O O O O O O O O O O O O O O O O O O O O O O O O O O O O O O O O O O O O O O O O O O O O O O O O O O O O O O O O O O O O O O O O O O O O O O O O O O O O O O O O O O O O O O O O O O O O O O O O O O O O O O O O O O O O O O O O O O O O O O O O   O O O O O O O O O O O O O O O O O O O O O O O O O ",
"O O O O O O O O O O O O O O O O O O O O O O O O O O O O O O O O O O O O O O O   2XH 9 T.E.O 1         O ..9   1 0 0 @ 9 6 6 6 6 6 9 9 9 0 9 1 0 l.0 6 9 H 1   6 ( 2XO ~ 2X  O O O O O O O O O O O O O O O O O O O O O O O O O O O O O O O O O O O O O O O O O O O O O O O O O O O O O O O O O O O O O O O O O O O O O O O         O O O O O O     O O O O O O O O O O O O O O O O O O O O O O O O O O O O O O O O O O O O O O O O O O O O O O O O O O O O O O O O O O O O O O O O O O O O O O O O O O O O O O O O O O O O O O O O O O O O O O O   O ",
"O O O O O O O O O O O O O O O O O O O O O O O O O O O O O O O O O O O O O O O O   2XH 1 W.F.  9           6 ( ~ 6 @ @ O 0 9 9 9 9 6 6 @ @ ~ +.) @ 9 9 9 O @   ~ 6X  ..W.0 O O O O O O O O O O O O O O O O O O O O O O O O O O O O O O O O O O O O O O O O O O O O O O O O O O O O O O   O O O O O O O O O O     O O O O               O             X       O O O O O O O O O O O O O O O O O O O O O O O O O O O O O O O O O O O O O O O O O O O O O O O O O O O O O O O O O O O O O O O O O O O O O O O O O O O O O O O O O   O O O O O O O O O O ",
"O O O O O O O O O O O O O O O O O O O O O O O O O O O O O O O O O O O O O O O O O @ 2X( @ W.W.    O           0 ..) ) @ 0 6 6 6 9 ~ ) ) ..~ @ 6 9 0 9 O O   %.2X  $.T.$.O O O O O O O O O O O O O O O O O O O O O O O O O O O O O O O O O O O O O O O O O O O         O O O O O O         O O O O O O O                                                           O O O O O O O O O O O O O O O O O O O O O O O O O O O O O O O O O O O O O O O O O O O O O O O O O O O O O O O O O O O O O O O O O O O O O O O O O O O O O O O O O O O O O O O O O ",
"O O O O O O O O O O O O O O O O O O O O O O O O O O O O O O O O O O O O O O O O   0 @ 2X( 6 F.2XO O             0 9 O 6 6 +.........~ 9 9 0 0 ( H 1   O   W.>XO +.T.$.0 O O O O O O O O O O O O O O O O O O O O O O O O O O O O O O O   O O O O O O O O O                 X O                                                         X             O                   O O O O O O O O O O O O O O O O O O O O O O O O O O O O O O O O O O O O O O O O O O O O O O O O O O O O O O O O O O O O O O O O O O O O O O O O O O O O O O O O O O O O   O ",
"O O O O O O O O O O O O O O O O O O O O O O O O O O O O O O O O O O O O O O O O   0 7X@ 2X0 H 9 >X$.  O O                 0 9 9 9 0 0 0 0 0 0 @ O   O 0 2X..6 ( W.+.G.T.  O O O O O O O O O O O O O O O O O O O O O O O O O O                     O O O                 X X X                       X X         X                                 O O                     O O O O O O O O O O O O O O O O O O O O O O O O O O O O O O O O O O O O O O O O O O O O O O O O O O O O O O O O O O O O O O O O O O O O O O O O O O O O O O O O O O O O O ",
"O O O O O O O O O O O O O O O O O O O O O O O O O O O O O O O O O O O O O O O O O O   @ O 2X..+.  ) Q.~ O   9     O   6 ~ H H H H H 0 1 1       @ @ E.F.  ..H >XH O O   O O O O O O O O O O O O O O O O O O O O O O O O O                         X @                   X X X                 X X X X X                               .         O O O                     O O O O O O O O O O O O O O O O O O O O O O O O O O O O O O O O O O O O O O O O O O O O O O O O O O O O O O O O O O O O O O O O O O O O O O O O O O O O O O O O O O O O O ",
"O O O O O O O O O O O O O O O O O O O O O O O O O O O O O O O O O O O O       O O O O O O   W.T.( (   V.E...    H   O O   O   O   O @   6     0 T.T.O 0 ..N.2XO O O O O O O O O O O O O O O O O O O O O O O O     O O O                       X   X @ O                   o                       . . . .                           . .           O O                     X X       O O O O O O O O O O O O O O O O O O O O O O O O O O O O O O O O O O O O O O O O O O O O O O O O O O O O O O O O O O O O O O O O O O O O O O O O O O O O O O O O ",
"O O O O O O O O O O O O O O O O O O O O O O O O O O O O O O O O O O O @ T.>X0   O O O O O O   ( >Xl.( H   ) T.G...@     1   1   O   O O ) F.T.l.O 6 ....Q.V.  O O O O O O O O O O O O O O O O O O O               X X                             o @ O                 . $ .             .   . . . . . .       . .                 . .           X O                     X X             O O O O O O O O O O O O O O O O O O O O O O O O O O O O O O O O O O O O O O O O O O O O O O O O O O O O O O O O O O O O O O O O O O O O O O O O O O O O O ",
"O O O O O O O O O O O O O O O O O O O O O O O O O O O O O O O O O O O @ T.2X7XO O O O O O O O O   V.Q.V.~ ( @   ( Z.F.G.F.F.l.V.F.G.Z.G.X.O O ~ ( $.W.W.O O O O O O O O O O O O O O O O O O O                     X ; O O                         . 7 @ O               . % $           . . . . . . . $ .                                                                           X X X   X O       O O O O O O O O O O O O O O O O O O O O O O O O O O O O O O O O O O O O O O O O O O O O O O O O O O O O O O O O O O O O O O O O O O O O O O O ",
"O O O O O O O O O O O O O O O O O O O O O O O O O O O O O O O O O O O   + 7XuX..~ @ X.^ H O O O ..~   V.W.T.%.H $.0 1               O 0 $.( X.T.W.T.@   O O O O O O O O O O O O O O O   O O O O O O O O           X q 3 3 < O O             O     . 7 < O       O O O   . $ .                 . .   . .                                         . .                       .         X X X X X             O O O O O O O O O O O O O O O O O O O O O O O O O O O O O O O O O O O O O O O O O O O O O O O O O O O O O O O O O O O O O O O O O O O O O ",
"O O O O O O O O O O O O O O O O O O O O O O O O O O O O O O O O O O O 9 uX7XuXO W.Z.>XX.W.  O ( Q.  O O   0 G.Q.O @ ^ X.....( ......^ 1   T.T...    O O O O O O O O O O O O     O         O O O O O < O O O       O 9 3 3 3 O O                     6 1 O       O O O         O O O   O O                                                       . .     O O         O     .         . o   X *                 O O O O O O O O O O O O O O O O O O O O O O O O O O O O O O O O O O O O O O O O O O O O O O O O O O O O O O O O O O O O O O O O O O O ",
"O O O O O O O O O O O O O O O O O O O O O O O O O O O O O O O O O O O 9 uXyX^   T.Q.>X2XQ.  ( Q.  O O O O O O     6X  9 @ @ @ @ @ @ @ >X7     O O O O O O O O O O O O O O                 O O < O 3 3 O O         O 1 4 3 < O O                     ; 9 O       O O O       O O O O O < O O O                                                   . . O O O O O     O O O             $ $ . * *                   O O O O O O O O O O O O O O O O O O O O O O O O O O O O O O O O O O O O O O O O O O O O O O O O O O O O O O O O O O O O O O O O O O ",
"O O O O O O O O O O O O O O O O O O O O O O O O O O O O O O O O O O O O 7 1 ~ ( H 0 0 9 9 l.Q.  O O O O O O O O   2XuX2X6X6X6X6X6X6XyXuX  O O O O O O O O O O O O O O O O                 O O @ O O @ O O O O O O O 6 6 ; @ X                   O   X d           O           O 3 3 O < 3 < O                           O O O     O O   O     O + .   3 D Z O   O     O +           $ $ . o o                     O < O O O O O O O O O O O O O O O O O O O O O O O O O O O O O O O O O O O O O O O O O O O O O O O O O O O O O O O O O O O O O O O ",
"O O O O O O O O O O O O O O O O O O O O O O O O O O O O O O O O O O O @ V.l.l.l.l.l.l.l.l.l.  O O O O O O O O O O   $.V.V.V.V.V.V.V.C.  @ O O O O O O O O O O O     O X X                   O @ @ @ 6 1 O O O O O O 9 0 8 8 ; X O                   * g           X         O O 3 Z O O < O O           O O O           O O O O O O O       O < <   O D U D O       O < O           . . . $ .               X     @ @ O O       O O O O O O O O O O O O O O O O O O O O O O O O O O O O O O O O O O O O O O O O O O O O O O O O O O O O O O O O O O ",
"O O O O O O O O O O O O O O O O O O O O O O O O O O O O O O O O O O O O O O O O O O O O O O O O O O O O O O O O O O O O O O O   O O O O O O O O O O   O O O X         X X X O               @ 6 6 @ 9 4 < O O O O O 6 8 8 > ;                       X *           X       O O   3 F O @ @ @ O       O O O O O O O O O O O O O O O O O       O < <   O A F A O       O < O                 $ $                   X * X X       X X O   O O O O O O O O O O O O O O O O O O O O O O O O O O O O O O O O O O O O O O O O O O O O O O O O O O O O O O O ",
"O O O O O O O O O O O O O O O O O O O O O O O O O O O O O O O O O O O O O O O O O O O O O O O O O O O O O O O O O O O O O O O O O O O O O O O O O O       O X X       X X                   @ # @ @ 9 4 O O O O     # , , , o                       . ,           .             @ H   ; > @ O O O O   O O O O   O O     O O O     O O O       @ O   O 8 > 6         O @                   . $           . . .   * * * X       X @ @ O     @ @ O   O O O O O O O O O O O O O O O O O O O O O O O O O O O O O O O O O O O O O O O O O O O O O O O O O ",
"O O O O O O O O O O O O O O O O O O O O O O O O O O O O O O O O O O O O O O O O O O O O O O O O O O O O O O O O O O O O O O O O O O O O         X           X X       X o .             O   + w w # w w O     X     & y y y & .                     . y           . .           * b   X X X O O O O     O O O             X       X O O       @ X   * k s =       O O X                                 . . . . o * * X       X @ @ O   X * X           O O O O O O O O O O O O O O O O O O O O O O O O O O O O O O O O O O O O O O O O O O O O O O ",
"O O O O O O O O O O O O O O O O O O O O O O O O O O O O O O O O O O O O O O O O O O O O O O O O O O O O O O O O O O O O O O O O O O             X X         X X       + o .       O O       . & & & & , o   X X     $ i i y % .                       $           .             * l   & o o                               @ O     X O     O O 6 X   = j s =     O O @ *                                       . $ & o X     . X @ @ O   X = X               O O O O O O O O O O O O O O O O O O O O O O O O O O O O O O O O O O O O O O O O O O O O ",
"O O O O O O O O O O O O O O O O O O O O O O O O O O O O O O O O O O O O O O O O O O O O O O O O O O O O O O O O O O O O O O O   O   X                   O   . o       + . .               O   & & o - - X     X     . , & $ .                         O                     O O * d   $ $ $                               X       O           @     * a f *       O X   O                                     $ y y $       . o X       * *               O   O   O O     O O O O O O O O O O O O O O O O O O O O O O O O O O O O O O O O O O O O O ",
"O O O O O O O O O O O O O O O O O O O O O O O O O O O O O O O O O O O O O O O O O O O O O O O O O O O O O O O O O O O O O O     X X                           +       O       O           O   . & o & , & .         . % % % .                                           O O O O * =   $ $ .                                                         . o o     O < <                                           . % y %       . o * X     o X                                 O O O O O O O O O O O O O O O O O O O O O O O O O O O O O O O O O O O O ",
"O O O O O O O O O O O O O O O O O O O O O O O O O O O O O O O O O O O O O O O O O O O O O O O O O O O O O O O O O O     X < 3 O       O         O             O O             O O             . & . $ y % .     O   . $ % $ .                                         O O O O O X *   . .                     O                               X     . $ $   O 3 Z 3 O O O O O     O O                           . $ .     O + o o       .         O O                         O O O O O O O O O O O O O O O O O O O O O O O O O O O O O O O O O O O ",
"O O O O O O O O O O O O O O O O O O O O O O O O O O O O O O O O O O O O O O O O O O O O O O O O O O O O O O O O O O     X 4 U 3   . + O       O O O         O < O       X   O 3 3   O         . % $ $ y % + O O O     . $ .     O                                 O O O O O O   X X     .                     O O                                     .       3 Z 3 3 Z 3 3 3 3 < 3 O               O O O     O < +       3 3 $ o       .       O O O O O O   O               O O O O O O O O O O O O O O O O O O O O O O O O O O O O O O O O O O O ",
"O O O O O O O O O O O O O O O O O O O O O O O O O O O O O O O O O O O O O O O O O O O O O O O O O O < O O O O   X O       < Y A O . + O     O O O O         O O O       X     3 3   O         . & $ $ % $   O O O               O                               O O O                                         < O                                             < 4 < < 3 3 Z U D Z Z < O             O O O     O 3 O       3 2 % $                 O O O O O O O O               O O O O O O O O O O O O O O O O O O O O O O O O O O O O O O O O O O ",
"O O O O O O O O O O O O O O O O O O O O O O O O O O O O O O O O O O O O O O O O O O O O O O O O O O < X   O @ X   O       @ ( J O . + O                       O @       O     3 4             O + . . . . O O O O O O             O                             O O O             .                           O                                               @ ; X O O 3 Z U U U D 3 O O           O O O     O 2       O G   % $                 O   O O < O O O               O O O O O O O O O O O O O O O O O O O O O O O O O O O O O O O O O O ",
"O O O O O O O O O O O O O O O O O O O O O O O O O O O O O O O O O O O O O O O O O O O O O O O O     * *     * X           . M V @ O O X O     O O O         O O ;           O X 8               O       O O O   O   O           O                   O O O         O                                           X                                               = = X   X X 6 G F D Y 3 3 O O         O       O @ @       @ b   . .                     O O O O O                   X X       O O O O O O O O O O O O O O O O O O O O O O O O O O O O ",
"O O O O O O O O O O O O O O O O O O O O O O O O O O O O O O O O O O O O O O O O O O O O O O O O     * = X   * X       O O   j 4.> O O X @ O O O O < O     O O O 6 O O O O O O   q O O O O       @       O   X   O       O O O           O O O O O O               O                                           X                                               * * X X X * d > > 0 4 3 3 3 O O O     @ O     O @ X       > x                     X       @ O O O O O O           X X X           O O O O O O O O O O O O O O O O O O O O O O O O O O ",
"O O O O O O O O O O O O O O O O O O O O O O O O O O O O O O O O O O O O O O O O O O   O X X           = X   X *             a 2.g   O O X O O O O 3 O O O O O < 1 O O O O < O O 6 Z Z 3 3 < O O @         O O   < O O O   O       O O                                                                                                                         & $   X X * a s s a > O < < O O O O O @         :         f =                           X X X @ O O O             X X X   O         O O O O O O O O O O O O O O O O O O O O O O O O O ",
"O O O O O O O O O O O O O O O O O O O O O O O O O O O O O O O O O @         O X         X X     O     : @         O O         s f             O O O     O O < O   O O O       O 1 D 3 < < O < O O         O O O Z D D 3 O < < O O O O                                                                             O                                           $ % .   . & - = a a = X X O O O O O O O       O X         a X                     .     X X X X           O O       X   O O O           O O O O O O O O O O O O O O O O O O O O O O O ",
"O O O O O O O O O O O O O O O O O O O O O O O O O O O O O O O O O   iXkXkX*.    ).sXkXzX*.o sXn.O 2 aXO 2 aXkXlX|.  < S sXkXkX;X  |.sXlXn.    O O X t kX  O O (.9X  O w NXHXxXO @ < aXkXlX1X  O # sXkXkX1X  O O D U U Z 3 Z D D D 3 3 O O O O O                         O                                         O O             O O                         . $ .   . y y y , - * * X     O O O O O O O < O         * =   O                   .   . .   X         O O < O O       O O O O               O O O O O O O O O O O O O O O O O O O O O ",
"O O O O O O O O O O O O O O O O O O O O O O O O O O O O O O O O O   UX`.`.UXt   NXlX).|.w 5 UXGX  P UXO S UX).).AXkX  n.UX(.`.u.  FXaX_.IX`.  O O X (.UX(.    KXJX    IX|.t +XKX  # UX_._.BXxX  t UX(.].,.  O O A F A 3 < D U U U U U Z 3 3 3 O O                     O <                                       O 3 O           O 3 O                                 . % u u u y & X X X X O   O O O < 3 Z 3         * *   O                       $ $ . X       O O < 3 O O     O < < O                 O O O O O O O O O O O O O O O O O O O O O ",
"O O O O O O O O O O O O O O O O O O O O O O O O O O O O O O O O O   UX#   kXiX  NX.X    + 5 KXLXS I IXO e UX    w IX  n.LX        DX(.3 _.SX  O O O `.JXNX  =.PXPX  # UX  O   UX+ : UXo X : UX  t IX            > 8 8 1 O 4 A F F U U Z 3 Z D 3 O O O O O             O 3                                       O D <           O Z O                                   $ y y u y y $ .   X O O O @ O O 3 D 3 O       o     O                       . $ .         O < Z Z   O     3 < @           O O     O O O O O O O O O O O O O O O O O O O O O ",
"O O O O O O O O O O O O O O O O O O O O O O O O O O O O O O   O O   UX#   kXiX  NX`.    + 5 PX|.aXP IX  r UXO O _ IX  >.LX        DX).O _.SX        .XiXPX+ kX`.UX  w UX  @ + UX@ 2 UXO ; w UX  t IX      +     = s a = X * > 8 8 0 G 4 O 3 Z < O O O O O O O O O     O O                                       O A O           O 4                                     . $ $ % % % $ $ .     O   @ O O < 3 O O                                               .     O 4 1   O O O < @ @       O O O O   O O   O O O O   O O O O O O O O O O O O O O ",
"O O O O O O O O O O O O O O O O O O O O O O O O O O O   X X   O @   UX(.(.UX*.  kXUXIXIX  2 UXO PX: IX  m UXO O P IX  =.UXIXUXn.  AX9XH.HX|.        $XpXsX-.IX  UX  w UX  O + UX+ 2 UX+ 5 e UX  e UXIXUX`.      * a a = X = s s s d d > X @ 6 O   O O O O O O O < 3 O   :                                       O 8             X :                                           . . . . $ . .       @ O @ ; * O       O                                               * > X   O O @ @ o X     O O O O     X     X X O O O O O O O O O O O O O O O O O ",
"O O O O O O O O O O O O O O O O O O O O O O O   O O     X : X O <   IXkXIX`.    NX|.  + O 7 UX  KXq.IX  P UXO 3 P IX  >.LX* o O   VXBXSXBX      O   iXsXt IXVX  UX  w UX  O + UX# # UX& % w UX  t IX  +         $ i i , X * - = a a s a X * d *               O 3 Z 3 O *                                         h             X *                                                               + O ; > =                   O                                   X = =     O @ 1 @ &     O O O O O     X     * *     O       O O O O O O O O O O O ",
"O O O O O O O O O O O O O O O O O O O O O O     O O O O O X @ O @   UX# >.JX    NXOX      : UX  @XzXPX  P UX+ < e PX  ;.PX= * O   DX(.2 UXo O O     pXsX  VX,.o UX+ w UX  X   UX+ # UX. . # UX  t IX            % u u y . y y y i i , - X X = *                 O 3 3 O *     O O                                 f             X *                                                             . o O o - *               O O O O                                 X * * .     X : # o   O O O O @     .     X - X             O O O O O O O O O O O ",
"O O O O O O O O O O O O O O O O O O O O O O     O O < < O X @ O @   UX:   IX*.  NXiXw *.# # UX  # UXHX. p UX-.*.zXBX  -.PXe *.P   DX_.  CX.X  O     kXiX        UX+   UX*.. ,.UX  o UX*.m sXAX  t IXw t t       $ y y % . % y u u u u y $ . , .                 X @ @   X O O O O < O                             *             X X                                                               X   $ y .             O O 3 3 3 O                                 o .     X * o .     O O O O X     .     * X O               O O O O O O O O O O ",
"O O O O O O O O O O O O O O O O O O O         O O O < < O O X X X   AX#   |.iX  #XDXDXHX`.# VX.   hXxX. p AXGXGXlXO O t AXHXHXNX  lX,.6 :.VX        iX}.        VX+   -.KXUXKX_   o BXDXGXxX.   w CXGXDXAX        $ $ $   . % y y y u u $ $ y %     O   O       X * *       O   O Z 3 O O O                       #             +                                                                 X X % y $               O 3 U D O                                 .       X o . .     O O O @       O   . o + < O             O O O O O O O O O O ",
"O O O O O O O O O O O O O O O O   O O     O     O O @ @ O O O @ @ :   O O O   2           +   5 5   O r P O O O   O O O         7     > d   +     +           +     O         3   .         .             +         .       . $ $ % % % . . % $   O <   O 3 O   X * * O O O     O < 3 O O O O                     .                                           O O                                   . $ % .             O O 4 Z D < 3 < O             O O O                 . .       O < < O o     O O + + 3 < O O O O           O < O O O O O O O ",
"O O O O O O O O O O O O O O O O O O O O O O       O X > * X O X @ o .   O 3 3 O O   O O O O   + + O q 2 S P q 8 ; @ O O O + + X X O   * l X                                 D T O   % $ $ .                                   . . . + 3 O   $ .   3 3   3 U O   . $ o O D O       X @ O O O O                                                                 O 3                                 . . .     O O           3 G 9 3 < Z 3 O O           O 3 O                 . .       < 3 O   .     O < < 3 Z 3 O O O O O O     O < < O O O O O O O ",
"O O O O O O O O O O O O @ O O O O O O O O O         X * * X     o . . .   < 3 O O O O O O O O + + + 1 7 5 w 7 - : X O O O # o X X @   X s X                                 3 f.<   . .                                             O 3 O         3 3   3 Z O   . % $   U O       * *     O O           O O O                                                 O <                               . . .         O         O 4 0 d X O 3 < O O O O       O <                   .         O 3 O . O     O < O 4 G < O O O O 3 O O   @ @ @ O O O     O O ",
"O O O O O O O O O O O   * * X O   O O O O   O O O     o $ & O   . . o     O < O O O O O O < O + + O X * * - - - - o O O O + X X X X     - X                                   X.;                                                     @ O         O @   4 v       $ $   0 O       X X                 O O O O O O O                                           O O                                                       O ; = = X X @ O O 3 3 O       1 O                         O O ; X           O O   0 9 1 @ @ O < 3 < O   * * * X         O O ",
"O O O O O O O O O O O   X f * X X   O @ @ O O O       $ y % O   . . . O   O 6 @ O O O O O O O O O X   = * - , , & &   O     X     X     o .                                   2.j     O                                               :           @ o   6 l             z X       & .                 O O O O < 3 3 O O O                                     X                                                         X - , - X * *   O 3 3 O     O >                         O O @ *   . O       X   = d @ < 4 X O 4 O O   X = = * X       O   O ",
"O O O O O O O O O O O     = = * :   O @ @ O O         . % $ +     +     O O @ 6 O O O O O O O O O O O X - o & y y $ .       X           . $             O                     2.k                   O O                               6     O     @ * O 8 z             N X       % $                   O O O < 3 3 < 3 Z O O                                 :                                                         * , y & . X * X X @ O O O   X -                           O X *   + O     O X X = = & @ 1 O 1 6 X     : * * * X             ",
"O O O O O O O O O O O     X * X X O O O # +           + . + 2         O O O   @ O O O O O O O O O O O   & % % y % $ .                     .                               O   a f             O O O                     O             1 O       O O *   ; f X           =         $ .                   X X   O < O < Z D Z O O O O                           X                                                         o & y $ $ & X   * * X   O   X             O               X X   O O     O     . - * o * @ O 6 ;     # & . o                 ",
"O O O O O   O     O @ X O   # . X O O O & o       O   < + + O O O   O O O O   O X O O O O O X O O   O   o $ $ $ $ .                                                           o ,                 O                                   @ O           .   : ,             *         .                       X   X > X   3 Z 3 O O 3 3 O O                                                                                 . . $ . $ % .   * * X         O 3 3 O                   X       O O           $ & o X @ < 2 : o     o . . .                 ",
"O O O O           O @ X O O + o   @ O   . .     O O O 3 < O   @ O   O O O O   O @ O O O O O O O   O O O   . .                             O               O O                   y         O     O O             O O O                 O                 - &             o                               O     X > * X > 8 X   O 3 3 3 O O           O O       O                                                                 . $ . . o .           O Z U Z 3       O             O         O     + % % . * @ 4 2 5 . O < O     O < +     O       ",
"3 O < 3 O   O O   O < @ O O O O O O O   . . .   O   < 3 4 O O X O O O O O O O O O O O O O O O O O O   O O O                             O O               O O               O 3 .             O 3 <             < 3 O                 X   O O O     O   X X                                         O O + .   O #   X > a X   O O O < O O O         O < O     O O                                                                     . $ .           O D f.f.D <                     O       O     < 5 $ O X @ @ 5 & . O 3 <     O 3 2 .   O     O ",
"4 O @ 4 O   O O   O O 1 + O O O O O O O     .   O   < 3 < < < O O O O O O                                                                                                   < U O   O         O Z 3             < U 3                     O < O   O O       O                                         < +     $ % . O 7 - X O   X X O O     O O O O 3 Z O     O O                             O                                   O   . $ .       O   @ K f.f.f.D 3 O                 O           O 3 <   O O @ : & . O O 3 O     O 3 O .   O   O O ",
"> * O 6 ;   O O O O O 2 & + @ O O           .     O O O @ ; < O O O O   w .X#X#X#X#X#X#X#X#X1X1X#X#X#X#X#X#X#X+X).                    `.#X1X#X#X#X#X#X#X#X1X1X#X#X#X#X#X#X#X|.J O     O     O   A 4             O Y 3                     O <     O                                                   < O     . $ . $ y & +     X X X           O   Z Z O O   O O                                                                                   O ; ~ $.E U U D 3 O     O                 O O O O O     O @ : .   O q @ O O   ; X       O O O @ ",
"s s X * f X O X O O O @ : O @ O O O           O O O O @ > ; @ O O O   .X#Xw                                     ;.kX*.            ;.sX*.                                    t dX`.    O       O 9 b           O   n ;                       O                                                         O O       .   . y y .     o X X               x @                                                                                             X > 4.6.c 9 Y T U 3 O           O O     O < < X O O O O o o o     X q   < < * f       O O O @ * ",
"s j = X s = O O @ O O O 8 < O X           O O O O O O X ; X < < O   iX;.  O O O       O O     O                     sXt         ,.#X        X               = *               = '.`.            = N     O         N =                       X                                                         X               & $ .     $ . .               g *       O                             O                                                       & f 2.3.j d 9 D D Z O                 O O 3 < X   O O + $ $ .     - X O Z 3 8 =           X * * ",
"* f - . * a O O X @ O O 6 1 O X   O     O O O O O O O O 6 < O 1 O ,.`.O O O O O   O   O O       O                 O   sX      + sX          X O             * *               l = OXt           * N               s a                       o                                                         X               .         $ $ .               f *     O O O                     O O O O                                                       % i 2.j s l d 8 4 3 O O O O             O < O X O O   . & $ .   X X   < 3 4 1 O         X X *   ",
". & & $ . : X   O @ @ O @ @ X     O         O O O O O O < 4 O @   iX  O O O O O   O   O         O                     ,.(.    |.*.          X               O X             O = f + #X            -               - -                                                                                               . . .         .                 *       O O O O                   O O O                                                       . % i C i - a g g > O   O Z 3 O     O     @ X     O     . . .     *   O 1 @ @ < O O       X * X   ",
"  $ % $   o :   O @ 1 O O X * X   O     O O O   O O O O O 1 @ @ : XX    O O         O O     O O                       + OX    #X        O                     .           O   X ,   #X            ,               . -                                                                                                 .                             .         O 3 O     O O                                                                       . $ i u u u i - a *     O D Z O         X = X     O     .             @ 6 ; @ O < O     O   X     ",
"    . . O   # O < O @ O O 3 4 X O O     O O O O O O O O O @ * @ r .X  O     O   O O O O O O O                           #X    #X                    O     O           O O O O   o   OX+           o               . :                                                                                                                                         O < O     O O               < O                                                       & y y y u u i , X     O 4 3 O       3 ; *                           o : @ @ < 3 O O O +         ",
"  O   O O O O 3 3 < O X O U U O     O O O O O O O O O O   X - X P .X  O     O O O O O O O O O O           O O O         #X    #X                      O   O O         O O     O O   OX+                                                           O O                                                                                               O O       O O   O                   O D <                           O                         O + $ $ $ y ! u y   O   > ; O O O   < U 3                           . & : < @ < 3 O O           O ",
"O O O O O 3 3 3 3 <   X X Z T < O   O O   O O   O O < O     * X I .X    O   O O O O O O O O               O O O         #X    #X                      O     Z O     O O O   O < O   OX+                             O     t `.              `.kX  < O                   |.5                               #           =.`.                          < O       X X   O                   O D 3             O           O O                         O O   . $ + I y %       > =         < Y <                           & $ 5 @ O < O O     O   O O O ",
"O O O < 3 Z Z 3 9 6 X   X O ( 6     O       O     O O O     X O r XX    O O O O O O O O O   sX*.          O O O         #X    #X              O         pXxX  O       O       O O   OX+                             O     .XUX              PXUXt O O                 # UX,.                            IX#X          kXUX                          O O                               . O 4 O                           O                         O O O   . @ 2 $ .     o - X         b 9 O                           + + # X @ :           O O O + ",
"O O O < Z D F 4 ; = *   O   a 5.X       O   O     O X X   O     w ;X  O   O O O O O O O   iXUXUXe   O                   #X    #X            O O     O   fXAX  O                 X   OX+                                   `.IX              _ (.  O O                 # UX;.                          ;.UX            pXLX                          @         .               O         X f                                                       X       O = X         % y .       * 5.@ O                         . + O   O X X           O O + + ",
"O 3 3 3 3 A L ; X = = X O   X 2.=   O               O @         w +XX O   O O O O O O   iXUXKXKXUXw                     #X    #X              O         hXAX  @ O               o   OX+                                   }.IX    +       +     + X X   + w w     +   # UX-.  #                       NXzX            pXLX          w w       +     * +       $ &     .         O   .   w f O   # w #   +   .   # w     +                       X X     O O 8   O       y y .       = k   O   O                 O     O O   X X     O     O O O + + ",
"O 3 Z 3 O 6 x g * * - .       a f   O           O O   O     O O w XX6 O O O O O O o   iXUXt DX(.kXUXw                   #X    #X              O         hXAX  @ O               X   OX+                                   `.PXkXUXUXBX      iXPX  X   ).UXUXUXUXzX    # UXpXUXUXIXt                 # UX*.            pXLX      ).UXUXUXHX#   + UX`.    VXUXt     PX9X            IX# KXUX:   lXUXUXUXlX      lXUXUXUXaX                                  @ ;   O   O   $ $         - *   O   O                                           O O O     ",
"O 3 A A @ X s k = X $ $ .       i   O             O     O O O O w .X< O O O O O     iXUX,.  PXOX  xXUX*.      O         #X    #X                `.,.    sXAX  + e #X    O           OX+                                   `.UX#X+ =.UXOX    iXPX      UX`.    BXHX    # UXAX# # DXDX                +XHX              pXLX    + UX).    AXBX    HXsX    UXPX`.  w UX-.            LXUX].e   ).UX*.  ,.UX,.  `.UXt # -.;.                                  X                       . & X O O   O O                                           X O   O ",
"O 3 4 0 6 X a a - $ $ $     O   $ $       O   O   O   O O     O w |.O @   O O O     IX(.    KX.X    VXsX      O         #X    #X                lXUXt   sXAX  + IXAX                OX+                                   }.UX. +   HXkX    iXPX    *.UXe     mXHX    # UX,.    #XPX                PX|.              pXLX    ;.UX# O   #XPX    zXAX  w IXiXkX  ,.UX#             IX|.< D   sXDX    + UX`.  kXSX                                        o X   O             O     . %                       O O     O O O         O O   O   o O Z Z ",
"O < @ > > X X - $ % .         O     O O   O O O   O O O O     O e |.O 6 O   O O   +     O   KX.X  O     O O O           #X    #X        O     +   hXUXw pXBX  IXBX  +               +X+                 O O               `.UX+     HXsX    iXPX    -.UXt O   NXHX    # UX(.    iXIX              ;.UX+       O       pXLX    ,.UXw O   iXIX    |.IX  ,.GX=.JX  OXPX    O O O     IX+X3 D   lXDX    *.UX,.  pXIX*.#             O O         O O         o   O <           O O       $                       O O       O O   O   O 3 O     .   < U D ",
"O @ @ * * X   $ $ $ O O O O     O   O O O O O O O O O O O   O Z r |.  6 O O O O             KX.X    O   O 3 <           #X    #X        O       3   fXUXlXVXHXBX  O O               1XO O O             O O O             `.UX+     HXsX    iXPX    ,.UXP 3   NXHX    # UX(.    iXIX      O O O   xXxX      O <       pXLX  O ,.UXw O   iXIX    -.UX# iXbX2 UX  xXBX    O D 3 O O IX+XX <   kXUXDXKXUXzX    # PXUXUXPX,.      O 3 Z         O O             < 3         O < O                         O O O O O     O <         3 Z O     . O 4 Y O ",
"O O O X , & . . . . O O O O O     O < < O O O   O O O O O O O Z P |.  1 4 O O O             KX.X    O   O 3 3 O         #X    #X        O     O Z Z   kXUXUXVX  O 3 O           O   <X3 O O O           O 3 O             }.UX+     HXkX    iXPX    ;.UXP D   mXHX    # UX(.    iXIX    O   O < + UX-.      < Z       pXPX    ,.UXw O   iXIX  O + UX*.NX.X  UX+ HXiX  O < Z 3 O O IX;X* X   lXJX=.-.w   +   O   t -.HXLX      O 3 3         O O             3 < O       O O O O                   O O O 3 < O       O O     O O 6 @           b ;   ",
"O     X & y $       O O O O O     O O < O O O O O O O O < O O < r |.O O 6 O < < O O     O   IX#X        O O <           #X    #X      O O     O 3 3 +   kXAX  O O 3 O               1X2   O O             4 O             }.UX+     HXkX    iXPX    t UXr Z   xXHX    # UX(.    iXIX    O   O O |.PX        O 3       aXPX    ;.UXw O   #XPX  O   LX(.KX>.  KX>.IXM.    @ 4 O     IX;XX X   hXDX  O                 `.IX      O < O         O               6             O                       O O O 3 3 O       >       O 6 f           f l     ",
"O     . $ y $             X   O O O O @ O O O O O O O O 3 3 O O m  XO O @ O 3 3 < O O O O   *.#         O   - X         #X    #X        O         >               @ X   O           +X-                   ; X             }.UX+     HXsX    iXPX      IXkX>.`.UXHX    # UX(.    iXIX        O   JXOX        X -       aXPX    # UX,.    NXAX  O   xXkXUX:   kXsXUXw     = a   X   PX$X$     }.UXO     ,.+   # #     lXJX        *                         X =           o                           O @ < < O     X X       < x =         * s *     ",
"O       . $ .   O O   O O @ O O O O < < @ O O O O O O O O O O O r OX  O X * O O O O O O                     = X         #X    #X                  - X             * *   O           +Xl X   X             X X             .XUX+     PXzX    aXIX      ,.HXIXNXkXHX    w UX).    sXUX          u.UX+         - = O O   kXIX      OXUXIXUXIXt       #XUXKX    |.UXIX    X = a   X   IXiX$       AXUXIXUXPXO   pXUXUXUXUX*.      X *                         * *           X                       O   X X X O O O O X         @ X   O       = *       ",
"@       O O O O O O O < 3 3 < O O O O O @ O O O O O O O O @ @ O e  X  O X *   X X X                           X         #X    #X                  *               X *               OXf *                 X X               +     +   O +     + O   O         sXHX      +     O   + O         #             * X   O .   + .   o   # ;.*.    O       + * X     + . O     X *   o o + $ $         *.;.w   O O   # =.;.+         o X                         X                                         o * X   O < < O       * X     O     X -   O     ",
"= X O O O O O O O O O Z D D Z 3 < O O @ @ @ O O O O O O O 1 6 @ w OX          X * X X                 O     O   O O     OX    #X                    .                       O       OXo .         O                                                   #       BXDX                                            O                                       .                 .           .         o     O O O                     .                                                                   . o X X   O 3 3 O       *         O   o           ",
"= X   O O O O < < < 3 Z D D A 3 < O < @ @ O < O O O O 3 3 Z 4 @   ;X            . .                       O O O 3 3 < =.`.    OX# O                 .                               iX  .                                                             NXUXHXLXUX`.                                          O O                                       .                                     . $                                                                             O                     . $ .   O < @ O O O     o                     O O ",
"q 5 . 3 O O 3 < 3 3 3 3 4 0 8 6 @ O O 4 < @ O O O < 3 3 3 3 < O   `.-.        . $ $ .                         O < 3   aXO O O w +X                                                _.u.                                                              +   t `.`.t   O                                                   O                 O                                                   . .               O O O O                                                       O O                   + + .   3 G X O O                               O ",
"p I < Z 3 O < < 4 4 < @ ; d g d ; @ O Z Z < @ @ 4 3 3 4 < @ @ X O   kX          . . .                           @   _.).  O O O <Xn.O < O       O       O                       w sX  O           O O                                                                         O                   O                 O <               O <                                                                       < 3 O                                                       O O                   O O . O F A X                                 O O ",
"p I 3 3 3 O O @ @ ; @ @ ; = = - : < < Z Y 3 @ < 4 < 3 < ; * * * O O   kX,.                                        +X|.      O < O iX.XO O O                                   (.sX  O           O O O                                                                           O                 O                 3 3               < 3                                                     O                 O 3 O                                                       O O                 O O     O q @         O                         O   ",
"y 5 ; O 1 @ O @ ; ; @ @ O # i p y + O 4 G 1 < 4 < < @ @ * * X o   O O   `.iXOXOXOXOXOXOXOXOXOXOXOXOXOXOXOXOXOX+X9Xm   X         1 O n.iX+XOXOXOXOXOXOXOXOXOXOXOXOXOXOXOX.XOXiX(.  O           O O O O                                                                                           O O           O     < O               O O                                                     O                 @ O                                                         O                   O O     > - .   O     O                     O O O   ",
"y . f X * ; O @ @ @ O @ O & y y y + < O d b < 4 < @ @ X X X o $ o   X       # + # # # # # # # # # # # # # # # +   . & .         * a d   O + # + + # # # 2 2 2 + # # # # # #                                                                                                                   O O                   X X               - X     O                                                                 > X O O                                                   o                     X     X f X   .                             O O     ",
"y . > * X @ @ O O + + + O + + 5 5 + O @ * b ; @ @ @ X X . . . $ .   O O                   O O                 O   . $ $         X = a = X           O O O Z Z < < 3 O                             O X                                           O                                                                   f X               *                                                                         *                                       O                                             o o         O O         O             O       ",
"% $ X @ O O @ O O O + O O O O O O O O @ @ @ : @ @ X X X . . . . O O O O                                             . .           $ , & o               O < 1 O 3 3 < O O O O   O O O O         O                                                 O                                                                 *                                                                                         +             O O                                                                                                           O         ",
"% $ O O O O O O O O O O O @ @ @ O O O < < O @ X X X X           O O O O O               O       O               O                 % u u $                 X = X O @ O   O O O O O Z Z O O O O O O                                         O O                                       O                               .                                                                                         .               O             O                                                     O                                                 ",
"y + O O O O O O O O O O @ O @ < < < @ @ @ @ X X X O O +     O O O O O O O O                                     O                   % u $                 X = X X * X           < U D <   O O O O       O                                                                         O                                                                                                                                               O   O                   O       O                               O O   O       O < O     O O                       ",
"% + 3 < O O O O O O O O O O O < < < < @ @ X X   O O O O O O O O O O O O O O               O O O             O O   O           O       . .   O O O           & o   o o   O       O 4 G O   O O O O O O   O O                                     O O                                                                                                       O O O                   O O                 O     O 3     O   < O       O O Z 3                 3 O   3 3 O                             O O O O O O   < 3       O O       O               ",
"% O 3 Z 3 O O O O O O O O O @ @ O O @ @ O O     O O O O O O O O O O O O O O         O     3 3 O   O       O O O       O     O O O             O O O         % y $ . .     O       = f X O   O O O O O O O   O                                 O < O O             O O O                                                                   O O O           O 3 3                 O 3 O               O O O   O U 3   O 3 D 3 O       < f.U O             O Z 3 O Z Z                               O < O O   O O Z 3       < O         O             ",
"$ O 3 A 4 O O O @ O O O O O O O @ @ @ @ X   O O O O O O O O O O O O O O O O O         O   < T 3             O <       O O O O Z 3         O   < Z O         . $ . $ $ .           * a *   O O     O O   O O O O O     O O             O         Z Z O             < D O                                 O O O                               O O           O Z <             O   O Z O               O O O   O T O     3 D 3         O T f.Z             O 3 O   9 O O                             @   O   O O X :                                   ",
"$ O < < 6 @ O O @ O @ O O O O O @ @ @ X     O O O O O O O O O O O O O O O O O           O O 4 @           O O O       O O     3 <         O   O 4 O                 .         O   . i &   O O           O O O O O O O O                         3 3               O 3                                     O                                 O               6                   X <                 O O     X 9       X 8 O O     O * ~ U D O           ; *   * >                               :   O O       > *       o                           ",
"+ O O @ 6 ; @ @ @ @ O O O O O O @ @ X X     O O O O O O O O O O O O O O O O O O       O     * f           O   o         O     O :         O     6 *                           O   . u y .   O             O O O < Z D Z O               O     O X >               O d                                                                       X             X z                   = *                 O       = *       * a         O g s 0 D <     O O   f *   = X                               *   X       X *                                     ",
". O O O @ 6 @ O O O @ O @ @ @ @ @ O O       O O O O O O O O O O O O O O O O O O O         O X f X                       O       -   O           X f       O     O             O O   $ %           O O O       X O 3 U U <   O           O     O * f               X f                                                                   O   X             * f   O               = X                 X       f *       * X         o a a g @ O           *     o                                             o                                       ",
"+ O O O O @ @ O O O @ O @ @ O @ O   O O     O O O   O O O O O O O O O O O O O O O         O   X o               O       O       X                 :                                                 O O       X X X 6 6 O O O O                 X -               X X                                                                                     * X                   o                           o         @ O     O   o y - a X                   .   O                                                                                 ",
"+ O O O @ O O O O O O O O @ O O     O O O   O O O     O O O O O O O O O O O O O O       O       .               O             O               O                                       O O                         X a f X   O O                           O         .                                                         O                           &                     .                     O     .               O   X $ u u o     O   O O .     .                                                           O                           ",
"O O O O O O O O O O @ @ O   X         O O O O O O O O O O O O O O O O O O O O O O O     O                       O         O       O                   O                     O       O                   O   O . .   - = X                 O                                                       O                                                                                         O                       X               y u y       O   O                 O     O   O O         O O           O     O   O 3 <       O               O O ",
"O O O O O O O O O O @ @ < O         O O O O O O O O O O O O O O O O O O O O O O O O O O                                                               O               O O                               O   O     . y y .                     O       O O O                                                                                                                       O           O < < O O             O O             $ y $                         3 O     O 3 Z U O         < 3                 O   3 Z O                       O < ",
"O O O O O < < O O O @ X < O       O O O O O O O O O O O O O O O O O O O O O O O O O O O O                                                     O O     O O O         O O O O                             O O 3 O O O % u %               O           O O O O                           O O               O O                                               3 O                   O 3 O         O U D Z 3           O < O                                         O Z O     O 3 Y T O         3 <           O     O   J 3                         O < ",
"O O O O O O < O O O @   < O     O O O O O O O O O O O O O O O O O O O O O O O O O O O O O                                         O                   O Z O   O     O O O O                       O       O U 3 3 D O $ .               O O O       O O O O     O                     O O O             3 3                                             O Z 3                   O 3 O         O W 3 Z <             < O                                         O <       X   { <         X @                 O   s N                           X @ ",
"O O O O O @ @ @ X O O   O @       O O O O O O O O O O O O O O O O O O O O O O O O O O O O O                       O O                                 O 3 O                                               O F 3 3 Z <                     O 3 <     O O O                               O               3 O O O O                                         6 O                   O 1 O         * {   ;               O O                                       O @       X - a k           -                       k a                           X * ",
"O O O O O @ @ @ X         X :   O O O O O O O O O O O O O O O O O O O o w   O O O w e w   O O # O O # +     + +     # (.*.  # e # w w         # w w w O   m (.*.  + +   *.(.*.O + # O   + # O   O (.*.      b @ @ X X                     O U D O                                       O               > X   O O                                       X f                     X *           s 2.X f             X -                       O             O     X     O X * N a     O     X                     X z   O                       . o X ",
"O O O O O O @ X     O O     o     O O O O O O O O O O O O O O   O O   SXUX-.    sXUXHXPXDX    kXsX  kXkX    |.DX  -.UXxXKX,.|.KXUXKXHX        UXJXJXBX  fXLXxXPXlX    lXKXNXCX  iXNX    (.PX  t UXNXHX|.    a = * f *                       9 D 3 O                                     O           O   -                                               X f             O       X *           z = X *             o                                       O     O         o -           .                       & .       O                   $ $ o ",
"O O O O O @ X       O O       O   O O O O O O O O O O O O O O O O O + UXaXiX    hXiX    DX_.  sXpX  sXsX    `.AX  AX(.          JXt   O       UX      + UX      UX+ # UX        #XxX    ,.HX  xX|.      O   * * X * X                       a 0 D 3 O                                               O   X                                                 o                                   ,   .                                                       O O O           o .                               O   $                             . . o ",
"O O O O O O O         O O       O O O   O O O O O O   O O O O O O O =.HX*.HX    sXsX    zXOX  sXpX  sXsX    `.AX  HX,.          KX=.          UX+     # UX      IX# w UX        #XxX    ,.HX  NX`.          . .                             * f G Z O                                                       O                                                               O O             . y                                                             O O                                           O       O           O O                 + ",
"O O O O O O O     O O O O O O   O O O O O O O O O O   O O O   O O   iXkX# UXO   sXsX    zXOX  sXpX  sXsX    `.AX  1XIXiX(.  +   KX=.      O   IXiXsX,.# UX      IXw t UX        #XxX    ,.HX  `.UXpX(.  +   . .                             % , > A O                                                                                                                                                                                                                         O O       O               O D Z O               < < O             O + ",
"O O O O O O O   O O O O O O O O O O O O O O O O O O O O O O   O O   DX-.  KX*.  sXsX    zXOX  sXpX  sXsX    `.VX    ,.pXIX9X    KX=.          UX+XiX;.# UX      IXw t UX  O     #XxX    ,.HX    ,.iXKXsX                              O     % y - 8 O O                                       O O                                                                         O O                                                                                               O Z 3                       3 f.U O               3 3           O O O O ",
"O O O O   O O   O O O O O O O O O O O O O O O O O O O < < O O O O   IXIXIXUX|.  sXsX    zXXX  gXpX  sXsX    `.BX        -.HX    KX=.          UX#     # UX      IX2 w UX  O     OXxX    ,.HX        w IX    O                             O   y y - @ O                                       O O             O     O O O O           O       O                         O U U O                                                                                             O T Z                       E v.3               O 3 O           O O O O ",
"O O O         O O O O O O O O O O O O O O   O O O O O 3 3 O O O O *.IX  + `.CX  kXiX    AX).  aXsX  +XkX    |.xX        M.DX    KX=.          UX#     + UX      UX+ # UX        `.BX    (.AX      O *.PX    O O             O           O     . u ! @ O                                     O 3             O O     O Z U 3   O O O O O     O < O                     O 3 f.U O O O O                         O O O                                               O O       ; ( O                     = 0.{                 b             O O O O @ ",
"O             O O O O O O O O O O O O O     O O O O O O O O O O   sXNX  O w UX  hXUXPXIXDX  =.UXn.  # UXAXVXUXt   kXHXxXUX-.    IX;.          UX#       kXIXxXPXlX    lXPXxXKX+   PXDXVXUX,.  iXKXbXUX,.                  O O O O               + ! +   O                                   O 3 O           O       O O 1 <   O O O O O       O O                       @ w.< O O   O                       O O O O O O                               O O O O   O O O O     5.*                       j 3.=               X -     O O O O O O O O @ ",
"            O O O O O O O O O     O O     O O     X     X *   O O # + O O   7 @ O w w w     t =.  O     ;.,.+   O   *.,.+   O O + O O O     O # O O   +   _ ,.P   O O   *.,.e   O   -.,.#   O   t H.e   O O O                                   O : &   O O                                   :                       * =   O   O O           X                         a 5.X O O O O                       O O O O                                   O O O     O O O O   X z                       X z f                 o       O O O O O O O O @ ",
"      O O O O O O O O O O O     O O O     O O O O O       *   O O O O O O O O O O O     * X   X - X         O O O O                           O O O                                     O O       X f                                           X l         O                                 -                     X * = X O     O           o   O                     s k   X                                                                                 O @ O O   o o                       % i .                 .     O   O O O O O O O X ",
"    O O O O O O O O O O O O     O O O   O O O O O     O     O O   O O O O O O O O O             X   O O           O                                         O                                     X -                                       O   X =         O                                 X                       X X                                               i i                                                                                     X X   O   .       O                 % %             O O O           O O O O O O O X ",
"  O O   O O O O O O O           O O O O O O O O O O O O     O   O O O O O O O O O   O O     O       O O                                                                                             o   O                                   O O   .       O                             O                                                                               y %   .                                                                                 . X     O     O O                                     O O           O < < < O O O O ",
"O O O O     O O O O         O               O   O O O O O O O O O O O O O O O O         O           O                                                                         O O                   .                                                             O                                                                                                                                                         O                                 . $     O O O O                                                       @ 4 3 3 < O O # ",
"  O O O     O O O O             O O O O O O O O O O O O O O O O O O O O O O O O         O O         O O       O                       O         O O                                                                                                                                                                                 O         O                                                           O               O O             O <               O . .       O O O                                                     O @ 4 3 3 < O O + ",
"      O     O O O O     O O O O O O O O O   O O O O O O O O O O O O O O O O O   O       O O         O O O O O O         O O O O     O O O O             O O                     O O O O         O O O                                                                                 O     O O O                                     O O O   O Z 3             < O   O                                 O O O           O O O         O   O 3 O             O           O O                                                       X @ 1 4 4 4 3 < + ",
"            O O       O O O O O O O O O O O O O O O O O O O O O O O O O O             O O O O       O O   O O O O         O O O O     O < O O           O O                 O O O O O O O       O Z Z O     O O                                                                               3 D             O O                     3 O     O U D   O         3 3                                     O O O             O O         O   @ 4               O           X                                                         X @ 1 1 4 4 4 4 < ",
"    O       O O     O O O   O O O O O O O O O O O O O O O O O O O O O X O   O         O   O O O       O O O O O O         O O O       O O O                                     O O O O         O 3 D O                                                             O                         < A             O O                     O O     O ( 4             6 O                                     O O                               =                           .                                                         O @ @ @ 6 4 4 4 4 < ",
"O O O     O O O O O   O O     O O O O   O O O O O O     O O O O O O O X               O       O     O         O O           O           @         O                               O O O           ; b                                                               O O                       = d             O                       o     O * 5.*       O     f X                                     O                                 -                           .     O O O                                               O O @ @ 6 6 1 4 4 3 ",
"      O O O O O O O     O       O O O O O O O O O O     O O O O O O O                                           X           X o                                                                   = k *                                                                 O                     - =             X                       o       = 5.X   O       X -                                                       O               X                                 O   O O         O                                     O O # @ ; 6 9 4 4 4 ",
"      O O O O O         O O O O O O O O O O O O     O O O   O O O O       5 (.(.(.(.(.(.(.(.(.(.(.(.(.(.(.(.(.;.    O         O   O   # ,.).(.(.(.(.(.(.(.(.(.(.(.(.(.(.(.n.#   O                 X - X       O         O                                               O                     o X                                           O o o             . .                                                         O                                                     O O                                           O O O O @ ; 6 9 9 4 4 ",
"O O O O       O O O O O   O O O O O O O   O O O     O O     O O O O   # aX|.,.,.,.,.,.,.,.,.,.,.,.,.,.,.,.,.,.(.iXOX  +         O   #X#X(.,.,.,.,.,.,.,.,.,.,.,.,.,.,.,.,.,.OXaX+ O                 . .     O O                                                                               .                                               . $             . .                                                                                                                 O                                     O     O O 3 < 1 @ 6 9 9 4 4 ",
"      O     O O O             O       O O O O O O O O   O O O O O O =.sX+               O O O     O         O     =.lX  O     O   zXw               O                         o lXw                           O                                                             O O                                                                                                                                             O                                         O < < O   O O O           O O O O O   O O 3 3 3 3 Z 3 < < Z U D 4 @ 6 G F A 4 ",
"O     O O O O O O O   O 3 < O O O O O O O O O O O O O O O O O O O # sX  O O O     O O O O O O   O O O O O O O O O O w iX        kX+ O       O             O O O   O O         O   kX  O O               O O   O                                                         O O O O O O           O O                                                       O                                               O O O O O O O   O < < O                   O O O       O     O 3 U U 3 O 3 Z < O     O O O O O O O O O 3 D U U U U D 3 3 F Y F 4 @ 6 G A 9 9 ",
"< O O O O O O < 3 < O 3 U D 3 O O O O O O O O O O O < 3 3 3 O     1Xw O O O O O O O O O O O O O O O O O O O O O O O   |.t     ,.(.O O O O O           O O O O O O O O O O O O O O *.|.  O O       O   O O O O O O O O O                 O O O   O       O O               O O 3 3 O O O O O O O O O               O O O O O O O           O O O O       O   O O O O O O O O O O O O               O O O O 3 3 3 Z Z O O 3 Z 3 O     O O O O       O O O O     O O O O D f.U 3 < F D O O O   O O O O O O O O O 1 G G 9 9 9 4 @ = x 0 1 @ ; 8 6 6 9 8 ",
"O O O O   O O 3 3 O O 3 Y Y 4 O O O O O O O O O O O 3 Z U Z O O   #X  O O O O O O O O O O O O O O O O   O 3 Z 3 O   O I .X    #XO O O < 3 3 O O O O O O O < Z U 3 O O 3 U D D U D O 1XO 3 < O O O < 3 Z D U U U U U D 3 < O           O 3 Z 3 O O O O O O < O O O     O O O O Z f.Z 3 D Z < 3 3 D Z 3 O   O O O O O 3 3 3 3 < O O O   O O O O O O O O   O O O < < O O O O O O O O O O O O     O   O O O O 3 3 3 D Z O O 3 Z 3 O     O           O O O             O X @.#.1 O ; 8 @ O O O           X       * a g a a f = X * s l = @ @ ; > ; 6 9 q ",
"= X O O O O O O @ ; X O @ b g * O O O O O O O O O O O @ 1 6 X O w |.  O O   O O O O O O O O O O O O O   O 3 3 4 O   O O 9X    #X  O O O 3 < O < O O O O O < Z Y D < O 3 T U D T U Z 1XO 3 3 O O < 3 3 Z U T T f.T T U Z 3 O O O O   O O 3 D Z <   O O O < 3 < O O O   O O O O 9 g.D Z F 3 O 3 3 D 3 3 O O O O O O O < 3 3 O O O O O O     O O O             O @ O O O O O O O   O     O O           O     ; O > 8 X   X > > X       O                               s 6.j * X = a             X           o - - - - , = X o , p , X O 5 5 : ; 7 e p ",
"- o     O O O   X * X     g j =   O   O O O O   O O   * = a = X w |.  O O O O O @ X   O O X X O O O O       * = X O     iX    #X        : :   X X   O O     * x d * O   b N d c c * ;Xo ; X X   O X X ; x c M V M M c > X               X 8 > X         X X X           O O   > 0.~ 9 x * X ; = > > X     O       X * * * X               X X                 * X       X X                         O   X * X a =     X = * X                                 O     C z * . & , o O           .   .     . y u u y u u % . $ u u $ O < 5 & # @ 7 w 5 ",
"p % .   O O O O O + $ . O X , i $   O O O O O O O O O O X o , . w |.    O         X       X         O       * - o O     ;X    #X        X - X X X     O       a s * X X a 2.a j j * ;Xo * * X X X X * = s j j j k j s = *               * = = X         X X X             X   = 3.g L x * X * = = * X o     o     X o *   # t                               . o         .               O             O     % i $     % y $                                 O 3 O % <.y $ $ y y .                       . % y y % y % .   + % + O < 3 O @ @ @ 6 6 9 ",
"p y .       O       $ + O   % u y   O O O O O O         & % y y e |.          O   O   w H.  o o # (.  O O O   & %       #X    #X          X     . . +   H.iXOX;.y $     X h o , i $ $Xo . . .       . . & i i i i i i & &               . , & .     O     . .                 o C - I ! $ . $ % % $ .   sX|.      . $ . ,.UXUXsX          . .               . $         .             O O O               . y u $     y y .                                 3 <   % y $ . . $ .                           . . . . .     O O O O O < < @ @ 1 1 6 6 9 ",
"S 2 O                     O   . $   O O   O O           O . $ % w |.  O       O O     o UXn.    AXmX  O O O   $ % . O   #X    #X                . .   xXIXkXNX$Xy y .   . % y y u y $X& $ $ $     . $ % u u <.<.<.<.u u y .             . y u $           $ $               . % <.y q ! $   % y y % . w UX-.    . . $   HXzX    O         .   O             . .         .           O O O O             O . . .       .                                     X                                 O                         O O O O @ @ @ @ @ < @ ; 6 9 ",
"G G 4 O     O O   O O O O O   O O   O O O O O       O         . w |.  O O       O O O   [.KX  =.UX  O O   O O           #X    1X                  O o UXO       % $       . . $ % . +Xo .   .         . $ % % y y y % $ .                 . $             .                 .   y % X *     .   . .   iXDX              UX(.                  O                                     O X O           O                                                       X           O         O O O   O   O     O                   O O O @ @ @ @ @ @ @ 1 1 6 9 ",
"G G G <       O O O O O O O   O O O   O O O   O   O O O O O     w |.  O O       O O O O   IX;.BXiX        O O     O O   #X    #X                    t UX.   O                       OX+     O                             (.=.|.AXAX|.        (.NXAXzXt       ).xXAXxX=.  O   iX  M.SX:.              IX`.  O       O OXUXxXfX    ;.kXAXBX[.      ).*.w xX#X                                O   O   O O < O O 3                                           .   O O           O   3 U O < < O O O O O O                 O O @ O @ @ @ O @ @ @ @ @ 6 6 ",
"G G G G O O   O O O O O O O O   < Z O O O       O O O O   O     w |.  O O O   O O 3 O     }.UXUX  3 O O   O O     O O   #X    #X  O     O O         t UX+               O O         +X+ O O < O           O   O           |.UXGX}.sXUX(.    ,.UXsX}.DXUX    t LXpX.XDXUX#     JXAXIXlXp     O       >.UXO O   O     P zXUXmXhXO   DXkX.XxXUX`.O   #XJXUXxX(.                  O O         < Z O   O   3 U O < D O                                           O 3 3             O R U   < O O O   O 3 O           O     O @ O O @ @ O O O @ @ @ @ @ 6 ",
"G G G G 9 O O   O O O O O O O   O D <   O O       O O           w |.  O O O O   O T 3 O O   PX;X  Z O O O       O O O   #X    1X  O O O O O         =.UX+               O O         OX+ O O T <                           `.UX3 O   KXsX    NXNX  O I UX-.O       O # UX(.    AXSX  $ y             NXxX          O     UX).O Z           HXlX3 O |.UXw     O                             3 U O   O   D D O O Z O           O                               X 2 O       O     * { O X @         O Z 3           O   O @ @ @ @ @ @ O O O @ @ @ @ @ 6 ",
"G G G G K 4 O   O O O O O O O   O @ b X O         O O     O O O w |.  O O O       K ~     ,.UXIX  < 1 O     O     O O   #X    #X  O O   O O O   O   P UX  O         O O O O         +X+ O O f.3                           }.UXY Z   HXkX    AXxX    I UX-.            UXu.    DXxX  . .           # UX-.              O UX`.< 3           AXxXO O |.IX                                    M 0         { 8   = @ O       O O O                               - X               2.j   -         X > 3 3 O             O O @ < @ O O O O O @ @ @ @ @ 6 ",
"H H H G G G 4 O O O O O O     O O   f -                   O O O w |.  O O O       X N *   LX,.HXOX  > X     O O   O @   #X    #X  O O O O O     O   t UX. O       O O   X X         OX+ @   { g                     O O   }.UXV x   HXhX    AXVX>.`.KXKX      (.xXDXHXUXH.    DXxX            O   OXJX                + UX`.* X   w kXDXDXUXxX=   |.UX                                O X 5.X     O X 5.X   f X                                             X       O       . h X             o = ; 3 3 O           O O @ < O O O O O O @ @ @ @ @ 6 ",
"H G G H H H H O O       O     O O O   *     O O               O w |.  O O O O   O   d - (.IX  ,.UX  - *   O O   O   X   #X    #X  O O O         O O # UX        +       X *         OX+ -   k 5.    O O   O O O O O O O   }.UXk k   HXhX    AXIXAXBXaXX     `.UXsX,.>.UXH.    DXxX            O   PX|.                + UX`.= X # UXCX,.*.HXvX*   |.UX                                O * h       O o h   o *     O O                                                       $ $             . & * * < Z 3 O         @ O @ @ @ @ O < O O @ @ X @ @ 6 ",
"H G G G L L H 9 O       O O O O O     . . O O O O O     O O O O w |.  O O O O   O     . UX).    HXsX  O O O O   O       #X    #X  O O O         O O   BXHXOXpXkX          X     O   +X+ X   = h                           `.UX- f   HXhX    AXzX    X       xXAX    # UXn.    DXxX              ;.UX  X   O           + UX`.o   ).UX      DXxX    |.UX                                O . .         y $   .       O                               O       O                 .               $ % & * X Z D O       O O @ @ < @ O @ O O < @ @ @ @ @ 1 ",
"H H G G G L H H 1       O O O   O           O O O O     O O O   w |.  O O O   O O     t .X  O O w .X    O O     O O     #X    #X  O O O           O     |.zXkX,.                O   +X+ O     y   O                       [.UXo y   HXhX    xXNX        +   lXDX    w UX,.    DXxX              NXxX      O           + UX`.    (.UX+     HXzX    |.UX                                O       O     .                   O O                                 O             O O               . $ % X * 6 Z 3 O     O @ @ @ O O O @ @ O Z 3 @ < Z 4 6 ",
"H G G H G L L L G < O O O O           O   O O O O           O O w |.  O O O   O O   O       O O     O   O       O O O   #X    #X  O O O O O                                   O O   +X+       .                           |.UXo .   KXlX    ,.UXlXiXzXIX    ).UXkXOXPXUX(.    HXNX            w UX=.  O               + UX|.    # UXVXOXVXIXNX    OXUX              O                             X                       O                                 O                             O   . $ . * d 1 < O   O O < < 3 3 3 4 4 4 Z T Z < < F A 6 ",
"L L L H G G L L L H O O O O O         O O O O O O O       O O O w |.  O O O   O     O     O O O O O O O O     O O   O   #X    #X  O O O O O                                     O   +X+                                   =.#X      |.(.  O   ,.xXBXaXw   +   `.BXxX-.*.=.    `.).            -.#X  O O                 #X*.  O   -.mXBX.X  `.    =.#X                                          O     O O               O O O   O                 O O O O O O                             O     . % , = X O O   < 3 Z Z D D A 4 < @ ( K < @ > 9 1 ; ",
"K E L L L K L L L L G O O O   O O   O < < O 3 D O   O O   O O D e .X  O       O         O   O O O   O         O O       #X    1X    O   O   O O                                     +X+ O   O   O           O O         O     O             O         O   O O               O     O O             O   O                 O O O                 O O                     O O                       O   O 3 Z O               O                       O O Z 3 3                                       % y o X   O O 4 F A 4 9 9 4 < X a N @ @ ; x ; X x ",
"K L ( H H H L L L L L 4 O     O O     < 3 O 3 T 3     < O O 3 f.3 +X  O       O O           O < <         O O O O   O : .X    #XO O O         3 O                                   #X      O O   O         O O                           O O O   O O O                       O O O             O O   O O             O < O O                 O O         O O         O O                     O     O 3 3                 O O O     O             O X 4 @ O         O                             $ y .   O O O 0 H 0 8 b x ; @ X f = @ @ ; ; @ @ * ",
"H H X.H H L L L L L L 0 @     O       O 1 @   ; d     O       H b 9Xo +   O O O               O O   O                 `.-.    (.n.O O O O     3 <                               O t OX    O               O O O                         O O O O O O < O                   O   O 3 O             O O O O O             O < O       O O O       O       O O O O O       O O                         O   x O               O O O O     O               * * =                                         . .   O O   > / v 0 ; > @ @ O # : X O @ @ @ @ 1 @ ",
"H H ~ ( L L L L H H 0 8 *                 *   X 5.a     X     X 3.f iX  O     O O             O : X       O       O + sX  O     kX  O         O @                             O   kX  O                     O O               O             @ O O   @ O                         @               O O   O O         O O   X                     O       O O O O         X                         O O * z   O             O O         O O         O   * X X                                               O O X 0 ( 9 1 @ @ @ O @ @ O O O O @ O O O @ ",
"L L H ( L H H H 0 0 > - , o             O       * ,   O         a - ,.iX      O                 X *       O O     # xX  O O     : vX            -       O O                     sX*.                    O O O O               O             X O     X X O                   O   *   O           o     X O O O     O     X                     X     O O O O                                       O X =                                         O       O                                 O O O         O   4 g.K 6 < @ O O O @ X O O @ @ @ @ @ @ @ ",
"L H L G H H 0 0 8 8 7 , & $ .     O O   O         . . O           y . *.sX`.*.t P t t t t t _ P t m _ P P P t ;.OXiX  + O O O   O o sX.X=.t t P m m t t P P P t t P t t t *.`.sXw   O                         O               O             O O     X   O                               O O         O   O 3 3 O                 O                 O O O                                             .                                                                                 O O O O O     O O     z.j.9 9 @ @ O O O O O O O O O O O @ @ @ ",
"L H H H 0 8 8 6 7 w , & $ $ .       O O     O   O           O       O     =.`.|.[.[.|.[.}.}.[.}.[.}.[.[.}.}.|.(.7   O O O O O   O O   t ).|.}.}.}.[.`.`.[.[.[.[.[.}.}.}.|.`.t   O                                             O O           O O         O       O       O       O                       O 4 3 O                                 O O   . .                                       O           O O                                     O                               O O O O O     O O     [ G.H G 4 < @ @ @ @ @ O O @ @ @ O O @ < @ ",
"H H 0 0 8 8 6 7 w w & $ $ .         O O O   O   O O         O   O O O                         O                 O O O O     O                                             O   O     O                                                         O   O           O O                                         8 4 O                                 O               O                                                     O     O O                                   O O               O   X O       O O   = I.} 9 W 4 @ @ @ @ @ @ O O @ @ @ @ @ @ @ @ ",
"0 8 8 8 7 w w e 5 # # & .     O     O O O O O   O O           O O O         O   O O O O         O   O O         O O O O O   O           O O O O                   O O O O O         O                                                                                                                     = * O                               O                   O                   O                             O O   O O O O                               O O O             O     X O O   O X X   9.y.a ~ g.4 @ < @ @ @ O @ @ @ @ @ @ @ O < @ ",
"> : 7 w 5 5 2 4 1 X o . .   O O           O O O O O       O O O O           O O O O O O   O < < O       O O O O O O O       O O O     O O O O O                   O O O O O                                                                 O O                                                       O . y o     O O O                 O       O             O O   O O                 O O O               O O O         O O O O O                             O O O                 O O O     @     = p.d = { R 3 X X @ @ O O @ @ @ @ @ @ @ @ @ @ ",
": w 5 5 2 2 4 9 ; X o .     O O           O O           O O O O O O   O     O O O O O O O   D D O O       O O 3 O O O       O O O     O O O O O                 O O O O O O     O                                                           O O O                   O O         O                     O   y .   O O O O                 O O       O   O       3 D     O               O O O                 O O O O       O O O O                               O O                   O O O   O <     ' ' O h B 4 <   X X @ @ @ @ @ @ @ @ @ @ @ @ @ ",
"& 5 5 2 4 4 4 6 > o . .   O O O           O O               O O O O   O       O O O O       3 G @         O O < O O O       O < O     O O O O O                 O O O O                                         O               O           O O O             O   O < O         O                         .   O O O 4 O                 O O O                 < 3                       O O                 O O               O                                 X                     O O O   O O   1 ..4 5 C > O O   X X O O @ O O @ @ @ @ O O O O ",
"5 5 2 4 9 4 9 ; * o .       O O O             O             O O O O O O O O     O   O O   O   - -       O O O X *     O       X =     O     O                   O O     O O                                                                 O                       O                                         O O X >                   O                     - *                       O O                 o         O       O                                                     O @ O   X O   O o.G F u i ; O O     X X   O O O @ @ @ @ O O O O ",
"+ 3 4 4 4 9 6 * o . .       O O O     O O O O O               O       O O O     O   O O   O   * -       O O     X     O O       >   O           O O           O   O o   O O         O                                                             O                 #                                           O @ -     O                                   ,             O O           O                               O O O O                                               O O O X   O @     Q j.L K u % @ O               O O @ @ @ @ O O O O ",
"3 4 4 4 4 9 ; * o .     O     O O O O O O   O O               O         O O O O O O O O   O O   X       O O O       O O           O O           O                       O O O O   O O O                                                           O                                                       O     < 3 X O           O                           o                                                     O     O O O O O                                       O O     O   O O O O   9 D.H ^ O % # @ O               O O @ @ @ @ O O O O ",
"4 4 4 4 9 9 * o . .     O O   O O O O O           O     O O   O     O O O O O O O O O O   O O O   O     O O     O O O O           O O   O       O                                   O                         O                           O     O O O                                       O O O               < 3 O O           O O                                               O                                         O O                       O     O O         O O         O O O     r.@.x 6 O O 6 O O                 O X @ @ @ @ O O O ",
"4 4 4 9 9 ; * o .           O O O O O O O               O O O O O O O O O O O O O O O O   O O O   O   O O O O   O         O         O O O O O     O               O   O             O O           O                                       O O O O O O                                       O O O               @ 6 O O         O O O                                               O O O                                                               O     O O     O O     O O     O O O   n Z.8 0 @ < < O O   O         O       O X @ @ @ @ @ @ ",
"A 4 G 9 ; * o . .             O O O O O O             O       O O O O O O   O O O O O O         O O     O     O O                     O O O O O O                         O O O O   O         O O                 O                         O O O O O                                 O O     O O               * > O               O                   O                         O O O O O                             O O O O     O   O O O O       O       O     O < D O   O O O O   O O O t.( K < O 3 4 O O   O         O O     O   X X @ @ @ @ ",
"K 4 G 9 * o . .   O O O O O     O O O O 3 D O       O O O O O O     O O O O O O O O O O O O     O O O   O O < O           O   O   O O O O O O O     O O       O           O O     O           O   O         O           O           O     O       O                         O         O     O O             O   $ & O   O               O O               O   O O O       O         O Z O O                         O O 3 O     O   O < O O <       O O       O O   O R T O   O O     O   O o.z.G G O @ W 3 O O   O                       X X @ @ @ ",
"9.8 G 9 * o . .   O O O O O     O O O O 3 T 4             O O O       O O O O O O O O O O O O   O O   O   Z U 3   O O       O O O O O O   O O O       3 D O                   O   O < O               O O O     O     O O O O O       O     O D O                                     O O O Z O             O O $ $ < O O             O 3 3 O   O             O D 3   O O       O   4 T O       O                       4 O   O O     O O O O           O O         a { O     O O O O O   H Y.E o.3 O H E O O O   O                         O X X @ ",
"4.V 6 > * o .   O O O O O O O   O O O O O ; 9.X           O O O       O O O O O O O O O O O O O O O   O   O Q 4             O O O O O O O O O O       Z g.O     O O O O O     O   < 3               O O O O     O     O   O O O       O     O T <                                     O O O Z O O         O       . 3 3 O         O     4 <                 O O 9 O                 c X.                              X @     O O   X   X X O           O   O O     5.k     O     O O O @ G.V.( G O = q.@ O 3 O   O   O       O                   O ",
"8 b : * * . . O O O O O O O O     O O O O X k f     O   O O O     O O O O O O O O O O O O O O O O O     O   f 5.X         O O O O O O   O O O O O   O O q.X   O O O O O O O O   O O 8         O O O O O @                 @ O           O     { X           O             O             O O 8 O   O                 4 A O         O     = X                   * f   O               z s     O       O           O     * X     O         X       O O           O   . f X O O O     O X   @.P.[ ..< X M f   @ 4 O   O         O O                 X X ",
"9 7 , - o .   O O O O   O O O O   O O O X O   ,       O   O O       O O O O O O O O O O O O   O O O O     O X k X         O O O         O O     O   O   2.g   O O O O     O O   O   = X     O O O O O   X                 @ X           O O   6.=   O       O                             X h     O             O   > 0 O   O     O O   *     O               X X   O     O         h               O                         O O                 O     O         o   O O     O O @   > L.w.} G @ ; 7 O O : < O   O         O O O                   ",
"9 6 - o $ .   O O O O   O O O     O O       O   .     O O           O O O O O O O O O O O O       O O         . .   O O     O O                 O     O X i   O   O     O O   O   O O X O               O           O           O     O       , . O O O                                     o     O O           O   , = O O O               O O               .       O     O O O   o   O                   O               O O O O O     O       O O O O   O     O             X X   r.A.M / 4 1 1 @ O @ * @ O   O       O O O O   O               ",
"9 ; o $ .     O O O O   O O O O O O O O O     O           O O O O O         O           2     O O O                               +   O O         O   O     +   O     O O       O         O     O   O     O O +     O O         + .   +       &           O       O     O   O O                     O O O   +   O   u & O       O O                                       O                                       O                 O O                                       O O   ~ G.) / 6 6 < 1 < O & @ 3     O O       O O O   O O             ",
"6 * o . .       O O O O O O O O O O O O   O             O O O O O   }.IXIXkX  w VXDXDXhX  sX(.  O   pXAXDXHXw   |.IXIXsX`.HXxXAXAX    O   -.PXIXDX  O # AXpX      xX|.  O # DX*.            .X|.      OX|.  O   iX`.    xXIXIXpX  O VX    t xX  HXAXxXJX|.          ).+X        zXIXIXkX    `.AXHXxX  O   DX+       y $ O         O O                                     O O O O                                             O O                 O O O               O O     O   X S.e.H v > 1 1 @ @ < + 3 3 O   O     O O   O           O         ",
"* o o .     O O O O O O O O O   O O O O O O O O         O O O O   t UXO # *.  _ UXw *.w   AX[.  O   HX`._ *.O *.UX+ + # w w PX,.*.    O   UX_ + w     `.HXIX  O   KXPX    |.UX,.    O   O   UX#       kXaX      xX1X  iXNX+ # w   + UX.   *.PX  _ `.HXe #           IXt       OXBX+   DX`.  sXkXw kXzX  O UX+       . . O O                                               O   O     O                       O           O     O O       O O O O O     O   O           O O   O     V L.n 0 @ @ 4 < @ X O O G 3 O   O     O     O                     ",
"* o . .   O O O O O   O   O O   O O O O O O O O         O O O     (.AX  O     P IX        CX}.      DX(.      ).AX      O   LX*.        w IX  O   O   xXH.PXe     HXHX=.  HXNX`.  O O     ;.AX        sXpX      zX#X  NX`.        + UX.   *.PX    (.GX      O     *.JX        xX|.    9XkX  sXaX  -.JX    UX+ O O       O O O                                         O   O O < O                                   O O < O       O   O O O O O O     O O O O O O O         O   * p.V 9 @ @ < 9 X @ @   b 9 O O   O     O                           ",
"* o .   O O   O O O O O   O O O O O O O O O O O O O     O O     O ;.IXw     O _ PX  #     CX].      HX(.+ +   `.CX  O O O   LX*.O     O e IX  O   O   IXw xX.X    UX(.lX# FXaX`.    O O   VX,.        sXpX      zX#X  VX_.      O + UX  + *.PX    (.HX  O O O     xX`.    O   xX.X    iXlX  sXiX  [.NX    UX+ 3 O     O O O O                                         O   O O Z 3     O                               O < O           O   O O O           O   O O O             n ] 6 9 1 < 9 < X @ @ O = X O       O O                       O O   ",
"* & .   O O   O O O O O   O O O O O O O O O O O O O O   O O O   O   sXIXUXpX  t UXIXUX).  CX[.      VXIXIXHX  `.AX  O       LX*.  O   O w IX< A   O # UX  `.ZX    UX  PX`.OXsX.X  O O O   UX  O       sXpX      zX#X  BX`.# PXNX+ + IXIXIXIXGX    (.HX  O O   O   UX  O O O   VX|.    iXxX  iXIXDXUX=.    UX+ A <     O O O O       O                           O O O O     X 6 O   O O                               X X   O O O       O O             O     O O O           O #.6 H @ 1 G 6 O @ O O & X O O                     O     O       O   ",
"o .   O O O O O O O O O O O O O O O O O O O O O O O O       o   O O     + UX# P PX        VX[.      HX;.      `.AX  O O O   LX*.    O O w IX  4.X   ,.PX`.iXIX    UX  xXUX# kX#X        9XsX  O       sXpX      zX#X  BX`.  # UXO + UX    w IX    (.HX      O   |.zX    O     xX.X    iXlX  sX#X  # UX    UX+ b   O O     O   O O                                           - -   O O         O                       X X   O O                     O       O O O O     O     ~ H 9 9 1 9 G @ O O @ O + O O     O             O O             O O O ",
"$ . O O O O O O O O O O O O O O O O O O O O O O O O O         O       O   IXt P IX        VX`.      GXn.      (.VX      O   LX*.    O O w IX  5.X   kXNXiX.XUXm + UX+ =.sX  sXiX    O   IX# O   O O   sXiX      zX#X  NX).    UXO + UX    *.IX    (.HX          KXt           xX}.    #XkX  sXpX    UX+   UX+ f     O O   O O O O                         O O O             X       O O                         O O         O O O               O O O O O O O O             < X.A K X @ L 4 O   O @ O + O 3 O   O           O O O O     O O O   O O ",
"$   O O O O O   O O O O O O O O O O O O O O O O O O O O           t iX*.}.UX  _ UX(.`.).  AXfX_.`.  HXiX).|.w w UX,.*.).    IX*.      O   IX`.*.`.  PX=.    DX|.# UX        sXkX      ,.DX      O O   kXxX).|.+ xXiX  `.KX*.=.UX# + UX.   *.IX    ).JX        =.KX            `.JX_ *.PX(.  sXNX(.lXAX  m UX  o   O O     O O                             O O O O         O         O                         O O O         O O               O O O O O O O               O X.9 Q Z < K W < O X O @ O O A Z O         O     O O   O O   O 3 O       ",
". O O   O O O O O O O O O O O O O O O O O O O O O O O O O         # kXDXBX2   # sXkXkXsX  `.hXkXlX  |.hXkXxX*.  ,.AXDXpX    iXw           w NXDXlX  hX  O   (.`.. aX    O   (.).      |.=.      O O   H.fXkXxX# `.H.    .XDXAX`.  O sX    w iX    *.#X  O O   ).,.          O   |.DXDX|.    n.sXlX#X    BX).    O O O     O O O                           O O O         O O O                                               O O                 O O   O O O               H ( x ~ O @ O.Y O O X @ @ @ 6 R Z O       O O     O     O     @ < O       ",
"  O O O O O O O O O O O O O O O O O O O O O O O O O O O O O     O O       O O           O         O           O         O O         O O           o   + O O     .   +     O     O   O     O     O O O               O O         O O   O       O       O O O O                 O         O O         O +     + O O O O     O O O O                         O           O O               O O                               O O O O             O O O     O O O       O   O #.6 x X   N { < < O + @ @ O > E 3 O   O     O               X :           ",
"O O O O O O O O O O O O O O O O O O O O O O O O O O O O O O     O O O O O O O   O   O         O O   O O O O O O O O O O O O     O     O O   O   O     O O O O O           O O O                                         O       O               O O     O O O     O O O O O                 O O O O             O O O   O O O O   O O                     O         O O                 O O O O             O O   O O O O O O O O O         O O O O O     O O   O O     X.~ 6 < X * l = @ @ X @ O O 5 h G <     O O                   X X   O O     ",
"O O O O O < O O O O O O O O O O O O O O O O O O O O O O O O O       O O O O O O     O O O     O O   O O O O O           O O O O O O O O O O O +   O O   O O   O         O O O O O O O   O O     O O     O   O O                   O     O O O O O       O O O     O O O O   O       O O O       O O O         O O O   O     O O O O O O O O             O O O       O O   O O O O O O O O O O O O O O O O     O O     O     O O O           O O O O     O O   O O O   9 $.4 1 @ O , , X X O @ @ X O p q F < O                                       ",
"O O O O O O @ O O O O O O O O O O O O O O O O O O O O O O O O         O O O O O O   O O Z O     O   O O O O O O       O O O O O O O O O O O O D 3 O   O   O Z O O O O     O O O O O O       O O O 3 O   O O             O                 O O O O O O     O O             O O O     O O O     O       O O O O   +   O 3 O   O O O O O O O O O     O O O O O O     O O   O O O O O 3 O O O           O O O       O     O   O O O O             @ O O     O O O O O   O $.K R 4 @ O 2 + O O O O @ @ O , b K O         O                               ",
"O O O O O   X X O O O O O O O O O O O O O O O O O O O O O O O         O O O O O O   O O < @   O O O O O O O O O       O   O O O O O O O O   < g.R <   O   O T 3 O O O       O O O O   O       O O D 3       O           O   O       O     O O O O O O O     O             O O O O O O O O     O       O O O O   .   O 4 O   O O O O O O O O       O O O O O O     O O   O O O O   9 O                 @ O O           O   O O O O     O O   X X O   O O O O O < O   o.O.R K O < 4 3 < O O O O @ @ X , M 3 O         O O               O             ",
"O O O O O   O O O O O O O O O O O O O O O O O O O O O O O O O O         O O           O X : O O O   O O O O O O   O O O O O O O O O O O   O   c 5.X X O O O n d         O O O O O O O O O O       9 ;       O O O O   O O O O       O     O O O O O O O             O     O @ O O O O O O O O   O O O O O O @     O X - O   O O O O O                 O         O O O     @ O   ; >   O             X O O O               O O O O   O O O   X       O O O   @ O   4 b.( l.O O D F 3 3 O O O X O @ . p * O   O       O             O O O             ",
"O O O O O O O O O O O O O O O O O O O O O O O O O O O O O O O O O       O O     O     O   O O O     O O O O   O O O O O O O O O O O O O O     = 2.* X O O   f f         O O O O O O O O O O       = f   O       O O O O O O       O     O O O O O       O   O       O O     @ O   O O O     O O O   O O     O     O X *       O O O                           O O O O O   > @   X       O O             O O O           O O O O O O   O O         O O O   X : O   #...9.v O < o.1 8 1 O O O @ @ O % u   O   O O O O                                 ",
"O O O O O O O O O O O O O O O O O O O O O O O O O O O O O O O O O O       O   O O   O O O O     O O O O O O     O O O O O O O O O O O O   O O   & &   O O O O X       O O O O O O   O     O O       : O O   O O O O O O O         O O O O   O O O O O     O O     O O O O O     O O O       O O O   O O O O                     O O           O O O O O O O O O   O O       O             O O         O O   O O         O O O O O O   O O     O   O O   O X     0 #.d N @ 3 #.b * 8 @ @ O @ @ X O + . O O   O O O                                   ",
"O O O O O O O O O   O O O O O O O O O O O O O O O O O O O O O O O O O O               O O O O O       O   O   O   O     O   O O     O O O O O O   . O O O O   O O       O O O O O     O       O               O O O O O O       O O O O     O O   O           O   O O O     O O O   O         O O O     O O O O O O O O           O O       O   O O O O O O O     O O                     O O O O   O O O O O O           O @ O O   O O O O O     O     @ X   O #.0 8 @ 1 x N X X X @ @ @ @ @ X @ O 3 D 3     O O O O   O O O                       ",
"O O O O O O O O O O O O O O O O O O O O   O O O O O O O O O O O O O O       O O O O O O O O       O   O O       O O     O   O     O O O O O O O O   O O O O   O   O     O   O O O               O     O           O O O O     O O   O O     O O O O O O O O         O O                     O O O       O O O O O   O O           O O O O       O O O O O O     O       O O       O O O O O O O O   O O O O     O       O O O X O         O O           X X   ( ) < 1 6 @ q * O O @ @ O O O @ @ < O 0 E <               O O O                       ",
"O     O O O O O O O   O O O   O O O @ X   O O O O O O O O O O   O O                                                                                                           O   O               O O O O O   O   O O O O   O O   O O O       O O     O O           O O                     O   O     O   O O O O O     O         O O O O O   O O O O O O O   O O O O O   O     O   O O   O O   O O   O O O     O     O   O O   < 3 O       O O     O O X O 1 #.9 6 < 1 4 O O O O O O O O O @ @ @ = 5.;                 O O                       O ",
"      O O O   O                 O O O X O           O O O O     O O O   ,.#X#X#X#X#X#X#X#X#X#X#X#X#X1X1X1X#X#X#X#X#X#X#X#X1X#X#X#X#X#X#X#X#X#X#X#X#X#X#X#X#X#X#X#X#X#X#X#X#XiX-.  O O O             O O O O O       O O O O O O O O O   O O     O         O       O O O O O         O   O O O O O O O   O O O O O   O O           O @ O O O   O O O O O O   O O < O O O O             O O       O     O O O     O O   O   O O O U U O O O   O O O   O O X < z.o.A 9 1 A F O O O @ O O O O O @ @ O - a   O O O       O                           O O ",
"      O O O     O           O O O   O O O O         O O O O       o   sX).O                           3 Z O               O O                                               O .X9X  O O O O O O O   O   O O   O     O O O O O O O O O O O O     O < O O     O O     O O O O       O O O O O O O O O O   < 3 O O   O O O O O         @ O O O   O     O O O O < U U < O O               O O       O     O O O O   O O     O X   > z.Y O O   O O O O   O     ..D.R R 6 6 L A < 3 O O O O O O X X @ + &   O   O O       O O                         O O ",
"    O   O O     O O O O O O O O O O O O O O         O O @ O O   O   hXw       O O O O O O O     O     3 c.8   O     O   O Z L X   O   O O @ O O   O O O O O O < O O     O 3 f.3 -.iX    O O O O O   O O O O O O   O O O O O O O O O   O 3 < O O O Z A O O O   O     O O O O     O O O O     O O O   O   3 F O     O O O O O         O < O O   O O O   O O O @ ^ G O O O O O O O O O O O O       O     O O O O O O O     O X X 2.6.X O     O O O O X X   > I.x.o.9 @ 0 ~ 4 4 A 3 < O O O O X X @ O O O O O O O O     O O                         O O ",
"O   O O O O O O O O O O O O   O O O O O O O O O O O O O O X O O   _.,.O O     O O O O O O O O O O O O O k 5.X     O O O     4.f   O O     : X     O O O O   O O @ O O     O { 4.  `.;.  O O   O   O O O O O   O O   O O O O     O O O O 1 X O O   @ ~   O O   O       O O O O O O O O O O O O O O     O > f O O O O O O       O     X * O O O O O O   O O   a z =   O O O O O O   O O O O O O O O O O X O O O O O O O O X @ o z a   O     X X O O X @ X 6.L.N./ @ 6 n > @ 9 F A < < 3 < < @ @ @ @ O O O   O O O O O O O         O O               O ",
"  O O O O O O O O O O O O O O O O O O O O O O O O O O O O O O O   iX  O     O O O O O O O O O   O O O O * C $ O   O O       * :           X X       O O O O O O X           s 5.X . #X  O O O O O O O O O O O O O O O O O O O O O       : X O O O X f       O O       O O O O O O O O O O O O O O O   O > -   O   O O O     O O     O X O O O O O O   O O O X * X O O O O O O O O O O O O O O O   O O   O O   O   O O X O X o $   O         X   X X X * 6.y.@.; @ 8 8 @ ; x 8 1 < 1 4 Z D Z 3 < O O O O O         O     O O O O O O       O O     O ",
"O O O O O O O O O O O O O O O O O O O O O O O O O O   O O O O O 7 .X  O O O O O O O O O O O O   O O     O . $   O O O O O     o     O   O     O   O O O O                   X i .   #X. O O O O O O O O O O   O O O O O   O O O               O O   -     O             O O O O O O O   O O O O O O O O X X   O   O O O O   O O     O O O O O O O O O O O O O     O O O O O O O O O     O                           O O O X   O O O             O O O f 0.@.8 @ 6 9 1 + : * * ; ; 6 0 G K F A 4 O < 3 O O   O     O     O   O O                 O O ",
"O O O O O O O O O O O O O O O O O O O O O O O O O O O O O O O O e |.  O O   O O O O O O O O O   O O O O O O   O O O O O O O O     O O O O O O O O O O O O O     O             . .   +X+   O O O O O O O O O O O O     O   O O O       O O O O O     O   O O       O     O O O O O O     O O O O O     O O O O O     O O O O O O O O   O O O O O   O O O O O O O O O O O O O O O O                                   O O   O O O     O O O O O   O O O x ] 0 @ @ 9 9 O # & # O @ @ > x n v H G 4 4 Y T < O       O O     O             O       O O O ",
"O O O O O O O O O O O O O O O O O O O O O O O O O O O O O O O O w .X  O O   O O O O O O O O O   O O O O     O O O O O O O O O O O O O O O O O O O O O O O O O O O O       O O       OX+     O O     O O O O   O O   O O   O O O       O O O O O O         O     O O         O O O O O   O     O O O   O O O O O     O O O O O O O O     O O O     O O O     O O O O O O O O O O     O O O             O               O O O O X O O O O O O       O < 0 ) 1 @ @ 9 4 O O + 3 O + # : - > d x 9 9 n h.W < O       O O                   O   O   O O O ",
"O O O O O O O O O O O O O O O O O O O O O O O O O O O O O O O O w .X  O O O O O O O O O O O O O O O   O O           O O     O O O       O O O O O O O O O O O O   O O O             OX+                 O O O O O O O   O O O O O   O O   O O O O O   O     O   O O O O O O O O   O O     [.iX      O O O O   O   O O O O   O O O       O O O     O O   ,.kX  O O O O O                 O       O       ).JX=.      O   O O X O O O O O O O       X ; / G @ X 8 0 < O O @ 4 O . & & & : > ; 6 ; k ] G O O   O   O O               O O         O O   ",
"O O O O O O O O O O O O O O O O O O O O O O O O O O O 3 3 O O O w .XO O O O O O   O O O O O   O O O O O O u.,.-.,.,.    ,._   O   *.,.,.2   O O O O O O O O O   O O O O       O O   OX+                   O O O   O     O O O       O   O O   O O     O       O O O O O O O O O   O   O   zXHX  O O O O O O   O O O O O O   O O O     O O O O     O O   XXUXO O O                       O O O O   O < < kXUX[.  O O O O O @ @ O O   O O O     O O X ; h.F @ @ K G @ O @ 8 @ O O + + # & & ; @ & C x 4 O O   O   O O               O O O O       O O ",
"O O O O O O O O O O O O O O O O O O O O O O O O O O O < 4 O O O e |.3 A X < < O O O O O O O O O O O 3 T O DXDXUXAXxX  ,.UXIX  O   DXKXAXUX(.      O O O O O O       O O O O O   O   +X+         O O         O O O < O O O O   .X-.O O O O       X O O O O O       O   O O O O         O   kXHX  O O   3 Z O O O O O O O O O O     O O O O @       O 3 O |.UX+     O               O       O O   +Xt J F   *.  O O O O     @ @ @ O O         O O   O [ v.4 @ H Q 4 < O @ ; O O O O O O O # @ @ y p X O   O   O                   O     O             ",
"O O O O O O O O O O O O O O O O O O O O O O O O O O   O @ *   O w .XO 9 * @ @ @   O O   O O O O O O O  .n   # UX      sXiXPX: O   DX).  H.KX      O O O O O   O O     O O 3 3 O     +X+ O O O O O       O   O O O U 3   O   O UX=.# @ Y   *.H.-.  O O O   2 n.,.e   O O O   *.H.-.#   O   kXHX  O O   n.R.*.  O O O O O @   w H.-.    O O   *.,.-.  @ O |.UX.   +   *.,.-.  O O O   -.H.t O   # UXm 5.- O w O O O   t u.,.  O @ @ :   : ,.>.  @ O * y.o.@ * { H 1 @ < @ X O O O O O O O O @ O % % O O   O O O                   O         O O O O O ",
"O O O O O O O O O O O O O O O O O O O O O O O O O O O O O X O O e .XO X > @ X X X   O O O O O O O O   * 5.* w UX  O   JX*.HX(.O   SX`.  u.PX  O O O O O O O   O O   O O O 1 q X     +X+ O O O O O O       O O X X 9 @     `.UXIXUXIX    mXUXPXUXKX+ O   ,.UXPXIXUXIXO O   mXUXPXUXUXkX    kXHX  O O JXUXPXUXNX  O O O O   (.UXIXUXUXw O   CXUXPXUXHXo   |.UX+ O   NXUXPXUXJXO O   HXUXPXUX(.[.UXIXUXJX  (.UXt O   hXUXPXUXUXr X   DXlXUXPXUXDX    l r.9 @ d N ; @ @ @ @ @ O O O @ @ X X @ @ O + + O O     O O O O         O       O O O O O O O O O ",
"O O O O O O O O O O O O O O O O O O O   O O O O O O   O O O O O e .XO O O O X       O O O O O O O   O   = & e UX  O + UXO pXlX    AXiX,.NX9X  O O O O O O O O O O O O O O X -       +Xo O O O O O O O     O O O X = -   O   w UXt   O (.UX#     JXsX    KXsX    `.UX+ O ;.UXe     JXzX    kXHX    iXIXX   ;.UX=.    O     UXiX    *.    (.UXw   7 UX`.  |.UX.   ,.UXt   + UX|.  XXIX      O   w UXe   O ,.UXe   *.UXP     AXNX    zXUX+   *.UX,.  z ) < @ b ; @ @ @ @ @ @ @ O < O @ O O @ @ @ @ O O O   O O O O O         O O O O O O O O   O 1 < O ",
"O O O     O O O O O O O O O O O O O O O O O O O O O   O O   O O e .XO O O O O O   O O O O O O O O O O     . e UX    ;.KX  *.KX    VXNXaXSX#X  O O O O O O   O O O O O O       O O   +X+   O   O O O O O O O O O     X       _ UX=.    +XIX      VXNX  O UX|.    |.UX# O |.UX+     JXxX    kXHX    NXBX  . # UX,.        # UX;.          iXKX  O   IXOX  |.UX+   +XPX  O   IX9X  kXDX  O O O   *.UXP     ,.UXw   (.UX+ O   kXHX    xXAX    : UX(.  ^ G O @ 2 @ X @ O @ @ < @ @ < @ @ O O O @ @ O O O O O     O O         O   O O O O O     O q @ O O ",
"O O O     O O   O O O O O O O O O O O O O O O O O O O O O O O O e .XO O @ O O O O   O O O O O O O O   O O O e UX    #XIXNXNXUX#   DX).  O UX# O O O O O O O O O O O O O O O     O   +X+ O O O O O O O O O O O O O   O       _ UX*.    #XIX  O   CXAX  + UX|.    |.UX#   .XIX+ O   JXzX    kXHX    BXNX    }.UXt           IXNX;.t   O   pXJX    ,.UXn.  |.UX+   iXPX    >.UX(.  xXDX  O O O   *.UX_ O   ,.UXw   `.UXO O   kXJX    xXDX    w UX(.@ $.4 @ @ 1 < O @ O @ @ @ @ X @ @ < < O < 4 < O O O O O O               O       O   O O O @ X     O ",
"O O O < 3 O O   O O O O O O O O O O O O O O O O O O O O O O O O e .XO O O O O @ O   O O O O O O O O O O O O e UX    DX#X>.=.KX,.  DX_.    UXO O O O O O O O O O O O O O O O     O   +X+ O O O O O O O O O O O O         O   P UX=.    iXIX  O   CXCX  # UX|.    |.UX:   .XIX+ O   JXzX    kXHX    NXUXUXUXIX`.  O O O     (.IXUXUXHX+   sXUXUXUXIXaX    |.UX    iXUXUXUXUXsX    xXDX  O O O O *.UXP O   ,.UXw   `.UXO O   kXJX    xXDX  O w UX(.0 o.< X @ A 4 O 4 4 < O @ @ @ @ @ @ < 1 6 < @ O < 3 3 <                     O O O O O O O         O ",
"O O   3 T D O O   O O O O   O O O O O O O O O O O O O O O O O O e .XO @ @ @ @ @ O     O O O O O O O O O O O e UX  O UXw     lXlX  DXxX+XAXBX  O O O O @ O O O O O O O O O O O   O   +X+ O O O O O   O O O O O     O O O O   P UX=.O   1XIX      CXAX  + UX|.    |.UX#   |.IX+     JXxX    kXHX    BXVX. #     O O O O O O     + ,.UX|.  pXKXO #     O   |.UXO   iXIX+ # O   O   zXDX  O O O O *.UXP O   ,.UXe   `.UXO O   kXJX    xXDX  O w UX(./ R @ @ 6 L 3 1 R 4 @ @ @ O @ @ @ @ @ 6 @ @ @ X @ 6 4 O                     O O O O O O O O       O ",
"  O O O Z Z.g X   O O O O O O O O O O O O O O O O O O O O O O O e .XO @ O @ @ @ O     O O O O O O O O O O O # +XO 7 ;X  O O t .X  ).iXaX`.  @ O O O O @ @ O O O O O O O O O O       +X+ O O O O O O O O O O O O O O O O O O _ UX*.    |.PX      VXNX    IX`.    XXUX#   ).UX      KXzX    kXHX    xXBX  O O   O O O O O O   O @   PX9X  9XKX  O @   O   |.UX+   .XPX  O <   O   kXDX  O O O O *.UXt O   n.UXe   (.UXO O   kXHX    xXDX    w UX).( A @ @ b x * N H @ O < < O @ @ @ @ @ @ @ @ @ X * q 1 O             O O O O O O O 1 @ O O O   O O O ",
"    O     a 8.* O O O O O O O O O O O O O O O O O O O O O O O O e .XO @ @ @ @ @ @     O @ @ O O   O O O O O O   4 1   O O O     O         O O O O O @ @ @ O O O O O O O O O X       +X+ O O O O O O O O O O O O O O O O O O t UX(.  3 =.UX;.o w UX#X    xXPX|.#XUXUX#   # UXxX|.NXUXlX    kXHX    |.IXP # r 1XO O O O O O ).e # n.UX,.  >.UX,.# w 9X#   |.UX+   -.UX,.2 P 9X7   ).UX>.O *.e O =.UX,.  O n.UXe O # UX`.O # JXkX    xXDX    w UX_.L 3 @ @ 8 X * M X 3 4 4 3 3 O @ @ @ @ @ < < @ @ @ @               O O O O   O X ; : O         O O O ",
"  O O   O   = i   O O O O O O O O O O O O O O O O O O O O O O O e .XO @ @ @ @ @ O O O O O O 1 X X O O O O O O O < : X   O O O O O O O O O O O O O O O @ O O O O O O O O @ @ O       +Xo O O O O O O O O O O O O O O O O O O   AXUXKX<   OXUXUXUXzX  O O   hXAXlX`.UX#     -.NXAX|.AXzX    kXAX  O   mXUXUXUXxX  O O O O + HXUXUXUXpX  @   sXUXUXUXCXO   |.IX+ O   pXUXUXUXSX: O   zXUXUXUX`.    DXUXDX  ,.UXw O   `.UXUXUXAXO @   zXAX  O 7 UX'.A O @ 4 A < @ O < 1 9 K 4 3 @ @ @ 1 @ @ < 4 < < 4 O           O O O O O O O O X X O O   O O O O O O ",
"    O O O     . . O O O O O O O O O O O O O O O O O O O O O O O e .XO @ @ @ @ @ O O O O O O : @   O O O O O O O @ X X O O O O O O O O O O O O O O O O @ O O O O O O O O @ @ O O     +Xo O O O O O O O O O X O @ @ O O O < O O   w + &.@     7 O   O O           ,.UX# O O         DXxX  @     @ O @   O 7 O   @ O O O O @   + 7 O   @ O O   + : +   O @     O O O   . 7 -   O O @   + 7     @ @   w + @ O   O O @     7 #   @ @ 1     @ O O   o.F @ @ E 4 @ @ @ @ 6 v L G < 1 < 4 4 @ @ 4 4 4 9 D 3   O     O O O O O O O O O X O 3 3     O O O O O ",
"      O O O O     O O O O O O O O O O O O O O O O O O O O O O O 7 OX  @ @ @ @ @ @ @ O O O O O X O O O O O O O < < @   O O O O O O O O O O O O O O O O O O O O O O O O O @ O O O     #X  O O O O O O O O O X @ @ @ X O < A @ O O   * z * X O O O O O     w m     kXUX  O   ;.@   2 UXhX  O O O @ O O @ O O O O O O O O O O @ O O O O O O O O O O O @ O O O O O O O       X X O O O O O O O O O O O O O O O O O O O O O O @ @ @ @ @ O O   O   } b.3 @ 0 j.< X @ @ X > x ( G 1 1 6 4 A 4 6 9 G 4 o.f.3 O O 3 3 O O   O O O   O O X 1 A 3 O       O O O ",
"O O O   O O O O O O O O O O O O O O O O O O O O O O O O O O O @   iX  @ @ @ @ @ < < @ O O O O O O O O O O O O 3 @ X O O O O O O O O O O O O O O O O O O O O O O O O O O O O O O O   iX  O O O O O O O O O O O X X O O @ 6 @   O O   , X O O O O         `.UXUXUXUX+X  O   AXUXIXUXPXw O O O O X O O O O O O O O O O O O O O O O O O O O @ @ @ O O @ O O O O O O O O O       O O O O O O O O O O O O O O O O O O O O @ @ @ @ @ @ @ O O   O = L.$.< * w.o.< @ @ 1 < e x 0 6 @ 6 8 G F 4 8 0 G ~ x.T <   < F U 3 O   O O O O O   * = @ O O O O O O O O ",
"      O O O   O O O O O O O O O O O O O O O O O O O O O O @ O @ O (.(.O @ @ @ < < 1 @ X O O O O O O O O O O O < ; X O O O O O O O O O O O O O O O O O O O O O O O O O O O @ @ O   .X-.O O O O O O O O O O O O O O O O X * X     O O O   O O O O       O     t =.#   @ O @   # =.*.O O O @ @ @ @ @ @ @ @ O O O O @ O O O O O @ O O O O O O O O O   X O O O O O O O O O O   O   X O O O X X O O O @ @ O O O @ O @ @ @ @ @ X @ @ @ @ O X O X k a.H O a t.9 < 1 @ 1 4 e 7 9 4 1 9 8 H G 1 8 8 w :.%.Y O = x n 9 < O X O O O O O O X X O O       O O O O ",
"O   O O O O O O O O O O O O O O O O O O O O O O O O O O O @ O @ O   sX_ O @ @ < 1 1 @ X   O O O O O O O O O O O X O O O O O O O O O O O O O O O O O O O @ @ @ O O O O O O O @   >.#X  O O O O O O O O O O O O O O O O O X O O O O X X O O O O O       O O O       O O O O O O O O @ @ O @ @ @ @ @ @ @ @ @ O O O @ O O O O O @ @ O O O O O O X O O X @ O O O X X O O O O O     O O O X @ @ @ O O O O O O @ @ @ @ @ @ @ @ @ @ @ 1 @ O   O X N @.< @ c $.< @ @ ; 0 9 w 6 G 4 9 S 7 8 6 6 q ; p C [ Z O = = a X O O O O O O O O O   O O O O       O O O ",
";   O O O O O O O O O O O O O O O O O O O O O O O O O O @ @ @ @ O <   pX|.@     O O                                                                                         # OXXX  X O O O O   O O O O O O O O O O O O O O O O O O O O O O O O   O O O O O O     O O O O O O @ @ @ O O @ @ @ @ @ @ O @ X O O @ @ O @ O O O O @ O O @ O O O O O O X @ O O O X X O O O O O   O O O X X X O @ O O O O O O @ @ @ O O @ @ @ @ @ 1 1 O O   O X / L @ @ { E O @ @ ; 8 6 @ 6 6 ; 6 2 w # 6 6 7 : u C 8 O     X X O O O O   O O O O O O O O   O O O O O O O ",
"5.=   O O O O O O O O O O O O O O O O O O O O O O O O O @ @ @ @ @ @ 1   ;.9X9X9X9X0X0X9X#X#X#X#X#X9X#X#X#X#X1X1X#X1X1X#X#X#X#X#X#X#X#X#X#X#X#X#X#X1X1X1X1X1X1X1X#X#X#X1X1X9X+Xt   O O O O O O O O O O O O X O O O O O O O O O O O O O O   O O O O O O O O   O O O O O @ O O O @ @ @ O O O @ O @ @ @ @ @ O X O @ @ O @ O O O O @ O @ @ @ O O O O O O @ O O O O O O O O O O O O     O O X O @ O O O O O O @ O @ @ O @ @ @ @ 1 6 @ O   O O ; l.A O = { 4 @ @ @ 6 ; @ @ 8 ; @ @ # # # 6 6 @ O u i X O O   O O O O       O O O   O O O O O O     O O O O ",
"a h . O O O O O O O O O O O O O O O O O O O O O O O O O O O O O @ @ 1 1 @ O       O Z 4                 O O         O                                                         O O O O O O O O 3 O O O O O O O O O O O O O O O O O O O O     O O O O O O O O   O O O O O X O O O @ @ @ @ @ X @ O O 3 4 O O X O @ O O @ O O O O @ @ @ @ O O O O O O O @ @ X O O O O O O O O O O       O O @ O @ O O O O O O @ O O O O @ @ @ 1 1 @ O   O   / z.3 O f v @ @ @ @ 1 < < @ @ @ @ @ O O @ @ 6 1 < y o O O O O O O O O O O O O O     @ @ O O O O O     O O O ",
"    .   O O O O O O O O O O O O O O O O O O O O O @ O @ O O O O @ @ @ 1 1 1 4 1 9 9 K q.k   O O X O O X 4 G @ @ O O A 8 X O O O O O O O O O @ @ @ @ O @ O O O O X O O @ @ @ @ O O O O O O O 4 4 < @ @ O @ @ O O @ O O O O O O O O O O O O O O O O O O O O O O O O   O O @ @ O @ @ @ O O @ X @ @ @ F W < X O O @ O O O O O O O @ O @ O O O O O O O O O @ @ O O O O O O @ O O O O O O O O O X @ @ @ @ @ @ O @ O O O O @ @ @ 6 @ @ O   O X B.g.O @ 6 1 @ @ @ @ 1 @ < @ @ @ @ @ < @ @ 1 1 1 < O O O   O O O O O O O O O O O   X X O O O O O O   O O O O ",
"  O O   O O O O O O O O O O O O O O O O O O O O O O @ @ @ @ @ @ @ @ @ 1 1 1 1 4 9 9 H M 5.o O O X @ @ X @ @ 8 @ X O X z ; O O O O O O O O O @ @ @ @ @ @ @ @ O O @ O O @ @ @ @ O O O O O @ @ < J 1 @ @ X @ @ @ < @ X X O @ @ O O O O O O O O O @ @ O O < < O O O O     O X @ O @ O O O O O O O @ ; 9.9.O @ X @ @ O O O O O @ @ @ @ O O O O O O O O O O @ @ @ @ O @ O O O O O O O O   O O O X O O @ @ @ @ O O @ @ O O O @ @ ; @ @ O O   g I.K @ @ A 4 @ @ @ @ 1 < 1 @ @ @ @ @ @ @ @ 1 1 1 4 O O O   O O O O O O O O O O O O     O O O @ O O O O O O O ",
"O O     O O O O O O O O O O O O O O O O O O @ O O O @ @ @ @ @ @ @ @ < @ 1 1 4 4 4 G H 0 , %   O O X @ O O O @ O O O X X @ O O O O O O O O O O O @ @ @ @ @ @ O O O O O @ @ X O O O O O O O O @ 8 ; @ @ X @ @ 4 9 @ @ X O O @ @ O O     O O O @ @ @ O @ 4 4 @ O O O O O O O O O O O O O X O @ @ X > z k X O @ X @ @ O @ O O @ @ @ @ O O @ O O O O @ O O O @ O O O O @ @ O O O O O O O     O X @ @ O @ @ @ @ O @ @ O O @ @ @ ; @ @ X O   6.r.1 @ 9 g.4 @ @ @ 1 4 4 4 < < < @ < @ @ @ 1 1 @ 4 O O O       O O O O     O O O O O O O O : @ O O O O O O O ",
"  O   O O O O O O O O O O O O O O O O O O O O O @ @ @ @ @ @ @ @ @ @ < @ 1 1 4 9 9 9 0 H 6 .   O O X O O O O O O O O X X X O   O O O O O O O O O @ @ X @ @ @ @ @ @ O O @ @ @ @ X X O O   O O @ X @ @ @ O @ < 4 9 @ O O O O O X O O O O O O O @ @ @ X @ 6 6 @ O O O O O   O O O O O O O X O @ @ X X : o @ X O X O O O @ O O O O @ @ O O O O O O O O X O O @ 4 3 @ O O @ O @ O @ O O O       X X @ O @ @ @ O O @ @ @ @ @ @ @ @ @ @ @ O X 9.~ @ X @.Q < @ @ @ 9 G 4 4 4 4 < @ @ @ @ 1 1 @ @ O O O O       O O O O O   O O O O O O O O X   O     O O O O ",
"          O   O O O O O O O O O O O O O O @ O O @ @ @ @ @ @ @ @ @ @ < < 1 1 4 9 G 9 H H 0 o   X X X X @ O O O O O O O O @ O O O O O O O O O @ @ @ @ @ @ @ @ @ @ X O O @ O @ @ @ O O O O O O O O @ @ @ O @ @ @ ; X O O X O X O   O O O O O O @ @ @ @ X X : X @ O O O O O O O O O @ @ X @ @ @ @ X @ O O O @ O O O O @ @ O O O O @ @ O O O O O O @ O O O X @ H A @ O O X O @ O @ O O O O   O   X @ @ @ @ @ @ @ @ @ @ @ @ @ ; @ @ @ @   * #.4 O = r.G @ @ @ ; 0 G 9 9 4 @ @ @ < 4 4 4 < @ O O @ O O     O O       O     O O O O O   O O O O O O O O O O ",
"O O O 3 Z O O O O O O O O O O O O O O O O O O O @ @ @ @ @ @ @ @ @ < < < 1 4 4 9 G G H H 0 :   O O X X @ @ @ O O O O O O @ X O O O O O @ O O O @ @ @ O @ @ O O O @ O O O O @ @ @ X X O O O @ @ @ @ @ @ @ @ @ @ X X O O X X O O O O O O O O O @ @ @ @ O X X O @ O X @ O O   O O @ @ @ O O X X O @ @ @ @ @ @ @ @ @ O O @ @ @ O @ @ @ @ @ @ O O O O @ O O X O b H < @ @ X X X O @ @ O O O O O   X X @ @ @ @ @ @ O O @ @ @ @ ; @ @ @ @   x ..4 X l ' 4 @ @ @ ; H G 6 @ @ @ @ @ @ 6 6 @ X O O O O O O                     O O O O O O O O O O O O O O O O ",
"O 3 F 3 T G O O   O O O O O O O @ @ 3 Z O @ O O @ O @ @ @ @ @ @ < < 4 1 1 4 9 G G G H H H 6   O O X X @ @ @ O O O O O O @ O O O O O O @ O O O @ @ @ O @ @ O O O @ O O O @ @ @ @ O @ X O X X X @ @ O O < < @ @ @ X O O X X O O O O O O O O O @ @ O X O X X X O O X @ @ O O   O @ O O O X X @ @ @ @ @ @ @ O @ @ @ @ @ @ @ @ O O @ @ @ @ @ @ O @ O O X @ @ # p 6 < @ X @ @ X X @ O O O O O O     X X @ @ @ @ @ O O @ @ @ @ @ @ @ @ @   B L O X c 9 @ @ @ @ 8 0 A @ X X @ @ O @ @ @ @ @ @ O O O O O O O                 O O O O O O O O O     O O O O O ",
"O O @ f 8 q.k X X O O O @ @ O O @ O 3 E v X @ @ @ @ O O @ @ < < < 4 1 1 4 9 G G G H H H H 9 o   O X X @ @ @ @ O X O O O O O O O O O @ @ @ @ @ @ @ @ @ @ @ @ @ O O X @ @ @ @ @ @ @ @ O O O X X X O O < 4 1 @ @ @ @ O X O O O O O O @ @ @ O O @ @ X @ O O O O O X X O O O O   O O @ @ O O @ @ @ 1 1 @ @ X X X O O O O @ @ @ @ O O X @ @ @ @ @ @ @ O X @ @ o p @ < @ X @ @ @ @ @ O @ @ O O O O     X X @ @ @ @ @ @ @ @ @ @ @ @ @ @ X * ..A O @ 6 < @ @ @ @ 8 0 4 O O O O O @ 1 < < @ @ O O O O O O O O O O               O O O O O O O O   O O O O O O ",
"O     @ X * z ,   O O X X ; X O @ O O * 5.a @ @ @ @ @ @ @ @ < < 4 1 9 9 9 G G G G H H H H 0 *   O O X @ @ @ @ O X X O O O O O O O < 4 4 3 4 @ @ @ @ @ @ @ @ < < @ @ < < @ @ @ @ @ @ O O O @ @ @ O @ @ 6 ; X @ O X X O O O O O O @ @ @ @ O O @ @ @ X @ O O O O O O O O O O O O O @ X @ O X @ @ 1 1 @ @ @ @ @ O O O O @ @ @ @ O O O @ @ X @ @ @ @ @ @ X O O o @ 4 < @ @ X @ @ O O @ @ @ @ O O O     X @ @ @ @ @ @ @ @ @ @ @ @ @ @ @ > j.3 @ 1 9 @ @ @ @ X x 9 < O O < < @ > ; @ @ 1 1 < O O O O O O O O O O O O O         O O O O O O O < 3 3 O   O O ",
"O O O   O O   . O O O O O O O O O O O @ * q @ @ @ @ @ @ @ < < 1 1 1 9 9 9 9 G G H H H H H H 6   O @ @ @ @ @ O O X X O O O O O O O < 9 9 6 6 1 @ @ @ @ @ @ @ 1 6 @ @ 4 Y < @ @ @ @ O O < O @ @ @ O O X ; @ @ @ < @ O O O O O O O @ @ @ @ O O 1 @ @ @ @ @ O O @ O O O O O O O O O O X X O @ O < 9 4 @ @ @ @ @ @ @ O @ @ @ O O O O @ @ @ O @ @ @ @ @ O X @ @   ; 0 < @ @ X O O O O O @ @ @ O O O O   X X @ @ @ @ @ @ @ @ @ @ @ @ @ X @.j.O @ 6 4 @ @ @ @ @ > 6 @ @ @ 4 4 < ; X ; @ 6 9 O O O O O O O O O     O O O O             O O O O 6 W U O O O O ",
"O O O O < 3 O   O O O O O O O O O O @ @ @ O @ @ @ @ O @ @ < < 1 1 1 1 9 9 G G H H H H H H H 6 o O X @ @ @ O O O X X O O O O O O @ @ 6 x ; 6 6 @ @ @ @ < < @ @ 6 < < 4 X.> @ @ @ X @ O 6 6 X @ @ @ O X @ X @ @ 6 @ O O O O O @ O @ @ @ @ @ @ 9 @ @ @ @ O O O @ O O X X @ O O O O O X X X X O ; ^ 6 @ @ @ @ @ @ @ @ @ @ @ @ O @ @ @ @ O O O @ @ O @ O O @ X X ; 8 @ @ X @ @ O O @ @ @ @ @ @ O O O   O O X @ @ @ @ @ @ @ @ @ @ @ @ > F.Q O @ 6 < @ @ @ @ @ 6 @ @ @ 1 1 @ O X @ @ @ ; ; @ X O O O O < 3 O O   O O O O O         O   O X = 5.#.3   O O O ",
"O   O O O @ > X O O O O O O O O O O @ @ @ @ < < @ @ @ @ @ @ 1 1 1 1 4 9 G G H H H H H H H H 0 @   @ @ @ @ @ @ O O O O O O O X @ @ @ X X @ @ @ @ @ @ < < < @ @ @ @ 4 A ~ - @ @ @ X @ X ; ; X @ @ @ @ @ @ X X X - *   O O @ @ @ @ @ @ @ @ @ @ 8 @ @ @ O O @ O O O O O X O O O O O O O X X @ X > b ; @ @ @ @ @ @ @ @ @ @ @ @ @ @ @ @ @ O O O @ @ @ @ @ @ O O @ @ @ @ @ X @ @ @ @ @ @ @ @ @ @ @ @ O O O O X X X @ @ @ @ @ O @ ; 1 @ } Y.4 @ 1 6 < @ @ @ @ @ @ @ @ @ @ @ O O O O @ @ @ @ O O O O O X G Y O O O   O O O O O             . h j *     O O O ",
"O O O O O X * X O O O O O O O O O O @ @ @ O < @ @ @ @ @ @ 1 1 1 1 1 9 9 G G H H H H H H H H H 6   O @ @ @ @ @ O O O O O O O @ @ @ O @ X @ @ @ @ @ @ @ @ 1 1 @ @ < @ 6 H 9 < @ @ @ X X X X X @ @ @ X @ @ X @ X X X O O @ X @ @ @ @ @ @ @ @ @ @ @ @ @ O O @ O O O O O @ O O O O O O O X X @ @ @ ; 6 @ @ @ @ @ @ O @ @ O @ @ @ @ @ @ O O O O @ @ @ @ @ @ @ @ @ O @ @ @ @ @ @ @ @ @ @ @ @ @ @ @ @ @ O O O   X @ @ @ @ @ @ O @ ; ; > L.z.4 @ 9 1 @ @ @ @ @ @ @ 1 6 @ @ @ O O @ O @ @ @ O O O O O X z N O   O   O O O O O O O           . .   O   O O   O ",
"O O O O O   O O O O O O O O O O O @ @ @ @ O O @ @ @ @ @ < < 1 1 1 4 9 G G G H H H H H H H H H 8 X O @ @ @ @ @ O O O O O O @ @ @ @ @ @ @ @ @ @ @ @ @ @ @ @ 1 1 @ @ @ X ; 9 6 @ @ O @ @ X O @ @ < @ X X X X @ X X O O O X X @ @ @ @ @ @ @ O @ @ @ @ @ @ @ @ @ @ O O O X O @ @ O X O O O O @ O @ 6 1 @ @ @ @ @ O O @ @ O O O @ @ @ @ O O O @ @ @ @ @ @ @ @ O @ O @ @ @ @ @ @ @ @ @ @ @ @ @ @ @ @ @ @ O O O O X X @ @ @ @ X ; ; @ M P. .@ 6 9 1 @ @ @ @ @ @ @ @ @ @ @ @ < O @ @ @ @ O O O O O O X - X   O O   O O O O O O O O   O     O             O O ",
"O O X 3 U 3 O O O O O O O O O @ @ @ @ @ O @ O @ @ < < @ @ 1 1 1 1 4 9 G G H H H H H H H H H L 0 * O @ @ @ @ X O O O O O @ @ @ @ X @ @ @ @ @ @ @ @ @ @ @ @ @ @ @ @ @ < @ @ 6 1 < < @ @ @ @ @ @ 4 4 @ O X @ @ @ @ @ X X @ @ @ @ @ @ @ @ @ @ @ @ @ @ @ O @ @ @ @ O O @ X @ @ @ @ @ O O O O @ X @ 6 1 @ @ @ @ @ O O @ @ O O O @ @ @ @ O O O O @ @ @ @ @ @ @ @ @ @ @ @ @ @ @ O @ @ @ @ @ @ @ @ @ O O @ @ O O O   X X @ @ O X ; > ; 9.G.F @ 9 G @ @ @ @ < < 1 1 @ @ @ O @ @ @ @ @ @ @ O O O O O O +   O O   O     O O O O O O O O O O     O     O     O O ",
"    O 3 f.Q 8 X   O O O O O O @ @ @ @ @ @ @ @ @ @ @ @ < < < 1 1 4 4 G H H G H H H H H H H H H H : O O @ @ X O O O O X @ @ X X X @ @ @ @ @ @ @ @ @ @ @ < @ @ @ X @ X @ @ @ 4 4 6 4 A < X X X @ 4 G O   O @ @ @ @ X X X X @ @ @ @ @ O @ X @ @ @ @ @ X X X X @ @ O O X O O O O @ @ X O     X @ @ 1 6 @ @ @ @ @ @ @ @ @ @ @ @ @ @ @ X O O @ O @ @ @ O @ @ O @ @ @ X X @ < @ @ @ @ @ @ @ O @ @ @ @ O @ @ O O O O O X @ @ O @ ; 6 a a.D.4 1 9 9 1 @ < 4 1 4 4 4 < @ @ @ @ @ @ X @ @ O O O O O O O O   O O O O O O O O O O O   O O O   O   O           O O ",
"  O O O @ N 5.=   O O O O @ O @ @ @ @ @ O @ @ @ < < @ @ @ 1 1 1 9 4 G G G G H 9 G H L L L L H H ; X @ X   X X   O O @ O     @ O   O @ @ X X X X @ @ X @ X X O @ O     O @ 6 ; ; @ G 1 O   @ O A 9 X O   X X @ O X X     O @ @ @ @ @ @ O @ @ @ @ @ @ O @ @ @ X @ O X X @ X X @ @ @ O O   O O @ 6 1 @ @ @ @ @ @ @ @ @ O O @ @ @ @ X O O @ O @ X X O @ @ @ @ X @ @ @ @ 4 @ @ @ @ @ @ @ @ @ < @ 4 3 @ @ @ O O O O X @ @ X @ > > k L.k.1 ; 9 1 @ @ 9 H 9 9 9 4 < @ @ 1 < @ O @ 1 @ O O O O X O O O O O O O O O O O O O O O   O O O   O O         O   O O ",
"O O   O   X X , + O O O O O X @ @ @ @ @ O @ @ @ @ @ @ @ @ 1 1 9 4 H._.H._.n.H H.].n.O  .L G &._.H @   r ,.    *.e X   (.pX(.    >.W < O @ O r (.o   H.(.>.(.-.  ,.(.(.>.  O @ O >.~ G 4 H.O >.).).).X (.O ;   H.:   `.pXH.O @ @ @ O @ O @ @ @ @ @ @ X X @ @ X X X < @ @ < @ O @ @ O O O O X @ ; 6 @ @ @ @ @ @ @ O O O @ @ @ @ X X X O O @ @ 3 < O @ O @ @ X @ @ @ 1 1 1 @ @ @ @ @ @ @ 4 W 3 K K @ @ @ @ O O O X @ X X @ > * N B.9 @ ; 9 6 @ 9 H 0 9 9 8 6 1 1 4 A 1 O @ @ 1 @ O O O O @ O O O O   O O O O O O O O O O   O O O O O O 3 U 3       X X ",
"@ O O O O O O   O O O O O O X X O X O O O O @ @ @ @ @ @ 1 1 4 9 O zXBXUXbX<X>.UXzXHXmX< L   KXUXJ.>   aXUX-.  VXOX  hXHXOXBXe   IXR.$.3 4   DXUX].O lXNXUXbX<X*.UXlXNX1XO D Y O IXH.  SXqX3 JXAXxXBXO JX_.  *.UX  zXAX#XBX# @ @ @ @ @ @ @ X @ @ < F 4 X O O @ @ O @ 4 Y 3 X @ @ @ O O < < X @ ; 6 @ @ @ @ @ @ O O O @ @ @ @ @ O X O @ @ X @ G 4 O O X @ @ X @ @ X ; 6 1 @ @ @ @ @ @ ; q.#.> q.9 @ @ @ @ @ O O O O   O X ; = '  .1 @ 9 A 6 6 0 0 0 0 9 8 ; 6 6 J A 4 @ 1 1 1 O O O O O O O O O O O O O O O O O O O O O   @ O O O X a { W 3   O   X - ",
"@ O O O O O O O O O O O O O O X O O O O O @ @ @ @ @ @ @ @ 1 1 9 0 O q IX  O H.KX    UX` H 9 IX0XlX6 O sXGXlX  bX|.  UX< 3 O 3   KXJ.L.b.v.W UX,XMXj.E X.IX< 9 n.LX  O 9 ..l.B.c LXJ.u.UX3 $.JXR.3 O 3 (.DX  lX@XO UX      @ @ @ @ @ @ X @ @ @ @ @ X.0 X @ @ O @ @ X ; t.> X @ @ @ @ O 9 6 X @ ; 6 @ @ @ @ @ @ @ @ @ @ @ @ @ @ X O O @ @ @ ; b * X @ @ @ @ @ @ @ X : 7 @ @ @ @ @ @ @ * z = d g X @ @ @ @ @ O O O O   O X > x V.K 1 1 H 9 0 L H 0 9 9 9 6 6 @ q J 4 < @ 6 6 < O O O O X @ O O   O O O @ < O O O O O O O X @ < O O   z k X O O O O O   ",
"@ @ X @ < 4 @ O     O O O O O O O O O @ O X O @ @ @ @ @ @ @ ; ; ; ; m IX  6 H.PX    IX| 0 J.HX` LXR E lX<XUXO mXXXO UXJ 0 / / X LXu.w.L.L.U.IX0.IX4.i.p.IX2.6.u.LX  * c M 4.3.j LX` GXH.[ g HXU.h.Q g.Z UXO UX: O UX+   O @ @ X X @ @ @ @ @ @ @ @ M g X @ @ @ @ @ @ * 5.= X @ @ @ @ @ > ; X X 6 6 @ @ @ @ @ @ @ @ @ @ @ @ @ O O O @ O @ @ X *   @ @ @ @ @ @ @ O X # 5 @ @ @ @ @ @ @ : o X @ @ @ @ @ @ @ @ @ @ O O O X @ * 9.D.G ; 6 H 8 / O.L G H 9 6 9 < r b 9 < @ 6 9 9 < O O O @ @ 4 3 O O O O X ; @ O O O O O O O X X O O   o o X O O O   O     ",
"; @ O O O @ ; @ O O O O O O O O O O O O O @ @ @ O @ X @ O X X @ @ X e IX  o ,.LXO =.UXX @ hXdX: UXw.3.zX-XvXu.vX X  kXUXZX=X= X KXu.g 4.2.:XvXa UXz 5.q.IX= M :.UXBXGXu.X * =   KX9XGX  / X AXDXSXMX+.l.MXtXFX3 O xXUXmX_.  @ @ @ @ X X X X X @ @ * ; @ @ @ @ @ @ @ X >   @ @ @ @ @ X @ X X X @ ; @ @ @ @ @ @ @ @ @ @ @ X X O @ O O @ @ X X O @ @ X @ @ @ @ @ @ @ @ @ @ @ @ @ @ @ @ @ @ @ @ @ @ @ @ @ @ @ @ @ @ @ X O @ d L.b.G 9 8 8 > 9.} ( ( ( H 9 9 H J 4 A 4 : 6 9 6 3 O O @ @ 6 K Z O O O   X @ @ O O O O   O O O O O O O O O O @ < O O   O   ",
"> @ O O @ @ @ @ X O O O O O O O X O O O O X X X X X X X @ O O @ @ O r IX    >.UXHXUX=.@   HX>.  LXu.j kXaXu.zXdX X@   *.M.IX).  KX-.X *   DX(.  DX(.4 _ IX  X :.IX=.H.q @ ; ;   KXH.UXZ n   DX[.u.s.0.N.I.UX&XG.b.< =.).UX,.O @ X X @ @ @ @ @ @ @ @ @ @ @ @ @ @ @ @ @ X X @ @ @ @ X X @ X X X @ ; @ @ @ @ @ @ @ @ @ @ @ X X O @ O @ @ O X X X @ @ @ @ @ X @ X X @ @ @ @ @ @ @ @ @ @ @ @ @ @ @ @ @ @ @ @ @ @ @ @ @ X @ * 4.P.b.H 8 ~ 9 t f c n v ~  .9 g ] 8 ~ W 3 6 6 ; 1 < @ @ X X v Q Z O X O O O O O O O O O O O O O O O O O O O O @ @ O O   O X ",
"* X O @ @ @ X O O O O O O O O X X O O O O O O @ @ @ O @ O O @ @ @ O r IX  O ,.KX  DX).@ O UXIXIXUX;X  sXaX  IXhX.XO 9 1   @XlX  KX;.@ @   PXIXIXUXsX  m IX  @ ;.PX  X @ ; ; ;   KX=.bXjX=   FXH.4 = M 9.4.UX5.0.a.A.h.3 hXiXX ; X @ X X @ @ @ @ @ X X @ @ @ X @ @ @ @ @ @ @ @ @ @ X X X @ @ @ @ @ @ @ @ @ @ @ @ @ X @ @ X @ O O @ @ @ O O O X @ @ @ @ @ @ @ @ @ @ @ @ @ @ @ @ @ @ @ @ @ @ @ @ @ @ @ @ @ @ ; ; ; ; X ; * 5.L.z.0 x  .G 7 > ; b c n ~ 9 - * = q.0 < @ 6 1 @ @ X O + i { j.3 O X O @ @ O X O O O   O O O O O O O O O X X X @ O O X @ ; ",
"f   O O X X @ X O O O O O O @ @ X O O 3 @ @ @ < 4 4 Z 4 @ @ @ @ @ @ e IX  O ,.PX  ,.KX  ;.PX  O {.GX  sXsX  kXUX[.O 7     xXiX  PXm     m IX    :.KX  r IX  @ -.KX      : @ ;   KXJ.o.UX:   HXn.4 O < a s UX{ 5.5.2.s   SX,XY A 3 @ X X X X @ X X X X @ @ X @ @ @ @ @ @ @ X @ X X @ @ X @ @ @ @ @ @ @ @ @ @ @ @ @ X @ X O O O O @ @ X @ O O @ @ @ @ @ @ @ @ @ @ @ @ @ @ @ @ @ @ @ @ @ @ @ @ @ @ @ @ @ @ @ @ @ X X * X , s.A.O.0 ' h.G 6 > ; ; 8 x > @ @ O : a @ < @ @ @ @ @ @ O $ p { g.3 O O O @ @ O O O O O O O O O O O O O O O O O X O O O O     ",
"i & O X O O X X O O O O O O @ @ O O O < ; * X @ 1 @ K ..> X @ @ X X r IX  O ,.KX    IX_ aXzX  K 9.UXo hXsX  =.UX[.  DXIXPXHX    DXUXUXGX`.NX  @ o UXO P IX  X =.UXUXUXDX  1 4   KXR.@.jXlX  CXUXUXUXR.A X IXb ~ X KXPXPXSX@.G.b.g.D 3 O @ O @ X X X X X X X X O X @ @ @ @ @ @ @ @ @ X @ @ @ @ @ @ @ @ @ @ @ @ @ @ X X X X @ O @ @ @ X X O O X @ X X @ X O @ @ @ @ X @ @ @ @ @ @ @ @ @ @ @ @ @ @ @ @ @ @ X X @ X X X @ - { S.o.0 } ~ 9 6 6 6 6 @ ; ; @ @ 1 X @ 4 @ @ 4 @ @ O @ O % <.| R O O X X O O O O O O O O O O O O O O O O O O O O   O O < < O ",
"o + O O O     O O O O O O O @ X X O O @ @ @ X @ @ X @ d f X @ X X @ @   6 < O   6 6   6 X   6 K V = e     6 O     6   @ 7   6 6     O O O   6 @ 1   6 @   6 @ @         G 4 6 8 O Q r.j X J Z 3 X   > / ^ O 8 8 ^ 3 A J X 0.0.i.y.x.j.F 4 < @ X X O X X O X O O O @ X X @ @ @ @ @ @ @ @ @ @ @ @ @ @ @ @ @ X @ @ @ @ @ X @ @ O O @ @ X X O X X @ X @ X O O O @ @ @ X @ @ @ @ @ @ @ @ @ @ @ @ @ @ X X O O O O @ X X X O = r.S.h.0 / 8 9 0 6 1 1 ; @ X @ X @ @ 9 4 1 @ < @ @ 4 4 O y <.f 4 @ + X O O O O O O O O O   O O O O O O O O O O O     ; 1 O O ",
"X O O O   O O O O O   O O O @ X o O X X O O X X @ X X   @ @ O @ @ @ @ @ @ @ @ @ @ @ @ @ @ ; F K g = < 1 @ X @ X @ @ @ 6 6 @ @ 6 @ @ @ 1 6 1 1 @ @ @ @ @ @ ; @ @ @ @ @ A F 0 > A v.N.V k X Y ..} n 9 6 9 0 0 9 6 8 } B.h. .> a f s 4.0.@.Q Y A 3 O O O O O O O O O O   X X X @ @ @ @ @ @ X @ @ @ X @ @ @ @ @ X @ @ @ X O O O 4 4 O X X O O O X X X X O O X O @ X @ @ @ X @ @ @ @ @ @ ; @ @ @ X X O O O @ @ @ @ X X @ X j y.y.O.~ L 9 8 8 9 4 4 1 @ < 1 1 < ; 8 1 @ < @ X > 0 < O $ p @ O O O O O O O O O @ 4 3 O   O O O O O O O O O O O   X X       ",
"o O O O O O O O O O O O O O O O O @ X X O @ @ @ @ @ @ X O O @ @ @ @ @ @ @ @ @ @ @ @ @ @ ; < T  .g > 4 ; @ @ @ @ @ X @ @ 9 6 @ 1 @ @ @ @ 6 6 1 @ @ @ @ @ @ @ @ @ @ @ 4 G 0 8 1 g.G.y.g - 3 ) B d > 6 9 6 9 9 9 G 9 8 B y.S.( 1 @ X * = M { %.$.Q F 3 O   X O O   O O O O O O X @ < 4 @ @ @ @ @ 6 @ X @ @ X @ X @ @ @ @ X @ X b q O @ X O @ X X X X X @ X X X X X X @ @ @ X @ @ @ @ @ @ @ X O O O O X @ @ @ @ @ @   X X V 9.9. .~ H 9 > 0 9 8 6 4 1 4 6 @ @ @ 1 @ @ @ @ ; ; @ O O o o @ @ O O X O O O X X q 1 O     O O O O O O O O O O O O O         ",
"O O X X O O O O O O @ X X     O O @ X O X X @ @ @ @ @ @ @ @ @ @ @ @ @ @ @ @ @ @ @ @ @ 6 > 4 f.e.j 1 G > @ @ @ @ @ @ @ @ 6 6 @ @ @ @ @ @ ; ; @ @ @ @ @ @ @ @ @ @ 1 4 9 0 x > 4 $.i.6.g 3 R ' a X @ 1 6 9 6 9 9 H L G 0 l 5.{ L A 4 1 @ ; > g N @.+.E F Z 3 O O O O O X X X O O @ 6 9 4 @ @ X ; ; X X @ @ @ @ @ @ @ @ @ X O X = * @ O X O @ @ X @ X @ O O X X X X X @ @ @ X @ @ @ @ X O O O O @ @ @ @ @ @ @ @ @ @   X * B ) ] h.H 8 > > 8 0 8 6 6 0 H 1 @ @ ; 1 < 4 4 @ @ X O O O X X @ @ O O O O   X @ @ ; O O   O O O   O O O O O O O O O           ",
"@ X @   O O O O O O X X O O O O O O X O O X X @ @ X @ @ @ @ @ @ @ @ @ @ @ @ @ @ @ @ @ 6 ; A g.9.z 5 G > @ @ X @ @ @ @ @ @ 6 1 @ 1 @ @ @ @ @ @ @ @ @ @ @ @ @ 1 @ 1 G 6 * ; 1 F +.9.s * 4  .M X X @ @ 1 6 6 ; 1 6 { L j.A : d ~  .W A 1 @ @ ; > 8 ~ [ +.o.j.E Z O O     O O O X X X 8 0 1 @ @ @ @ X @ @ @ @ @ @ @ @ @ X X O X X X O O O O @ @ @ @ @ @ O @ @ @ @ @ @ O X O O X @ O O   O O X @ @ @ @ @ @ @ @ @ X @ O @ * 9.[ y.z.H 9 ; 6 > > 8 6 6 v 9 < @ < 9 9 9 G 4 X X O O O O @ @ < @ O O O O O X X O O       O O O   O O O O O O O O O           ",
"@   O O O O O O O O O O O O @ O O O O O @ O @ X @ X @ @ @ @ @ @ @ @ @ @ @ @ @ @ @ @ @ ; @ A o.4.C 5 0 > @ @ @ @ @ @ @ @ @ ; ; @ 1 1 @ @ @ @ @ @ @ @ @ @ @ 1 1 4 4 8 1 @ 4 Y Q / B = @ 9 N = O X @ X X ; ; 6 1 1 * > V #.G 4 9 v $.h.K A < @ 1 6 8 x / @.A.A.l.A 3 3 O O O O X X X @ ; 9 G 4 @ @ 1 ; @ @ @ @ @ @ @ @ @ @ @ @ < < @ X @ @ @ @ @ @ @ @ < < @ @ @ @ @ O X X X X @ O O O X @ @ @ @ @ @ @ @ @ @ @ @ @ X X = 4.9.y.b.L 9 6 6 ; ; ; 6 9 6 6 @ X b G 9 0 0 @ O O @ O O @ @ @ @ O O X O O O O O O O O   O O O O O O O O O O O O O             ",
"X X O O O O O @ X X O O O < 1 O O O O < 4 < O @ O @ O O O @ @ @ @ @ @ @ @ @ @ @ @ @ @ ; 6 A +.2., 3 > > @ @ @ @ @ @ @ @ @ ; ; ; @ 1 @ @ @ @ @ 1 @ @ @ @ @ 1 4 1 1 6 4 4 F v.N.n g X A 9 = X 1 @ @ @ @ @ @ @ 6 6 4 @ * d ) 9 9 6 v $.b.z.L K G 6 9 9 8 c k 4.9.)  .Q W F 3 @ @ @ @ @ @ * 0 0 ; @ ; ; ; ; ; @ @ @ 1 @ @ @ @ X X @ X @ @ @ @ ; @ @ @ 6 1 < 6 0 6 X O       X X @ @ @ @ @ @ @ @ @ @ @ @ @ @ @ @ @ @ X X - g k i.D.E K G 9 6 @ ; 9 G 9 1 < ; x 8 9 9 @ O @ X O O O @ @ X @ O O O O O O O O O O O O O O O O O O O O O O O O           O O ",
"X X O O O O X @ X X O O O O 1 b X O X 3 R b X @ @ @ @ O @ @ @ @ @ @ @ @ @ @ @ @ @ 1 @ ; 9 Y ' j 1 4 ; @ @ @ @ X @ @ @ @ @ @ ; ; @ ; @ @ @ @ @ ; @ @ @ @ 1 6 6 ; 1 9 8 G j.T.y.c > 1 9 x X @ 1 @ @ @ @ @ @ @ @ ; 9 A 4 1 x 8 9 9 0 @.A.L.l.) ) H 9 G 9 ; 8 8 x n ) [ @.k.Q F 4 < @ X X X ; > 6 1 * ; ; ; @ @ @ @ 1 @ @ X O X @ @ @ X @ X o X @ @ @ @ 4 9 g = X O O O O O O @ @ @ @ @ @ @ @ @ @ @ @ @ @ @ @ ; @ @ X * > > N i.F.@.h.K 9 9 ; ; ~ G 6 @ ; 6 6 G 9 @ X @ @ X @ O X @ @ @ @ @ O O X O O O X O O O O O O O O O O O O O O         O O O O 1 ",
"X   O O O O O X X X O O O O @ > * O   O < z * @ @ @ @ X @ @ @ @ @ @ @ @ @ @ @ @ @ 1 6 6 G W B a 4 H > ; @ @ @ @ @ @ @ @ @ @ ; 6 ; @ ; 6 @ @ @ 6 6 @ @ 1 1 9 6 ; 1 9 > 4 z.L.0.d 6 9 9 ; @ @ @ @ @ @ @ @ @ @ @ @ ; 0  .G @ * 6 G 9 c 4.2.B ~ ) L 9 ~ L 9 9 6 9 > n ( / ' [ ..E K A Z 4 O X @ ; ; 1 @ ; ; @ X X @ @ @ X X X X X @ @ @ X @ @ X X @ O 6 n d *     O O O X X X X @ @ @ @ @ @ @ @ @ @ @ @ @ @ @ @ @ @ X X * > N 8.C.w.$.H 9 9 @ w 8 6 @ @ 6 8 0 H 1 @ X @ @ X @ O @ @ @ < < O O O O X O O   O O O O O O @ @ @ @ O             O O O   * b ",
"X O O O O O O O O O O O O O @ @ O       O X X O @ @ @ @ @ @ @ @ @ @ @ @ @ @ 1 @ 1 1 6 9 W v.4.= A v 8 ; @ @ @ @ @ @ @ @ @ @ ; 6 6 @ @ 6 ; @ @ ; 6 6 1 1 6 6 ; @ ; @ @ F k.y.2.* 1 6 6 @ @ @ @ X @ @ @ @ @ @ @ < @ * x ~ 9 < @ 6 H 9 > * * 8 (  .H 8 v 8 6 9 G K G ) z.( 0 n n / +.b.v.F 3 1 6 ; @ ; 6 6 @ @ @ X @ @ X X O X @ @ @ @ @ @ @ @ < 9 0 x a X O     O O X X X X X X @ @ @ @ @ @ @ @ @ @ @ @ @ @ @ @ @ X X ; > c 0.C.%...H 8 ; : : ; 1 < @ ; 8 0 9 1 @ O @ O O @ O @ @ @ 4 < O O O O O O O   O < X X @ O @ ; @ O O     O       O O O X : * ",
"X O O O O O O O O O O O O O X @ @ O O O O @ O O X X @ @ @ @ @ @ @ @ @ @ @ @ @ @ @ @ @ 1 f.G.6.= 4 ; * X X X O O @ @ @ @ @ @ @ ; 6 @ @ @ @ X @ @ @ @ @ @ @ @ @ O X O 3 R ..B d @ 4 6 @ 6 @ < 1 1 @ @ @ @ @ @ @ @ @ @ X * 6 1 4 @ * > 6 A 4 @ > b { 9 1 1 9 0 ' %.o.L } ' 9 0 H n 4.a.L.F.j.g.Q G 1 ; 9 9 6 ; @ @ @ @ @ @ @ @ @ @ @ @ @ @ @ < ~ ~ > X   O X X O O O O X X O X @ @ @ @ @ @ @ @ @ @ @ @ @ @ @ @ @ @ X X * > n 0.G.+.) H 8 @ ; ; 6 1 4 1 7 8 6 9 < @ @ @ @ O @ @ X X 8 G < O O O O O O X = 8 @ O O X @ @ X O O           O O O O O O O O ",
"X O O O O O O O O O O O O O @ X @ @ O O   @ @ @ X X @ @ @ @ @ @ @ @ @ @   ,..XXXXXXXoXoX<XeX-X9XoXoXXXXXXXXXXX`._   ; @ @ @ @ @ 6 6   *.[.oXXXXXXXXXXXXXXXXXXXXXXXXX<X0X0X X>.O G ; @ @ 1 4 G 9 1 < @ @ @ @ @ 1 @ X @ @ O @ 6 4 4 1 @ ( X.G 4 * > 6 8 0 G 0 x 4.r.%...L ~ v ~ v x V 6.0.A.G.T.b.o.K H 8 9 6 @ @ @ @ @ @ @ @ @ @ @ 6 6 1 9 / x *   O O X @ @ O X O O @ X @ X @ @ @ @ X @ @ @ @ @ @ @ @ @ @ @ @ @ X X * > l 6.G...~ H 6 1 ; ; ; ; 6 @ 1 1 6 1 @ @ @ @ @ X @ X X : v K < O @ O O O O X > @ O O X X X O O O         O O O O O O O   O O ",
"X O O X O X O O O X X X O X @ X X @ X   X < @ @ X @ @ @ @ @ @ @ @ @ O >.sX).r r r r r P ` q.7.t ` m r r e e r *.XXsXO @ @ @ @ @ @ 7 sX[.` r r e e e r e e e e e e P ` | m m ].kX=.X 1 @ @ ; 8 0 9 1 1 1 @ @ @ X X @ 4 G E 4 1 9 9 9 @ > 9.) R A ; ; ; 6 9 L E 0 v [ e.[ H 8 x n n n n ' 9.0.a.L.E.V.z.j.E G 9 ; 6 @ @ @ @ @ 1 6 9 9 6 0 n x X X @ X X @ @ X X O X X @ @ @ X X @ @ @ @ @ @ @ @ @ @ @ ; ; ; ; @ @ @ X * > g 6.G.h.L G ; 1 @ ; @ X > ; 6 9 9 4 < @ @ @ @ @ @ X @ : b A < @ X O O O O O   O O O O O O O O O       O O O O O O O O O O @ ",
"X O O O O O O O O X X O O X O O X @ X X O @ @ @ @ @ @ @ @ @ @ @ @ O _.@X  @ @ 1 6 6 > K Q k h 1 0 = ; ; ; @ @ @ O @ xXO @ @ @ @ r zXO X @ 6 1 1 @ ; ; ; ; 1 @ @ 4 K  .) d @ R   dX>.@ @ @ @ @ @ @ @ 1 4 4 1 1 @ @ @ 9 ~ B.n @ 1 0 9 9 6 X > { ~ ; ; 1 1 6 ) B.v ( O.O.( H 9 H H v n n / ' V q.q.0.a.P.W.T.h.E G 0 6 ; ; 1 9 0 0 n n 8 x > X @ @ @ @ @ @ @ X @ @ @ @ @ @ X X X @ @ @ @ @ @ @ @ @ @ @ ; ; ; ; 1 @ @ X * > s 0.P.h.( 9 6 6 1 1 @ @ @ @ > 8 0 9 @ @ @ @ @ X @ @ @ 8 L Y < X @ O O O O O   O O O O O O   O O O O O O O O O O O O   O X @ ",
"@ O X X O O O 4 O X X O O 3 4 O O X @ @ X @ @ @ @ @ @ @ @ @ @ @ @ _ iX  ; @ ; @ 1 6 0 W $.l ; 6 > ; @ ; @ ; @ @ @ 1 + sX  @ @   lX  0 6 1 6 6 6 6 ; ; @ ; 4 ; @ K ..[ ' > 1 ) 4.  gX# @ @ @ @ @ @ X @ 6 G G 9 4 9 1 6 > c | * @ 8 ; 9 > ; 6 8 x 6 @ @ 1 ; d N 6 ~ } B.l.o.o.o.o.E L ( ~ / / ) ' V 4.p.p.L.P.D.j.L 9 6 6 9 ~ [ n n > * ; @ @ @ @ @ @ @ @ X X @ X @ @ @ @ X X X @ @ @ @ @ @ @ @ @ @ @ ; ; ; ; ; @ @ @ ; > d 6.P.k.L K 9 6 @ @ @ ; 1 6 6 ; 8 @ @ @ @ @ @ @ @ O & b O.Y @ X O O X O O O O O O O O   O       O O O O O O O O O O O X * 1 ",
"X X @ X X @ O 1 q > X X O Z j.{ * 1 X X @ @ @ @ X X @ @ 1 1 @ @   pXO 6 @ @ @ @ 6 6 L v.S.2.9 9 6 6 @ ; ; ; @ @ @ @ @ _.,.@ @ _.,.@ 6 0 9 6 9 9 6 6 ; ; @ 6 1 A Q [ d = > 1 x g ; w @XO @ @ @ @ @ @ < 1 9 0 0 9 9 @ ; X * = * @ ; ; ; > ; @ ; ; ; @ ; ; 6 6 @ 6 8 n ] } w.F.F.V.k.......) $.x.$.+./ { s.p.0.a.A.l.Q R L ^ ' [ n > ; @ @ @ @ @ @ @ @ @ X X X X X X X @ X X X X @ @ X @ @ @ ; ; @ @ ; @ ; ; @ ; @ @ @ ; ; f 5.L.$...E 6 ; ; ; ; ; 1 1 6 6 @ @ @ @ @ @ @ @ @ + p z h.Z @ X O O O O @ O O O O O O     O O   O O O O O O O O O X X @ * 0 ",
"O X O X X X X @ @ @ @ @ @ O 9 N z X X @ @ @ @ @ @ @ @ @ @ @ ; @ O +X  @ @ 6 6 6 9 8 Q b.0.7.7 0 8 ; 6 6 ; ; 6 @ @ @ @ # oX    9X  @ 1 9 ~ 0 6 6 6 6 ; ; 6 ; 4 g.D.[ > @ 4 9 ; X @   9X  X @ @ @ < 4 1 9 0 0 8 6 1 1 1 1 @ X @ @ @ @ @ @ @ @ 1 6 ; @ 6 ; 6 6 6 6 6 9 8 n / w.y.S.N.+.$.%.$.w.r.w.@.+.[ B c ' ] } @.l.x.$. .) ' 8 @ @ @ X X @ 6 @ @ @ X X X X X X X X X X X X   @ @ @ @ @ @ @ ; ; @ @ @ @ ; @ @ @ X @ @ ; x 5.A.%.e.E 1 1 @ @ 1 1 ; 6 1 1 @ @ @ @ @ @ @ X @ $ <.z  .3 @ X O O O O O O O O   O O O   O 3 O O O X O O O O O @ @ @ X j p.",
"O X X O O X O @ @ @ X X @ @ X X * # @ @ @ @ @ @ @ @ @ @ @ @ @ @ e XX@ @ 6 ; 6 6 8 9 g.F.6.C # 8 8 6 ; ; ; ; ; @ @ @ @   9X    9X  1 1 9 0 n 8 ; 6 6 ; 6 0 9 F D.a.9.> 1 9 6 6 1 @ O #XO @ 1 1 9 9 9 9 9 0 0 0 6 6 1 1 1 1 @ @ @ @ @ @ @ @ 1 6 6 6 ; 6 6 9 9 6 6 6 ; 8 8 ~ [ e.S.F.k.l.C.%.[ ] M ' %.k.O.o.( n ) ) V.F.l.$...~ G 4 1 @ @ X @ : 6 @ X X @ X X X X X X O O O X X @ @ @ @ @ @ @ ; @ @ @ @ @ @ @ @ @ @ @ ; > ( 9.A.x.@.K 4 1 1 1 6 6 6 6 1 @ @ @ @ @ @ @ @ X @ & p h 4 @ @ @ O O O 3 4 < O O O O   O * ^ g.3 X X O O O O O O O O X . C s ",
"O O O O O X O O < 4 1 X X X O O @ @ @ O @ @ X X X @ @ @ @ @ @ @ e XX@ @ 6 ; 6 9 8 K v.G.6.h : 6 9 6 ; ; ; ; @ @ @ @ @   9X    9X  1 9 9 > x v 6 6 6 6 9 8 9 Q y.5.j > 9 G ; ; 1 1 O @XO 4 L  .L L H 9 9 8 8 8 > ; @ 1 9 1 1 @ @ @ @ @ @ @ 1 ; 6 6 9 6 9 9 6 6 ; 6 9 9 9 H ) w.A.G.N.%.e.r.[ ) ) ) V r.B.%.( ) k.l.G.P.B.' [ h.j.H 4 A 4 @ X : @ @ @ @ X @ X X @ X @ @ O @ X X @ 6 < @ @ @ @ @ @ @ @ @ @ @ @ @ @ @ @ ; x @.r.P.D...L 9 9 6 9 6 6 9 6 1 < @ @ @ @ @ @ @ X O + y X @ @ @ X @ ; 1 K F 3 O O O O O X k q.H O O O O O O O X O O O O +   O ",
"O @ @ @ @ X @ @ O < 6 6 X O O @ X @ @ @ X @ @ @ X @ @ @ @ @ @ @ e XX@ 6 6 6 6 9 8 E Y.P.8.,     @ 6 ; ; ; ; @ 1 @ @ 1   9X    9X  6 9 6 6 ; 0 v 9 6 6 @ @ Y j.M f > 4 E 0 6 6 1 4 O 1XO 4 ~ S...H v 0 8 6 8 8 6 ; ; 6 9 9 < O 6 @ @ @ @ 6 6 6 6 6 9 9 8 9 6 6 6 6 9 G L ..+.0 w.A.B.x.%.$.../ / ~ v M 4.9.H O.E.G.S.y.B 0 c ' Z.K K H G 9 ; X @ @ @ @ @ @ @ @ @ @ @ @ @ @ X O # 8 4 @ @ @ @ @ @ @ @ @ @ ; @ ; @ @ @ > g 9.q.L.O.~ ( 8 0 9 6 6 ; 6 1 < @ @ @ @ @ @ @ @ @ @ @ @ @ @ @ @ @ @ * 5.B < @ O O O O O . , = O O O O O O O O O O O O O O O O ",
"@ @ @ X @ O O @ < 4 @ @ @ O O @ X @ @ @ @ @ @ @ @ @ @ @ @ @ @ 6 e XX@ 6 6 6 9 8 v g.Y.L.7.fXVXvX_.  6 ; 6 6 6 1 1 6 ;   9XO   9X  9 6 ; ; @ 6 ~ ( 9 @ oX0XtXjX{.* 6 G +.x 4 6 6 G L qX@ 0 9 N.S.~ 0 0 9 6 6 6 ; ; ; 8 0 ; .XIXO 1 1 1 1 6 9 9 6 6 8 b 9 9 6 6 9 9 H ) +.l.#.UX{.e.w.@.w.%.O.O...~ v H ) ( {.nXS.L.B.+.( ( ^ PXUXGXZ ( v 9 9 6 6 1 @ @ @ @ @ @ @ X @ @ @ @ X O 5 7 @ @ @ @ @ @ @ @ @ @ @ @ @ @ @ @ @ * = ' q.V LXqX3 ; 9 6 @ 1 9 9 1 @ @ @ @ @ @ @ @ 1 1 O @ @ @ @ @ O O O : X X O     O O O O O O @ O @ O O O O O O O O O O O O O @ ",
"X X X O O X X @ < 9 6 @ X @ @ @ @ @ @ @ @ @ @ X X @ @ @ @ @ @ ; e XX@ 6 6 6 9 8 0 j.T.2.KXVX[.oXUX|.X 6 6 6 ; 6 6 ; ;   9XO   0X  6 ; 6 6 ; @ 6 (  .@ UXmXzXMX=X* A K n 0 o.L 0 0 ~ tX0 0 0 n A.B.0 8 6 6 6 6 @ ; ; 6 8 ; oXIX1 9 1 ; 6 6 9 6 6 6 6 8 9 9 H H ) ..) ..%.N.#.UX{.[ ' n n } w.C.D.o.( ( N.$.IXeXy.9.V [ O.L MXJX> B G.z.E 9 9 6 ; 6 6 1 1 @ X X @ X X @ X @ X X & : @ @ @ @ @ @ @ @ @ @ @ @ @ @ @ @ @ X = [ ' } PXqX3 ; 6 ; 1 8 L R A 4 @ @ @ @ @ X ; 6 @ @ @ @ @ @ O @ O O     O     O O O O X O @ @ X X O O O O O O O O O O O O O @ ",
"X X X X O X O @ @ @ ; ; @ @ @ @ @ @ @ @ @ @ @ X X @ @ @ @ @ ; ; e XX@ 6 6 6 8 8 H j.G.p.UX  >   `.HX  ; ; 6 6 6 ; ; ;   9XO   9X  ; ; 6 6 ; ; ; 9 ) @ UX!.9.M d 9 Q ..~  .z.N.) 0 6 qXw.n 0 8 9.p.x 8 6 6 6 @ 6 @ 6 6 8 @  XIX@ O   < 9 6 6 6 @     O 0 ( ) / @.v @ @ ) e.e.UX8X+.) @ @ n ' S.G.F.x.l.C.^.UX] 9.+. ...e.x SXzX@ c 4.L.k.Z O O 9 6 6 9 O 6 O   O   X X @     @ . o     @ @ O       @ @ @ 6   6 O   @ @ > c l V PXqX< 1 9 6 ; n O.h.K 4 @ @ @ @ @ X X @ @ @ @ @ @ O O O O O O O O O O O O O O O O X X O O O O O O O O O O O O O   O O ",
"@ @ @ X @ X @ @ @ @ X @ @ @ @ @ 1 1 @ @ @ @ < 4 4 @ @ @ @ @ ; ; e XX@ 6 6 9 9 8 G j.y.s.UXO n X `.KX  6 ; 6 6 6 ; 6 6 O 9XO   9X  ; ; ; ; 6 ; 6 9 v 1 UX&X0.n ~ Q k.B.%.[ ) N.r.~ 1 0XN M 8 0 8 z b 6 9 9 9 6 6 6 6 6 9 @  XPXH.xXmXH.O 9 1 q oXCXSXzXb ' [ ' x zXDXCXoX) B.UX8X%.1 0XaXA ..C.G.G.G.F.V CXvXX x ~ @.A.w.{.PXGXhXc.c j eXGXSXhX@ 6 ; O pX  |.SXq lX7 @   9XaX  X X hX;.  o `.mXAXzX_ O @   iX  `.SXm   q kXmXeXIX<X< 6 6 1 ; n $.( 6 @ @ @ @ @ @ @ X @ @ @ @ @ @ O O O O O O O O O O O O O O O O O O O O O O O O O O O O O O O O O @ ",
"@ @ @ @ @ @ @ @ @ @ @ @ < 1 @ 1 1 6 ; @ 1 @ 1 W z.n * @ @ @ ; ; r XX@ 6 6 9 9 8 K v.9.s.UX@ x X `.IX  ; ; 6 6 @ 6 6 6   9XO   9X  ; ; ; ; ; 6 6 0 9 F UX%Xs.:.o.z.N.N.N.e.[ ' r.+.@ 0X: 8 0 0 8 ; ; 6 9 9 9 9 9 9 9 9 9 O [.UXPXaXmXUX>.6 @ oXGXeXqXIXKX  /   HXGX-XqXaX~ B.UX8Xe.K.UX~.N.%.S.P.G.L.0.b UX>.9 H v ~ n 8 lXPXFXlXt.@ lXIX-XqXJXFXO 9   UXHXJXsXO UX(.O O UXUXw   *.UX*.  ,.JXpX|.JXUX+ @   PXDXLXkXO : UXVXdXvXUX<X< ; ; 9 ; '  .< < @ @ @ @ @ @ @ @ @ @ @ @ @ O O O X O X @ @ X X X X O O X X O O X X O O O O O O O O O O O O @ = N ",
"@ @ @ 6 @ X @ @ @ @ @ @ @ 4 9 @ 1 4 ; ; 1 ; 6 4 } p.f X ; 1 ; ; r XX@ 6 9 H v 8 W T.i.s.UX@ 8 @ `.PX  ; 6 6 6 6 1 9 9   9X    9X  ; ; 1 6 ; 6 K Q j.h.IXIXIXUXK.N.N.N.B.e.e.[ ~ B.8 0X@ 0 0 8 8 8 9 9 9 0 0 8 8 8 8 6 6 X [.UX: @   LXpXO ( 0 X d ; '.UXq 0 :.UX| x x 0 +.9.UX=X= LXvX8 e.@.y.L.a.9.> ;XJX  O.( L ( 0 b   DXhX  x X IX'.* 2.U.UXc.L O IXhX      KXiX  =.HXSX(.  |.UXO @         t UX-.X   HXNX      |.IX  ; * IX<X3 1 > 9 > / G @ @ @ @ @ @ @ @ X @ @ @ @ @ 1 3 O O @ @ @ @ @ O 3 < @ O X O O O O O O O O O O O O O O O O X X @ * a ",
"@ @ @ X @ X X X @ @ @ @ @ < 9 0 1 9 9 6 1 ; @ @ > a , @ @ @ ; 6 r XX@ 6 8 0 x 0 j.P.6.'.UX; x @ `.PX  6 ; 6 6 6 9 9 0   9XO   9X  6 6 6 9 9 F g.b.T.w.UXZ.0 G l.B.N.N.B.B.e.B.) +.@.0X@ 0 0 8 6 6 8 0 0 8 8 8 6 6 6 6 6 X .XUX@ 0 O JXkXO ~ ) 6 O   H.UX7 8 u.UX` x n n n b UXJ.-XUX6 +.l.%.9.0.V x   LXoX/ [ ) %...6 ;   GXkX  ; : UXoX4 8 s.UX!.x.< IX.XO @   NXNX  [.xXaXaX  kXGX  X @       7 UX>.O   HXaX  @   iXLX  n M IX0X4 4 8 9 6 0 4 @ @ @ @ @ @ X X @ @ O O o = o.D O @ @ @ @ @ 1 9 K 4 O @ X   O O O O O O O O O O O O O O O @ O O O   ",
"@ X X X X X @ @ @ X X X @ < 1 9 9 9 G 9 6 6 1 6 6 6 @ 6 ; X @ 6 r XX@ 6 8 8 8 L j.A.5.).UX; 8 @ _.LX  6 6 6 6 6 9 0 8   9XO   9X  6 6 9 K Q b.V.A.y.} UXU.@.%.e.e.k.N.C.S.r.e.S.( %.tXO 8 8 6 6 6 6 8 8 8 8 ; ; ; 6 6 6 O 0XUX1 0 > JXxX  0 @ 0XBXGXLXUX7 ; H.UXm ; ; 6 ; 7 UX{.UX{. .$.w.] c c 0 6 ,.UXq n n ' n ~ G 1   FXkX  6 : UX XH h.J.UXU.L.O.IXoX@ ; O 1XLX  xXiX).DX  AXkX  @   `.xXDXJXUX>.O   HXsX  @   aXPX  n M IX0X< 4 > 6 6 6 @ @ @ @ @ @ @ @ @ @ @ O O y C h.Z X @ @ @ @ 9 0 v 6 O O O O O O O @ @ O O O O O O O O O O O O @ O O O ",
"@ @ @ @ @ @ @ @ @ @ @ 1 6 1 9 G H 0 H ~ v v H n b c 8 9 x > @ ; e XX@ 6 6 8 8 E v.0.5._ UXX     XXSX  9 6 6 6 6 6 9 9   9XO   9X  6 G Q b.F.A.r.e.B.@.UXK.~ ~ n e.k.V.F.S.G.e.S.r.n tX> > ; ; 6 6 9 6 9 6 6 6 ; 6 6 6 6 @ -XUX; 9   JXkX    mXUXoXH.0XUX7 ; H.UX_ 6 6 9 9 J UXR.ZXSXv } n 8 8 H 0 O mXBX  6 8 8 ; ~ 9 6   FXkX  6 7 UX[.N y.K.UXu.6.9.IXqX9 9 @ H.UXO HX(.=.IX  IX|.O   @XUXiXH.).UX>.O   HXsX  @   aXPX  x M IX0XO 4 ; 6 6 1 @ @ @ @ @ @ @ @ @ @ @ 3 < u C ~ 3 X @ @ @ @ 6 ; X @ O X O @ O X @ @ @ O O O O O O O O O O O O O O @ @ ",
"9 6 6 ; @ @ 6 ; ; @ @ 1 9 8 8 v b x > x d > > > d > 6 9 8 > ; ; r XX@ 9 9 8 9 W D.0.z   mXUXlXBXUXH.@ 0 9 9 0 8 6 6 6   0XO   0X  G E b.P.y.9.[ N.F.@.UXPXLXLXGX~ N.V.G.G.G.C.w.9.> qXd ; 6 9 9 9 6 6 9 6 6 6 6 6 9 8 8 @  XUX: 6   JXhX  O IX@X  @ ].UXq 6 >.UXP 9 H L L J UX8XZ.UXU.6 9 0 0 ~ ( 9 UXJ.9 6 ; 6 6 0 8 ;   FXkX  > q UX[.d s u.UXZ.} j UXtXz.Q G q UX7 UXt o UX  UX=.@   SXmX  O t UX>.    HXsX  @   aXLX  n V IX0X< 1 6 6 6 1 @ @ @ @ @ X X X X > v J 3 5 - 1 O @ @ @ @ @ @ X X O O O @ X O O O @ O O O O O O O O O O O O O O O O O ",
"; ; > ; @ @ @ * X @ < 1 1 ; ; @ 6 > ; @ 6 1 @ ; ; 6 6 G x * @ 6 r XX@ 9 9 8 0 Q C.6.u.0   :.FXkX7 X 8 0 H H 0 8 6 6 ;   0X@ O qX3 o.k.V.A.y.[ o.x.S.S.!.!.~.!.K.N.B.V.S.G.G.G.e.n @ 9X@ 9 9 0 9 6 6 9 9 9 8 6 6 6 6 6 8 X [.UXO X   KX9XO O PX0X  O {.UXJ 0 ` UX| 1 L ( x. .UX8Xa vXPX  G L ..) G 0XPXX ; ; ; ; 6 0 6 6   GXkX  ;   IX[.    :.UX&.O.; IX-Xy.D.W O IX|.UX    IX|.UX@ @   AXNX    *.UX>.X   HXsX  @   +XIX  x k UX0XO 6 6 6 6 @ @ @ @ @ X O X O X * * @ @ X @ @ @ @ @ @ @ @ O O O @ O @ @ O O O O O O O O O O O O O O   O O O O O O X ",
"@ @ @ @ @ X @ < 4 4 A 9 ; ; 1 1 6 6 ; @ 6 6 6 6 6 6 1 H c > @ 6 r oX@ 9 9 8 H j.B.3.` H x @ XXCX  8 8 0 8 8 8 6 6 9 6   0XA R gXk.C.C.N.V.S.C.k.V.G.S.S.G.G.S.S.S.S.C.C.G.G.G.P.N.G 0X@ 0 9 9 6 9 9 8 0 0 0 9 9 6 6 9 0 @ @XUXlX0XlXUXP 9 O mXIX0XpXUXUXX.O.O HXIXqXjXMX+.#.UX X* O UXaXG $...+.v IX0XX 6 6 ; 6 ; 9 6 6   HXxX  ;   sXUX0X9XPXCXX ' @ UX:X2.a.V.3 SXIXGX    mXIXKX  K O OXUXpX+XIXUX,.X   KXkX  @ @ _ UXzX0XKXUXaXO 9 ; 6 @ @ @ @ @ X X X X @ @ @ @ @ @ @ @ @ @ @ @ @ @ O O O @ @ < < @ X @ O X O @ O O O O O X O O O O O O O < 3 O ",
"@ 1 ; ; @ @ @ 4 4 9 G 6 > * @ 1 6 9 6 6 6 6 9 9 9 6 9 H c > ; 6 r XX@ 9 9 0 E b.y.4.L ..c v X X H 0 H 0 8 ; 6 9 ; 6 9 3 qXK @.jX9.A.A.B.B.F.G.A.S.S.S.A.S.S.G.G.S.S.S.A.y.y.0.0.y.%.qXE h.E H 9 6 9 8 0 0 0 8 8 9 9 0 0 8 q [.lXVXxX| @ 0 0 @ sXCXzX1 ,XV.F.B.~ jXSXMX=Xy.B pX>.6 @ J.dX[ [ ) [ { sX6 0 9 6 ; 6 6 9 6 6   |.).O ; 6    XBXBX0X  0 > * qXn.> k 9.%.R.qX).O O ,.9X).; E 9   #XVXxXm H._ X   XXH.O @ @   H.BXBX=XI.R.9 9 ; 1 @ @ @ X O X @ @ @ @ @ @ @ @ @ @ @ @ @ @ @ @ @ @ @ @ ; 8 6 @ O O O X X X @ @ X X O O O @ 6 A < X * B b.U < ",
"@ @ @ @ 1 4 4 1 ; ; ; * X @ 1 1 1 6 9 9 6 6 9 9 ^ 0 9 0 x > ; ; r +X; 0 8 0 Q V.0.5. .@.c x 8 8 H H 0 0 8 8 ; ; 9 K g.E tX' x eXd 4.V ] ' %.r.9.] ' 9.w.B.S.G.G.L.y.0.4.V c x c c > qX] P.G.F.O.L G G 0 0 0 0 0 0 0 0 0 0 8 @ O   O 0 ~ ~ ~ H @ @ 6 $.l.S.S.S.C.%.@.] 9.N 8 @ 6 H ~ / v / ~ n 8 6 O 6 0 9 6 ; 6 ; 9 9 6 6 O @ 9 6 6 8 X     O H H G 8 > +. .9 a 4.y.D.h.K 6 O O   B O.4 ;       @   X X @     @ @ @ ; X   > 4.e.E ( G 6 1 @ @ X @ @ @ @ @ @ @ @ @ @ @ @ @ @ @ @ @ @ @ @ @ X @ > 8 @ @ X O O @ @ @ @ X X @ < < X k { T < o z 6.[ 3 O ",
"@ @ 4 A 4 9 6 ; * X X X @ @ @ @ 1 6 6 6 6 6 9 6 9 0 9 8 8 6 ; ; O 0X  0 x 0 j.B.6.N  .] x 8 0 0 H H x 8 8 9 9 G E v.G.p.-Xx 8 0X: 8 H (  ...[ / H ~ ( l.G.L.a.0.4.M d 8 8 8 0 v 0   iXX N 0.0.A.G.G.V.k...H 0 9 9 8 8 8 0 0 9 9 9 9 9 ( ....) ) %.N.e.S.S.G.G.F.S.L.9.x 8 H 0 H ~ ( ) ~ ~ v 8 8 0 8 8 0 9 6 ; ; 6 9 9 6 ; 6 6 6 6 6 6 ; 6 9 8 8 /  .L x M r.$.L x 5.a.E.z.L 9 6 ; b ^ 6 ; @ @ @ @ @ @ @ @ X @ @ @ @ @ ; d } w.e.O...G 6 1 @ @ ; 6 1 @ @ ; ; @ @ @ @ @ @ @ @ @ @ @ @ @ @ @ @ @ ; ; @ @ O @ 1 4 @ O O X @ 6 @ O - f a < @ o o *   O O ",
"1 4 A G 0 > ; @ @ @ @ @ @ @ X @ @ @ 6 6 6 6 6 6 6 9 H 8 8 6 ; 6 O 9Xr H 8 H g.N.N n ) B x 0 0 0 0 x 8 9 0 L E  .O.e.4.-Xm 0 0 H.].G ) ) o.$...O.l.} ) ] 4.4.k d > 9 9 9 0 8 8 G G >.[.@ 6 > > x V 0.a.L.P.F.V.+.H G ( ) ~ H H H H H L ..l.C.$.+.N.C.N.S.G.P.P.L.9.[ ) L L L ~ H ~ ) ) v 8 8 0 0 8 0 8 8 6 6 6 ; ; 9 9 6 ; ; 6 6 6 6 6 6 6 6 6 6 > ' $.E 0 d B ) ) :.s.0.G.x.L 9 1 - 8 ; ; @ X @ @ @ @ @ @ @ @ @ @ @ @ ; g ] 9.A.h. .A @ @ @ 6 q 6 @ @ @ @ ; @ @ @ @ @ @ @ @ @ @ @ @ @ 1 1 < @ X @ O O X @ @ @ O X @ @ @ X O     O O O @ @ O O @ O O ",
"4 A G 8 > > ; @ @ @ @ @ @ @ @ @ @ @ @ 6 6 ; ; ; 6 9 H 8 8 6 6 ; 6 O kX  v L j.r.4.~ [ V n H L ~ v x 0 L j.z.N.e.} c :.iXO K L 3 gXG o.h.x.N.w.w.0.4.x 8 8 8 6 8 0 9 L o.L 9 9 L 4 MXO 6 6 8 6 9 ; > g N 0.y.L.L.B.O.x.V.%.+.+.O.k.O.O.$.N.S.%.+.e.S.S.S.P.L.a.9.n ~ )  .k.k.) ~ ~ ~ x 8 8 8 8 8 0 0 6 6 6 6 ; ; ; 6 9 6 ; ; 6 6 ; 6 6 6 6 ; 6 9 9 d M #.o.H > c +...^ N 2.L.G.E A 6 6 6 1 1 * * @ @ @ @ @ @ @ @ ; @ ; ; > g 6.P.b. .K 1 1 6 6 ; @ @ @ @ @ @ @ @ @ @ @ @ @ @ @ @ @ @ ; q 1 < @ @ @ @ @ X X O O X X @ @ @ O O O X @ O O O O O O X O O ",
"9 9 9 6 ; ; @ 1 6 ; ; @ @ @ @ @ @ @ @ ; ; ; ; ; ; 6 G n 8 ; 6 6 6 ; _ lX7 F z.r.] ) [ B n ~ ( ~ n ( o.z.F.A.0.N * u.hX  E h.k.z.E MXK.@.A.0.4.g c v 9 0 H 0 9 9 9 K j.T.F.l.G X.xX` ~ ( H 9 9 9 6 9 8 > 8 c N 4.9.e.G.P.F.V.V.l.N.%.+.k.N.B.@.$.V.G.G.A.a.p.N x ~  .%.e.} ..%.~ 0 0 8 8 9 8 8 8 8 9 ; 6 9 6 ; 6 ; 6 9 6 ; ; ; 6 6 6 6 6 6 6 6 6 6 6 8 c w.$.R 9 c ' ..L c 6.a.V.Q G H 9 6 ; ; ; ; ; @ @ @ @ ; ; ; ; ; 6 8 f p.L.D.l.E 9 6 6 ; 1 1 @ @ @ @ @ @ ; @ @ @ @ @ @ @ @ @ @ @ @ @ @ @ @ @ @ @ @ O O O O X @ O O O @ O X @ @ O O O @ @ O O @ ",
"; 6 6 6 6 ; 1 6 6 6 6 ; @ @ @ @ @ @ @ @ ; ; ; ; ; 6 G v v 9 6 9 8 6 6 7 gXqX{.{.{.{.{.{.'._._._.].{.,X8X=X%X'.{.aX{.O j.z.V.V.C.A.k -XdX=X'._.)._.]._._._._._.].].{.{.=X=X=XqXaXx v L ( ( ) +...H 9 9 9 8 8 8 > 8 n 9.0.a.A.F.F.F.N.+.z.x.F.%.l.F.A.y.4.N x v H ..N.e.' x ~ ^ v 0 8 6 9 6 6 8 8 9 6 8 8 ; 6 9 6 @ 6 0 6 ; ; 6 6 6 6 6 6 6 6 6 6 6 6 8 > s 9.l.L 9 8 n / L 8 l 4.e.h.o.H 6 ; 1 @ ; ; @ @ @ @ ; ; ; ; ; 6 > b s.L.F.l. .9 9 9 ; 6 @ @ @ @ @ @ @ 6 @ @ @ @ @ @ @ @ @ @ @ @ @ @ @ @ @ @ @ @ O O O O @ @ O O O O O @ @ @ O O O @ @ @ @ @ ",
"; 1 4 9 9 ; ; 6 6 ; ; @ @ @ 1 6 6 ; ; ; ; ; ; ; @ 6 9 x 0 L 0 8 8 8 0 8 A j.U.U.U.U.U.U.U.U.R.R./.&X%Xs.'.H.H.c.3 Q D.F.A.A.0.4.4.M ; X >.H.H.H.H.J.R.R.R.R./.U.U.J.u.u.u.u.@ @ x 0 ) e.#.~ H ^ / 8 9 H H 0 0 0 0 8 > d M 9.w.r.A.S.l.V.F.T.F.N.w.0.V v ~ ~ ~ ( ..@./ / 0 8 0 0 0 9 6 9 6 6 6 6 6 6 6 6 9 H H 1 @ 6 G 6 ; ; 6 6 6 6 6 6 6 6 6 6 ; ; 6 6 9 d N }  .G 8 c w.j.K 8 B w.b.h.K 6 > ; ; ; @ @ @ ; ; ; ; ; ; ; 8 b s.L.G.%. .H H 9 6 @ ; @ @ @ @ @ @ ; @ @ @ @ @ @ @ @ @ @ @ @ @ @ @ @ @ @ @ @ @ O O X @ @ @ O O O @ @ @ @ O X O O @ @ @ O ",
"1 6 6 6 6 ; ; ; ; 1 ; @ @ @ @ 6 6 6 ; ; ; 6 6 ; ; 6 9 x 8 G ^ 0 8 0 0 0 g.V.y.9.@.@.w.w.@.$.x.S.a.6.5.C H o.h.x.F.P.a.0.6.k g x 9 6 0 0 0 9 0 E j.b.V.B.r.r.9.M > ; 9 6 6 9 9 9 6 6 ; c c n 0 0 9 9 9 ( ) ) L G 9 9 0 8 8 8 8 n c ' +.N.C.P.L.} x 8 8 0 ( ..) ~ ) ) ~ 0 6 ; 9 0 0 9 6 6 6 6 6 6 6 6 ; 9 ) X.6 1 @ 6 G 6 ; 6 6 6 6 6 6 6 6 6 ; ; 6 6 6 ; 6 6 * c w...G 6 M 9.( G 8 l 0.G.b.Q 4 6 6 ; @ @ ; ; ; ; ; ; ; ; x ' p.L.F.+.) ~ L G 6 @ ; ; @ ; @ @ @ @ @ @ @ @ 1 1 @ @ @ @ @ @ @ @ @ @ @ @ @ @ @ O O O X O O O @ O @ @ X X X < 3 < @ @ O O ",
"6 6 6 6 ; ; 6 ; ; 6 6 6 6 6 @ ; 6 6 ; ; 6 9 9 ; ; 6 9 x > 6 9 ( ~ H v ~ W l.U.U.K.K.K.!.^./.^.U.s.u.n.J.R././.I.2.4.4.l x 8 8 0 0 0 9 O &.n.R.R.^.^.U.s.u.u.u.,.>.>.>.>.,.:.O @ 0 9 6 @ @ ; ; 8 0 9 H  . .( ~ ~ ~ H H H 0 0 H L H H ~ ..@.A.A.x 9 8 0 ~ k.l...) ) v 0 9 9 6 6 9 9 9 6 6 6 6 6 6 6 6 ; 0 &.9 6 6 @ 6 E 9 6 6 6 6 6 6 6 6 6 6 6 ; 6 ; ; 6 6 ; ; ; c ' ) L 9 d d 8 v 0 4.0.L.D.j.H 8 6 6 ; ; ; ; ; ; ; > ; x 9.Z.y.V.) ( ~ ~ G 6 1 ; 6 6 @ @ @ @ @ @ @ @ ; 6 1 1 @ @ @ @ @ @ @ @ @ @ @ @ O O O O O O O O O @ @ @ @ @ X > H A O O O O X ",
"6 6 6 ; ; ; ; ; 6 6 6 6 6 6 ; ; ; 6 6 6 6 6 8 8 6 9 0 x > 6 9 0  ...n 9 gXtX=X{.{.,X8X8X=X=X=X{.,X8X8X=X=X=X=X-XsX{.  v 8 0 0 G L 3 ,XgX8X8X=X{.{.'.`.`.`.].].].`.`.`.].`.[.0X9X  0 H 9 6 1 @ @ ; ; 6 ^ #.[ ~ L L L ) ( L ~ L L G 0 0 ~ n %.B.0 9 G 0 H ) [ [ n 8 v H 9 6 6 6 6 6 6 9 6 6 6 6 6 6 6 6 b q ; 9 6 @ 6  .9 ; 6 6 6 6 6 6 6 ; ; 6 6 ; ; 6 6 6 6 6 ; ; x M {  .K 9 8 0 0 x 4.6.a.G.j.K 9 6 ; ; ; ; ; ; ; ; ; c 0.r.y.l.~ H ~ H H 9 6 ; 6 6 @ @ @ @ @ @ @ @ : 9 4 @ @ @ @ @ @ @ @ @ @ @ @ @ @ @ O @ O O @ @ @ @ @ @ @ @ @ * * @ O O O O O ",
"6 6 6 6 6 ; ; ; 6 6 8 ; ; ; 6 ; ; 6 6 6 6 9 8 8 9 9 v c > 9 9 0 L ..&.zXc.w.y.%.D.G.P.L.p.Z.N.C.S.S.y.r.9.V c >   H.hXO K L E h.K zXJ.d B ' n 0 ~ 6 6 9 6 9 9 9 6 6 6 6 9 @   _ zX7 0 0 9 6 ; @ @ 1 1 ; 6 0 H ( #.#.~ H ~ ( ~ ..( H 9 0 H l.V.L  .L L H v n 8 6 6 0 0 6 6 9 6 6 6 9 6 6 6 6 9 9 9 6 9 6 6 6 8 9 6 6 0 6 ; 6 6 6 ; 6 6 ; ; ; 6 6 6 6 6 6 6 ; ; ; 6 6 d M 9.#.E 6 9 8 v ~ M 5.0.P.z.L 9 6 ; ; ; ; ; ; ; ; d 4.} y.D.L H H 0 H 0 9 x 8 1 @ @ @ @ @ @ @ @ ; 6 4 @ @ @ 3 4 @ X @ @ @ @ @ @ @ @ O O @ X @ X X X O O O O O X O O O O O O O ",
"; 6 6 6 6 ; ; 6 6 6 8 ; @ ; 6 6 ; 6 6 6 9 8 8 6 9 0 v n 8 8 8 0 ( H zXA D.G.F.G.E.P.a.y.t.w.B.B.B.r.r.%.@./ x 0 G G >.qXL x.D.+.jXb > ; 9 9 L L n 8 6 6 6 6 6 6 6 6 6 6 6 6 6 6 O kX  9 9 6 6 6 6 G E H 9 9 9 6 x c x 0 0 H ( ( ^ H ....o.V.G.l.%.) +.^ 8 ; ; ; 6 9 9 9 9 9 9 9 9 9 6 6 6 9 0 9 9 9 9 6 6 6 9 6 6 @ 6 1 ; 6 6 6 6 6 6 ; ; ; 6 8 0 6 6 6 6 6 6 ; 6 6 8 > g 4.B.o.9 6 8 /  .q 7.6.P.D.o.H 9 6 6 6 6 ; ; > > n 9.a.Y.E 0 H H H H H 9 6 1 @ @ @ @ @ @ @ ; ; 6 ; 6 d r.j.F @ X @ @ @ @ @ @ @ @ O @ @ X O O O O O O O @ @ O O O O O O   O ",
"; ; 6 ; ; ; ; 6 6 ; ; ; ; 6 6 6 6 6 6 6 6 6 8 6 0 H v 0 0 0 0 ( K qXZ.b.T.G.G.P.L.y.y.r.e.e.%.B.S.e.w.w.' v H Q h.k.) qXt.} ] J.{.; 9 9 K H L ( 8 6 6 ; 6 6 6 6 6 ; 6 6 6 6 6 1 @ >.[.@ 6 6 1 6 9 9 ( v 6 6 6 6 6 ; 6 9 0 0 ~ ^ ~ 0 H ..%.S.P.e./ / ~ 6 6 ; ; ; 6 6 9 9 9 9 9 9 9 6 6 6 6 6 0 ( L G 6 6 6 6 9 9 6 ; 6 1 ; ; 6 6 6 @ ; ; ; 6 6 9 6 6 6 6 6 6 6 6 6 6 6 6 6 = N @.( 0 0 c ' O.G C 5.a.G.j.L 8 8 8 6 6 6 ; > B r.a.T.E H H ~ ~ H H 9 1 1 @ @ @ @ @ @ @ ; ; 1 1 @ z N G 4 @ @ @ @ @ @ @ @ @ @ @ @ @ @ O O O O O @ @ O O O O O O O     O ",
"; ; @ @ ; ; 6 6 9 8 > ; 1 6 6 6 6 6 6 6 9 8 8 0 0 H v ~ H H ( O.o.tX$.T.E.P.L.y.0.9.@.@.%.N.e.e.@.} ' ~ L h.z.V.y.w.V `  X@ @ 0X6 8 9 9 0 0 L ( 8 6 6 6 6 6 6 6 6 ; 6 6 6 6 1 @ 6   0X  @ ; 6 6 1 @ ; ; ; 6 9 1 1 1 6 6 9 9 6 8 8 0 G G ) e.S.} ~ 0 0 9 9 6 ; @ 1 6 0 0 9 9 9 9 9 6 6 9 6 6 9 H X. .9 6 6 6 6 9 6 6 6 1 ; ; ; 6 6 6 @ 1 6 6 ; 6 6 6 6 6 6 6 6 6 6 9 9 6 6 9 * = n ) L 9 d c ) L n 4.0.G.b.E 0 8 9 9 9 6 > 9.B.A.G.o.( ~ ~ ~ ~ H 9 9 1 @ @ @ @ @ @ @ @ ; 1 1 @ o * X X @ @ @ X @ @ @ O @ @ @ @ @ O O O O O O O O O O O O O O     O O ",
"; ; 1 6 ; ; 6 9 9 8 ; ; 1 6 9 0 H 0 8 8 8 0 0 H H ( )  .( ) h.z.D.tXG.P.P.P.L.y.} $.$.x.N.N.e.%.$.+.O.k.x.B.y.0.V c 0 O 0XO   0X  9 6 9 0 9 L +.x 6 6 ; 6 6 6 6 ; ; ; 6 ; ; @ @ 6 O 9XO ; 6 6 6 6 6 1 1 6 6 8 6 ; 6 9 9 6 0 9 6 6 6 9 H ) +.G.@.~ 0 0 0 0 9 6 @ 1 9 [ ~ 9 6 9 9 9 9 9 9 6 6 6 9 0 H 9 6 6 9 9 6 6 6 9 4 1 @ ; 6 6 6 6 6 6 6 @ ; 6 6 9 9 9 6 6 ; 6 6 9 9 9 9 9 9 > B e.o.K > V e.h.H { 0.A.b.h.H 9 8 8 6 > 4.B.y.S. . .( ~ ~ ~ H H 9 4 1 @ 1 @ @ @ @ @ @ @ @ @ < @ @ @ @ @ @ @ @ @ @ O O @ @ @ @ @ @ O O O O O O O O O O O O O O O O ",
"; ; 6 6 ; 6 9 0 8 8 ; ; ; 6 9 0 ~ v 0 0 H H ~ (  ...O.O.+.O.b.G.I.eXG.L.y.S.P.L.e.l.N.V.C.S.S.F.F.S.r.} ] V M c 0 0 H @ 0XX   0X  9 6 9 H H H / 8 ; 6 ; 6 6 6 ; ; 6 6 6 ; 6 @ ; 6 O ;XO 6 6 6 9 6 6 6 6 6 6 9 9 6 ; 9 0 8 8 8 0 9 9 9 ^ %.%.P.N.+.v 0 0 0 0 9 6 6 8 { n 6 6 9 @ 9 6 6 6 6 6 6 8 8 0 O   0 6 9 6 6 6 0 9 @ @ @ 6 6 6 9 9 9 9 6 6 6 6 9 9 6 6 6 6 6 6 8 9 6 9 9 ; 6 > l r.$.G > 4.r.x.O./ 4.a.G.h.H 0 9 9 > M } 0.S.k.O.( ~ ( H H H H 9 1 1 @ ; 6 @ @ @ @ @ 1 @ X X @ @ @ @ 1 1 1 @ @ @ @ @ @ @ O @ @ O O   O O O O < < O O O O @ @ p ",
"; 6 ; 6 6 9 G v c 8 9 6 ; 6 6 6 9 G L E  .) ) ) ..+.k.z.x.F.S.S.I.tXA.p.u.%.S.E.L.B.C.S.A.y.9.r.r.9.M x v 0 0 0 v 0 ~ @ 0XX   0X  6 6 6 9 ~ 0 8 6 6 6 6 @ @ 6 6 6 6 ; 6 6 6 1 6 6 O 9XO 6 6 9 9 9 6 6 6 6 9 0 9 6 9 9 9 8 9 G H 9 0 8 ~ %.N.E.G.C.) ( H H H H 9 9 9 0 8 6 6 6 @X7 6 4 9 0 9 6 6 9 O 0XlX  9 9 9 6 6 9 6 @ @ ; 6 6 6 6 6 0 0 9 6 6 ; ; 6 6 6 ; ; ; ; 6 6 8 9 9 6 6 6 > g 9.%.E > l 9.e.O.n 4.6.P.b.o.H 8 8 n @.y.S.k...L / ) ( ~ ~ H G 9 1 @ @ 1 @ @ @ @ 1 @ @ @ @ @ @ @ @ 6 1 @ @ @ @ @ < < @ @ @ @ @ O O O @ 8 %.z.W A < @ @ @ @ $ ",
"6 6 6 6 6 9 G n c > 6 9 6 9 G G 0 H ) ) / n v L o.z.V.G.L.y.y.N.Z.eX0.p.#.x.F.F.P.P.Z.w.9.] | b n n v | 0 0 0 0 0 0 8   0X    9X  6 6 6 9 0 6 6 ; 6 6   ).[._ @ 6 6 @ ; 6 6 6 6 6 O 9XO 6 6 6 6 6 6 6 9 H H L H H L E o.o.h.h.O. .~ 0 ~ $.N.E.G.S.} [ ~ ~ ^ ~ H H ~ ^ 0 1 O iXIX  0 O...H 9 9 9 9   lXSX  9 0 9 9 6 9 6 @ @ @ 6 6 6 9 6 6 0 9 9 6 6 6 ; ; 6 6 6 6 6 9 9 6 6 6 ; 6 6 6 6 d M +.L 0 a B / ( v N 6.L.D.Q G 0 B e.A.G.%.$.H x ( ( ~ ( H H 9 4 4 @ @ @ @ 1 1 1 @ @ @ @ @ @ O @ X @ @ @ < < O @ 1 < < @ @ @ + & p 1.:.V H 4 < @ @ @ O O O ",
"6 6 ; 6 6 9 0 x d > 6 9 9 9 9 0 0 8 0 0 0 ~  .j.b.G.L.L.0.9.k.F.p.qXw.%.l.C.G.A.B.^.UXM ' ; UXzXX 6 oXIX  0 8 8 0 8 8   9XO   0X  0 0 0 8 6 6 6 6 9 O JXKXVXUX,.@ ; ; ; 6 ; 6 6 6 O 1XO 6 6 6 9 9 9 L o.$.+.D.D.x.x.N.Z.Z.Z.u.H.>.8 9 H +.e.P.A.r.x > 8 v v v 0 0 0 8 ; @   IX[.O 0 { ~ 0 9 0 9 @   kXAX  0 0 H 1 @ 1 9 6 6 @ @ 6 6 9 1 X @ 6 6 @ 6 6 @ @ 6 @ O @ 6 6 6 6 9 6 6 6 6 6 9 6 ; d 0 H 9 8 > ' +.O.' 6.a.D.j.H V r.y.S.%.O.G ~ O.E ~ ~ H H H 9 1 @ @ @ @ ; ; 1 @ @ @ @ @ @ < @ X @ 9 G G 4 2 7 9 1 @ @ O O + O . .   X X X X X @ @ O O O ",
"; 6 ; ; 6 9 0 x > 6 6 6 0 9 8 8 9 0 0 L o.h.D.S.A.y.y.9.9.k.V.A.y.qXx.S.w.e.w.r.] ) UXI.9.t.UXGX  O lXxX@ v 0 0 8 8 8   0XO   0X  9 9 8 6 6 6 6 6 O @XGX      @ 6 6 ; 1 ; 1 6 6 6 O 1XO 9 6 9 H L o.x.Z.t.{ r.J.d.1.:.:.*.M.(., : 6 H.` ) ) ^.w.J.0X9Xr 6 0 9 9 9 9 6 1 @ ,.UXO L L @ 6 6 0   >.[.,.kXAX  6 8   [.0X<Xq O @ q H.: 6 @ >.,.@ 1 @ ).| 1 ` 7 r @X9X=.O 9 6 6 6 6 6 6 ; 6 6 6 9 6 8 8 H 9 6 x ] +...v N 0.B.o.[ e.w.e.+.+...N.h.L ~ ~ H H H 9 4 1 < @ 1 9 9 1 1 @ @ @ 1 4 4 @ , t m ~ 0 < + @ O O O         X O O O O O O O O O O O O O ",
"; 6 6 ; 6 9 x x 8 9 6 6 8 8 8 8 0 L o.z.D.G.a.0.0.9.9.] $.x.S.A.Z.qXS.S.9.c / [ [ 9 LX8XA.qXzXIX@   DXoX0 / 0 9 8 8 9   9X    0X  6 6 ; ; 6 6 6 ;   sXmX  6 ; ; ; @ 1 1 6 1 1 1 4 O 0X1 ~ v 9 0 ` b :.1.p @ 8 e : @ ; ;   lXPX  6 @ UX@X9 ; zXJXUXBXJXUX7 0 9 6 9 9 6 6   VXlX@ J.0 @ @ 1   kXUXGXKXUXBX  6   AXIXBXFXUX=.X 7 UXH.@   UXUX7 6 r UXH.O oXKXUXVXHXUX>.9 H 0 9 J K 9 1 6 6 9 6 6 6 6 8 8 9 9 8 x B O.L x M } e.C.e.C.$.B.l./ ( ~ ~ ~ H 0 0 H 9 4 4 H o.E K 9 1 @ @ 6 1 ; ; @ + O O O O O           O O O O O O O O @ O O O O O O O O O ",
"6 6 6 6 9 8 8 8 8 8 6 9 9 8 0 L g.v.D.P.L.0.s.{ +.w.9...h.V.A.A.Z.qX4.k.S.] n ~ ( 9 CXjXw.MXU.KX|   IXu.0 0 8 8 8 8 6   9X    9X  6 6 6 6 ; 6 ; 6   ;XKX      9 9 6 ; 6 6 9 ~ ^ ~ @ 9X: m ; ; ; ; ; @ X @ 6 9 9 9 9 6 6   hXJX  6 @ UX X9 9 tXUX8 O O UX[.@ 0 9 9 9 9 9 7 UX*.-.;.  @ @ @ w UX;.    xXVX  @ H.UX@     AXxX    PX9X  r IXKX(.  H.UX7   ].UXr     KXkX  8 6 _ ` 9 6 6 9 0 ( L 9 6 6 6 9 / ..E 6 N y.x.W 6 k 0.A.G.G.l.e.G 8 v ~ H ~ H H L 0 ( &.H.J.Z.h.G 1 @ @ @ @ @ @ ; 9 H 4 < O O O O O O O O @ O O O O O O X @ O O O @ @ O @ @ O ",
"8 ; ; 9 0 v x 8 8 0 0 8 0 H E j.D.G.a.0.9.9.[ +.@.} +.b.y.r.N.r.q.-Xv ..k.A.] x H H aXBX@ PXq.mXoX6 UXq 8 0 0 0 8 6 6   9XO   9X  ; 6 6 6 6 6 6 6 9 2 KXUXPXlX4 ^ ^ ; ; 6 6 0 n 8 O @Xo @ @ ; ; ; ; 6 9 9 9 0 9 9 6 6 6   hXJX  8 @ UX X) ( jXPX/ / @ IX0X@ 8 9 9 9 9 @ 9XJX  q O @ @ @ @ ;.UXr 6   mXVX  O |.IXO 6 < mXDX    BXxX  ).AXpXpX  iXLX  O `.UX6 (   HXlX  ; @ @ @ ; 6 9 ; | ^ H 0 9 6 6 9 8 9.%.E 0 d ] $. .~ V y.G.E.V.) H 0 0 ~ 0 / %.z.h.n.>.>.-._ ; 9 4 1 @ @ 1 @ @ @ ; 8 9 < O O O O O @ @ @ @ @ O @ O @ O O O @ @ @ @ O O O @ O O ",
" .0 9 9 H n d 8 H L ~ (  .o.k.N.A.y.w.] ' @.[ / ) k.b.A.6.@.%.0.q.oX( [ ( $.B.' 8 9 R.KXX UXB.eXzX` UXO 0 8 H 0 0 9 6   9X    9X  9 6 6 0 0 9 6 6 9 J O ` n.PXaXO q @ @ @ 1 @ @ @ O 1XO ; @ ; ; 6 ; 6 9 9 0 9 9 9 9 6 6   hXJX  8 @ UX.X../ jXPX[ ) ; IXqX@ 9 9 9 9 9   PXXX@ ~ 6 @ @ @ X ,.UXr ;   mXVX  O @XIXO 9 4 mXHX    iXKX  sXhX`.VX  NXBX  O `.UX7 ~ O HXkX  1 6 1 ; ; 6 6 9 1 6 ; 6 6 6 9 0 9 > V #.o.H 8 ] B.z.$.r.I.P.D.K 0 0 8 n X.d.J.K.z.X.H 9 9 1 ; ( K 1 @ @ < @ @ @ X @ @ O O O @ @ @ @ @ @ @ O @ X @ O O X O @ O O O O O @ X O O ",
"v.V.l.#.^ b 0 L E ..$.$.k.r.9.} [ } ' ' ' / / ( h.b.y.4.'  .4.N ` <X8 v n ( h.C.9.> | UXB.PX+.^.KXJ.GX  H H 0 H H 0 0   9X    9X  9 6 6 0 ~ 9 6 1 6 ; 9 0 @ ;XSX  @ 1 ; @ @ ; ; @ O 1XO 6 6 1 1 1 @ 6 6 6 9 9 6 6 9 9 6 O hXJX  8 @ UX.X( n dXPX[ +.@ IX0XX 9 9 9 9 6 ,.UX@ J ( 1 @ @ @ O ,.UXr @   mXVX  O @XIXO 0 9 mXGX  @ (.UXO SX[.=.IX  JX9X    ].UX: q   HXzXO 1 1 6 ; 6 9 6 9 9 6 9 9 6 6 6 > 6 6 > n [ O. .~ w.y.C.B.A.P.Y.W 0 9 x [ X.;.:.^ H H ..E G 7 m ..R 4 @ @ @ @ O X X O O O O @ @ @ @ @ @ @ @ @ O @ X O 3 3 O O O O O O O @ @ O O ",
"L $.@.u.,.;.^ o.v.D.S.A.r.e.w./ v c n ~ ) / / o.v.A.6.:.L / n E X.-X8 H v n ( h.G.w.X UX8XZX} S.IXdXzX6 $.#.{ n ~ ~ 0 O 0XO   9X  6 6 6 ; ; ; ; 6 6 O O 1   0XCX  @ @ @ @ @ ; 6 1 O @XO 6 6 1 6 6 6 6 1 6 9 9 6 9 9 9 6   hXJX  9 @ UX{.9 0 aXPX~ ) @ IX;XO 9 9 9 9   BXxX  H ..9 6 6 1 L J.UXe 1   mXVX  O XXIXO 0 < mXGX  @ e UXO UX=.# UX  UXH.@ O `.UX@ X . JXzXF G 6 1 ; 6 9 6 6 6 9 6 6 9 6 6 6 6 9 H H ~ @.N.z.( N w.A.A.P.V.o.L 0 / ) L H H L H ` { o.G e C ~ A 4 @ X X O   X X O @ @ @ @ @ @ O @ @ @ @ @ @ @ * N Q F @ O X O O O @ @ @ @ O ",
"8 H ~ ~ / ~ h.D.G.L.0.q.' +.@.u.,.^ H  .+.'  .j.B.6.5.J n x W ..| oX; 0 ~  . . .h.S.n KXIXqXS.c LXIXqXB.] N *.7 0 0 v O 0XO   9X  6 6 6 6 6 6 6 6 O [.xX'.[.UXH.@ @ ; ; ; @ @ 6 6 O @XO 6 6 6 6 6 6 6 6 6 0 9 9 H %.V...X hXHX  9 O UX{.< 1 tXPX; 9   UX[.@ 9 6 6 9 7 UX;.@ ~ ^ 6 6 6 6 #.J.UXw @   NXVX  @ `.IX  0   xXZX  1   IX`.UX@   IXH.UXr ; @ `.UX: 6   JXvX( o.9 6 6 9 9 9 6 9 6 6 6 9 9 9 H 9 0 ~ H 0 x { B.o.( 4.y.P.G.C.k.E v 0 0 ~ ~ ~ ~ 9 _ n ~ L S e ( F 4 O O O O O X @ @ @ @ @ @ @ @ @ @ @ @ O O @ X > = 1 @ O O X X O O @ @ O O & ",
"9 0 L h.x.C.A.y.y.0.9.N n / n 0 q 0 ( ~ n  .v.S.6.V 9 v x R  .B m oX; 0 ~ O.x.t.>.X.N.=XhXZ.F.r.{.jXI.S.L.V 6 0 0 8 8   0XO   9X  6 6 6 6 6 6 6 6 @ _ pXCXCX).  6 6 ; ; ; @ @ 1 6 O @XO 6 6 1 1 6 6 9 9 9 0 0 0 ~ r.I.r.X [.UX).` kXUX.X6 0 tXUXdXoXzXUX7 9 9 9 9 @ 0XKX  6 0 0 6 6 6 6 6 # UXsXt _.UXVX  6 7 UX;X` H.UX9X4 4   DXDXKX    BXHXIX  6 X [.UX@ 6   HXcXm h.9 6 9 9 9 6 6 9 9 0 ( L H ( H 9 9 6 6 8 0 0 c ' +.} y.P.G.e.x.Q 0 0 8 v ~ ~ ( 0 9 H 0 H J *.[ W 3 O O @ @ @ @ @ @ @ @ @ @ @ @ @ @ @ @ O @ O O O O O X @ O O X @ O O @ @ O # ",
"H  .h.V.G.a.6.9.' 9.9.M 0 0 H ~ v H ~ / o.v.G.0.9.~ n v E ) M x m oX; 0 0 ~ ) ' t 0 ../ > 8 ) F.w.9 F.P.S.P.9.8 0 v 8 O 0XO   9X  ; 6 6 6 6 6 6 ; ; @ O     @ 6 6 6 6 ; ; 6 1 6 ; O @XO 6 6 0 8 6 6 9 H H 0 9 8 9 6 > = 8   xXIXIXlX_.|.~ @.eXPXvXDXmX` @ 0 9 9 9   BX[.@ 9 9 9 6 ; 6 6 6 O _.PXUXJXt lX  6 O ,.JXUXIXaX  L 9   oXSXpXO @ ].DXsX  6 @ H.DX@ 6   xXiX*.o.9 9 9 6 9 6 J L 9 ~ X.0 0 9 9 6 6 6 6 8 8 0 8 x 9.w.A.E.D.' N.j.H 8 0 v ~ ( ( H H 0 b H J 1.| Q 4 @ @ @ @ @ @ @ @ @ @ @ @ @ @ @ @ @ @ O @ O O O @ @ @ @ @ O O O @ O X @ O O ",
"j.D.A.a.0.6.9.' [ ] n ~ ( / n v v H v  .v.P.6.q.) } ' E +.4.f 8 m oX; 0 v v 0 v 0 v 0 ) +.~ v ( F.r...G.L.A.L.4.x H 0 O 0XO   0X  6 6 6 6 6 6 6 6 ; 6 ; 6 6 6 ; 6 6 6 6 ; 6 1 6 6 O @XO 6 6 / #.6 6 6 9 0 9 9 6 9 9 6 6 9 8         @ @ ~ ) dXJXn 8 O 8 0 0 8 9 9 0   O 9 6 9 9 6 6 6 6 6 9 X       @   6 ; 6 @   O     8 0 9 6       0 0 O     6 6 6 O   6 6 6   $ ;.L 9 6 6 6 8 8 ^ 0 9 6 8 6 6 6 6 6 6 6 9 8 8 8 8 v n 4.a.E.z.c y.b.L 0 0 n ~ ( ( H H 0 *.^ J ! m L 4 @ @ @ @ @ @ @ @ @ @ @ @ @ @ @ @ @ @ O @ O O @ @ O @ @ @ O O O @ X X @ O O ",
"F.L.6.4.} } ] B n ~ ..w.V c 8 8 0 0  .v.G.i.5.X.9.4.L O.9.k 8 0 m oX; 8 0 0 0 0 0 0 0 H ..$./ n H N.w./ G.A.w.y.c 8 0   9X    0X  6 6 6 6 6 9 6 6 6 6 ; 6 6 6 6 6 6 ; ; ; 1 ~ 0 ; O @XO 6 6 9 9 6 6 6 6 9 9 6 6 8 0 9 6 6 6 6 9 8 8 8 0 H 0 dXLXw.%.0 0 0 0 8 9 9 9 9 9 9 6 9 9 6 6 6 6 6 6 6 6 6 6 @ @ @ @ ; 6 8 H 9 ; 6 9 9 1 @ @ ; 6 8 6 6 6 6 6 6 6 6 6 6 @ ; & *.H 9 6 6 6 6 6 9 6 6 6 6 6 6 6 9 9 6 6 6 8 8 8 0 v 0 N a.G.o.g y.D.o.0 0 v n ~ H H 9 q t H H 2 ; 1 1 @ @ @ @ @ @ @ @ @ @ @ @ @ @ @ @ @ O O @ @ @ @ O O O O @ @ O O @ @ @ @ @ @ ",
"9.] ] ' B B ~ ( ~ ~ / c x 8 9 0 0 L g.D.i.5.X.O.] /  .V g > 8 8 @ ;X  9 0 0 0 8 8 0 0 0 0 O.e.c v G l.@.L F.S.[ e.M 8 7 @XX   0XO 9 6 6 6 6 6 6 6 ; 6 ; 6 6 6 6 6 ; ; ; ; @ 0 0 ;   9X  6 6 1 1 6 6 6 6 9 6 6 9 9 0 8 6 ; ; 6 9 6 8 0 0 ~ [ qXGXw.%.~ 0 0 0 8 6 6 9 9 6 9 6 0 H 6 6 6 6 6 6 6 6 6 6 6 @ @ @ @ @ 6 9 6 ; 6 6 9 9 @ @ ; 6 9 0 8 ; 6 6 6 6 6 6 @ @ ; : ` H 6 6 6 6 6 6 6 6 6 6 ; 6 6 6 6 9 6 6 ; 8 8 8 8 v 8 5.L.T.o.c y.F.h.~ 0 v n / ..o.L G 9 9 9 1 6 @ @ @ @ @ @ @ @ @ @ @ @ @ @ @ @ @ @ @ O O @ @ X @ O @ @ @ @ @ @ @ ; 1 4 < O @ ",
"/ [ ' / ~ v ~ / B x 8 9 9 9 0 0 H g.h.9.N b 0 ~ .. .B g ; 9 8 8 O pXO 0 8 8 8 8 0 0 0 0 9 G @.w.0 0 G l.} L b.A.@.A.] '.n.9 ; [.>.6 6 6 ; 6 6 6 ; ; 6 ; 6 6 6 6 1 @ @ @ @ @ @ @ 6 r 9X@ 6 6 ; ; 6 6 8 9 9 6 6 6 6 8 8 6 6 ; 6 9 6 9 9 0 ~ Z.n e.A.@.0 0 0 9 9 6 6 6 6 9 6 6 X.#.9 ; 6 6 9 6 6 6 6 6 6 6 @ @ @ @ ; 6 1 ; 1 6 ( L 6 6 @ ; 6 0 8 ; ; 6 6 6 1 6 @ @ X : ~ G 6 9 9 6 6 6 6 ; ; 6 ; 9 6 6 6 6 6 ; ; 6 9 6 8 v 0 5.L.T.o.c 9.S.h.( H ~ @.y.G.h.(  .K 9 6 6 4 @ < @ @ @ @ @ @ @ @ @ @ @ @ @ @ @ @ @ O O O O O @ @ @ @ @ @ @ @ X ; 1 < O O X ",
") / ~ ~ ~ n x v 0 0 8 6 9 G 8 H W o.V l 8 9 8 H L n x 8 8 6 6 6 8 ` 0XO 0 8 8 0 0 0 0 v 0 8 0 ) ~ v n L N.[ ( G.G.B.9.vX  0 8   kX  9 8 6 6 6 6 6 ; 6 6 ; 6 6 6 6 1 @ @ @ @ ; 6   hX7 6 1 1 6 6 1 @ 9 9 6 6 6 6 6 6 6 6 6 6 6 6 6 6 6 8 8 #.) e.e.) 0 9 8 9 6 6 6 6 9 6 6 6 c.J.6 6 6 H 0 6 6 6 6 6 ; 9 9 1 @ @ 9 1 1 1 ; ; ^ O.9 6 ; ; 6 8 8 6 ; 6 ; 6 6 1 @ @ @ 7 ^ H 9 9 6 6 6 6 6 6 6 6 6 6 6 6 6 6 6 ; 6 ; 6 6 8 8 x 6.P.D...n } B.x.O.( ~ [ [ ..( H ~ L 9 9 9 1 @ 1 @ @ @ @ @ @ @ @ @ @ @ @ O O @ @ @ X @ 4 A 4 < @ @ @ @ @ O O O O O @ @ X X ",
"~ ..) / n 8 > 9 9 8 8 9 G 0 H W j.V s > ; 8 9 G x 8 8 8 6 6 6 6 ; X ]. X  0 9 8 8 0 0 0 0 0 0 0 0 H 0 v ( N.@.l.G.r.MXr.9.8 0 9 r zX  @ 6 6 6 6 6 6 6 6 ; 6 ; 6 ; 6 @ @ @ @ @   pX,.@ 6 6 ; 6 6 ; 6 6 9 6 6 6 6 6 6 6 6 6 6 9 0 0 6 ; 9 9 H ~ %.e.~ 0 9 9 6 6 6 6 6 9 6 6 6 | n.1 6 6 ^ 0 9 6 6 6 6 6 0 X.9 @ 1 L 1 @ 1 @ ; ~ O.G 1 ; ; ; ; 6 6 6 ; ; 6 1 @ @ @ @ 8 J 9 6 6 6 6 6 6 6 6 6 ; 6 6 6 6 6 6 6 ; 6 6 6 9 9 8 c 6.P.x...) [ 9.S.h.H 8 v ~ H H H 0 9 9 9 4 1 @ @ @ @ @ @ @ @ @ @ @ @ @ X > 9 < @ @ d { X.L 4 4 O @ @ @ @ @ O O O X X O o @ ",
"+.{ c x 8 6 8 9 8 8 9 G 8 H g.b.0.z ; ; ; 6 9 0 8 8 6 6 6 6 6 6 > ; O J.hXH.r 7 7 7 q 7 7 7 7 7 7 q q q q J x.Z.8XnX0.9.N.w.d > ; r kX[.r 7 7 7 7 7 7 7 7 7 7 7 7 7 7 7 : w ).sX*.O 6 6 6 ; ; 6 6 ; 6 9 9 6 6 6 6 6 9 9 6 9 0 0 0 0 ; 9 0 H ~ N.G.~ 9 9 9 9 6 6 6 6 9 6 6 6 ` | 1 6 6 9 6 6 6 6 6 6 6 9 0 9 ; 9 h.1 @ @ @ @ 6 ( G 6 @ @ ; ; ; 9 6 6 6 1 1 @ @ 1 ; > 0 6 6 6 6 6 6 6 ; 6 6 6 6 6 6 6 6 6 6 ; > ( 9 6 0 0 c 0.G.) [ h.( 4.A.j.G 6 0 ~ ~ H 0 0 0 9 9 9 1 6 1 1 @ @ @ @ @ @ @ @ @ @ - N  .4 O X X @ @ @ @ @ @ @ @ @ @ @ @ O O X @ @ O X ",
"V g > ; 9 9 8 8 8 0 0 8 H g.b.i.2.t 6 8 6 9 9 0 8 > 6 6 6 6 6 6 ; 6 K E 8 U.oX@X@X@X@X@X@X@X@X@X@X@X0X@X@X1XqXqXZ.' P.L.[ G.a.s 8 0   ,. X@X@X@X@X@X@X@X@X@X@X@X@X@X+X+X@XXX,.  ; 6 ; 6 ; 6 6 9 4 6 6 6 9 0 0 6 6 6 9 9 9 6 6 6 8 v 8 9 8 0 ~ B.P./ 0 9 8 9 6 6 6 6 9 9 9 6 | ` 6 6 6 6 6 6 6 6 6 6 6 6 9 9 ; ( b.4 6 ; @ @ @ 9 9 6 1 1 ; ; ; 8 9 6 6 6 @ @ @ 1 6 ; 6 1 1 6 6 6 6 6 ; 6 6 6 ; ; 6 6 6 6 ; ; z X.G > n 0 N a.D.~ 4.x.E k a.D.R 8 v v H H H 0 H 9 9 9 4 8 H A 1 @ @ @ @ @ @ @ @ @ @ * < @ O O O O X @ @ @ @ @ @ @ @ @ @ O O @ @ @ @ @ ",
"0 > 8 9 9 9 8 8 9 0 x v R j.9.2.f 9 v 6 6 G H n x 8 6 6 6 6 6 ; 6 6 9 0 n x @ @ @ @ @ @ @ @ @ @ @ @ @ 6 ; ; ; ( @.[ l.T.y.@.A.y.d 8 8 9 ; @ @ @ @ X X O X X X X @ X X O O @ @ 6 ; ; 6 6 6 6 1 G #.#.; 6 6 0 0 6 6 6 6 6 9 9 6 6 6 8 0 6 8 H ~ e.P./ 0 8 0 9 9 6 6 9 9 9 9 6 ^ ^ 6 6 6 6 6 6 6 6 6 6 6 9 9 9 6 O.k.9 0 6 @ @ @ ; 0 9 6 1 ; ; ; b v 6 6 @ @ @ @ 1 6 ; 9 6 6 6 6 6 6 6 6 6 6 6 6 6 6 6 6 6 ; ; 8 0 6 v ..v 4.L.D.H N V.R z i.G.Q 0 0 v 0 0 H 0 9 6 0 H *.*.k.R 1 @ @ @ @ @ @ @ @ @ @ O X X @ @ @ O X @ @ @ @ @ @ @ @ @ @ @ @ @ @ X @ @ ",
"0 8 8 9 6 6 6 9 9 0 0 R Q ' j > 1 6 G K ~ ~ ) B x 6 6 6 6 6 6 6 ; 1 9 6 6   O O O O O X X X X X X O O O 1 : X O H %.) $.E.y.M r.9.8 8 X O @ O O O O O O O O O O @ O O O O O O @ @ @ 1 6 6 ; 1 9 [ #.8 6 6 6 6 6 6 ; 6 6 6 8 6 6 6 6 9 0 6 ) ( +.A./ 8 8 8 9 9 6 9 9 9 9 6 6 v 0 6 6 6 6 6 6 6 6 6 6 6 6 6 6 6 ..O.0 ~ 9 ; @ @ ; H H 6 6 ; ; 6 n n 6 @ @ @ ; ; 6 6 6 9 9 6 1 6 6 6 6 6 6 6 6 6 6 6 6 6 6 6 6 8 9 > )  .n 6.P.b.0 4.N.E l 6.L.v.9 8 0 v ~ H H 9 0 ) O.;.:...Y 1 1 @ < @ @ @ @ @ @ @ @ @ @ @ X @ O X @ @ @ @ @ @ @ @ @ @ @ @ @ @ @ 6 1 ",
"~ g > 6 6 6 9 9 0 0 E v.9.k = @ 6 A W +.9.n v x 8 6 6 6 6 6 6 ; ; 6 9   H.0X0X9X9X9X9X9X0X9X0X0X0X9X0X9X0XqX0X;X0XX.+.} x.P.0.x %.v ` 0X9X9X0X9X9X9X9X9X;X#X;X9X9X9X;X;X1X1XaXH.  6 6 6 6 6 6 6 6 6 9 8 6 6 6 6 6 6 6 6 6 0 9 6 6 1 1 9 9 X.$.( e.~ 0 9 9 6 6 6 6 6 9 6 6 6 0 0 6 6 6 6 6 6 6 6 6 6 6 9 9 9 9 ( 0 9 0 9 9 ; @ @ 0 H 9 ; 6 ; > v 0 9 @ @ @ ; 6 6 6 0 ~ 9 6 6 9 9 6 6 6 6 6 6 6 6 6 6 6 6 6 8 8 8 > [ ) n 0.P.z./ 9.N.o.c 6.L.b.L 0 v v ~ H ~ ) N.G.+.J P 0 A 1 @ @ 1 @ @ @ @ @ @ @ @ @ @ @ X X @ @ @ @ @ @ @ @ @ @ @ @ @ 1 1 1 x 8 4 ",
"n d 8 6 9 9 9 8 0 Q v.L.3.C 4 9 9 L ) / x x 8 6 8 6 ; 6 6 6 6 ; ; 6   sX_.O O O O O O O O O O O O X X O @ @ 6 X q aX{.+.' %.P.y.X <XqX#   X O X X O   X O O O   O @       O @ XXpX  9 6 6 6 6 6 6 6 9 9 6 6 6 6 ; 6 6 6 9 0 9 6 6 6 1 9 0 ( #.~ N.) ..9 9 9 6 6 6 6 6 6 6 6 9 9 6 6 6 6 6 6 6 6 6 6 6 6 8 8 9 9 9 6 8 9 6 6 1 @ 6 H 9 6 ; 8 6 8 8 6 @ @ 6 6 9 9 6 0 H 9 0 8 9 6 6 6 6 6 6 6 6 6 6 6 6 6 8 6 9 8 d #.( { a.E.h.n w.O.( x 5.a.T.o.H ~ ~ [ %.e.%...L H 6 6 0 9 6 ; 6 1 @ @ @ @ @ @ @ @ @ @ @ @ @ @ @ @ @ @ @ @ @ @ @ @ @ @ 6 @ @ @ @ < ",
"d > 9 6 9 9 8 0 R h.e.6.l 6 9 H H H v 0 x 8 6 6 6 6 6 6 6 6 ; ; ;   kX7 @ 6 6 6 6 9 6 6 6 6 9 9 9 9 6 9 9 9 G  .n   .XR.e.B +.S.-X).G #.8 > 6 9 6 9 ; 9 0 6 ; ; 6 9 6 ; ; 1 @ X =.pX  6 6 6 6 6 6 6 6 6 6 6 6 6 6 6 6 6 9 9 0 9 6 6 6 6 0 H ~ ( C.+.+.9 9 9 6 6 6 6 6 6 6 6 9 9 6 6 6 6 6 6 6 6 6 6 6 6 8 8 9 6 6 6 8 9 6 9 6 6 6 H G 1 6 9 8 9 9 6 6 9 0 0 0 0 9 0 0 0 0 9 6 6 6 6 6 9 9 6 6 ; 6 6 6 6 6 8 0 8 x ..0 7.L.T.o.V e. .0 x 7.0.P.V.l.B.V.B.%.) L G 9 0 9 q 0 9 6 6 6 6 1 @ @ @ @ @ @ @ @ @ @ @ @ @ @ @ @ @ @ @ @ @ @ @ @ @ @ @ o @ ; 9 ",
"8 6 6 9 9 8 0 Q b.y.4.n ~ v > 9 9 9 0 0 > 8 6 9 6 6 6 6 6 6 ; ; @ `.H.@ 6 6 6 6 6 6 6 6 6 6 9 9 6 6 9 8 6 6 9 H +.c   sXG r./ &.jXM > O.B.c ; 9 6 6 6 6 9 0 6 6 6 6 6 ; @ 1 1 @ X [.,.6 6 ; 6 6 6 6 6 6 6 6 6 6 6 6 6 6 6 9 9 6 9 6 6 6 0 ) ~ ) G.e.) 9 9 9 9 6 6 6 6 6 6 9 H 0 9 6 8 6 6 6 6 6 6 6 6 8 8 8 8 9 9 8 8 8 8 6 6 ; 8 ~ ~ 6 @ ; b ~ ( ( ..) ) ) H 0 v ~ ~ 0 9 6 6 6 6 6 6 9 9 9 6 6 ; 6 6 6 6 8 8 8 x ) 8 s.L.Y.( V N.L x v g q.L.T.N.@...v ~ ) H 9 9 8 6 7 8 9 1 @ 1 1 1 @ @ @ @ @ @ @ 1 @ @ @ @ @ @ @ @ @ @ @ @ @ @ @ @ @ O + & , x K ",
"6 6 ; 9 8 > Q v.A.6.u.b M > 6 6 9 9 8 > ; ; 9 9 6 6 6 6 6 6 ; ;   pX  6 6 6 6 6 6 6 6 6 6 6 9 9 9 9 9 9 6 6 9 9 H / x >.[. .] ;Xc.I.9.8 $.A.c > 9 1 9 6 6 9 0 9 ; 6 6 ; ; 1 1 1 6 O 9X  6 6 6 6 6 6 9 9 6 6 9 6 6 6 9 9 0 9 9 9 9 9 6 6 9 ) @.@.G.S.) 9 8 6 6 9 9 9 9 6 6 8 0 0 6 8 8 8 8 6 9 9 6 6 6 6 0 0 0 9 9 8 8 6 6 6 6 6 8 v ) G 6 O C J.x.#...) ) ~ 0 0 / / 0 6 6 6 6 6 6 6 6 9 0 0 6 6 6 6 6 6 6 9 6 6 8 v b 5.P.b.v ] $.9 M +.L 2.i.b.E 0 0 ~ ~ H 0 9 9 6 6 1 ; 1 1 @ @ @ @ @ @ @ @ @ ; 1 < @ @ @ @ @ @ @ @ @ @ @ @ @ @ @ @ @ O O % , x A ",
"8 9 9 8 8 L j.S.8.5.m > = 1 6 9 H n d ; 6 6 6 9 6 6 6 6 6 6 ; ; q XXO ; ; 6 6 9 6 6 6 6 9 9 9 9 9 6 6 9 8 8 9 9 0 9 H X 9XO @ qXO V.P.9.x $.B.x 6 6 9 9 6 6 9 0 6 6 9 6 6 ; ; 6 6 O 9XO 9 6 ; 6 6 9 9 6 6 6 6 9 9 9 0 ~ #.0 O 0 0 8 8 8 9 ~ e.e.G.A.[ 0 O   @ 9 6 6 6 6 6 6 9 9 6 6 9 6 6 ; ; ; ; ; 6 9 0 ~ H 9 8 8 X 0 0 0 8 8 v @.N...9 1 e b 0 / ~ ~ 0 8 9 8 6 0 0 9 6 6 6 6 ; 6 ; 8 ~ H 9 6 6 6 ; ; 6 6 6 6 9 8 > 9.G.h.8 / E 1 s } E g 4.V.W 8 0 ~ ~ H 9 9 6 1 1 @ ; 1 @ @ @ @ @ @ @ @ 1 1 ; 1 < O @ @ @ @ @ @ @ @ @ @ @ @ @ @ @ O @ O & o 6 4 ",
"8 9 9 6 L v.S.6.k - ; 6 K H x 0 n N 8 6 6 6 6 6 6 6 6 6 6 ; ; ; I 0Xg > 6 9 9 L { c 9 6 6 9 9 9 9 9 6 8 8 8 8 6 8 0 H O 0XX   qX0 ) F.P.y.x ) B.' 8 6 9 0 ; 6 9 0 0 H ; 6 6 6 6 6 O @XO 9 9 6 6 6 8 8 8 8 9 0 0 0 0 v v x J.aX0 v 0 0 0 0 ~ %.N.P.G.[ @ kXCXH.9 ~ ) [ [ [ [ [ ) [ @.e.B.@.` t.%.+.n / B.P.P.G.N.w.~.GX8XG.G.A.B.A.P.E.P.S.+.6 {.[.6 v 0 8 8 8 0 9 9 9 9 6 9 9 9 6 6 6 6 v H 9 6 6 6 6 6 6 6 6 6 8 9 x 9.F.E d +.K @ = n L x 6.A.j.H 0 0 H 0 9 9 9 1 1 @ ; 1 1 X @ @ @ @ @ @ @ @ @ @ @ O @ @ @ @ @ @ @ @ @ @ @ @ @ @ @ @ @ @ @ X @ @ ",
"6 8 6 G g.e.6.k 8 8 > G K / v 9 8 > ; 6 6 6 6 6 6 9 6 6 6 ; ; 6 P 0Xd ; 6 9 9 9 8 > 9 6 6 9 9 9 9 9 9 9 8 8 8 8 9 8 0 O 0XX   0XG r.[ F.P.y.n h.G.V ; 9 8 8 9 ; 9 H ..:.O 6 6 6 9 O 9XO 9 0 9 6 9 8 0 0 8 0 0 0 0 8 8 8 X oXUX7 ~ ~ x 0 0 ~ N.B.S.P.n FXJXoXJ.e.I.w.I.L.L.L.A.r.A.A.P.P.r.UX/.y.r.' [ A.L.L.A.r.B eXUXMX9.r.r.9.9.A.A.B.[ ~   DXNX  8 8 8 8 8 8 0 @ 6 9 6 9 8 9 9 6 6 6 9 9 6 6 6 6 6 6 6 6 6 8 ~ 9 c y.D.K c #.G ; ; c ) 0 k y.z.L 0 0 0 9 9 9 1 ; ; G G ; 1 @ @ 1 @ @ @ @ @ @ @ @ @ X @ @ @ @ 1 < @ @ @ @ @ @ @ @ @ @ @ @ @ ; 8 9 ",
"8 0 K g.+.k c H n d 6 4 9 9 6 8 ; ; ; 6 6 6 6 6 6 6 6 6 6 ; ; @ e XXX 6 6 6 9 6 6 6 6 9 9 @     8 9 6 6 8 9 8 8 8 8 8 O 0X@   0XO V.A.+.F.P.9.( k.Z.8         > 8 9 O.H.i @ 6 6 6 O ;XO 6 0 9 6 9 8 8 8 0 0 8 8 9 8 8 8 @ {.UX6 ~ 0 0 0 0 ) B.N.S.B.#.UXu.X 8 n * dXd ] ] ] B c c ] } x 0XJX  n x 0 x c 9.w.' v n c U.' n n x x c ] ' / 0 ~   CXxX  6 6 6 6 6 6 O XX_ 6 6 6 6 6 6 6 6 6 6 6 6 6 6 6 6 6 6 9 6 8 ( 8 4.P.D.L x ) 9 ; * a { E x 6.C.Q 0 0 0 0 0 0 / [ Z.Y.Y ; 1 @ @ @ @ @ @ @ 6 @ 1 @ X X @ @ 1 ; ; @ @ @ @ @ @ @ @ @ @ @ @ ; > 8 n H ",
"8 L g.k.N m F / f ; 1 6 6 9 6 > ; 1 ; 6 6 6 6 6 6 6 6 6 6 ; ; @ e XX@ ; ; 6 9 ; 6 6 ; 9 @ ,.UXGX  6 9 9 9 9 9 9 8 8 8 O 0X1 @ 0X  L F.y.@.G.P.S.B.9 ZXIXIXUXSX` 9 9 E Z.1.X 6 6 6 O 9XO 6 9 9 9 9 0 0 8 8 8 6 9 8 6 6 9 @  XUX1 0 / ) b Z.Z.~ @.S.' ` UX=.@ q   [.JXO 8 n n v v v ) )   LX X@ v 8 6 8 x b / X ` ^ n q n n v 6 O >.t.b   9 H   CXzX  e 7   6 ;   O UXr O 6 6 6 6 6 6 6 6 6 6 6 6 6 6 6 6 6 6 6 x ~ > 6.P.b.H n ~ 9 ; 6 > '  .x 6.L.j.G 0 0 0 [ B.G.x.} L 9 6 1 @ 1 @ @ @ @ @ @ @ @ @ O X @ @ @ 1 @ @ @ @ @ @ @ @ @ @ @ @ ; ; 8 0 G 4 ",
"0 g.v.4.f 2 9 x 0 9 0 9 9 ; 6 ; ; 6 6 6 6 6 6 6 6 6 6 6 6 ; ; @ r XX@ ; 6 6 6 ; 6 6 6 6 O hXNXUXr 6 9 9 9 9 9 9 8 8 8 O 0XO < qX  9 ) B.w.) G.P.y.X SXtXB q hXLX  8 G z.M.@ 6 6 6 X ;XO 9 9 9 9 0 v v 8 8 8 9 8 8 9 9 9 @  XUX[ A.r.=XUXUXUXUXK.} {.UXIXUXIX  GXUXIXUX[.; 8 8 6 0 ~ 0 H.UX6 0 9 9 6 9   GXH.GXUX).m UXH.; 6 r IXUXUXUXPX| 6   CXvXJXUXUXhX  O 9XUXIXUXDX  6 6 6 6 6 ; 6 6 0 0 6 ; 6 6 6 6 6 6 v H g 0.P.h.0 / H 6 ; ; ; n ) 0 4.y.D.k...+.S.z...~ 9 ; 6 ; 1 1 @ @ @ @ @ @ @ @ @ @ @ O @ ; @ 4 < ; 8 H G < @ @ @ @ @ @ @ @ 6 ; 1 4 @ ",
"R o.4.c G 0 b H  ./ v 0 8 > ; 6 6 6 6 6 6 6 6 6 9 9 6 6 6 ; ; @ r  X@ 6 9 6 6 6 6 6 6 6   DXH.HX`.@ 6 9 9 9 9 9 8 8 8   0XO   qXX 8 0 H $.@.+.T.L.* SXqXe.9.q UX7 v 9 ) >.7 0 9 9 X 9XO 9 9 9 0 v v 8 8 8 8 0 0 0 8 0 ~ @.qXUXA.L.c IXdX  O SXGX> n &.UX=.: 6 X kXDX  6 8 9 8 8 0 v O mXmX  0 X.( 0 6   mXUXXX7 ; _ UXH.;   BXCX    H.UXn.1   VXUX:.@ [.UXr @ O u.UXr @ 6 6 6 6 6 6 ; 6 6 8 H 9 6 6 6 6 6 6 6 8 9 g y.F.L 8 / H 6 ; 6 > x ) ( 4.a.G.F.C.k.$.L H 9 6 0 6 6 6 4 1 @ @ @ @ @ @ @ @ @ O @ > M w.Q 3 X g H F 4 < @ @ @ @ @ @ @ @ @ @ O X ",
"O.4.a A H x G E / n 8 8 > > ; 6 6 6 6 6 6 6 6 6 6 6 6 6 6 ; ; 1 e XX@ 6 6 6 6 6 6 6 6 6 O UXr kXzX  6 6 6 9 6 6 9 8 8 O 0XO   0XO 0 8 9 0 l.w.) C.x DX1X0 A.q.UX7 H 0 0 b : 9 0 8 X 9XO 6 9 0 0 v v 8 0 0 v 0 8 8 0 ( e.G.eXUXB ' b UX>.0 @ jXKXX 0 >.UX:.@ 6   lXDX  9 9 9 6 8 8 0 6 UX,.6 6 | &.H 9   BXBX  6 6 m UXH.;   JXgX  ; H.UX>.G   CXBXX / r UXn.X X H.UXr @ @ @ ; 6 ; 6 6 6 6 6 9 9 6 ; ; 6 6 @ ; 8 6 g y.x.9 x ~ G ; ; 6 6 x } H 7.p.E.b.L H H 0 H 9 8 0 9 6 8 9 < 1 @ @ @ @ @ 6 8 4 < d x B 9.E A 4 X @ < @ @ @ @ 1 @ @ @ @ @ @ @ O @ ",
"0.5.w 9 9 8 9 H n 8 8 ; ; ; ; 6 6 6 6 6 6 6 6 6 6 6 6 6 ; ; @ 1 r XX@ 6 6 6 6 6 6 6 6 1 >.UX  `.PX  6 6 6 6 9 9 6 9 9   0XO   0X  0 0 9 6 H +.n 0 < GX0X@ ..Z.UXm 6 ~ 0 8 6 6 0 0 X ;XO 9 9 0 v v 0 8 0 8 8 0 %.Z.r.w.' ' -XUX6 8 _ UX=.  @ SXSX  8 :.UX:.6 6   lXDX  9 9 9 8 8 9 @ XXPX  9 9 9 9 8 ~ O BXZX  9 9 _ UXH.@   KXhX  6 H.UX>. .  VXBX  / ` UX,.@ @ J.UXr @ @ @ @ @ @ @ ; 6 6 6 9 6 6 ; ; 6 6 ; 6 9 6 l A.h.9 d ..9 ; ; ; ; x )  .m p.L.D.L H ~ H H 9 6 9 6 ; ; 6 @ 1 @ @ @ @ @ ; 6 1 @ * @ @ X 1 < @ @ @ @ @ @ @ @ @ @ O O @ O @ X O O ",
"5.C 1 9 G H x 8 8 8 > 6 6 ; ; 6 6 ; 6 6 6 9 6 6 6 6 6 6 ; ; @ @ r XX@ 6 6 6 6 6 6 6 6 O iXNX  + UX7 6 6 6 6 9 6 9 9 9   0XO   9X  9 H H 6 ; 0 L 0   SXqX6 H | UX{ > 9 0 8 6 6 9 0 @ 9XO 9 8 0 0 0 8 6 0 ) N.B.P.L.} x 8 ; |.UX: 8 _ UXPXIXUXLX_ 0 9 :.UX:.; 6   lXDX  6 6 9 9 9 9   JX@XX 6 6 6 9 6 8 O BXAXO G 6 _ UXH.;   KXhX  6 H.UX>...O VXBX  0 ` UX,.@ @ H.UXr @ @ @ @ @ @ @ @ ; ; ; 6 1 6 ; ; 6 6 6 8 G * 2.P.j.6 M O.9 ; 6 ; ; b ) L 9 5.0.Y.Q H ~ H H 9 6 6 6 1 @ 1 1 @ @ @ @ @ @ @ @ @ X X @ < @ @ X @ @ @ @ @ @ @ @ @ @ O O X X @ 1 < O ",
"7.5 8 9 K ( b 8 6 8 ; ; 6 6 6 6 6 6 6 6 6 6 6 6 6 6 6 6 ; @ @ @ r XX@ 6 6 6 6 6 6 6 6   VXKXBXBXUXH.@ 6 9 6 6 6 9 9 9   0X    9X  6 9  .#.> 6 0 H   SXtX@.n _ UXe.r.x 6 0 6 6 9 9 @ 9XO 8 8 8 8 9 9 ) B.G.P.9.B B 8 6 9 @ {.UX: 8 ` UX_._ q   6 0 6 | UX>.6 6   lXDX  6 6 6 6 6 6 ;.UX7 9 6 9 6 9 9 9   BXSX>.J.( ` UXH.6   KXhX  1 u.UX>.9   VXBX  6 ` UXH.@ @ H.UXr @ 1 @ @ @ @ @ @ @ ; ; 6 6 6 6 6 9 6 6 8 9 - 6.E.h.6 ] E 6 ; @ @ ; 8 0 0 9 g 4.F.j.H H H H 0 x / H 9 b O.F 1 @ @ @ @ @ @ O O X @ @ @ @ @ X @ 1 @ @ @ @ @ O O O O O o , > H Z O ",
"; 8 > 9 9 0 H x > ; 6 ; ; 6 6 6 6 6 ; ; 6 6 6 6 ; 6 6 6 ; ; @ @ r XX@ 6 6 6 9 9 6 6 6   UX[.).H.VXhXO 6 6 6 6 6 6 9 9   0XO   9X  6 9 G l.] > 9 9 O SX<Xx.L.b UX~ G.A.c ; 8 6 9 9 X 9XO 8 9 9 ~ w.r.y.r.B x 8 ; 6 9 6 9 @  XUX8 0 q UX>.@ 6 9 ; 8 ; _ UX:.6 6   lXDX  6 6 6 6 6   mXBX  6 6 9 9 6 ; 6   BXCX  >.J.c.UXH.@   HXsX  O ,.UX;.@   CXBX  6 ` UX,.@ @ H.UXr 6 6 6 6 1 @ @ @ @ @ @ @ 6 6 6 6 9 9 9 0 6 h 0.T.E > n K 6 ; @ @ ; ; 6 > 0 8 4.y.z.L ~ ( H 0 ' #.$. .)  .A @ @ @ @ @ @ @ O X @ @ @ @ @ @ @ @ @ @ @ @ O X X = 6 3 @ & p x L Z O ",
"8 ; 6 6 6 9 0 8 > ; 6 6 ; 6 6 6 6 ; ; ; 6 6 ; 6 6 6 6 6 ; ; @ 1 e XX@ 6 6 6 9 6 6 6 6 =.UXO @ O .XJX  6 6 6 6 6 6 6 9 O 0XO   9X  6 6 9 9 ( / 6 6   DXsXJ./.ZXHX  %.G.L.B ; 8 0 0 @ 9XO 9 ) e.B.B.} x 8 8 0 8 0 0 0 v n 8  XUX6 6 O IXsXO @ >.J.@ ; _ UX:.; ;   zXKX  @ 8 6 6 6 @ UXu.@ 6 6 6 6 6 6 6   BXCX  6 6 >.UXR.9   sXIX_._.PXUX>.@   ZXBX  v ` UXn.@ @ ,.UX`   0 9 6 6 6 1 @ @ @ @ @ @ 6 6 6 9 6 8 0 6 f i.Y.G x ) G 6 ; @ @ ; ; ; > v H s 0.b.o.~ / ~ 0 ~ ~ )  .G 6 1 6 < @ @ @ @ @ X O @ @ @ @ @ @ @ @ @ @ @ @ @ o f q.B.g.A + , > 9 3 O ",
"x 9 0 8 6 9 9 ; ; 6 6 6 ; ; 6 6 6 6 ; ; ; ; 6 6 6 6 6 ; ; @ @ 6 r XX@ 6 9 9 6 6 9 6 @ [.VX  6 6 _ PXO 6 6 6 6 6 6 6 6   0XO   9X  6 6 6 ; G O.{ =   zXJXKXKXMXy.c H $.G.L.N 8 0 8 1 0X6 %.r.w.n ; ; 8 0 0 0 0 v v 0 8 8 @ |.UX@ 6 @ H.UXUXUXIX|.O ; *.UX>.6 6 @ H.UXUX[.@ 8 6 O oXJX  6 6 6 6 6 6 6 ;   mXZX  8 6 _ UXJ.0 0   zXKXHX[.UX>.;   VXCX1 ) ` UXn.@ 9 O LXUXCX  9 6 6 6 6 6 1 @ @ @ @ @ 6 6 9 6 9 9 ; k a.Y.9 l #.G ; ; ; ; ; 6 ; = ] L d 4.V.o.n } r.G.V.o.A 6 6 6 1 1 @ @ @ @ @ @ @ @ @ @ @ @ @ @ @ > 1 4 O X @ X > g 0 4 @ @ @ ; 4 4 O ",
"H v n 0 v 8 ; ; 6 ; ; 6 6 6 6 6 6 6 6 ; ; ; 6 6 6 6 6 ; ; @ @ 1 r XX@ 6 6 6 9 9 9 9 9 O   q 6 6 @   6 6 6 6 6 9 6 6 6   0XO   9X  9 9 6 9 6 9 ^ b 9   O @ X ( E.L.M v x.G.A.] 0 ..S.dXn n 8 8 9 6 8 8 0 0 0 0 8 8 6 6 6 9 ; O 8 8 8 X @ _ r   @ 8 6 @ O 6 6 6 6 O 7 _ @ 6 6 6 6 6   0 6 6 6 6 6 6 6 6 ~ 4 @ 0 8 6 6 O 6 9 9 0       _ UX>.@ ~ 9 H #.~ 1 O ; 9 8 6   ` 7 9 6 6 6 6 6 6 6 ; @ @ @ @ @ 6 6 6 8 9 6 k L.z.6 4.k.G 6 ; 6 ; 6 6 6 > V O.8 N S.F.C.L.G.V.E G 6 6 @ 6 1 1 @ @ @ @ @ @ @ @ @ @ @ @ @ @ 1 q q < O X @ O @ X O O O # , > G 3 O ",
"0 d 6 0 8 > > 6 6 ; ; ; @ 6 6 6 6 ; ; ; ; ; 6 6 6 6 6 6 ; @ @ @ r XX@ ; 6 6 9 9 9 9 9 9 6 6 6 6 6 6 6 6 6 6 6 6 6 6 6   0XO   9X  6 9 6 6 > 6 9 0 8 0 H ( +.) F.P.a.M v l.G.A.@.+.c qXX 6 8 0 0 9 0 v 0 0 0 8 8 9 6 6 6 6 9 9 8 6 6 ; 6 6 6 9 8 8 6 1 6 9 6 6 ; 6 6 ; 6 6 ; 6 ; 6 8 8 ; ; ; 6 6 6 6 6 H H 9 6 6 6 6 6 6 6 9 7 r     [.UX_ ; 9 ..+.~ 9 6 6 8 9 9 8 9 6 9 9 6 6 6 6 6 6 6 6 6 1 ; 6 1 @ @ ; 8 9 ; N S.E > 9.h.9 ; ; 6 6 6 ; 9 ; M $.H 2.y.F.h...) L G 9 6 6 6 6 1 1 @ @ 1 1 1 @ @ @ @ @ @ 1 @ @ @ X O O X X @ O O < @ @ @ & i x K 3 O ",
"c > @ ; ; ; ; 6 ; ; ; ; @ @ 6 6 6 6 6 @ 6 6 ; ; 6 6 6 ; @ @ @ @ r .X@ ; 6 6 9 9 9 9 9 9 6 6 6 6 6 6 ; 6 6 6 6 6 6 6 6   0XO   9X  6 ; ; ; ; 6 9 9 H ~ > 8 L ) ..F.P.0.g ~ $.V.e./ X @XO 8 8 0 0 8 8 0 0 0 0 9 6 6 6 6 6 6 6 6 6 6 ; ; 6 6 6 6 0 0 6 @ @ 6 6 6 ; ; 6 6 6 6 6 6 ; ; 8 8 ; ; 6 6 6 6 6 6 9 9 6 6 6 6 6 6 6 6 @ H.UXIXPXUXmX  @ @ H H 0 6 6 9 9 0 9 9 6 6 6 6 6 6 6 6 6 6 6 6 6 6 6 0 9 1 @ ; 9 9 = 0.x.K > ] E 6 ; ; ; ; ; ; 6 6 > ) G C 8.G.g.~ ~ L G 6 1 1 1 ; 1 1 @ @ @ @ @ @ @ @ @ @ @ @ @ O O O O @ @ @ @ O @ @ @ O @ @ : 6 A 4 O ",
"f X @ @ @ @ ; ; ; 6 6 ; ; ; 6 6 6 6 6 6 1 6 1 @ 6 6 6 ; @ @ @ @ 7 @XO 9 6 6 6 6 9 9 6 9 6 6 6 6 6 6 6 6 6 6 6 6 6 6 6 @ @XO   0XO ; ; 1 ; 6 6 9 9 9 O.] = 9 L $.@.S.P.9.0 O.%.N.N.) qXX ; 6 0 0 6 9 8 8 ~ 0 9 6 6 6 6 6 6 6 6 ; ; ; 6 6 6 9 9 9 8 9 6 @ 6 6 6 ; 6 6 6 6 1 6 6 ; ; ; ; ; 6 6 6 6 6 6 6 9 6 6 6 6 6 6 6 6 9 9 @ O =.H.=.  6 1 @ 9 0 6 6 6 6 0 0 9 6 6 6 6 6 6 6 6 6 6 6 6 6 9 9 6 0 H 9 @ @ 6 @ a y.z.G > v 9 ; ; ; ; ; ; 6 6 6 6 8 9 h 6.P.z.H 0 L 0 6 1 1 @ @ 1 1 @ @ @ @ @ @ @ @ @ @ O O O O O @ @ @ @ @ @ @ @ @ @ @ @ @ ; 6 4 <   ",
"- ; @ @ @ @ ; @ ; 6 6 ; ; ; ; ; ; 6 6 6 @ 6 6 6 6 ; ; ; @ @ @ @   iX  9 9 ; 6 6 6 6 6 6 6 6 6 6 6 6 6 6 6 9 ~ ~ 6 6 9 ,.`.@ @ oX&.b ; 6 6 6 6 9 9 9 L B.c ; 9 O.B.} V.G.B ) k.l.C.@.jX9.x 6 9 9 6 6 9 8 0 0 0 9 6 6 ; ; 6 6 6 6 ; 6 6 6 6 8 8 8 8 8 9 ; 6 6 6 6 ; ; 1 @ 1 6 6 @ @ ; ; ; 6 v 8 ; @ ; 6 6 6 6 6 6 6 6 6 6 6 6 6 6 6 @ 6 6 1 @ @ 9 0 9 9 8 6 #.#.G 9 6 6 6 6 6 6 6 6 6 6 ; ; 6 9 6 6 0 9 1 @ 6 @ a A.h.9 8 H 1 ; 6 ; ; 6 ; 6 ; ; 6 6 0 8 2.a.D.E ~ H 0 9 9 1 @ @ 1 @ @ @ @ @ @ @ @ @ @ O O   O X @ @ @ @ @ @ @ @ @ @ @ O @ @ > 0 4 < y ",
"; ; ; @ 1 X ; ; ; ; 6 ; ; ; 6 ; 6 9 ; ; ; ; 6 6 6 6 6 6 9 9 ; @ @ (._.1 H v 6 6 6 6 6 6 6 6 6 6 6 6 6 6 6 0 ~ 0 6 9   kX  @ 1 2 pX  ; 6 9 9 0 0 6 6 9 ( { x 6 G k.w.) z.C.' ) %.} eXJ.l.B./ 0 ; 6 6 6 8 8 9 8 6 6 6 ; ; 6 6 6 6 6 6 6 6 6 9 8 0 0 9 6 @ @ 6 6 6 ; ; 6 @ @ 6 @ @ ; ; 6 ; 6 8 6 ; 8 ; 6 6 6 6 6 6 6 6 6 6 6 6 6 6 6 6 6 6 @ @ @ 6 9 0 9 0 9 v X.9 6 6 6 6 6 6 6 6 6 6 @ 6 6 6 6 6 6 6 9 1 @ ; ; M C.W 6 c E 1 ; 6 6 @ @ ; ; 6 6 6 8 9 9 l 8.D.Q H H 9 8 6 1 1 1 @ @ @ @ @ @ O O @ O O O O X X O @ @ @ @ O O @ @ @ @ @ O 7 m N r.Q Z & ",
"* ; ; ; ; ; 6 6 ; ; 6 6 ; ; ; 9 W @.5.x @ ; 6 6 6 6 ; 6 L / x 6 6   sX=.@ 8 6 6 6 6 9 6 6 6 6 6 6 6 6 6 6 6 6 6 6   pX;.@ @ 6 < ).|.O J H H H 0 9 9 6 8 0 ~ 9 8 H ) / H x.G.w.x R.tX/ ~ ( S.L.M ; 9 0 0 0 8 0 0 6 6 6 6 6 6 6 6 6 6 6 6 6 9 0 0 0 9 6 @ @ 6 6 6 @ ; 6 @ 6 6 ; @ ; 6 6 1 6 ; 6 ; 0 8 0 9 6 6 6 6 6 6 6 6 6 6 6 6 6 6 6 6 ; ; ; 6 0 H 9 6 6 6 6 9 9 6 6 6 6 6 1 1 6 6 6 ; 6 6 6 6 6 9 9 1 @ 1 * 4.F.R 6 x G 1 ; ; 6 ; ; 6 6 6 6 6 6 6 6 > l +.E H 9 9 6 6 1 @ @ @ @ @ < O @ O O X O O O @ O @ @ @ O O X @ @ @ @ 6 6 6 6 6 6 8 0 A < O ",
"d > * ; 6 ; ; ; @ @ ; 6 ; ; ; 6 A ~ g ; 6 ; ; 6 6 6 ; @ 1 @ @ 6 6 6   pXXX7                                     _ sX>.O @ 1 9 H @ _.hX`   O               O       O < ; 4 V.L.qX-XH %.[ v ( S.A.' 8 8 0 0 8 8 8 6 6 6 6 9 6 6 6 6 6 6 6 6 9 0 0 0 9 6 6 @ 6 6 6 ; ; ; 6 6 6 @ ; 6 6 6 @ @ ; 6 @ ; 6 ( H 9 ; 6 6 1 6 6 6 6 6 6 6 6 6 6 6 ; ; ; 6 9 9 6 6 6 6 6 6 6 6 6 6 6 6 6 1 6 6 6 6 6 6 6 6 ; 0 6 1 @ 6 = 6.T.K 6 ; 9 @ ; 6 6 6 ; 6 6 6 6 6 @ @ 6 6 d ' E G 9 1 1 6 6 @ @ @ @ @ @ O O O O O X X X @ @ @ X ; 9 9 9 1 1 < @ @ @ @ @ @ @ @ @ O O @ ",
"V x > * ; ; * ; @ @ @ @ @ ; @ @ 1 @ @ 1 ; ; ; ; ; ; ; @ @ @ @ ; 6 6 6   -.9X9X9X9X9X9X9X9X9X9X9X9X9X9X9X9X9X9X;X|.+ O 1 1 6 9 9 9 @ 7 @X0X9X9X9X9X9X9X9X9X9X0XqX0X0X0XqXtXqXtXI.g ) ..B.} 8 H ( %.S.w.d > 8 8 8 8 6 6 6 6 6 6 6 6 6 ; 6 6 9 9 8 0 9 6 ; @ ; 6 6 6 6 6 6 6 6 6 ; 6 ; 1 @ @ 6 6 6 @ 6 O.H 0 8 ; 1 1 6 6 6 6 6 6 6 6 6 6 1 @ @ ; 6 6 6 6 6 6 9 6 6 6 6 6 6 6 6 1 1 6 6 6 6 ; @ ; @ ; 9 6 1 1 6 a 0.D.G ; 9 1 @ ; ; 6 ; 6 6 6 9 9 6 6 > n 9 a 4.k.R 9 9 9 6 6 @ 1 1 @ @ @ @ O O X @ @ X @ 6 9 6 q b #.L A 4 @ O O O @ @ @ O O O @ < O O ",
"$.e.9.l = * > ; ; @ @ @ 1 ; ; @ 1 ; @ @ ; ; ; ; ; ; ; @ @ @ ; ; 6 6 6 6 ; O                                     O @ 6 6 6 6 6 6 6 6 9 @                       O @     O 0 8 ..G.y.c ..F.P.] 8 0 L F.P.L.] 8 0 0 8 6 6 6 6 0 0 8 6 6 ; 6 6 9 8 8 8 9 6 ; @ @ 6 6 6 6 6 6 6 6 6 ; 6 6 1 1 6 6 6 6 ; 9  .6 ; 8 6 @ @ 1 6 6 6 6 6 ; ; 6 6 6 1 @ 1 ; 6 6 6 6 6 6 6 6 6 6 6 6 6 6 @ @ ; 6 ; @ @ @ @ @ ; 9 6 1 1 @ a y.z.4 ; 6 1 @ ; ; ; ; 6 6 9 6 6 6 1 b w.E > 4.B.j.G 9 9 6 6 1 1 6 1 @ @ 1 O X ; 1 < @ 6 q 9 9 9 9 @ < @ @ O O O O @ @ @ @ 1 : 6 4 O O ",
"Q b.G.i.4.c > = * ; @ @ 6 8 > ; @ @ @ 1 @ ; ; ; ; ; ; @ @ @ @ ; ; 6 1 1 6 6 6 6 6 6 6 6 6 9 6 6 @ @ @ @ @ @ @ @ 1 1 6 6 6 6 6 6 6 6 6 9 9 9 9 8 9 ; @ 1 6 9 9 0 ~ ~ 9 > H ..) ..F.B./ V.G.a.n 0 0 ( V.E.P.I.] 8 8 8 8 6 9 0 0 ~ ~ 6 ; 6 6 6 8 8 8 9 6 ; ; @ 6 6 6 6 6 6 6 ; ; ; ; 6 6 ; ; ; ; ; ; 9 E 1 ; 6 6 6 6 @ ; 6 6 6 6 ; @ 6 6 @ @ @ @ ; 6 6 9 6 6 1 6 6 6 6 6 6 6 6 1 @ @ ; ; @ @ @ @ ; 6 6 9 9 1 @ g y.o.4 > 6 @ ; ; ; ; ; 6 9 9 9 6 6 6 6 ' E 1 j r.j.G 9 9 9 9 9 9 9 6 1 1 1 7 m 0 G 1 < @ @ 4 < @ @ @ X @ @ @ @ O O @ @ @ O & : 9 4 O O ",
"H L h.V.S.A.0.4.h ; > * ; 6 8 > ; @ @ @ @ @ @ @ @ ; ; @ @ ; ; ; 6 ; 6 1 6 ; ; ; 6 6 9 ; 6 6 ; ; @ @ @ @ @ @ 1 1 6 6 6 6 6 1 6 6 6 6 6 6 6 9 6 9 6 @ @ 6 9 6 6 9 0 0 0 8 8 H ) ~ o.C.w.' C.G.y.x v v ~ %.G.P.I.w.8 8 8 9 8 8 8 0 ~ 0 6 6 6 6 8 8 8 9 6 ; @ @ @ 6 ; ; 6 6 6 ; ; ; ; 6 @ ; ; 6 ; 6 ; 9 9 1 ; @ ; 6 9 6 6 6 6 6 6 1 1 6 6 1 6 6 @ ; ; 6 9 6 6 6 6 6 6 6 6 6 6 6 1 @ @ @ ; @ @ @ @ 6 8 1 6 0 A ; l C.W X 8 9 @ ; ; ; ; ; 6 6 9 9 6 6 6 1 8 ~ A > ] z.R t _ ^ ) J *.~ K t 0 E A @ @ < @ @ @ @ @ @ @ @ @ @ @ @ @ @ O @ @ @ O O @ @ 1 < < @ ",
"v x > G j.T.P.i.p.q./ N c 9 ; > ; ; ; @ @ @ @ ; 1 @ ; ; @ @ @ @ ; ; ; ; 6 6 ; @ 1 1 6 6 6 6 ; @ @ @ @ @ 1 1 1 6 6 6 6 6 6 6 6 6 6 6 6 6 6 6 6 6 ; @ @ 6 6 6 6 9 0 0 0 0 9 0 H ) ~  .G.y.' C.L.] / ' n ~ ) N.G.P.A.8 9 0 8 0 8 6 6 9 9 6 6 6 8 8 8 6 ; ; ; @ @ @ @ ; 6 6 6 6 6 6 ; 6 1 @ 1 6 ; 6 6 H 9 6 6 6 6 6 6 6 6 6 9 6 6 9 9 9 6 ^ | J 9 6 6 6 6 9 6 ; ; 6 6 6 1 6 6 6 @ @ @ ; 6 6 ; @ ; ; 9 6 6 8 4 = 4.D.Y * { K @ @ ; ; ; 6 6 6 6 6 6 6 6 1 6 / K 6 g $.o.| >.,.&.>.n.H.J.&.#.Q A < @ @ @ @ @ @ @ @ @ @ @ @ @ @ @ @ @ @ @ X @ @ O @ @ @ @ @ ",
"$.#.] n H  .D.G.a.0.} k s * 9 x > > ; @ @ @ ; ; @ @ 1 ; @ @ ; ; ; ; ; ; 6 ; 6 6 ; 1 9 G x ; @ @ @ @ 1 6 6 6 6 6 ; 6 6 6 6 6 6 6 6 6 6 6 6 6 6 6 ; @ @ 6 6 6 9 9 9 9 9 0 0 6 0 L ( H N.P.y.} F.A.n ~ @./ n ( ..C.P.A.n 8 9 8 8 6 6 9 9 9 6 9 6 9 8 6 6 ; @ @ @ 6 9 0 0 ~ 0 9 9 6 6 6 6 6 6 1 6 ; 6 ( 9 1 ; 6 6 ; 6 ; @ @ @ @ @ 1 1 6 6 6 6 6 1 ; 6 9 ~ X. .9 6 6 6 6 1 6 @ 6 9 9 9 ; 6 6 1 @ ; ; 6 6 ; 9 4 > 9.z.4 > #.K @ ; ; 6 6 1 6 6 ; 6 6 9 9 6 6 6 G 4 x [ Q b =.,.&.c.H.#.h.h.R 4 1 < 1 @ @ @ @ @ @ @ @ @ @ @ @ @ @ O @ ; ; @ 3 @ @ @ @ O O @ ",
"H ~ ( ..{ ' ( ..%.V.G.L.6.7.: > > > ; @ @ @ 6 ; * < 4 * X @ ; 6 ; ; ; ; @ ; 6 0 x ; 4 K { d X 1 6 @ 1 1 6 6 6 6 6 6 6 6 9 6 6 6 6 6 6 6 6 6 6 6 @ @ @ 6 6 6 6 9 9 9 9 9 0 8 9 9 H ~ ) F.P.y.l.G.w.8 v [ ~ 0 0 0 ..l.B.[ 0 ; ; 6 9 6 ; 6 9 9 0 8 8 6 9 0 0 6 @ 9 0 H ~ ~ H 9 6 6 @ 6 1 1 1 1 6 ; 9 ( 6 @ @ ; 6 6 6 0 9 1 @ @ @ @ @ @ 6 6 ; @ @ ; ; 6 6 H L 9 6 6 6 6 6 6 6 8 0 0 9 6 6 1 @ @ @ ; ; ; @ 9 G 8 r.h.< > ( 4 @ 6 6 6 1 @ ; ; ; 6 0 9 6 1 1 1 4 @ > B O.( _ *.| O.X.h.W 4 4 @ @ @ @ @ @ @ @ @ @ @ @ @ @ @ @ @ @ O @ @ > J A @ @ X O O @ @ ",
"O.%.%.[ n v ~ ( o.h.D.E.L.6.5.x 8 > > ; ; @ 1 ; ; 4 ( z > @ @ 1 ; ; ; ; @ 6 6 9 8 @ 1 G > ; @ 1 1 6 1 @ 6 6 6 6 6 6 1 6 6 9 6 6 6 6 6 6 1 6 6 6 @ @ @ 6 6 6 6 6 6 9 6 9 9 0 9 ; 8 H ( ..C.A.[ k.N.n > 0 0 0 v 0 8 0  .D.L.r.x ; 6 6 6 9 0 0 H H ~ 0 6 8 9 1 @ 1 1 1 6 6 6 6 6 ; ; ; 6 1 6 6 6 6 9 H ; @ @ ; 6 ; 6 9 9 6 ; ; @ @ @ @ 6 1 @ @ @ @ ; @ ; 6 9 9 6 6 6 6 6 6 6 8 0 0 9 6 6 6 1 @ ; 6 ; 6 @ 9 G c y.h.< > G < ; 6 6 6 @ ; ; ; ; 6 6 6 6 9 4 ; 6 @ - z A.O.-.M.&.b.R 9 9 1 @ < @ @ @ @ @ @ @ @ @ @ @ @ @ @ @ @ @ @ O @ ; 9 A @ O O O O @ @ ",
"k.N.w.9.b H / ~ ( ~  .O.b.G.a.0.] g = * @ @ 1 ; @ 4 9 = * @ ; 6 ; ; @ @ @ 1 @ @ @ @ @ @ 1 1 1 1 1 6 6 @ 6 6 6 1 1 6 1 1 6 6 6 6 6 6 6 1 1 6 6 ; @ @ @ 6 6 6 6 6 6 6 6 6 9 9 0 8 6 9 ( e.[  .+.( O.e.c 8 9 0 ) } n 0 0 ~ G.E.L.' > 8 8 8 0 H 0 0 0 6 6 6 ; @ @ @ @ ; ; ; ; 1 6 ; ; ; 1 @ 6 6 6 0 6 1 @ @ 6 ; ; ; ; 6 6 6 6 ; @ @ @ @ @ @ @ @ @ @ ; 1 1 @ 6 9 9 9 6 6 6 6 ; n ~ 0 9 6 ; 6 6 6 6 9 6 9 6 6 ; 5.L.h.4 x H 1 ; ; 6 6 ; @ ; ; 6 1 @ @ @ 9 6 > ; 9 @ 7.a.T.x...O.E A 1 6 6 9 1 1 1 @ @ @ @ @ @ @ @ @ @ @ @ @ @ 1 < O @ @ @ @ @ O O X O @ @ ",
"k.%.9.M v Q z.w.} | X.x.F.S.G.G.A.0.4.g - ; 6 @ @ ; @ @ @ @ 6 6 ; ; @ @ @ 1 @ @ ; ; ; @ @ @ 1 1 1 6 6 ; 6 6 6 1 6 1 1 6 6 6 ; @ 6 6 1 1 ; 6 6 ; @ 1 1 6 6 6 6 6 6 6 6 6 6 9 G ..n ; H k.r.x L ....V.y.M 8 8 0 ~ / / 8 8 ..G.E.P.w.n 8 8 8 6 8 8 8 9 6 6 ; ; @ ; ; 6 6 6 6 6 6 6 6 6 ; 1 1 ; 6 8 9 6 1 @ @ ; ; @ 6 6 6 6 6 6 6 ; @ @ @ @ @ @ @ @ 6 @ ; ; 6 6 9 9 6 6 ; 6 6 8 9 9 6 6 6 9 6 6 6 0 9 8 ~ 9 f q.E.j.8 { R 1 ; ; 9 6 ; @ @ ; 6 @ @ ; @ 6 8 1 x ) A h q.P.Y.K G 9 9 6 6 6 6 1 1 1 @ @ ; @ 1 @ @ @ @ @ @ @ @ @ @ 1 < @ @ @ @ @ @ O @ @ @ X ",
"x.N.J.u.{ +.h.D.A.u.n.+.$.l.S.L.S.G.L.6.z = * ; ; ; ; ; @ 1 6 > ; ; @ 1 6 0 v v 8 8 ; ; 6 ; 1 6 9 6 ; ; ; 6 6 ; ; 1 1 1 6 ; 1 1 1 1 6 6 1 6 ; @ @ @ 1 6 6 6 6 6 6 6 6 6 9 9 9 L #.> 9 K k.} 6  .k.l.A.y.d 0 0 8 8 / { 0 H +.C.S.G.A.} > 6 8 8 8 8 6 6 6 6 ; @ ; ; 6 6 6 6 6 ; 1 @ 1 ; @ 6 ; 6 6 0 0 6 6 ; ; @ @ @ 6 6 6 6 6 6 @ @ @ @ @ @ @ @ ; ; @ @ ; 6 6 9 6 6 6 6 6 9 6 6 6 6 6 9 8 9 6 8 0 ' [ K 4 = 9.D.R x N.K 1 ; 6 6 9 8 8 0 H 0 v H 0 9 9 e ;.9.V.Q 9 a 9.V.j.A ; 6 1 1 1 ; @ @ @ @ @ ; @ @ @ @ @ @ @ @ @ @ @ @ @ @ @ @ @ @ @ @ O @ @ @ @ ",
"$.#.` J E $.r.) ( ~ 0 H E h.x.A.r.l.C.B.r.4.l h # ; 6 6 @ @ @ @ @ @ @ 4 H / ~ n n 8 6 ; 6 @ @ 1 6 6 ; 6 6 6 6 @ @ @ 1 1 1 6 6 1 1 1 6 6 6 1 @ @ @ @ 6 ; ; ; 6 6 6 6 6 6 6 6 6 G H 8 6 9 G  .n 6  .$.N.A.9.8 0 0 8 9 9 0 0 H ( +.l.S.P.r.8 6 8 8 8 6 6 6 6 6 @ @ ; 6 6 6 6 6 ; @ @ @ @ @ ; 6 6 6 6 9 6 1 6 @ @ @ ; ; 6 ; 6 6 @ @ @ @ @ @ @ @ @ ; @ @ @ @ 6 6 6 6 6 6 6 9 9 6 6 6 9 9 6 ; 6 0 9 0 v O.K @ = r.v.A x ..4 @ 8 v v ~ ~ ~ ~ H H ~  .L G 0 q t [ $.Q F @ d [ x.h.A 1 1 1 1 6 @ 1 @ 1 1 ; @ @ 1 1 @ @ @ @ @ @ @ @ @ @ @ @ @ @ @ @ @ @ @ @ @ ",
"1 @ * 1 3 4 H ~ v n 0 8 0 L o.l.y.0./ ..z.G.a.5.h * * X @ @ @ ; @ @ @ 9 H ~ v 0 8 6 6 ; 6 @ @ 1 1 @ @ 1 6 6 1 1 1 1 @ @ 1 6 ; 1 1 1 1 @ ; @ @ O O @ @ ; @ @ ; ; 6 6 6 ; @ 6 ; 6 4 9 0 ; 6 6 0 9 9 ( $.S.A.V 8 0 v 0 6 9 0 0 0 ( +.+.C.G.A.c ; 9 8 ; ; 6 6 ; @ ; ; ; 6 6 ; 6 1 6 1 1 @ @ 6 0 6 ; 6 6 1 1 @ @ @ @ @ ; ; 6 6 6 @ @ @ @ @ @ @ @ @ ; ; @ @ @ ; 6 6 6 6 6 6 8 8 8 9 9 9 9 8 8 6 6 ; n ~ n n c 9.L.v.9 0 0 6 : v / ) ......) Z.O.L H H 9 6 1 4 4 8 G A ; l b ) #.$.K 1 @ 6 > 0 4 1 @ @ @ 1 1 @ 1 @ @ @ @ @ @ @ @ @ @ @ @ @ @ @ O @ @ @ O @ ",
"; ; 6 @ @ @ 1 L  .) M x 0 L j.D.a.3.N 9 E o.z.V.y.6.k = X @ ; ; ; ; 6 6 9 9 9 9 6 ; ; 6 @ @ @ @ 1 @ @ 1 9 6 ; 1 @ 1 1 ; X o @ 6 1 6 1 6 ; 6 ( | ;.r 8 ; 6 6 6 6 6 6 9 J q 6 9 6 9 6 H ~ 8 6 1 H 8 9 $.C.G.L.V v v 0 8 9 9 0 0 v 0 ) +.+.N.G.} x ; > ; 6 6 6 @ @ 6 6 6 6 6 6 6 1 6 1 @ 6 H 9 6 ; ; 6 @ @ ; @ @ @ @ @ ; 6 6 6 ; ; @ @ @ @ @ @ @ ; 6 @ 6 6 6 6 ; 6 8 8 8 8 8 8 8 8 8 > > d x x 4.y.P.P.P.S.S.G.z.H v H H v / ..+.+.O...( )  .L H 0 9 9 6 6 1 > n 9 < d ~ J V A.D.O.^ H 0 ^ R 4 @ @ @ @ @ 1 1 @ @ @ @ @ @ @ @ @ @ @ @ @ @ O O @ @ @ @ @ ",
"6 > @ @ 1 1 0 ~ ( ~ ~ v v H L j.V.0.2.g 6 G K g.D.G.a.0.z - ; ; ; @ @ @ X @ @ @ ; ; ; 6 6 ; ; 1 1 9 8 6 9 6 ; 6 6 9 G ..H.1.w @ 6 6 6 6 9 G x.Z.>.( n 6 6 6 6 6 6 0 ( ^ 0 9 9 0 9 9 0 ( ^ ; 6 G +./ ..l.F.P.y.c v 8 8 9 8 8 9 9 0 0 0 ( ) ..C.I.0.> ; 6 9 6 ; ; ; 6 6 6 6 6 6 6 9 6 9 0 9 6 6 ; ; ; 6 @ ; ; @ @ @ @ ; 6 6 6 ; ; ; ; ; ; ; ; ; 6 6 6 6 ; ; 6 8 0 0 8 8 0 8 > 8 x B 9.y.a.L.L.L.P.P.G.F.h.[ %.k.( { +.+.$....... .) ( H L H ~ H 0 0 0 9 6 1 - N  .A @ > 8 B e.V.x.O.K 4 1 4 @ ; 1 1 @ @ @ @ @ @ @ @ @ @ @ 1 1 @ ; 6 6 < @ O @ @ < @ @ ",
"0 > @ @ 1 4 H 0 0 0 H H H ~ ~ o.x.S.0.4.n x 9 L  .o.b.A.6.z x > > 8 8 ^ *.*.C e 6 9 6 6 6 9 6 9 K #.{ ; 9 9 9 9 0 9 G o. .8 @ ; 6 1 1 1 6 H G 9 9 9 ; ; @ ; ; 6 6 6 6 6 6 6 6 6 6 6 6 9 ~ v ; 4  .B.[ 0 V.G.G.0.x 0 0 9 0 v 0 8 9 8 n v v +.$.G.E.y.> 6 8 6 6 6 6 6 8 8 9 6 6 6 6 9 H 6 6 @ @ @ @ @ 6 ; ; ; @ @ @ ; 6 9 6 6 6 ; ; 6 6 6 ; ; ; 6 6 6 6 ; ; 8 8 8 0 8 d M 9.9.9.A.L.L.P.G.C.N.N.F.V.x...~ / e.V.( ) +.[  .) ) ) ) ( ~ ~ H H H H H 0 9 6 9 1 @ > #.g.3 = n +.o.( @.k.G 4 6 6 ; ; 1 1 1 @ @ @ 1 @ 1 @ @ 1 0 ~ 9 < @ @ 4 4 @ @ O @ @ @ @ ",
"9 > ; @ 4 K n b q 9 0 H ( ) ~ Q k.l.@.[ ' N v 9 0 H W b.y.V v ( ..X.$.c.&.| m 6 1 6 ; 6 1 6 ; 1 G 0 > ; 1 6 6 6 1 1 6 9 1 @ @ @ @ 1 1 @ 6 6 9 8 6 6 6 6 6 6 6 6 6 6 6 6 6 6 6 6 6 ; 6 9 9 +.} * 9 k.A.' ..T.G.P.9.> 0 8 8 H ~ 8 6 6 0 { v 0 ) @.B.e.[ 8 ; ; 6 @ 6 9 8 8 ; 6 6 6 9 9 6 @ @ @ @ @ @ @ 6 6 ; ; 6 6 ; 6 6 ; ; 9 6 ; ; ; ; 6 6 6 ; ; ; 6 6 6 8 > d V r.y.y.L.P.P.N.B.N.$.) ~ ~ H ~ ) ....G 8 ~ ' F.o.0 ~ ~ 0 ~ ( ) ) ( ~ ( H H H H 0 0 9 6 1 1 @ 6 x K A > N  .L H n } N.H 9 6 9 9 6 1 1 1 @ @ 1 @ @ @ @ @ 6 8 6 @ @ @ @ @ @ @ X ; 1 @ @ ",
"6 ; @ < A L / ` r 6 9 G  .) ~  .O.N.N.r.V x 9 9 9 0 G j.e.M 9 9 0 H @ : @   ; @ O O :._   6 O @ O @ O 6 O O O 6 @ # + O @ : O # O # @ @ ; 1 @ O 6 X # 6 @ O @ @ @ 7   9 6 O 6 ;   :.r O 0 H N.B 6 G ..} 0 k.G.G.L.N 8 0 0 0 0 v 8 6 6 6 9 ~ ~ / w.~ L $.[ > * @ ; 6 8 8 ; ; 6 H 0 1 @ @ @ @ @ @ @ 6 9 9 6 ; 6 6 ; 6 6 ; ; 8 6 ; ; @ ; ; 6 6 ; > = = > v n ' r.L.P.P.N.B.F.k.) ~ 0 9 8 8 8 ; 8 0 0 9 X l #.8 r.l.L 9 8 0 0 ~ ) ) ( ( ( ( H H H H 0 9 1 1 @ @ * b K A 8 n G 3 ; v c y.S.E 4 6 9 6 6 6 1 1 6 6 1 1 @ @ @ @ @ @ @ @ @ @ O @ @ ; 6 4 @ @ ",
"@ @ @ 4 G L ~ 8 9 0 8 H H H ~ )  .k.x.A.6.c 8 8 H H v ~ ..M d 8 ;   IXIXUXNX  @ =.UXDXKXGX  hXIXIXIXHX  >.UXmX  .XIXIXIXIX  FXIXIXIXO @ @ O |.AX  t UX  (.UXPXUX9X`.VX    SX_.@ IXGXIX@XO 9 G ^ 8 9 9 L ) ~ k.T.P.L.x 9 0 8 8 0 H 6 ; 6 ; 8 ) ~ ) [ 0 9 l.Z.[ ; ; ; 6 6 ; 6 0 0 6 6 @ @ @ ; ; ; 6 6 0 9 6 ; ; ; 6 6 6 9 8 8 8 ; ; 6 ; ; ; ; d 4.y.L.r.[ ) ~ ~ @.e.+.) ..H 9 6 6 ; ; 9 9 6 8 9 6 1 @ - 5.k.9 M G.h.G 9 0 0 ~ ( ) ) ( ( ( H H H H H 9 1 @ @ @ X d X.4 @ 8 n 3 @ b ] w.B.x.R 4 @ 6 6 6 1 6 6 6 1 1 1 @ @ @ ; ; @ @ @ @ @ X O ; @ 4 < O ",
"X @ @ 4 0 G 0 0 H H H H H H ~ ( ~ ) O.h.] n n x 0 R O.r.@.' M x >   UXO   SX[.  AX(.    SX).    IX#     sXsXUX      FX>.    PXr     1 @ @   [.AX  AX`.  ).AX    O O UX+ @ UX  lXpX    O 9 6 9 4 0 8 9 9 H ) H h.T.P.] 8 0 0 8 9 0 0 8 6 9 6 9 0 8 0 0 ^ ..$.V.%.v ; > 8 9 0 6 6 @ ; @ @ ; 6 6 6 ; 6 ~ H 6 ; ; ; 8 8 6 8 8 x > > > x n } ' / ' r.A.F...9 < @ @ 9 H G 9 9 6 6 6 6 6 6 ; ; 8 0 1 ; @ X f p.h.9 c A.D.K 9 0 0 0 ~ ( ) ( L H H H H H H G 4 1 @ @ @ @ 6 4 O = 9.E 3 * 8 ~ ( +.h.K 1 6 6 6 1 1 1 1 1 1 < @ @ @ ; 6 @ @ @ @ @   y - 8 3 < O ",
"@ @ 4 9 8 9 9 0 G H 0 0 0 H ~ ~ ~ ~ L  .) [ / ~ n v E h.F.A.0.2.=   UX7   kXaX  JXu.x   mX|.O   IXe @   HXr IX_ @   HXH.O   PX*.O O @ @ @ O [.VX_ UX  @ ).SX  O @   VX).|.xX  xX[.  @ 6 6 ; ; 6 9 9 6 6 9 L ( H b.G.w.> 0 0 0 9 6 0 H 8 8 8 0 8 8 6 9 H +...L O.B.w.] n 8 9 6 6 ; ; ; ; ; ; ; 6 6 ; 9 0 6 6 ; 6 6 ; ; > N 0.y.L.A.e.%.%.) 0 0 0 0 6 1 9 1 @ ; 6 9 1 @ 6 6 6 ; 6 9 ; ; ; 8 6 @ @ = { H ~ )  .H w.F.E 9 0 0 0 ~ ( ( ( L H H H H H H 9 4 < @ @ @ X 1 @ O X c  .Z O X 1 0 0 ( ..G 4 6 1 1 @ @ @ @ 1 < @ @ @ @ @ 1 O @ O X $ u C / F 3 O ",
"@ < 9 9 9 9 9 8 0 0 0 9 9 0 H H ~ H H ( L ..@.[ +.V x G g.D.L.3.7.  UXO   CX.X  KXH.v X vXXXO   IXr @   UXO mX.XO   HXH.O   KX@X|.`.O @ @ O [.zXSXH.O O (.KX`.+Xq @ ,.zXBX=.O .XIX|.,.  9 6 6 6 6 9 9 6 6 6 0 ~ L z.B./ 6 x 8 9 6 6 H 0 9 8 0 8 8 6 8 ~ ( ( ~ 9 ) A.P.A.t./ v x > ; ; ; ; ; 6 6 ; 9 6 ; ; > > > x x c 9.L.E.P.G.%.~ 0 v ~ 0 8 v 8 6 6 9 6 @ ; 6 9 6 ; ; 6 1 @ @ ; ; 8 9 @ @ X ; b ..G 1 0 A ; 4.G.o.9 0 0 0 ~ ( ) ( ( H H H H H H 9 4 < @ @ @ @ @ < @ O X 8 A O X X ; 9 9 v ( K 4 1 @ 1 @ @ @ @ @ @ @ @ @ @ @ @ X O X + p h [ f.3 O ",
"@ 1 9 6 6 9 9 9 9 9 0 0 9 6 9 0 0 0 H H L o.%.w.@.] l > G j.T.8.2.  IXIXPXCX    KXJ.n X vX+X    IXe @ -.HX  (.CX    HXH.O   HXlXhX9X  @ @ O [.xXKX*.@ O H.IXaXzXr @   LXGX  6   _.lXUXsX  6 6 6 6 9 9 9 6 6 6 H H 9 h.B.n 8 0 8 0 9 8 0 8 8 8 0 x 8 9 8 v [ ) 8 0 +.P.E.G.} @.Z.#./ v 8 8 9 6 ; ; * x 9.0.9.] r.} / n ~ %.N.+.~ 9 6 8 0 0 9 6 8 0 9 6 1 ; @ @ ; 6 @ @ @ @ @ @ * > 6 6 6 1 @ @ ; 6 9 9 6 9 1 * k S.h.9 0 0 0 ~ ( ) ( ( H H H H H H G 9 < @ @ @ @ @ @ @ O X > 9 3 O   X @ 6 6 x ' H 4 @ @ 1 @ @ @ 1 1 @ @ @ ; x x b 0 < @ # > ~ F 3 O ",
"4 9 0 > > 6 6 6 6 6 6 9 9 6 6 9 9 8 > 9 9 K $.0.] ( V c 0 E h.r.2.X UX7 sXsX    JXJ.M X bX XX   IXe   XXUXHXLXKX    HXH.O   PXt     @ @ @ O [.NX=.KX  @ ).SX    @ @   kXpX  ; ; O   w IX  ; ; 6 6 9 9 9 9 6 9 8 L n 4 h.A.] 8 9 9 8 8 0 8 6 0 0 8 8 6 6 8 H X.{ 0 0 @.C.V.$.( G 9 9 6 6 ; x n / ~ n A.P.P.N.( 0 9 6 1 6 8 0 8 ; ; 6 9 9 @ ; 8 n 8 ; @ @ : q ; 6 9 @ @ @ @ X @ 8 ~ 4 @ @ @ ; ; @ ; n 0 9 9 1 X g B.j.H 0 0 0 H ~ ) ) ( ( H H H H H G 9 1 @ @ @ @ @ @ O @ X X 1 < X @ @ X @ 6 d 4.a.l.A @ ; 1 @ @ 1 1 @ @ @ 8 v 0 ( G 3 < X @ ; 6 1 @ ",
"A ~ ' b *.8 v 8 8 6 6 6 6 6 ; 9 G 0 d ; 6 G o.r.9.+.@.9.B ~ Q x.0.a UX7 + UXO   HXJ.=   BX[.*   IXe   AX`.e # UX7   HXH.O   PXt     X @ @   [.AX  KX,.  ).AX      6   hXiX  6     O t IX  ; 6 6 6 6 9 9 9 9 8 8 9 B.4.9 b.L.9.; ; 6 9 > > ; > 8 > > ; > > > > ~ [ B V 9.' } w.V d > 8 x ' r.A.r.} [ [ $...9 9 8 8 8 6 8 0 0 0 8 6 6 6 8 v 8 x 9.@.~ 6 ; O *.q 6 0 6 @ @ 6 6 6 9 1 @ @ @ @ ; 6 6 9 9 9 6 6 1 < = #.j.H 0 0 0 0 ~ ( ( ( ( H H H H H H 9 1 @ @ @ @ @ @ @ @ O O @ @ X 1 @ X @ @ x 4.y.G.j.A @ ; ; 1 1 1 < @ @ @ @ @ @ @ < @ X @ 6 9 6 1 ",
"G  .[ | *.6 0 8 8 8 8 6 6 6 ; 6 9 9 8 ; 1 9 Q h.e.r.N.9.V n E b.a.j UXw   AXpX  ).UXhXvXUXO 9   UXt   UXw @   DX+X  PX).O   IXGXDXJX_ X @   XXGX  >.UX  _.UXCXHXlX    xXsX  O iXDXsXIXXXX 6 6 6 6 ; 6 9 9 H ~ x 8 ~ r./ ..P.A.] 9.] 9.y.y.9.9.y.0.9.r.y.y.y.0.} w.A.L.P.P.P.P.P.P.A.r.@.+.@.@.e.e.) H H 0 9 9 9 9 6 6 6 6 8 8 8 9 6 6 6 8 6 ; 8 v 6 < @ @ O r 6 6 @ @ @ ; 6 @ ; ; > ; ; ; ; 6 9 9 6 9 6 ; 9 @ * V ..H 0 0 0 0 H ( ( ( ( H H H H H 0 9 6 @ @ @ @ @ @ @ @ O   o q 9 O O @ @ @ X x [ +.O.K 4 ; 6 6 1 1 1 1 @ @ @ @ @ @ @ O , = 8 G 4 4 ",
"~ L ~ 8 ; 6 6 9 8 8 8 9 8 8 ; ; 6 9 9 9 6 9 0 L  .O.F.y.4.M ~ v.G.6.d., 6 6 ` @ O _ [.'.o @ 9 9 =.x X *.  @ @ 7 r @ _ : @ @ r =.=.;.@ @ 9 9 q ` v X ;.q 9 =.;.>.| ; 6 r q 6 6 @ ,.[.:.  8 6 6 6 6 ; ; 6 6 8 ~ ' } } @.@.%.G.G.A.P.A.G.E.P.P.S.P.G.B.C.G.G.S.C.[ [ N.G.G.G.E.G.G.l.O. .H 9 9 9 9 9 6 6 ; ; 6 @ @ @ ; @ @ ; ; ; ; ; ; ; ; 8 8 8 8 6 6 ; ; ; @ e M.6 @ @ @ ; @ @ * > x 0 6 6 6 6 6 6 ; 0 9 6 0 @ * 4.B.L 0 0 0 0 0 ~ ~ ( ( ( H H H H 9 9 6 1 @ @ @ @ @ @ @ @ O o q H 3 O O @ @ X @ 8 0 v ( K 4 6 6 1 @ 1 1 @ @ O O @ @ @ O y h x F 4 < ",
"0 0 9 ; ; ; 6 6 6 6 6 6 6 8 > ; 6 6 9 6 6 6 G ~ ~ E z.S.0.4.n x.T.a.2.h : ; > ; @ ; 6 8 8 ; ; 9 H ' d ; @ @ @ @ X @ @ @ @ @ @ @ @ X @ 1 1 1 1 @ @ @ @ @ @ @ 1 0 ; @ @ @ @ @ ; @ @ O @ @ X X 8 ; > 8 0 ~ { #.+.C.P.A.+.(  .( ( ( ) ) ..%.l...( ( ) 0 0 0 H 0 9 9 H 0 H ( ) ( H 6 1 1 6 1 @ @ @ @ @ @ @ @ @ @ @ @ 6 q > ; ; 8 ; ; @ @ @ 6 6 6 9 9 6 6 6 6 9 6 X M.J.4 X ; 1 1 @ @ ; n H 9 9 8 8 8 6 8 v 0 9 n 9 * 3.L.h.H 0 0 0 0 H ~ ( ( ~ H H H H 0 9 6 1 @ @ @ @ @ @ @ @ O O @ @ 3 O O X @ @ @ > 8 9 0 ~ G 4 3 < @ 6 6 1 @ < @ @ @ @ + y h / W G 9 ",
"6 9 8 8 ; ; ; ; 1 1 ; ; ; 6 6 ; ; 6 1 1 6 6 9 0 0 0 K j.@.} x.A.B.l.9.N m 1 8 b q x 9 v d ; 6 6 9 9 n x 6 6 ; @ X X @ @ @ @ O @ 8 8 @ @ @ @ @ @ @ @ @ @ ; ; 6 6 @ @ X @ @ @ @ X X * * x ] r.w.' / ~ ( ~ ~ ( ( L D.B.8 1 9 0 0 6 6 ; ; 8 0 6 6 6 ; ; ; ; ; ; @ 1 9 9 9 6 6 9 6 6 @ @ @ O @ @ @ @ O X @ @ @ @ @ @ @ 8 n ~ 8 6 ; @ @ @ @ @ @ @ @ @ @ @ @ @ @ @ @ X J.o.@ @ @ @ @ @ 6 8 9 6 6 6 9 9 6 8 v H 0 n ( @ j L.h.H 0 9 9 0 0 ~ ( ( ~ H H H H 9 9 1 1 @ @ @ @ @ @ @ X @ O X @ O O O X X @ @ X c ~ G 9 ~ L 4 O @ @ ; 6 4 < @ @ @ @ + y - v F 4 4 ",
"1 6 ; 6 8 8 6 ; ; @ ; @ 6 ; ; @ @ 1 6 1 6 6 9 0 0 8 8 K Q x.T.a.p.#.V.4.f 4 H 0 / M 6 0 x ; 1 ; 1 1 0 x 8 9 9 * @ O X O @ X @ 9 v ; X X @ @ @ @ @ @ @ @ 1 6 ; X X * = > > 8 x b ' / ^ +.%.@.n 6 @ 1 1 9 9 1 1 4 G h.( ; 9 9 H 9 6 6 ; ; ; @ ; ; 6 6 6 6 6 ; ; @ @ 6 8 8 6 6 6 8 0 @   O O @ @ X O O X @ @ X @ X @ 6 0 0 1 6 @ @ X X X X @ @ @ @ @ @ @ @ @ @ @ ; 0 c.G @ @ @ @ @ @ 1 1 6 @ 1 6 6 ; 8 0 9 9 x #.G = 9.h.G 9 9 9 9 0 ~ ( ~ ~ H H H 0 9 9 1 @ @ @ @ @ @ @ @ @ @ O X ; @ O O O X X @ @ @ 6 G G 8 ~ L 4 @ @ ; 9 A < @ @ @ @ O & a ~ I > 6 ",
"6 6 ; 1 6 6 6 ; ; > 6 6 6 8 > @ 1 @ ; 6 9 H ] M > ; 0 0 Q z.F.G.0.e.F.6.z 7 4 9 ' g @ 9 > 6 @ ; 1 6 1 9 6 6 1 @ @ @ X X @ 1 8 6 @ X X @ @ @ X X @ @ @ X ; > > 8 } Z.y.9.n ~ H 0 9 1 @ < 4 @ @ @ @ 1 6 9 1 @ @ ; ; 9 G 6 ; 6 1 6 1 6 8 6 ; @ 6 6 0 0 6 9 9 6 6 6 6 6 0 0 0 8 6 9 0 X.@   O O @ @ @ @ @ @ @ @ @ @ @ @ @ @ @ ; @ @ @ @ @ @ @ @ @ @ @ @ @ @ @ @ X > 8 ^  .4 X @ @ 6 @ 1 6 ; ; ; ; 6 ; 8 0 9 6 ; { K X M k.K 9 9 9 9 9 0 ~ ~ H H H H 9 9 9 < @ @ @ @ @ @ O O @ @ @ X 6 6 < O O O O @ @ O O @ 1 4 6 / L 4 @ @ 1 4 < @ @ @ @ O 2 h n Q #.) ",
"@ @ @ @ @ @ 6 9 8 ; 6 1 6 8 ; @ 1 @ ; 1 G g.N.4.k m 6 9 H  .) ..h.D.G.y.2.f @ 9 x > @ 6 > ; ; @ 1 @ 6 6 6 6 6 1 @ @ @ @ 6 6 @ O @ X X X X X ; ; 0 v n { { { ~ ( ..) H 1 @ O X X X @ @ @ 9 x > 6 @ 6 @ @ @ @ ; 9 0 9 9 9 9 ; @ 1 9 6 0 0 8 6 6 6 6 1 1 6 6 6 6 9 8 0 0 0 9 0 9 9 9 9 9 X X X @ @ 1 6 6 6 @ @ 6 8 ; @ @ 6 6 @ @ @ @ @ @ @ @ @ @ @ @ @ @ @ @ @ @ > / 9 H 4 X ; 1 6 ; 1 @ 6 ; ; ; 6 ; 0 9 6 6 6 v K @ s e. .9 6 9 6 6 0 ~ ~ L H H H 9 9 1 1 @ @ @ @ @ @ @ O X @ @ @ ; 8 4 O O O O X ; @ @ O @ 6 6 6 ~ L 4 < @ < < @ ; < O O O & c l.E F ",
"@ @ @ @ @ @ 1 9 9 6 @ 1 @ @ @ @ @ @ @ 1 4 Y Q } N d ; 1 G  .] n R g.b.G.6.k 7 6 8 ; 1 9 n > @ @ 1 @ 6 ; 6 6 6 ; @ @ 8 0 9 @ X O @ @ 6 ^ { { / / v 0 0 9 6 @ O O O @ @ @ @ ; 1 9 0 9 6 6 H K.n @ ; @ @ @ @ ; 6 9 9 9 6 6 6 6 @ 1 1 9 H H 0 9 6 6 6 @ @ @ @ @ @ @ 6 9 0 0 6 6 6 6 1 1 @ ; @ X X @ @ @ 6 9 9 6 9 6 @ @ 6 8 9 6 9 9 @ @ @ @ 1 @ @ @ ; @ @ @ @ @ 1 ; 0 9 O 4 @ ; 6 1 6 @ 6 6 6 6 6 6 6 0 9 6 6 1 6 G @ a y.k.9 6 9 6 6 8 ~ H ( L H H H 9 1 @ @ @ @ @ @ @ @ X O @ @ @ @ ; 1 O O O O   * 9 1 1 O @ 9 G v /  .3 O X 1 9 9 4 4 < O O X @ Z < ",
"@ @ @ @ @ @ @ 1 1 @ @ @ @ @ @ @ @ X @ 1 @ 4 G G 0 0 x > 9 W O.] x 9 R j.r.l > ; ; * @ G n = @ 1 1 @ ; 6 6 6 6 6 6 0 ~ 8 @ 9 6 @ @ 1 0 ~ 0 9 6 @ O @ 1 1 @ @ @ @ ; ; ; @ @ 1 9 9 9 6 @ 1 9 9 @ @ @ @ @ @ 6 6 6 6 6 6 6 6 6 ; @ @ @ 6 9 0 0 9 9 8 6 ; ; @ @ @ @ @ 1 9 0 0 8 9 6 6 6 ; 6 ; 6 @ @ X @ @ ; 8 0 9 6 @ @ ; 9 9 9 9 9 0 6 @ @ @ @ @ ; ; ; @ @ @ @ @ @ @ 1 < @ @ 1 6 ; @ 1 @ ; 6 6 6 6 6 6 0 9 9 6 6 6 9 1 f 0.C.G 6 6 6 6 9 0 ~ ~ L H H H 9 1 @ @ @ @ @ @ @ @ @ @ @ @ @ @ @ @ O @ O O   o ; 9 1 @ O O 6 0 / @.$.G 6 8 G 4 < @ @ X X X X O   ",
"@ @ @ @ @ @ @ @ @ @ @ @ 1 1 6 6 6 ; ; @ @ 6 6 6 1 A 9 8 6 G E +.' x 9 R O.V g d > ; 1 9 n d ; @ ; ; @ 1 6 6 6 6 0 8 ; @ @ 6 6 6 @ @ @ @ @ 9 8 ; 6 8 9 ; @ @ 1 6 6 6 6 1 1 6 1 1 1 ; ; @ 1 @ @ X @ @ ; 6 6 6 6 6 6 ; ; 6 ; ; @ @ ; 6 8 0 8 6 8 8 8 8 6 ; ; ; ; @ @ ; 8 0 6 6 9 9 6 1 6 @ ; ; @ @ X ; 8 0 6 6 9 0 6 1 6 6 6 6 6 6 @ 1 @ 1 @ @ ; ; 6 @ @ @ @ @ 1 @ @ @ @ ; 6 6 ; 6 1 ; ; ; 6 6 6 6 6 9 6 9 9 9 6 6 6 f 6.P.o.9 8 9 8 8 0 ~ ( L H H H 9 1 @ @ @ @ @ @ @ @ @ @ @ @ O O @ @ @ O O O     - 8 G 4 < X O 1 d V w.l.R 9 G 4 @ @ ; ; 8 v 0 @ w ",
"@ @ @ @ @ @ ; @ @ @ @ @ 1 1 6 0 8 6 ; 6 6 ; ; 1 1 @ 1 6 ; 6 G L ~ 0 9 K z.w.B n x = 1 4 v > @ 1 1 ; @ 1 @ ; @ 6 6 ; > 6 ; ; 6 @ 6 9 9 6 6 8 8 ; 6 6 @ @ @ @ 1 6 @ @ ; 1 1 1 @ @ @ ; @ @ @ O @ @ @ 6 6 6 6 6 6 6 6 6 6 9 6 ; 6 6 v ' ' ) ~ ~ ~ 0 8 8 8 6 6 9 9 6 ; @ ; ; ; 6 6 6 9 6 6 6 @ ; ; @ X @ 6 6 1 1 1 ~ ^ 6 @ @ @ ; @ ; ; ; @ 1 @ @ ; ; ; @ @ @ @ @ @ @ ; @ @ 8 6 6 ; 6 6 6 ; ; 6 6 6 6 6 6 6 6 6 6 6 6 9 * 5.P.v.9 8 9 8 8 0 ~ ( L H H H 9 1 @ @ @ @ @ @ @ @ @ @ @ O O O O @ @ @ O         - H K 4 < O @ a 9.w.l.j.W G 9 1 @ @ @ @ 9 6 @ e ",
"@ @ @ 1 6 6 6 @ @ @ @ @ 1 1 6 6 6 1 1 9 8 ; ; @ @ @ ; 1 1 1 9 H ~ 0 0 E j.N.] B 8 > > 1 9 > @ @ @ @ @ ; ; 6 9 6 ; 9 ~ b ; 1 @ @ @ 9 9 6 6 1 @ @ @ @ @ @ @ @ 1 6 @ @ @ @ 1 6 ; 8 ; ; @ X @ @ @ 6 6 6 6 6 6 6 6 9 9 9 0 H 0 6 6 9 9 H 0 0 9 H ( 9 9 9 9 6 9 6 @ 1 1 9 q ; ; ; @ 6 6 6 6 6 6 @ @ @ @ @ @ 1 1 @ @ 6 0 9 1 1 @ ; @ @ ; @ ; 1 @ @ @ @ ; @ @ @ @ @ @ @ ; 1 ; 6 6 6 @ @ 1 1 ; 6 6 6 6 6 6 6 6 6 6 6 ; 6 9 ; 2.L.b.9 9 9 6 8 8 ~ ( ( H H H 9 1 @ ; @ * @ @ @ @ @ @ @ @ @ @ @ @ 1 @ X O O     . : H G < @ ; 8 v ) ..$.O.F 4 6 6 @ @ @ @ < O + ",
"@ @ 1 1 9 6 ; @ @ @ @ @ @ @ @ @ @ < 1 9 6 ; ; ; @ @ 1 ; @ 6 9 H ( n v v 3 R U.U.H.H.u.u.,.u.,.,.,.,.H.J.H.H.H.=.  < 4 0 8 ; X X @ 6 @ O =.n.,.,.,.,.,.,.,.,.,.,.,.,.,.,.u.>.6 8 8 1 6 6 ; 6 9 6 6 6 6 6 6 6 6 6 6 6 6 H 0 @ @ @ @ 1 6 6 6 9 0 8 6 9 6 6 6 6 6 @ @ 6 9 ; 0 b 8 ; 1 6 6 6 6 6 6 6 @ @ @ @ @ @ @ 1 1 6 6 6 6 6 6 6 6 9 9 6 6 @ ; ; @ @ @ @ @ @ @ ; ; 9 6 6 9 1 @ @ 1 @ @ @ 6 6 6 6 6 6 1 ; 6 6 ; 6 6 6 j 0.D.G 9 9 6 8 8 H ~ ( H H 9 4 < @ @ @ 8 ^ 4 @ @ @ @ @ @ @ @ @ @ @ < @ @ < O     o q ( H 6 1 1 1 6 0 ) +.h.K @ 6 9 1 @ @ < 4 @ ",
"@ @ @ @ 1 @ @ @ @ @ @ @ @ @ @ @ @ @ 1 6 1 1 6 ; ; 6 1 ; 6 9 0 H H ( v > pX<X,X=X'.'.'.'.{.'.'._._._.{.{._._.).[.pX[.  9 ~ x * X 1   .XiX`.)._._._._._.)._.)._._._._._._._.].qXpXO @ @ @ 6 6 6 6 9 9 6 6 ; 6 6 6 6 6 6 6 0 @ X @ @ 6 6 6 6 6 9 9 9 9 6 6 6 6 6 ; ; 6 6 @ 6 / / v 8 ; @ 1 6 6 6 6 6 ; @ X @ 6 ; 6 1 1 @ 1 6 6 1 6 9 9 9 6 9 6 6 6 @ @ @ @ @ @ ; 6 8 0 9 9 9 6 @ 1 1 1 1 1 6 6 6 6 6 6 6 6 6 ; ; ; 6 9 s 6.G.o.9 6 8 0 0 0 ~ ~ H H G 1 @ @ @ @ @ 9 9 < @ @ @ @ @ @ @ @ X @ @ @ 1 < O     X - x  .R 4 ; 1 @ ; 0 ) @.B...4 3 < 1 < 1 < @ ",
"1 > > ; @ @ @ @ @ @ @ @ @ @ @ @ @ @ ; ; @ @ 6 9 9 ; 6 9 8 8 0 0 H L &.zX7 A b.a.3.M 8 ~ ( [ c ~ b 8 H n c x > X   u.hX  ; x a =   lX*.  O @ @ @ @ @ @ @ ; 8 8 8 ; 1 1 1 @ < O =.zX: ; @ ; ; 6 6 9 6 ; ; ; ; ; ; 6 6 6 6 9 @ X X @ 6 6 6 6 6 6 9 9 9 9 6 6 6 6 6 6 6 6 ; @ @ @ 6 8 6 ; ; ; @ @ 6 1 @ @ X X 6 6 6 1 @ @ 1 1 6 6 6 6 1 1 1 1 1 @ ; @ @ @ @ @ @ @ ; 6 6 6 1 1 6 @ 1 @ 1 @ @ 1 1 6 6 6 6 1 ; ; 6 6 @ ; 8 > 2.I.z.G 8 8 9 0 0 H ~ ~ H G 4 @ @ @ @ @ @ @ @ @ X @ @ @ @ @ @ @ @ @ @ < @ @ * a x 7 r ~  .H 8 6 1 w ; 0 V 0.S.h.G ; ; @ X O X ",
"A 0 f > X @ @ @ @ @ @ @ @ @ @ @ 1 6 ; ; @ @ 6 6 6 ; 9 0 9 6 8 0 ~ 9 bXd 9.O.b.G.6.2.v v H 0 6 6 ; 9 ~ ~ ~ 8 6 9 8 8 :.qXs 0 ' = hX: @ ; ; > > > 8 8 9 9 6 8 9 6 6 ; @ @ @ 4 X.~   kX  6 ; 6 6 6 @ ; 6 @ 1 6 6 6 6 6 6 1 6 @ X @ @ 6 6 6 6 6 6 9 9 9 6 9 6 6 6 6 6 6 6 6 6 @ @ @ @ @ ; 8 x > > @ @ 1 @ @ X ; 9 6 1 1 6 6 6 6 6 6 6 1 @ @ @ @ @ @ @ @ @ X X @ @ ; 6 ; @ w t 1 @ 1 ; 1 @ @ @ 1 1 6 6 1 @ @ 6 6 ; 1 ; ; 9 l A.h.G 9 9 8 0 0 H ~ ( H 4 < @ @ @ @ @ @ @ @ @ @ X X O @ @ @ @ @ @ @ @ @ ; f c 0 3 e q )  .L 6 4 5 = 0 / ] e.V. .0 8 ; X # = ",
"4 4 ; * X @ @ @ @ @ @ @ @ @ @ @ 1 6 ; ; @ @ 6 6 6 1 6 6 6 @ 6 9 9 qXc.B.} O.z.V.y.4.c n x > @ @ @ 9 v 9 1 @ @ 1 1 4 A tXq.L ..J.{.* ; 9 n { V c n n n 8 8 6 ; 6 0 v > X @ 9 H 1 @ >.[.@ ; 1 @ @ 1 @ 1 1 1 1 1 1 6 6 6 @ 6 @ @ @ @ 6 1 6 6 6 6 9 9 6 6 6 6 6 6 6 6 6 6 6 6 6 ; ; X @ @ @ 8 ~ v ; ; @ ; @ = q.n 1 6 1 1 6 6 6 6 1 1 1 6 ; @ @ @ @ @ @ @ O @ @ @ @ 6 6 @ , ;.9 1 1 @ @ @ @ @ @ 6 6 6 1 @ @ 6 6 1 @ @ 6 6 = ] l.E 9 9 8 0 0 0 H H H 4 < @ @ @ @ @ @ O O @ @ X @ O @ @ @ @ @ @ @ @ @ * ; 6 3 O . , c +.o.L A 1 * 6 9 8 ) %.V.h.) ^ / M M ",
"@ O @ @ @ @ @ @ @ X X X @ @ @ @ @ ; ; ; @ @ ; ; 6 1 @ @ 1 ; 1 9 < 0X3 ..) z.e...z.y.q.b x > @ X @ 9 8 6 9 ; @ @ @ ; G ` |.O O 1X6 / 8 ( +.+./ 0 0 0 6 8 b 8 6 9 0 { 8 X @ 1 1 @ @   9X  1 ; @ @ @ @ ; 6 1 1 6 6 6 6 6 @ @ @ @ @ @ @ 6 6 6 6 6 6 9 6 6 0 v 8 6 6 6 6 9 9 6 8 8 0 9 ; X X O 4 9 9 9 ; ; @ 8 Z.$.@ 1 1 1 1 1 6 6 1 @ @ @ 9 6 @ @ @ @ @ O @ @ @ @ @ ; 6 @ , u.L 1 < @ @ @ @ @ @ 6 6 6 ; @ @ @ 6 6 @ @ 6 6 8 M B.k.L 0 0 0 0 0 H H H 4 @ @ @ @ @ @ O O @ O : 8 1 @ @ @ @ @ X @ 6 1 1 1 < < O O   o - / .. .L 9 b v ( ( H L O.O.L 9 8 B @.",
"@ X @ @ @ @ @ @ @ @ @ @ @ @ @ @ 1 6 ; @ < @ @ ; @ @ 1 9 9 8 9 9 P oX1 G Q x.y.' v.P.6.u.x - * @ 4 0 8 6 9 ; @ @ @ @ @   9X    1X  0 6 1 4 9 1 4 6 1 1 1 1 1 1 @ 1 n > @ @ 6 @ @ @   ;XO 1 @ ; @ ; ; ; 6 @ 1 @ 6 6 6 ; @ @ @ @ @ @ @ @ 6 ; 6 6 6 6 6 8 { ) 0 9 0 0 9 0 0 0 ~ ~ ~ 0 6 @ X X O O O @ 1 6 8 9 G 4 @ @ 1 1 @ @ 1 1 1 1 @ 1 6 H 6 @ @ @ O @ @ @ @ @ ; ; 8 6 , M.o.1 @ @ @ @ @ @ @ 6 9 6 6 @ @ @ @ ; 1 @ ; 9 6 g y.z.L 0 0 0 0 0 0 H H 4 @ @ @ @ @ @ O O O X ; 8 6 < O O @ @ @ @ @ 6 1 < @ O     O   o - ~ ) ) ) ~ E E K G G 0 b ( ~ 0 1 9 ",
"@ @ @ @ @ @ @ @ @ @ @ @ @ @ @ @ ; ; @ @ 1 6 6 6 6 9 9 H H 0 0 8 P oX@ G j.b.y.9.g.T.i.s.z > > ; 6 8 ; 6 6 ; 6 ; @ < @   9X    9X  6 @ @ @ @ @ @ @ @ @ @ @ @ @ O 1 0 ; @ 6 6 @ @ @ O @XO @ @ ; ; @ @ 1 1 @ @ @ @ @ @ @ ; @ @ @ @ @ 6 6 6 6 6 6 6 6 9 0 +.~ 9 6 9 9 6 6 9 9 9 9 9 9 6 6 ; @ X X O O X @ 6 9 9 6 @ @ @ @ 6 6 1 1 1 6 1 @ 1 1 1 @ O X X @ @ @ @ ; ; ; 0 6 , (.h.4 ; @ @ @ @ @ @ ; 9 6 1 1 @ @ @ ; 1 @ ; 6 ; a y.z.E H 0 H 0 0 0 H 9 1 @ O O @ O @ O @ O X X X < < O X X @ * 8 9 1 1 @ @ O O   O O   , =.' @.O.j.Y A 4 3 < @ > x ) o.A 3 ",
"@ @ @ @ @ @ @ @ @ @ @ @ @ @ @ @ 6 ; @ @ 1 9 8 0 0 9 9 9 9 9 9 0 _ oX@ L j.V.r.V o.D.L.0.q.> ; 6 9 6 6 6 6 6 ; @ @ @ @   #X    9X  9 ; @ @ @ @ @ @ @ @ @ O @ @ @ 6 6 @ 1 1 1 1 1 ;   @XO @ 6 6 @ @ @ ; ; @ @ ; 6 6 6 ; 6 6 @ @ @ 1 6 9 6 @ 6 6 6 6 6 H ~ 9 6 1 1 6 9 6 6 6 6 6 6 6 6 6 6     X X     O @ < 1 1 1 @ 1 @ 6 9 6 1 @ 6 @ @ @ @ @ @ X @ @ @ @ @ @ ; ; 6 8 6 o H.h.4 ; 1 @ @ @ @ ; ; 9 4 1 @ @ @ @ @ @ @ @ 6 1 * ] k.E H H 0 0 H 0 H G < @ O X X O X @ @ @ @ O O @ X o m 8 < ; 8 9 6 ; @ @ O O X O @ > 6 0 { x.g.F 4 2 @ 6 O * > n ) Q F 4 ",
"@ @ @ @ @ @ @ @ @ @ @ @ @ @ @ 6 ; ; @ 6 6 6 9 9 9 6 6 9 9 9 9 0 r oX@ K g.V.y.{ +.b.G.i.4.* m q 1 6 8 8 9 ; @ @ @ @ @   9X    9X  6 ; @ @ @ @ @ @ @ @ w r O @ @ 1 ; @ @ @ @ @ @ 6 X @XO @ @ ; @ @ @ @ 6 9 9 9 9 9 6 6 6 @ @ @ @ 1 1 1 @ 6 6 6 6 6 9 0 0 6 6 1 1 6 H 9 6 ; 6 ; 6 6 6 1 O aXUX>.@ @ X   O O @ @ @ @ @ @ 6 6 ; @ @ @ ; @ @ O @ O @ @ @ @ @ 1 @ @ @ ; 6 9 @ | k.4 @ 1 @ @ ; 6 ; 9 9 1 1 @ @ @ @ @ @ @ @ @ 1 X c $. .H H H 0 H H > ; @ X * X @ @ X @ @ O O O @ @ @ X ; v G 1 @ @ ; 8 6 @ @ @ @ @ O @ 4 4 0 E K e 6 w e > 4 4 6 H L K G 4 ",
"@ @ @ @ @ @ @ @ @ @ @ @ @ @ @ 1 ; 6 6 ; @ @ 1 1 1 @ 6 6 9 9 6 9 r XX@ G Q V.y.[ w.x.b.y.k   DXhXO 1 6 6 6 6 ; ; X X X   #X    9X  6 @ @ @ @ @ @ O @   NXNX  @ @ @ @ @ @ @ @ @ @ 6 X +XO @ @ @ @ @ @ 1 1 1 1 4 6 1 1 @ 1 @ @ @ @ @ @ @ @ @ ; 6 6 6 6 0 9 @ 1 6 1 6 0 9 1 @ 6 6 ; ; ; ;   kXUXH.6 9 6 @ X O O O @ @ @ @ 1 6 6 1 @ @ 1 @ @ @ O @ @ @ @ @ 1 @ @ @ @ ; 6 9 6 9 E 4 @ @ @ ; @ 6 6 9 9 1 @ @ @ @ @ @ @ @ @ > 8 @ d @. .L H H 0 0 0 N q.G X x 0 < @ O @ O X X X @ @ @ @ ; 1 1 @ O @ X 8 9 1 @ @ @ 1 @ @ O   : 8 H r b / ^ n L Z O O @ < 3 < ",
"@ @ @ @ @ @ @ @ @ @ @ @ @ @ < ; 6 6 @ @ @ @ @ @ @ @ ; 1 6 8 ; 6 r XXX 4 j.F.r.N.r.' j.N.V X BXiXO 1 @ @ @ 6 6 ; ; X @   1X    9X  6 @ @ @ @ @ @ @ @   zXzX  @ @ 6 8 @ @ @ @ ; @ x N iXo @ @ @ @ @ @ @ @ @ @ @ 1 1 @ @ @ 1 O O @ @ @ O @ @ ; 6 9 9 6 8 9 6 @ O O @ 6 6 6 @ @ 6 6 @ X @ 6   # @ 9 9 0 @ O   X X   O O O O @ 1 6 1 1 1 @ @ O O @ @ 1 1 1 @ @ @ @ 1 6 6 6 1 1 4 4 @ @ @ @ @ @ @ 6 6 1 @ @ @ 1 @ @ @ ; ; d { < = 9.O.( ~ H H H H n e.W < @ 4 4 X O X X * > ; 1 @ ; 6 1 < @ X @ @ X ; 9 1 < @ @ @ O X O O   : 8 n B [ O.)  .K < = N n 3 < ",
"@ @ @ X X @ @ @ @ @ @ X @ @ 1 9 6 ; @ @ @ @ ; ; ; ; @ 1 9 8 > @ r XX@ A v.A.w.k.[ ~ o.l.[ * BXpXO ; X @ @ @ @ 6 ; ; @   9X    9X  ; @ @ @ @ X @ @ @   zXzX  @ < H 0 @ @ @ 1 ; @  .r.;Xo ; ; @ @ @ @ @ @ ; ; ; @ @ @ @ @ @ (.# O @ # ).@ @ ; 9 0 9 6 0 0   >.XXoX>.  6 @ H.r @ 6 : ).q @ r H.1 6 9   ].@X].7 ; * X O O O O @ @ @ @ 6 6 @ @ X @ @ @ 1 @ @ @ @ @ 1 1 6 1 1 @ 6 @ @ @ 1 @ @ @ @ 1 1 @ @ @ @ 1 @ @ @ @ 6 > #.F : 4.N.%.) H H H 0 9 3 4 O @ @ @ @ @ * > > ; < @ @ ; 1 @ O O X @ X X X ; 1 < @ @ @ @ X @ O   * g n ( ) O...E E 9 d N +.o.4 ",
"@ @ X @ @ @ @ @ @ @ X X O < 6 6 @ 1 @ @ @ 1 6 ; ; ; ; 1 9 8 6 6 r XX@ Y b.y.:.G H H ..$.O.a VXiXO @ X @ @ @ @ @ @ 1 1   9X    9X  ; @ @ O @ @ @ @ @   zXzX  @ @ 6 @ @ @ @ @ @ 1 9 @ @XO @ @ @ @ @ @ @ @ @ @ @ @ ; @ @ @   JXAX    DXDX  @ 6 9 9 6 6 0   NXIXSXGXUX#X    mXIXO   xXUX  O .XUX# 6   BXUXDXLXUX  8 8 @ X O O X   DXaX  @ 9 6 @ @ @ @ @ @ @ @ @ @ @ @ 6 @ @ @ ; @ @ @ @ @ @ @ @ @ @ @ @ @ @ 1 1 < @ @ @ @ 0 F X N S.l.O.~ ~ ~ H A < X @ @ @ X X X ; 6 ; @ @ @ @ @ < O O X X @ @ X X d ; @ @ @ @ @ @ O O @ X ; 0 H G ( E K H ~ N ~ W  .9 ",
"@ @ @ @ @ @ @ @ @ @ X O @ @ 1 @ @ 1 ; @ @ 1 6 8 6 6 ; 6 9 ; 6 6 r oX; W D.0.m 9 ~ L +.n g.M CXpXO @ ; @ @ @ @ X O @ 1   9XO   9X  @ X   @ X @ @ @ @   zXzX  @ @ 6 @ @ @ @ @ @ @ @ O @XO @ @ @ @ @ @ @ @ @ @ @ @ @ @ 1 @ @ *.UX,.(.UX_ @ @ 6 6 6 ; 6 v 0 O       xXHX  6 # UX9Xq UXH.@ O [.UX@ @ =.UX_     @ 6 6 6 ; X @       AX1X  O @ @ 1 1 6 ; @ @ @ @ @ @ @ @ 6 1 @ 1 6 @ @ @ @ 1 @ @ @ @ @ @ @ @ @ 1 1 @ @ @ @ X c H   l r.k. .( ( H G 4 @ @ @ @ @ @ @ < @ @ @ 6 1 1 @ @ @ O X O X @ X X @ f B 9 1 @ = s > 1 @ O     @ 1 1 6 9 0 8 n ' ..E 0 0 ",
"@ @ @ @ @ @ @ X @ @ @ ; > 6 1 @ 1 1 ; ; @ 1 9 8 6 6 @ 1 6 ; 6 6 P -X8 h.F.6.> 0 ~ E [ x W ..ZXpX  @ ; @ @ @ X X X @ @   9XO X 0X  = X O X X @ @ @ @   zXzX  @ 1 6 @ @ @ @ @ @ @ @   @Xo @ @ @ @ @ @ @ @ @ @ @ @ 1 @ @ 1 @   xXSXDXxX  ; @ @ @ @ @ : ~ 6 1 @ O   pXKX  @ O 9XKXBXGX  1 O [.UX# O ).UXO O @ 1 1 @ @ @ @ X _ [.H.HXkX).|.@ @ @ @ @ 6 6 ; @ @ @ 1 @ @ 1 1 < 1 1 @ @ @ @ 1 6 @ @ @ @ @ @ @ @ @ 1 @ @ 1 1 X g &.1 a w.b. .( ~ H G 4 @ O @ X ; 1 < < @ @ @ 1 4 @ @ @ @ O X O X @ @ @ @ = c H 1 @ s N ) G < O # o X @ @ : 8 0 ~ n ) +.[ ( ~ ",
"@ @ X @ X @ X X O @ 9 v > @ 1 @ 1 1 ; @ @ 1 6 ; ; ; @ 6 1 @ @ 6 P oX8 z.A.2.8 ~ H L n 8 G F ZXpX  @ ; @ X X X X @ @ @   1XO   0X  c * @ @ @ @ @ @ @   zXzX  1 6 1 @ @ @ @ @ @ @ @   @XO @ @ @ @ @ @ @ @ @ @ @ @ 6 ; @ @ @ O 7 UXUX@ @ O oXUXUXUXUXUX: 6   >.XX@XAXJX  1 1 O PXUX;.@ @ O [.UX# @ r UXNX[.H.  6 1 1 @ @ O [.IXKXIXIXKXIXm @ @ @ @ @ @ @ @ @ @ @ @ @ @ @ @ 1 1 @ @ @ @ @ 6 6 @ @ @ @ @ @ @ @ 1 @ @ @ @ @ > +.K ; ] b.O.( ~ H 9 < @ @ @ @ @ O O X @ @ @ @ @ @ @ @ O @ O O X @ @ @ @ @ d v 4 @ = c  .K 1 @ O @ @ @ @ ; > 0 H H ( ( ( L ~ ",
"@ @ @ @ X X X @ @ 6 q 6 @ 6 6 ; @ 1 ; @ @ 1 1 ; 6 ; ; ; @ 1 ; 9 ` 0X~ x.0.2.0 0 9  .N 8 v < BXaXX X ; @ X X @ @ @ @ @   #X    1XO n > X @ X @ @ @ @   zXlX  O O @ @ @ @ @ @ @ @ @ O @XO @ @ @ @ @ @ @ @ @ @ @ 6 8 ; @ @ @ @   IXIXO 6 6 @ 7 7 7 7 r 0   xXUXvXsXDXJX  @ 6   DXUX7 @ @ O [.UX# 1   |.GXIXUXDX  1 1 1 1 ; O     AXXX    @ @ @ O @ @ @ @ @ 1 @ 6 6 ; ; @ @ @ 1 @ @ @ @ @ ; 6 @ @ @ @ @ @ @ @ 1 @ @ @ @ 1 @ 0 A O c l.O.) ~ H 9 1 ; ; @ < O O @ ; @ < O @ X @ @ @ O O O O O @ @ @ @ @ > b 9 @ ; > 9 4 6 1 O O O O @ X X 1 4 9 0 L H A 4 ",
"@ X @ @ X ; 8 0 H v 6 O < 1 ; ; 6 1 @ @ @ 1 6 ; ; ; ; ; @ 1 6 9 ^ <X( x.0.l 9 d 1 Q ' x x ` UX Xa > ; ; @ X X @ @ X O   #X    1XO b * @ @ @ @ @ @ @   xXHXpXhX9X  @ @ @ @ @ @ @ @ O @Xo @ @ @ @ @ @ @ @ @ @ 6 8 6 @ @ @ @   aXKXPXiXO @ @ @ @ @ 6 9 9 w UXH.    aXKX  @ O `.UXJXNX  1 O [.UX# @ 6 O     ).UX=.@ 1 1 1 1 1 @   DXpX  ; ; @ @ O O O O @ < 1 @ @ 9 8 0 6 @ @ @ @ @ @ @ @ @ 1 1 @ @ @ @ @ @ @ 1 @ @ @ @ @ @ @ 1 X a w.k...~ H G 6 6 9 < O O X @ 6 6 < @ O @ @ < < O O O O O @ @ @ @ @ X d 9 @ ; 6 9 < @ 1 1 O       X * * > 8 H G 4 5 w ",
"@ @ @ < 4 9 9 9 4 @ @ @ 1 1 6 ; ; 6 1 @ @ 1 9 ; 6 ; X ; @ < 6 9 P oX~ x.N > ) N 6 E / v   lXgXA 4.s 6 : ; @ X X @ X X   #X    9X  v ; @ @ @ @ ; > X   (.9XpXpXXX  @ @ @ @ @ @ ; ;   @Xo @ @ @ @ @ @ 1 @ @ @ 8 8 @ @ @ @ @ w UX).`.UX# @ @ @ @ ; 6 0 6 w UX>.@   sXKX  ;   PXsX_ UX=.@ O [.UXO @ @ O O @ 7 UX>.O 1 1 1 @ O     [.>.    @ @ ; @ @ X X     O O @ @ @ 8 8 ; @ 1 @ @ @ @ @ @ @ 1 @ @ @ @ @ @ @ @ @ @ @ @ @ @ @ 6 @ > 9.x.+.( L 4 @ @ @ @ @ @ @ @ @ @ @ O @ O @ O O O O O O @ @ @ O O O O a d 4 @ 6 4 O O O X @ @ X - a k M v 8 6 @ O * = ",
"@ @ @ @ @ @ 6 @ @ @ @ @ 1 1 6 8 ; ; @ @ @ 1 9 ; 6 ; @ @ @ @ ; 6 ` 0X) r.2.H #.N 1 ) 0 8 8   O Q } j > @ @ @ < 8 X X X   #X    9X  8 @ @ @ @ 6 0 0 ; >     O O O @ @ @ @ @ @ 1 q 6   @XO @ @ @ @ @ @ @ @ @ 6 8 6 @ @ @ @   xXHX    PXlX  @ @ @ ; 6 0 9 O UXzXr H.UXKX  O 9XUX@   CXDX  O [.UX@ @ _ sX,.*.lXUXO @ @ @ @ O ,.hXsX9XiXaXkX7 @ ; 1 1 6 6 ; @ O O X @ X 8 n v 6 @ @ @ @ @ @ @ @ @ @ @ @ @ * * X @ @ @ @ @ @ @ X 1 1 @ c N.k...K 4 ; @ O O @ @ @ @ @ @ @ @ @ X X @ O O O O @ @ @ O O O O O * M H @ @ 1 X     * a d f z 3.6.l.h.} 9.9.M j d ",
"@ 1 ; * > 8 ; X X @ @ @ @ 6 6 8 ; ; @ @ @ 1 9 ; 6 6 ; @ @ ; 6 H q.qX%.y.2.L @.s 9 c 9 9 v > > R o.4.j - X X A 6 X X X   ;X    9X  8 @ @ @ 1 1 6 6 6 8 > * @ @ @ @ @ @ @ @ @ 1 6 @   @XO @ @ @ @ @ @ @ @ @ 6 6 @ @ @ @ @ w HX,.O @ H.JX# @ ; 6 ; 6 0 6 O ,.PXUXJXZ.BX  O SX[.O @ _ JX;.  ).DXO X ` BXIXUXJX=.O @ @ @ X X ).DXVXVXVXAXDXr @ 1 1 < 6 9 9 9 ; @ @ @ X > / ~ < > 8 O @ @ @ @ @ @ @ @ @ @ b ^ @ @ @ @ @ @ @ @ X 1 1 @ g w.k.( K 4 > 6 O @ @ @ X @ @ @ @ @ @ @ X @ @ @ @ @ O O O O O X O O X = 8 @ * > x 8 ; ; a c ^ 2.8.S.g.Y H ) %.N.y.0.",
"1 9 0 x c > @ @ X @ @ @ 1 6 6 6 ; @ 1 @ @ 1 6 ; 6 6 > ; @ ; G V.Z.qXV.y.k L [ d 9 d 6 K ] N - 9 W r.3.C o * @ @ X X @   #X    9X  8 ; @ @ @ @ @ < 1 6 6 ; ; ; @ @ @ @ @ @ @ @ @ @   +XO @ @ @ @ @ @ @ @ ; ; @ @ @ @ @ @ @   X 8 ; O   ; 6 8 v 8 8 8 @ 6 O       K O 6 6     6 1 @   @ 8 @   6 ; @         @ @ @ @ @ @ ; X         j X O @ 1 1 @ ; 1 6 6 6 6 8 6 * > 0 0 < > ^ O @ 1 @ @ @ @ @ @ @ O @ E 3 X @ @ @ @ @ @ @ @ 1 O h 0.$.( A @ X 1 @ @ @ @ X @ @ @ @ @ @ @ @ @ @ O O O O O O O O X O . O * f 0 8 d v q 6 6 ; 7 l 3.0.G.v.K @ ; 6 v ] w.",
"4 G v x ; X @ @ @ @ @ @ 1 6 6 ; @ @ @ @ @ 6 6 ; 9 0 d 6 1 6 Q B.) qX+.9.d R / v 0 ; 6 K @.4.8 ; W D.i.7., ; * @ X X @ # XX    9XO 8 X @ @ @ @ @ @ @ @ @ @ 6 8 > @ @ @ @ @ @ @ @ @   ;X  @ @ @ @ @ @ @ ; ; @ @ @ @ @ @ @ @ 6 8 9 6 9 9 0 0 8 0 0 6 6 ; @ @ @ @ @ @ @ 1 1 @ @ @ 6 6 @ @ ; 6 6 6 6 ; 6 6 6 @ @ @ @ @ ; ; ; 6 6 ; @ @ #.o.@ 6 1 1 @ @ @ @ @ 1 6 8 0 8 0 0 6 < ; 9 4 O < @ X X X X @ X O @ < @ @ @ @ @ @ @ ; ; ; ; X z 6.C. .4 @ X 1 @ @ @ @ @ @ @ @ O @ O O @ @ O O O O O O O X X X @ X X X = 0 r b q ! _ 8 9 > 2.6.B.D.b.o.8 * ; ; c [ ",
"G ( n > @ @ X @ @ @ @ @ 1 1 @ @ @ @ 1 @ @ 6 6 8 0 v d ; 1 A O.) 1 aX[ V > G ~ 8 6 ; 6 G Q / 8 ; K v.P.3.C ; > # ; X O `.>.@ X _.,.8 X X @ @ @ @ X X X @ @ 6 8 > ; @ @ @ @ @ @ @ @ e @XO @ @ @ @ @ @ @ 6 ; @ @ @ @ @ @ @ @ 1 6 6 1 9 9 9 6 1 1 6 6 ; @ @ @ @ @ @ @ @ @ X @ @ @ 1 1 1 @ 1 1 1 1 6 6 6 6 6 @ @ @ @ ; ; 6 9 6 6 6 6 ; 4 4 @ @ @ @ 1 1 6 @ @ @ @ 6 6 9 ~ ~ 9 6 6 1 1 @ X X @ X X X O X X @ @ @ X @ @ @ @ ; ; ; ; 8 ; z p.G.k.G ; @ @ < @ @ @ @ @ @ @ O O O O @ @ O O       O O X @ X X X X ; ; 6 t b ) L ~ ..E 9 c ) j.E E E 0 0 @ X = N ",
"H L 6 @ @ @ @ @ @ @ @ @ @ @ @ @ @ @ @ @ @ 1 9 8 0 x > @ 4 O.@./  .c.dX* > H 0 ; @ @ @ 6 K 9 8 6 9 g.T.i.k ; 8 : @ X   kX  X @   hX  ; O X @ @ @ X @ @ @ @ 6 0 ; ; @ @ ; @ @ X @   hX# @ @ @ @ @ @ @ 6 6 @ @ @ @ @ @ @ ; @ @ X @ @ < @ @ < < @ @ 6 1 @ @ @ @ @ @ @ @ @ @ @ @ @ 1 @ @ @ @ @ @ @ 1 6 @ @ @ @ X @ 6 6 6 9 6 6 6 8 0 8 > > ; @ @ @ ; @ @ @ @ @ @ ; ; 6 6 6 1 1 6 6 ; ; @ @ @ @ @ @ X X X @ X X * > ; ; > 8 8 8 > v 0 h q.P.z.G ; ; @ @ @ @ @ @ O @ X X X   . . X X X O + X X X X X ; > > 6 9 9 9 9 8 E F A Z 4 8 8 G A < @ 1 6 6 8 8 = j ",
"1 4 > * X X @ @ @ @ @ @ @ @ @ ; @ @ @ @ @ 6 9 8 v x 6 1 o.B.} ' 0 K {.-X  0 ; @ @ @ @ 1 4 G 8 > ; R b.y.a ; 9 ; X + xXX O @ X O r xX    @ @ @ 6 6 @ @ @ @ 6 6 @ 4 @ @ @ > > ;   pX>.O @ @ @ @ @ @ @ 1 1 @ @ @ @ @ @ @ 1 < O O   @ O @ 1 @ @ @ 6 ; ; @ @ @ @ @ @ @ @ @ 1 < @ < < @ @ @ @ @ @ @ @ @ @ @ @ @ @ ; 6 6 1 6 6 6 6 9 9 9 8 6 ; ; ; 6 8 6 ; ; ; @ 1 ; 6 6 @ ; @ 7 ; 6 6 6 6 ; ; > > > > 8 6 @ @ ; ; 8 8 6 ; 6 9 6 6 6 9 ; 2.P.b.A @ @ @ @ @ @ @ @ @ O X @ @ & p C = @ X @ @ ; ; @ @ @ 1 1 1 6 6 9 9 9 9 A 3 + o a d 0 n 6 1 @ @ @ ; 8 c M 2.",
"@ G 8 - X X @ 1 1 @ @ @ @ 1 ; ; @ @ @ @ ; 6 0 n c 8 6 E x.%.9.B G e.l u.hX).r 7 7 w w w w e r m w e j.9., 7 q _ |.aXO X X X o $ $ 7 hX[.t w w w w w w w w 7 w w w w w w e m `.dX_ O @ @ @ @ @ @ @ ; @ X @ @ @ @ @ @ @ @ X , u u o X @ O # X O $ $ O @ @ @ @ @ O @ @ @ @ @ @ @ @ @ @ ; ; ; ; ; @ @ @ O @ @ 6 6 6 6 6 6 6 6 6 6 1 6 6 6 @ @ @ ; 9 6 6 9 9 ; ; 8 v 8 > > > m 8 6 9 8 8 x 8 8 8 0 0 9 6 @ @ @ 6 9 6 1 @ @ < < @ @ 6 ; = A.v.Z @ O @ X + # O @ X X @ @ @ o , b +.K 4 @ @ 1 1 1 1 < @ < @ ; 6 9 6 0 0 9 < # f k ) $.{ G 6 ; @ @ ; > 8 x 4.",
"A Y 9 > X @ @ @ 1 1 @ @ @ 6 ; ; @ @ @ @ 6 9 ~ n x 9 4 h.k.$.9.x g.B.4.>   H. X+X+XXXXXXXXX@X<X;X-XoX<XqX;X@X@X[.m   a * @ x 5.C <.p   -.[.;X;X#X+XXXXXXXXXoXXXXXoX+XXX@X0X;X(.  x ; ; > b x ; 6 8 8 ; ; 6 : ; @ @ @ 1 @ ; b :.m X X @ - m - - C C m , - - , i i & @ @ X X @ @ @ @ @ ; ; 6 9 6 @ @ X @ ; ; ; 6 1 6 6 9 6 1 6 6 ; ; 9 6 @ @ @ @ 6 6 @ 6 1 1 9 0 0 0 8 x n ( H 9 6 6 6 1 1 1 1 9 1 ; 6 @ @ @ @ 6 1 @ @ @ @ + o * * @ * B j.Z X @ @ @ @ : : ; @ @ @ X @ ; @ 9 K F 4 @ < @ @ @ @ @ @ @ @ ; 1 1 6 9 v 0 3 X a n g. .L W 0 6 4 4 O - d M N ",
"6 A 6 X X @ @ @ @ @ @ @ 6 6 ; ; @ @ @ ; 9 H / n 8 1 L .. ...8 0 o.r.M 8 H c X ; X X O O O @ Z 8 = O R } N X @ @ 9 v N * 4 D.r.{ b > ; 4 A H 6 X X X O O O @ O   O @ @ 4 H H 9 9 0 8 8 9 9 9 1 9 9 6 @ 1 1 1 1 @ @ @ 1 4 4 R Q G 1 @ @ ( #.8 L $.[ ~ 0 0 0 ~ ` ^ 8 @ @ ; > > ; ; ; 8 8 q m q @ X X @ ; ; ; 6 6 6 7 w 5 7 1 6 2 & 5 w & $ . @ ; @ 5 5 5 y y p ;.C i w ; 8 G 4 1 @ @ 6 w , e 7 @ @ ; 6 9 9 ; > 6 6 @ @ X : 7 - z 9.H * > X.A @ @ ; 6 6 6 6 1 1 @ @ @ @ 1 9 6 4 1 ; @ 1 @ @ @ @ @ @ @ > 6 4 1 1 1 0 0 e a d K Y 4 A A 6 1 4 3 # - 2.6.@.",
"> 0 d = X @ @ @ @ @ @ 1 9 8 8 ; @ @ 1 6 9 / 9.c > 9 ../ [ ^ 1 H l.0.N > ^ * O O o o O O O O @ 4 = O F w.l O O O O A @ X Z T K F 4 0 ; O O O O O O O O O O O + + O O O O O O   O < 6 9 9 1 1 @ 1 @ @ @ @ @ @ @ @ @ @ X @ O < < O @ @ @ F E 1 4 K F A G 4 9 G K G 9 ; ; 6 9 9 9 9 9 0 H ~ ~ 0 9 8 b 8 8 0 8 6 8 8 v b b b v 8 b *.*.*.C C r ; ; : m C *.*.:.5.p.p.q.| v 9 6 6 1 ; ; n ~ ~ b ~ 9 1 @ 1 4 4 6 8 v 8 6 ; ; @ 6 9 H %.v.9 ; ~ K 1 1 1 @ @ @ @ 1 4 @ @ < @ @ < @ @ 1 1 1 1 1 @ @ @ @ @ * d 9 4 < @ @ ; m M 2. .R A 3 < X @ 3 < O o k 3.r.j.",
"6 9 n g = > > ; @ @ 1 1 9 9 8 ; @ @ ; 6 K +.9.l 8 ..} @.4.; 8  .G.6.z X _.9X9X;X@X@X@X@X9X#X1X1X0X0XqXtXqX;X#X;X9Xt   @ O O O O 1 @ _ 9X#X+X+X+X@X@X1X9X0X0X;X+X+X#X@X@X@X@XiX,.  1 1 1 1 ; 8 ; @ @ @ @ @ @ @ @ @ @ @ X X X O O O @ @ @ @ @ @ @ 1 6 6 @ @ 1 < @ ; 8 6 6 1 1 1 1 1 1 1 4 4 4 1 9 G 9 9 9 6 6 9 9 9 H H H H 0 H  ...O.$.$. .9 @ 6 0 ..O.O.$.k.D.Y.h.Q K 4 1 1 1 1 1 1 G G G G 4 4 < @ @ @ @ @ 9 9 9 8 x x ; @ 3 4 H G 6 9 G 4 @ @ @ @ ; ; @ @ @ @ @ @ @ @ @ @ @ @ @ @ @ : @ < @ X * x G 4 @ @ @ * f 2.w.g.Y 4 < X @ @ @ X * a 2.9.z.g.",
"6 A G v 8 d d > * @ @ 1 9 9 ; ; ; ; ; 9 L %.9.M w.y.#.) d H ( z.L.5.* jX_.  O X X   O O     O < O X D [ a X O   # iX`.  @ @ @ @   @XXXO             O O 9 > X X               [.aX  @ @ @ 6 v 8 ; @ @ @ @ @ @ @ @ @ @ @ X O O X @ @ O @ @ @ @ @ @ 6 6 ; ; ; ; 6 9 9 6 1 1 1 @ @ @ @ @ < @ ; 6 6 1 6 6 6 6 6 6 6 1 6 9 6 9 4 4 A G G G K A 4 < 1 1 4 A A K K K F F A 4 1 1 1 @ @ @ < < 1 1 1 @ @ @ @ @ @ @ @ @ @ @ @ 6 ~ ( 9 ; > 8 G 6 < 1 1 @ @ @ X ; > > ; @ @ @ @ @ @ @ @ @ @ @ @ @ @ @ @ @ X > > 9 6 @ @ * = s 4.j.f.4 9 < @ @ @ X * = s M o.W A ",
"; 6 9 6 6 8 8 > > > > ; 6 6 ; 6 6 9 6 9 R +.w.N.L.s.^ v n ) ..D.L.2.kXb > 8 6 ; ; @ ; 6 ; @ @ 1 9 6 R @.N > @ ; @   |.H.O X @   |.H.  @ @ X X X @ @ @ 4 H 0 6 8 > ; ; : @ @ @ O *.pX  @ @ 6 9 9 6 ; @ @ @ @ @ @ @ @ @ @ X   O X X X : : @ @ ; ; 6 0 9 9 9 6 6 1 1 1 1 @ @ @ @ @ @ X X X * * ; 6 @ 6 6 6 6 6 6 6 1 6 6 6 ; ; ; @ 6 @ @ @ @ O @ @ @ @ ; 6 6 6 ; ; ; @ 1 1 @ ; @ @ @ @ @ @ @ @ @ @ @ @ @ @ @ @ @ 6 1 @ @ < A 4 ; c B / 6 @ @ 1 @ @ @ @ @ @ 6 9 6 1 @ @ @ @ @ X @ O @ @ @ @ @ @ @ ; v 9 6 6 1 O @ > k ..f.A ; 8 4 < @ X ; > 8 n L T A @ ",
"1 6 6 6 9 0 9 8 8 d > > ; ; 6 6 6 9 8 0 L o.V.E.L.4.c n ( ) O.T.i.=XH.v d 6 8 > ; ; ; 6 9 > @ 1 1 ; K w.4.> ; ; : :   aXO @ @ t iX  X @ @ @ @ @ @ @ @ @ 9 @ < 1 6 8 8 > X @ @ @ O `.,.@ @ 1 1 @ @ @ ; ; @ @ @ ; ; @ @ @ X X O O @ ; ^ ; ; ; ; 8 8 9 9 6 1 1 1 @ @ @ @ @ X @ @ @ X X ; > 8 6 6 ; 1 ; ; ; 6 6 6 6 1 6 6 6 ; ; ; 6 6 6 ; 1 1 @ O @ X ; 8 6 1 1 1 1 @ @ @ @ @ @ 1 @ @ @ @ @ @ @ @ @ @ @ @ @ @ @ 1 1 1 @ @ @ @ X @ ; ~  .H 6 1 1 ; ; X X X @ @ < 6 1 6 ; ; @ X ; @ @ @ @ @ O @ @ X > 9 4 6 ; < # = s c Q U 4 @ x H A @ X * > v H K A @ @ ",
"1 @ 1 4 6 6 6 9 ~ c > ; > > 6 ; ; 6 6 6 9 Q D.P.w.n x 0 L ~ j.T.4.pX  8 > 9 > ; @ @ @ 6 0 = @ < 6 8 L r.4.> 6 8 > : X -.`.O   OXe ; X @ O @ @ @ @ @ @ @ 6 X O @ @ 1 8 8 ; @ @ @ @ O 9X  6 @ @ @ @ @ @ ; 6 9 6 6 ; @ @ @ X X X X @ 9 L 6 ; 8 8 8 9 6 6 @ @ @ @ @ @ @ @ @ @ @ @ @ X @ 8 8 9 6 6 6 6 ; ; @ 6 6 6 6 6 6 6 6 6 1 1 @ 6 6 @ ; @ @ O @ @ 6 9 1 @ 1 @ @ @ @ @ < @ @ @ @ @ @ @ @ X X @ @ @ @ @ @ @ @ 1 < @ @ X @ @ @ @ @ 1 9 A 4 < 1 8 d x > * X @ @ 6 < @ ; ; 6 ; ; 6 @ @ X @ @ @ X X ; 1 1 @ @ X * k V o.W 4 4 @ * 9 9 X * * d H F A 4 @ @ ",
"@ < < 1 @ < 1 G H x > v v x 8 x 8 6 ; 8 H O.b.+.x 0 6 0 0 G j.C.N oX@ 6 6 9 > @ @ @ @ 4 9 > @ @ 9 ' L e.4.x 6 6 ; @ X O @X    #X  @ X @ @ @ X @ @ X O @ 1 X O X @ < 4 6 8 x * @ @   ;XO ; @ @ @ @ @ @ 6 6 9 8 6 @ @ @ @ O O   X ; 8 0 8 6 6 6 6 6 1 1 @ @ @ @ @ @ @ @ @ @ X O @ @ > > 9 9 ; 6 6 6 6 6 1 6 6 6 ; 6 6 ; 6 6 ; 1 ; 6 6 ; @ @ @ O X * 6 1 @ @ @ 1 1 @ @ @ @ @ @ @ @ @ @ @ @ @ ; @ @ @ @ @ @ @ @ @ @ O @ X @ X @ @ 1 @ > 1 @ O < 1 8 n b / x ; @ 6 1 @ X @ 6 6 6 6 @ @ X X @ @ X ; 6 1 @ @ O # s 2.@.j.K 4 @ @ @ v ; , - j n F Z @ 1 @ @ ",
"@ @ < ; @ @ 1 1 < 1 1 9 0 0 H v c c d B +.#.[ ' M > 6 8 6 A j.} m XX@ 6 6 8 d X o X @ 4 9 6 * 1 E #.L l.4.x 1 < @ @ X   #X    9X  @ X O @ @ @ @ @ X O @ @ X X @ X @ @ < 9 9 ; 6 ;   9XO ; @ @ @ @ @ @ @ @ 1 9 6 6 ; ; ; X @ @ ; 6 ; 6 @ @ @ 1 6 6 6 @ @ @ @ @ @ @ @ @ @ @ * > * ; > N 0 O   6 ; 6 6 6 6 ; 6 6 6 1 1 6 ; ; ; 6 1 6 6 6 @ @ @ X X 8 6 @ @ @ @ @ 1 @ @ @ @ @ @ @ @ @ @ @ @ @ 6 1 < @ @ @ @ O @ @ @ O O X @ @ @ 6 1 ; ; @ @ @ @ O @ @ 6 H ~ ~ v 1 1 @ X @ @ 1 6 9 6 ; X X O @ X > 9 1 @ @ + , 2.4.O.O.K A O X @ > 7 m 2.6.O.T Z @ X @ @ ",
"@ < 4 8 ; @ @ @ @ @ 1 @ < 4 G ~ ' 9.9.} [ ~ @.r.N x b d 1 K +.' m XX@ 8 9 n d * : X @ 4 9 9 ; 1 K ~ K z.9.x @ @ @ @ X   #X    9X  @ X O @ @ @ @ X X O @ @ X X @ @ @ @ 1 @ 1 1 ; ;   0XO @ @ X @ @ @ @ @ @ @ < @ @ ; 8 8 ; @ @ @ @ @ @ @ @ @ @ ; ; ; @ @ @ @ @ @ @ @ @ @ @ > { 8 6 / I.; .XCXq ; 6 6 9 ^ 9 6 6 6 6 6 @ ; 6 6 6 6 6 6 ; ; 1 1 ; > 6 @ @ @ @ @ @ # w @ @ @ @ @ @ @ @ @ @ @ @ @ 1 < @ @ @ O O @ @ @ O @ X @ @ 6 6 @ @ @ @ @ @ @ O @ X @ @ < 6 0 ~ 9 @ X @ 1 @ @ @ 6 6 6 ; X X X ; 6 9 @ @ X a 4. .W ~ H 4 < O X > 6 l 3.r.f.U < X X X @ ",
"@ 4 4 8 > ; @ @ @ @ @ @ ; 0 ( +.l.+.( G K ..N.+.~ @.4.= 1 O.w.c r oX; 8 H ' d > X X @ 1 4 6   O A 9 A v.9.> ; X @ @ X   #X    9X  @ X @ @ X @ @ X @ O   @ X     @ @ ; @ @ @ @ 1 6 X ;XO ; @ @ @ @ @ @ @ @ @ @ ; ; 8 0 0 ; @ O @ @ @ @ @ 6 @ @ ; ; ; ; @ @ @ @ @ @ @ @ @ ; H ( 0 ; H z.O AXUXH.@ 6 6 6 H 6 6 ; 6 6 6 1 6 6 6 6 6 6 6 ; @ 1 ; > v 1 @ @ @ @ @ @ & m 1 @ @ @ @ @ @ @ @ @ @ @ @ @ < @ @ O O @ @ @ @ O X @ @ @ @ 1 @ @ @ @ @ @ @ @ @ X @ @ O O @ 6 9 8 ; @ @ @ @ @ @ @ @ ; ; = = > > 9 1 O * s ) g.F d ' 9 4 O * > > l V j.f.3 X X @ X X ",
"@ 4 4 6 ; @ @ X * ; ; x ' [  .L G 4 1 4 F +.} L o.r.l ; G $.] > r oX; 9 ( / 6 @ X @ @ X @   HX|.< 6 A j.w.f * ; @ @ @   #X    ;X  @ X X X X @ @ @   >.IX  O (.IX  : @ @ @ @ @ 1 6 @ 1X@ 8 ; @ @ @ @ @ @ @ ; ; 6 0 0 9 1 O O X X @ @ @ 1 6 @ @ ; @ ; @ @ @ @ @ @ @ @ @ ; ; 0 0 0 0 9 9 9 q H.@ 6 6 6 6 6 1 6 ; ; 6 6 6 6 ; 6 6 6 ; ; ; @ @ > 8 9 4 O @ @ @ @ @ : ^ G O @ @ @ @ @ @ @ @ @ @ @ @ @ @ @ @ O @ X X @ @ @ X @ @ @ @ @ @ @ @ @ @ @ X X O @ O @ @ X @ @ 9 0 0 6 @ @ @ @ O O @ ; > c n 0 9 1 = j g E F 1 d 4.L 3 O = g c x K U 3 X * * ; 6 @ ",
"@ 1 4 1 ; @ 6 c M c n / v 6 @ @ < 1 @ 1 L +.x G k.[ v 0  .$.l ; _ oXX 9 / d @ X X @ @ X @   JX|.O 6 4 h.r.z = ; @ @ @   #X    ;X  @ X @ O @ @ @ @ O >.IX    UX(.@ 6 @ @ @ @ @ ; 6 O 1XO 9 ; > > @ @ @ ; ; 6 8 0 0 6 1 @ @ #   X @ O # 6 1 @ @ ; @ 6 ; 6   O _ _     ; 6 7 O 0 0 O : 0 6 @ O 9 6 6   r _ r   6 1 ; ; ; 6 6 6 6   O 6 6 @ ; 8 0 4 O O @ @ @ @ @ @ H 4 O @ @ @ @ @ @ @ @ @ @ @ @ @ @ @ @ @ @ X X O X X @ @ @ @ @ @ @ ; @ @ @ @ @ @ O @ @ @ X X @ @ @ < 9 v 8 6 @ O @ O @ @ ; 8 n ) 9 7 k 4.) W 9 x l 4.( A O = l / G A 3 O : 8 6 1 1 4 ",
"@ @ ; > > 8 +.9.] n 0 6 ; @ @ @ 1 6 ; 9 E v v o...H H H h.r.k 1 P XX@ G n a X X X @ @ @ ;   KX|.O ; 4 z.y.s.g * @ @ @   #X    ;X  @ X @ X X @ @ @ O >.IX  .XKX  9 1 @ @ @ @ @ 6 6 O @XO < 1 8 x > * ; 6 8 9 9 9 6 @ @ X _ UX=.  O H.UX7 @ @ @ ; ; 6 6   xXUXUXUXUX>.@   HXAX  O aXUX@   @XUXO 6   pXUXUXUXHX  6 @ ; ; 6 6 6   VX|.O 6 @ ; 0 9 @   O @ @ @ @ X 1 A 4 @ X @ @ @ @ @ @ @ @ @ @ @ @ @ @ @ @ O O O @ @ X @ @ @ @ @ @ @ @ @ @ @ @ 1 @ O @ @ X O @ @ @ @ @ < < 6 8 8 ; @ X X @ ; ; 6 9 _ b 2.4.o. .( M 0.w...A @ a l E R 9 @ X * 9 F 3 4 6 ",
"> 6 0 n ' e.N.) 8 @ @ @ @ ; ; 6 6 6 9 9 G v / ~ 0 H H L z.0.j 6 r XX@ G n a * @ @ X @ @ X   JX|.O 6 4 D.L.p.k > ; ; @   #X    9X  > X @ @ X X X X O n.UX  UX,.O @ @   X @ @ ; ; @ O @XO @ @ 6 v b x 8 8 9 6 6 1 @ @ @ @   IXOX    sXHX  @ @ @ ; ; 6 0 6 =.w O X KXAX  ; _ UX>.7 UX|.@ O XXUXO ; *.UXH.o r >.@ 1 6 ; ; 6 6 6   HX+X  @ ; 9 9 ; @ @ X X @ @ @ @ @ @ O @ @ @ @ O O X X @ @ @ @ @ O X @ O O #   X X @ @ @ @ @ @ @ @ @ @ @ @ @ @ ; 1 O X X @ * X @ @ @ < @ O @ @ 8 8 8 @ O X > ; 6 9 8 4.0.b.g.G H ) } %.h.A ; j N E G 6 1 < < 4 3 < X > ",
"N ] e.e.} ) 0 ; X ; ; @ 1 ; ; 6 6 6 6 6 9 ~ / 0 8 0 0 Q b.9.= 0 m ;XO L ] d ; X X @ * > >   JX|.O 9 H Y.P.y.N ; ; ; ;   #X    9X  x * X @ @ @ @ @ O n.KX#XVX  @ O X = * X ; 6 ; @ O @XO @ 6 9 9 H 0 0 8 9 1 @ @ @ @ @ @   NXNX    SXkX              6 0 X X X   hXDX  6   BXVXpXKX  8 O XXUXO @ `.UXO @ 6 @ 9 6 ; ; ; 6 6 r O GX@X# r 6 9 1 1 @ X @ O @ @ @ @ @ @ @ @ @ @ @ O @ X @ @ @ @ @ @ @ O @ @   * - @ @ @ @ @ @ @ @ @ @ @ @ ; * @ X @ 1 O O X X 8 8 < @ 1 < O @ X X @ 1 9 9 ; = > 6 1 6 x ] z.f.K 3 O 8 ' %.+.L n c  .R A 4 3 3 < @ $ i = X ",
"0.} O. .v ; ; ; ; ; ; ; 6 6 6 6 6 1 6 6 9 H v 8 8 6 9 j.N.M 1 ..5. XO  .9.a ; * ; 1 H n 6   JX|.X 8 ( D.P.y.g ; @ @ ;   ;X    9X  x * @ X X X X * * u.PX[.JX  X   > N = ; 8 9 @ X   @Xo ; ; 6 6 9 6 6 9 6 ; > @ @ @ @ @   .XPX  O UX_.  XXPXJXJXJXHXO 0   O _ _ xXDX  6 6 m UXUX_.@ 8 X XXUXO @ H.UX.Xr @   0 6 6 6 ; X 9XUXUXIXUXUXUXr 1 @ 1 @ @ @ X X @ @ @ @ @ O @ @ @ @ @ @ @ @ @ @ @ @ @ @ O @ @ @ @ 0 H 9 1 @ @ @ ; @ @ @ @ @ > b 6 @ @ 6 @ X X X @ 9 4 @ @ @ O @ X X @ @ < 1 8 l c 9 1 > l ~ W P 9 1 X * c V ] ( n ( W A 4 @ O   X @ + , k V ",
"6.B F E 0 ; 6 ; ; ; ; 6 6 6 6 ; 6 6 6 ; 6 9 8 8 6 9 G j.r.a A k.5. X8 ' M ; ; ; ; 1 4 6 1   JX|.@ H #.z.A.9.- @ @ @ 1   ;X    ;X  x * X * = = g g M s.IX  PX`.X x ) ~ 6 8 8 > X X   @XO ; ; 8 6 6 1 1 1 1 9 8 8 ; @ @ @ X *.UXw *.UXr X ` `._._._._.X   9XUXIXJXIXSX  6 6   SXIXO 0 8 @ oXUXO 6   vXUXUXUXpX  6 6 6 6 6 6 e O HXXX: m 6 1 ; @ @ ; > > @ @ @ @ @ @ @ @ @ @ @ @ O @ @ @ @ @ @ O O @ X @ @ 1 4 9 4 < @ @ @ ; ; ; @ @ @ 6 9 9 < @ ; 6 6 1 @ @ 4 < @ ; @ @ X @ X @ @ @ X * M / ^ g 2.l ( 9 z N 0 * * l 5.9.@.~ E R 1 @ O X * = ; @ O g #.",
"2.d K 9 8 ; @ ; ; ; 6 6 6 ; ; 6 6 ; 6 6 6 9 8 > 6 0 L h.V > K k.| oX~ 9.d 6 @ ; ; ; @ @ @   JX.X< o.[ o.A.4.- @ @ @ @   ;X    ;X  M a = d c M N n / H.IXO (.IX  ' / 8 8 0 > d g g * ;Xo ; 8 8 6 @ @ @ @ 1 1 9 0 6 > ; X X + UX(.[.IX  @ @ O X X X X 6 r UX|.    hXDX  6 @ ,.UXUXpXO 8 @ oXUXO 6 0   @ r sXUXq 6 6 6 6 6 ; @   GX+X> v 6 6 @ ; ; ; 8 ^ 1 @ @ @ @ @ @ @ @ @ @ @ @ @ @ @ @ @ @ @ O @ @ O @ 1 1 1 1 @ @ @ @ @ @ 1 @ @ @ @ < 1 @ X ; 9 1 1 X * @ @ @ ; 6 @ @ @ ; ; ; ; > s M ' V 3.6.B.y.6.3.6.A.9.2.3.6.i.A.O.L G 9 ; @ * d > 6 < @ X G ",
"8 ; 6 6 * 7 @ @ 6 @ @ 6 ; ; ; ; @ @ 1 6 6 9 8 > ; 8  .+.f @ R +.m <XK ' a > @ @ 6 ; ; 6 @   JX|.O W ~ Q S.4.= * @ > d X 0XX   9XO B g x 0 ) ( 9 9 6 >.IX    KX1XO 4 6 0 0 0 ~ ' ' > ;X@ 8 b c > = d d > > ; 1 9 9 8 > > X   AX9XkXNX  @ @ @ @ ; ; > ; | UX_ 6   kXDX  6   JXlX_.UX@ 8 @ oXUXO 9 6 6 6 @ r UX=.1 6 6 6 6 ; @   mX[.8 8 6 ; 1 ; ; 1 9 K 3 X @ @ @ @ @ X @ @ @ @ @ @ O @ @ @ @ @ @ X X @ @ @ @ @ @ @ @ @ @ @ @ @ @ @ @ @ @ @ @ X 6 6 @ @ ; d > ; ; ; 6 1 ; ; ; > > > x c n ' 4.0.L.G.L.a.A.y.G.S.y.0.y.P.Y.z.~ 0 0 ; @ * > 6 4 1 X X @ ",
"6 ; x V k , @ ; @ @ @ @ @ ; ; @ @ ; ; ; ; 1 8 8 ; n %.4.7.5 Q n r oXA 0 > g a X < 9 ; > *   VX`.O K 0 Q S.4.d > @ 0 / X 0XO   9XO ) v x 4 4 O @ v X =.GX  O ,.JXO @ 9 0 0 9 G 9 9 @ 9XO 9 H 0 6 8 n n b > 8 ; ; 9 9 8 > = X pXCXHX|.O @ @ @ @ ; ; 8 8 7 UXXX  # IXSX  @ ).UX7   IXkX  X oXUXO 6 8 :.@ O 9XUX: 6 6 6 6 @ m u.u._ :.H.H.; ; ; 1 1 1 1 < O X @ @ @ @ @ @ @ @ @ @ @ @ O X @ @ O @ @ X @ @ @ @ @ @ @ @ @ @ @ @ @ @ @ @ @ @ @ @ @ @ @ 9 1 @ = M H 6 1 ; @ 2 O @ @ @ 1 @ > v G 0 V 0.F.b.x.V.b.v.v.g.o.O.k.x.b.h.H 9 6 2 t > ; < < @ X X X ",
"6 K k.y.2.a @ 1 @ @ ; @ @ ; @ @ 6 6 ; ; ; 6 8 d v +.S.6.7.< ) x t .X< 0 0 n s = * ; 6 d s l     0 H 8 o.C.4.c 8 < 4 4   ;X    9XO 0 1 @ X X X 9 6 @     @ @     @ ; 0 0 6 @ @ 1 9 O @XO @ < 4 1 4 4 9 4 1 ; 1 1 6 6 9 8 M M ,.UXUX_ X @ @ @ ; 6 8 8 9   aXUXUXUX[.JX  O IXhX  X _.UXm X oXUX@ ; H.UXUXUXUX[.O 8 8 ; 6 O 9XUXIXUXUXIXUXr ; @ @ 6 6 6 @ O X @ @ @ O X X @ @ @ @ @ @ @ O O O O X X X X @ @ @ @ @ @ 1 @ @ @ X @ @ @ @ @ @ @ @ @ O X < 4 @ s B A 1 < + & p i * @ @ @ ; > 8 ~ d 2.e.v.o.Q Q L E R A 9 0 ~ L L O.~ 0 x 9 ; N 0 3 O O X X X ",
"8 E g.k.c > ; @ @ ; ; ; ; ; ; ; 6 6 8 8 8 9 n c ) x.P.6.h A ~ d t XX@ v 9 H 8 x s d 0 ' V M d > 9 9 v  .N.0.5.= X : >   0XO   0XO 9 6 @ @ X 6 6 @   X @ @ @ @ X ; ; ; 6 @ ; 6 6 1 O @XO @ @ @ @ @ + & + @ @ @ ; > ; 8 8 [ ~ O >.UXO @ @ X ; ; 8 8 6 8 0   r ` X O O 6 6 O   8 6 O X 8 8 1 X v 8 @   r ` @ O 9 0 0 6 6 6 O O X > X O O 6 @ 6 ; 8 8 6 1 @ @ @ @ @ @ @ @ @ @ @ @ @ @ X X X O X X X X @ @ @ @ @ @ @ 1 < @ @ @ @ @ @ @ @ @ % $ X @ @ ; @ w s ~ 4 @ @ ; f h z c 6 @ @ ; > 9 v M 9.l.g.L K 9 6 G G 9 6 x c 0 6 x / n 0 4 4 ; K A X @ X X X ",
"x 0 K K 9 ; * ; 6 6 @ ; 6 ; > 6 9 9 0 9 0 0 / B +.D.L.3.> L / x m XX6 8 6 9 G ) 4.d H ) ) n d > 9 G n ) S.0.u.= - b v   9X    1X  > * y y o 8 @ X X @ @ @ X o # w , # @ ; 8 6 ; @ O @XO 7 w , - = h C p - X > d x 8 0 n ..    CXNX  X ; > > 8 8 8 8 8 8 8 8 > 6 6 6 6 6 6 6 6 ; ; 6 6 ; 9 6 7 > 0 0 9 1 6 6 9 0 9 6 6 @ ; > b H 9 ; ; ; ; ; ; 0 9 9 1 @ @ @ @ @ @ @ @ @ @ @ @ O X X @ O X X X X @ @ @ @ @ O @ @ @ @ @ @ @ @ @ : > X # i i 7 @ @ * c a l  .4 8 6 ; v  .L o.E 4 X > ; ; 2.4.N.z.W K ~ 8 9 4 1 6 8 l V ~ > g / H G 4 <   3 3   X X X @ ",
"8 6 ; 6 6 6 8 > ; ; ; 6 6 9 8 8 9 9 9 6 9 H ) ] %.F.a.k 4 ) / 8 7 @X; > ; 6 H $.M ; 9 0 / B M d 8 ( ] @.G.a.q.:.,.m ; O @X    1X  c f C i m ; X @ @ ; X X * = m h C h > 8 8 ; X X   9XO g N 4.V ] N 4.z = d M B v 0 n / ` UXIXIX: * > 8 8 8 v 8 8 0 v x x 8 8 8 8 8 8 6 6 6 6 q q 8 6 > h C 1.C 8 9 ; 7 w m 7 6 6 6 6 ; ; n ~ 9 1 # @ # & y % 5 2 2 : ; @ @ X : X X X @ @ O O X X X X X X X X @ @ @ @ @ @ : : @ @ @ @ @ X X ; > 8 8 @ * n ) 9 @ @ 0 ~ ) R 3 4 A 3 < 3 Z A A 4 * x 9 g 2.w.h.g.R ~ ] ( F < @ @ 6 g 9.@.B c G A 3 @ @ X O O O O O X O ",
"> 1 1 8 8 H 9 x > > ; 9 9 0 9 6 9 6 6 6 6 G  .] %.G.6.s G ( x 6   pX  > 6 > ) / = 1 6 G L ( v x v ) 9.%.T.L.9.r.{ ; 6 ,.`.@ X  X` X.w.] c v 6 ; @ 1 6 ; 6 8 ~ ( O.[ v 9 9 6 d d x X pX@ ( ..k.o.Q j.x.@.] ' ( 9 1 8 { ~ 1 n.,.O @ 6 6 0 9 0 0 8 0 v n n v 8 9 > 8 x 8 8 6 8 x n x x 8 v b { 9.6.V 8 8 x g 5.9.6 6 6 6 ; 8 ' [ c > 7 , , i C C C p p t > @ ; > f > - * @ @ @ @ X X ; @ @ X X X X @ @ @ @ ; ; 6 6 @ @ @ @ @ @ @ 1 9 4 4 < 4 F F 4 X 4 G 0 4 < O O O @ @ O @ @ 1 > g 9 c B j.g.T G M B W 3 @ @ @ @ a V +.) H F 3 @ @ @ O   X X X O X @ ",
"> 6 4 G 8 x H 0 > > 6 6 > ; 6 6 6 6 ; 6 6 9  .} x.A.4.=  .B ; 6 9 J._.o ; n ' c * @ 6 9 9 9 8 x ~ k.r.e.F.L.A.$.v 6   kX  6 6 # sXZ g.( n @ @ @ < < @ 6 9 6 G K E G 9 9 9 v ' n * @X=.1 4 Z 4 6 v ..+.O.E A 1 @ > B / 1 @ O X > 8 6 6 6 6 6 9 8 0 v ~ ~ 0 8 9 x M M x 9 6 9 0 H H H 0 0 ( O.z.b.O.8 9 H ( l.V.9 9 9 9 ; n ) ~ #.6 v n n ' } @.[ m :.{ H < ; 0 B L / / @ 6 @ ; ; @ 6 4 @ X X @ @ @ @ @ @ 1 1 4 4 1 @ @ @ @ @ @ @ @ < @ @ @ @ @ @ @ X 6 9 4 O X X O @ O O X X * ; 8 0 8 K E G F 1 > G Y < X X X = j c E K A 4 < @ @ O X X X X X @ X @ ",
"6 ; 6 K H x x 8 6 6 > g i , ; 6 6 ; ; 6 6 9 ) @.x.0.z 9 ..M * 6 9 O aX-.@ ) B g * 6 ; ; x x b n H j.@.+.F.A.Z.x 6   aX=.@ @ 1 @ (.<XO / 8 @ @ X X X ; > > > 8 8 0 8 ; 6 6 9 H O H.OXO @ X * > n ' / G A 4 < 6 6 B [ 6 @ X * = 0 9 @ @ @ ; @ 6 8 8 0 0 9 6 6 6 n } / 9 6 ; 9 > 8 0 x c 8 8 H E E H 8 8 9 G L W 9 6 6 6 ; n / K R 9 9 G G K Q g.W | ) h.K 1 < 9 X.F A F A 4 < < < < < 4 @ @ @ @ @ @ @ @ @ @ @ @ 1 @ @ @ @ @ @ @ @ @ @ @ X X @ @ @ @ * ; 8 1 O O O X O O X X X * ; ; x v H 0 / 6 1 1 4 1 ; @ X = a s H F 4 4 < O X X @ @ @ X X X O X X ",
"6 ; > H L 0 8 8 ; 9 V 3.2.> ; > 8 6 6 6 6 H ..@.F.5.C F ..a * 6 9 0   iX;Xq =         * X         O 9 9 l.y.l * :.hXu.X > * @ < O ).hX:.              X X                   w 9X|.  ; ; 8 b n ~ 9 4 < @ @ @ @ b #.H 1 ; d 2.5.k a a f = = * ; 8 > 8 8 > 6 ; > n / 0 1 ; 6 6 ; > x c V c x c c c c x 8 9 9 6 6 6 6 6 6 ; n b 6 6 ; 6 1 1 1 4 4 v ^ j.Y 1 @ @ 6 L F @ < O @ @ O O O O @ @ @ @ @ @ @ @ @ @ @ @ @ @ ; @ @ @ @ @ @ X @ @ @ X X X @ @ @ * > 8 1 O   X X O X X X : h s g x ) { 0 X.~ 4 1 6 ; > > > * > x H 4 < < O   X @ @ O @ @ @ @ X X + ",
"9 0 x n 0 6 9 8 x o.x.6.k s a - @ 8 6 8 0 ~ ..V.L.3.f E v * > ; 9 v n ; =.qXqX0X0X0XqXqX9X9X9X9X9X0XqXqXtXtXeX0X.Xo > > d f = X * > q oX9X9X0X0X0X0XqXqX0X9X9X9X9X9X9X9X9X9XOXw   > b x v 8 6 4 @ @ @ @ @ * > / H 6 0 ; @.A.a.6.6.6.3.2.j j k 5.5.f > > = , , 9 9 9 X * ; > 8 8 M B ' c M 4.V ] B M c x 8 8 8 6 ; ; 6 ; n / ; 6 6 9 ; 6 1 ; > 0  .R 9 @ @ @ ; G 4 @ 4 O O O O O O X @ @ @ @ @ @ @ @ @ @ @ @ @ @ @ @ @ @ @ @ @ @ @ @ @ X X @ @ @ * > x n 9 O X   . i X * * , z 2.B ( ....Y G E K 6 ; 9 8 b 0 4 6 x 0 4 < O O O X @ @ X @ @ @ @ @ @ o ",
"9 0 n x 8 8 9 0 v ) o.~ M 2.2.z p @ 8 0 v /  .G.a.2.6 / l > ; 6 0 n M 8 n V =                     O < 1 W 9.s   1 6 6 6 8 c a a c 9.x @             O                       X = d v ~ 9 4 1 @ @ @ * * ; ; > / ) 8 8 6 b k.v.D.F.S.A.y.0.0.0.0.i.i.6.2.l 2.7.7.z C m - * ; = * > x / ~ v M ] } } ] ' B B v 8 > ; ; ; ; ; x ~ ; 8 > > = > ; ; 8 G F 4 6 6 ; @ @ 6 6 < < X X X X X X @ @ @ @ @ @ @ @ @ @ @ @ @ ; @ @ @ @ @ @ @ @ @ @ @ @ X X X @ X * d n / 6 O X X X k 5.g : z 2.y.h.Q ( E G x 9 4 9 x 0 9 8 A 4 * = G 4 @ @ O O @ @ @ @ @ @ @ @ ; @ , ",
"9 v c 0 0 v 0 G 9 8 x L h.0.3.3.z t 6 0 / / o.T.0.7.G 9.k * ; 6 ~ ] M n @.4.*   O O O           O O @ ; E 9.k X > > > 6 9 / N B +.~ > > X X X X O O O                     X d c 0 9 4 1 @ @ * * ; ; ; > > ~ ( H 6 6 d 0.@.L j.j.v.V.G.L.L.y.S.S.S.r.w.9.y.i.i.6.5.5.z z j z C C h - , h b / [ [ ' ' ' / 0 6 > > > > 6 ; x b 8 > = d d l c > 6 9 9 1 6 6 @ @ @ 1 6 @ X X @ @ X * * * * @ @ @ @ ; ; ; * ; ; @ @ @ @ @ ; ; @ @ @ @ @ X X X X X * * = d n / 9 @ * * > = 9.$.` 5.3.C.g.K H L N c G 9 8 x v 9 9 4 @ * > A < @ @ @ @ @ X X @ @ @ @ * : ; h ",
"G H c 0 L v > 9 9 G 0 ~ j.x.y.6.3.b 9 H ~ / z.P.p.C o.9.a * ; H w.w.n 0 ^ =X;X9X9X9X;X9X9X0X9X;X9X0XqXqXtXeXeX;XJ.  8 > x / ) ( G 4 O '.-XqXqX0X;X;X;X#X9X9X9X;X;X;X;X;XpX0X{.@ @ ; ; @ ; ; > > ; > v 6 0 ~ 9 9 8 ; ] L.[ 0  .( ..h.b.T.G.A.S.S.A.r.+.$.x.T.T.S.A.r.9.4.4.3.3.8.3.2.7.d.d.7.:.*.m n v 0 8 8 ; 8 8 8 6 > x [ > g k 2.4.4.B x ; 1 1 6 6 1 ; ; ; @ 6 @ @ X X @ ; a d > > ; @ ; X @ ; d a d > X ; > = = > > * X X X * * * * * = * a j M / ) K ; > > > 6 9 Q M 3.L.D.h.n 0 ' 4.) R 8 x v G 9 1 4 X a 8 4 @ @ @ @ @ @ X X @ @ X @ @ ; @ g ",
"9 G v 0 K 0 ; 6 6 G G 0 ) v.b.r.2.d H H ~ ..D.L.s.b h.] = > c %.+.~ O {.aX:.              X X * * 8 n x  .w.j ; ).kX_ x ] / 9 1 O =.hXH.6 X X X X * X                 X M X ;.sX(.  ; ; ; ; v 8 6 9 6 8 H 9 9 8 0 ; r.G.~ H v c ~ ..O.v.z.x.D.S.a.0.0.{ H.c.c.Z.K.J.&.&.Z.B.P.L.a.i.i.8.6.5.7.7.7.5.g x > > > > 8 8 ; > c [ x N 4.4.9.] [ c d > > > ; 1 ; ; @ @ @ @ @ X X z a > b c x > * * c > > g k l d > * = M d > 8 ; ; ; @ ; ; ; > = > 8 > l ' / ) K @ * ; ; @ X @ l 8.G.b.e.9./ n / W G 0 v ( L 0 1 < * h 8 9 X @ @ @ @ @ @ @ @ @ X @ @ @ 6 j ",
"6 9 6 0 G 6 6 6 > > 0 K v  .j...n 8 8 ~ ^ o.T.a.7.~ ..x 8 n ' H G O @X_.= d = = a g M N { ' ' n ~  .../ h.A.6.k f   zX&.^ ; X X -.aX  0 4 1 9 9 H ) n > * * ; 8 n H 9 W ( ; ;   |._.O ; 8 0 9 6 6 6 8 n 9 6 6 > ; x S.%.8 8 N 9./ v ~ ( ( E j.b.G.G.r.9.q.9.q.Z.Z.u.u.>.H.Z.x.D.F.C.G.P.P.P.L.a.i.i.6.M l k 2.k d > , h h z b c / @.+.} } ' n 6 8 { 9 ; @ @ ; ; X @ ; ; X 4.{ @ 0 n c v ; ; 0 K 6 x c B n 8 ; 8 n n 8 0 9 @ @ @ ; * ; ; ; > - - z &.M n L * f s s a a a 2.0.b.h.) k.h.L L K 6 9 9 K L v b 9 X = { 0 O @ @ @ @ X @ @ @ @ X X @ X * 2.",
"6 6 8 8 9 1 6 6 9 8 8 G G 0 ~ n v 0 n V ' h.P.a.N [ ' c H v > ; > >.-XM 4.2.M N M c / ) ~ ~ L H 0 L ~ ) h.G.i.3.k B   hX  ; * X kX  8 @ @ 6 6 1 4 G 9 6 > 8 8 9 9 6 6 G 9 ; ; ;   iXr 9 9 6 6 6 ; 6 { 0 6 ; 6 8 * r.P.} M c e.@.~ v ~ v v 0 H ..h.k.O.Z.S.A.y.S.S.A.r.@.w.e.@.$.O.O.l.D.V.b.D.D.T.T.N./ B 0.8.6.2.l 7.d.7.d.d.7.7.C C m H L 9 6 6 L 9 ; * * * > * X @ @ X 0 j.4 @ 9 0 8 6 @ < 4 < ; 0 0 9 1 @ @ : w : # ; * X * * = = a a k 2.3.3.6.8.6.9.M 2.3.6.6.N M 2.e.g.L / L L H 0 6 1 6 6 9 9 0 H K 9 * x o.F X ; @ @ X X X X X X X X O X k ",
"6 8 8 ; > : ; 6 9 9 8 8 9 G ~ n n ( +.9.4.F.L.9.B } V g n n g M = aXx 9.9.[ ) 0 q P 6 9 8 8 0 x d v ) ' k.G.L.0.4.x 6 H.H.; ;  X-.6 ; @ @ ; ; @ @ @ 1 1 1 6 1 6 @ @ 9 9 > 6 ; 0 b # 9XO 1 ; ; ; ; ~ ^ 6 ; 6 6 8 x L.G.) ) @.x. .~ 0 0 v n x v n / ~ | J.h.z.D.C.P.P.B.k.k.O. ...~ ( +.$.O. . .O.o.o.Q L H +.C.C.@.] 9.y.y.0.i.8.6.5.5.5.4.g > > > 9 8 > ; ; * > > X @ @ : < 4 @ @ 1 6 @ X X X @ X * X , C h - = a z z k k k f d d g 2.4.6.6.8.i.y.L.L.G.l.+.[ r.l.O.E ( w.D.E b 4.[ G 6 9 4 1 ; 6 6 9 1 4 A 9 6 1 A A @ ; 1 O X X X X X X O O + * a ",
"0 9 9 8 d - > : 7 1 ; > > 0 G H v o.v.@.y.G.a.4.[ ] 4.4.9.] ] ' q qX) w.~ v x x m q 8 8 n n n b x ~ O.} S.P.P.y.B > > @ @X  O 0X  ; ; @ @ @ @ @ @ @ @ @ @ 1 1 1 @ @ ; @ 6 6 9 G 9   9XO ; 6 ; > x ~ H 6 ; 6 6 ; ' P.V.K E h. .n / / v H H 0 n / n v ,.J.L E o.h.G.T.B.} } / v c a > H ( 0 6 ~ n v 0 8 6 6 ~ O.h.o. .k.b.D.T.E.E.P.L.a.i.i.6.j k l > > > = - , h * X X X X - - * X X = h h s a * = a a k 2.2.2.k j 2.2.4.k M c 8 8 x / [ O...B.S.b.z.D.b.j.R L  .g.T G x 4.k.K k 6.N.W 4 1 < ; 6 6 6 4 1 @ @ X 1 4 @ < @ ; 1 O O O @ O X O O O o = s ",
"9 9 H x g d d h , t 9 8 x x 0 0 H L o.h.b.G.y.9.@.w.r.w.] / ~ 0 ` 0X) V b v ~ ) c d v v v ( ~ / / x ^ N.E.E.V.@.v 6 6   9X    9X  ; ; @ @ @ @ @ 1 @ @ @ @ @ @ @ @ @ ; ; 1 1 1 1 1 O @XO @ @ ; x ) 0 6 ; @ ; 6 * y.G.( G 0 E G H L ~ n 8 0 H H ) / n H.Z.9 0 H H j.v.j...} B M 2.5.z > 8 >.oX6 8 6 > g g ; 0 0 9 6 9 9 J X.k.z.h.b.b.D.F.D.@.c l M d = a j k 5.7.j = * * a j k k a * a 2.2.2.k a > d d g M V c 8 ; > 8 0 6 1 0 9 6 0 H A A G ] y.h.K ( h.E 9 9 4 A A 6 d } h.L M r.j.T 4 @ @ @ ; 6 4 1 @ @ @ @ @ < @ @ X @ < < O O O O O O     . * d ",
"8 9 H ( ~ / n c d - G G 0 8 x n 0 H ( o.v.x.@.@.r.e.@./ n n x n ` 0X] ] v ~  .L 0 x v ~ 8 ~ ) ( c 4.p.T.D.$.Q ~ > ; ;   ;X    9X  @ @ @ @ X 1 X @ @ @ @ @ @ @ @ @ @ 6 6 ; 6 @ @ @ O @XO @ @ 6 ^ 0 6 6 ; ; ; > M L.%.H 8 n ~ 9 H 0 K H 8 0 0 H ~ ) / K...0 8 0 H 0 G K L Q  .} a.i.6.2.X GXUX(.f C 7.j g > = a z k s j 7.7.6.4.4.V 9.0.9.] V 4.4.V c s 2.2.2.6.8.6.g > = a l M M > ; > 8 x 8 6 ; @ 6 6 1 1 1 1 1 1 @ @ @ ; 6 6 G 9 6 v 9 ; * 2.0.h.n M ) K 9 9 1 1 < @ > ) z.H x Q f.A < X X X ; 9 1 4 < @ @ @ @ @ @ O X X @ @ @ O O O O     . - * ; ",
"8 9 H H L  .( ~ x 8 0 9 9 0 n x x L ( H o.$. .h.%.} / v n M V ] t.qX@.' 0 v 0 0 0 0 0 > ; #.n V y.6.G.z.) c ~ 0 > @ ;   ;X    9X  @ @ @ @ * X , X ; @         @ X @ 6 6 ; ; ; ; ;   ;XO ; > 0 0 6 6 ; 6 ; ; > A.P.~ 8 8 e.H 0 0 8 8 0 0 0 0 0 ~ ~ @.G...0 8 9 x c x 8 8 0 L  .b.Y.A.0.2.U.hX3.3.3.5.6.9.M 2.3.8.8.3.6.8.i.a.i.6.0.6.i.0.N l 4.N c x > c c n v / ~ 8 ; ; 6 6 6 1 1 ; ; ; 1 1 1 @ @ ; ; ; ; 6 6 6 1 ; ; ; 6 ; 6 9 9 6 9 H 6 - 2.C.g.n 9.L F 4 @ @ 1 @ > c n E H 9 A 3 O O X X @ ; 9 1 4 @ X = > @ @ @ @ O X @ @ @ @ O O X   . & f k = ",
"8 0 0 0 H H H 9 9 6 ; ; 8 ~ ~ 0 n n n 0 ) ) )  . .n v ~ ) [ @.@.&.qX/ v x 0 x 0 0 0 H Z.CXx 0.a.3XMXA ..n c 0 ~ g * ;   9X    9X  ; @ @ @ @ - h X ; O lXPXPXNX# @ @ > 8 6 6 6 ; ; O ;XO ; x 0 6 9 8 6 6 ; ; ' P.G.0 v ] B.            0 9 9 0 0 v @.G.( @   X X a N c b     H  .R F D.B.V d L.L.L.y.9.c * c y.L.G.B.N.G.G.G.C.O.k.$.b.x.v 8 0 9 9 6 6 6 6 9 9 9 6 6 6 ; ; 1 6 6 6 ; 6 @ ; ; ; ; 1 1 1 6 ; 6 ; ; @ ; ; 6 6 ; ; 9 > 8 9 H 6 k 6.z.R n r.E 4 @ ; ; @ ; > x ~ 4 4 4 4 O X X X @ @ 6 1 1 < @ * a 8 1 X @ @ @ @ @ @ O O O   X   . , k 2.d ",
"0 8 0 0 8 > > 9 9 9 9 9 G G 9 G H n M ~ ) ~ n / ~ ^ ~ ~ )  . .+.&.0Xx 8 n n n v v v ~ J.UX4.L.F.,XPXO ~ n x 0 B k X @   ;X    9X  @ @ @ @ 1 ~ > @   mXCX*.*.kXJX  1 b ; @ 6 ; ; @ O @XO > ~ 6 6 9 9 6 8 8 6 B.E.B.v n A.6 NXHXHXHXSXxX  6 ; ; 0 H O.x.O oXJXUXUXSXH / X FXsX  X {.LXE Y ,XJXj.b.v./.IXUXPXkXK v.v.g.Q g.j.h.R gXR.H ( H 6 ; 6 6 ; ; ; ; ; 6 6 6 @ @ 1 1 @ @ 1 @ @ 1 1 @ @ @ @ @ @ @ 1 @ ; ; ; 6 1 ; ; 1 6 ; 6 ; M / 9 9 8 2.i.v.F x +.W 4 @ X ; > ; 1 4 G 4 < @ < @ O O X @ @ 6 6 @ @ @ * f 0 4 O O X @ O @ O O O O     O . , 2.k 0 ",
"8 8 8 0 8 x > 8 > 6 6 9 9 6 6 9 ( ' n / ' ~ [ / ) n v H H L ( ] | -Xx ~ / / v n ~ ~ n U.UXS.F.G [.KX  ' c = M y.g * @   9X    9X  @ @ @ @ 4 G 1 @   IX*.O O # UX# 9 G 1 ; ; ; @ ; O @XO b 6 6 6 6 6 9 9 0 8 S.T.( 0 [ S.6 _.[.[.H.UXhX  ; ; 6 9 8 ..o.O 1X{.Z.U.UXmXO 9 `.UX|   UXaXO O <XUX4 R I UX0Xn.[.pXO G G 4 1 6 9 0   PX|.; 0 6 ; ; 1 1 1 1 1 @ ; 6 ; ; @ @ @ @ @ @ @ @ @ @ @ @ @ @ @ @ @ @ @ @ @ @ @ @ @ @ ; ; 6 6 6 > V #.K 4 * 4.A.g.9 x ~ K @ X * > 6 1 < 3 3 @ @ X @ @ X X X X @ ; x b @ X * d G 3 O @ X O X X @ O   O   O O o = k c 9 ",
"x v 0 v n c c c > 6 6 ; ; 6 6 G ( / L ) n E o. . .~ v 0 8 H ) } | 0Xn ( ( ~ ~ v n V y.&XUX( 0 @ '.LX; ' g 9.A...; ; @   9X    9X  @ @ @ @ 1 1 @ @   UX;.O X 7 UX7 @ 1 1 ; ; ; @ 6 O @X- 8 @ 6 6 6 6 6 6 6 n G.x.H 8 %.$.9 ; @   9XUX  6 X   O O O 4 H 6 O 4 Y < zXFX  {   JXkX[.UX; l    XUXo X `.UX@ @ @ X 0 6 ; ; ; 6 X     JX_.    6 6 @ 6 6 @ @ @ @ @ @ 1 ; @ @ @ @ @ @ @ @ @ @ @ @ @ @ @ @ @ @ @ @ @ @ @ @ @ @ @ ; ; ; ; 8 L j.W @ f 2.N.f.1 > G 4 ; > > ; ; 1 < O O O X @ @ @ X : @ @ @ 1 6 J A O * > 4 3 @ X X O X @ < O   O O     o = s 8 1 ",
"n n 0 ~ / B g d = > ; 6 6 6 9 G ~ 0 H 0 9 L L H H H n v 0 ~ ..) &.0X9 v / / 8 M 6.a.G.R.UX@ > X ].LX1 / e.V.) 1 ; @ @   ;X    9X  @ @ @ X @ @ @ @   UX;.O X 7 UXr @ @ @ ; @ ; @ @   0X6 @ @ 6 6 ; ; ; 6 @ e.G.) v 0 B.H 9 8 9 r UX).@ O ).kXsXsXgXgXO 6 @       xXDX  ) ] J.UXUX0X6 N X  XUXo @ _.UX*.    @ 9 6 ; ; ;   iXUXPXIXIXIXUX7 6 ; ; ; @ @ @ @ @ @ @ @ @ @ @ @ @ @ @ @ @ @ @ @ @ @ @ @ @ @ @ @ @ @ @ @ @ @ @ ; ; ; 6 9 G K A * k 6.l.T @ > 9 6 > > 6 4 ; @ < O   X X @ @ @ @ 1 4 @ @ < 4 4 A < ; ; 4 < X @ O O   X 4 O   O       o = a 6 < ",
"0 v ~ ( ) n n x d d > ; ; > 6 0 x 0 v 8 9 9 0 8 0 L ~ 0 H ( ..) ` oX6 / ' c 7.0.P.G.L H.UXX 8 ; [.LX< h.o.H 6 ; @ @ @   ;X    9X  @ @ @ @ @ @ @ @   UX;.O X 7 UXr @ @ @ @ @ ; @ * a qXO @ 6 6 ; ; ; ; 6 6 F.b.0 8 +.%.8 9 9   BXDX  6   `.xXzXxXzXlXO O ,.JXUXUXUXSX  F W   FXUX* .. .O XXUXo 8 O PXUXIXHXH.O 6 6 ; ; * :.`.J.LXpXH.`.@ ; ; @ @ @ @ @ @ @ @ @ @ @ @ @ @ @ @ @ @ @ @ @ @ @ @ @ @ @ @ @ @ @ @ @ @ @ @ @ ; ; 6 8 9 9 6 ; = 2.i.v.A > b 9 @ > 8 4 1 6 1 O O       X @ @ @ @ 4 @ @ < < O O X ; 1 3 O O O X O X * 1 - * O     . o = * 1 < ",
"t w 0 ( ) / n x x d d > > 6 8 n c x 8 > 8 x 8 0 0 H 0 0 L ( ( ( ` oXv / V 0.a.E.V.H 6 :.UXX v > {.LX3 K 6 8 ; ; ; @ @   ;X    9X  @ @ X @ @ @ @ @   UX;.O X 7 UXr @ @ ; @ @ 1 * c x 9XO @ 6 6 ; ; ; 6 ; ) D.E 0 0 B.( 8 9 @ ,.UX*.; ; ;             8 @ UXkX7 O xXDX  @ 4 _ UXUX_.0 n X  XUXO 9 ; O H.[.DXUXO 9 9 9 6 6 6 ;   JX[.  X 6 ; ; @ @ @ @ @ @ @ @ @ @ @ @ @ @ @ @ @ @ @ @ @ @ @ @ @ @ @ @ @ @ @ @ @ @ @ @ @ 6 @ 9 0 9 8 8 ; = 3.y.g.4 = n H @ @ 9 A @ < 4 O O O O   O O @ O O O @ @ @ @ @ O X > 1 <   O @ X @ O @ 1 6 8 4 O   o * = ; @ @ ",
"2.C p q v / n v n c d d > 8 n B c c 6 6 0 x 8 8 0 8 x v L ( ~ / ` 0X8 ] L.E.T.O.0 8 * :.UXX 8 ] {.LX  ; 8 8 ; ; @ @ @   ;X    9X  @ @ X @ X @ @ @   UX=.O @ # UX7 @ @ @ ; 6 @ > @.1 @Xo @ ; ; ; ; ; 6 > C.z.G 0 L O.v v 9   PXxX  8 6 @ @ ; ; 6 8 6 6 :.UXP 1   zXDX  @   VXBXaXPXO ~ X  XUXO 6 @ ; X X m UX_ 1 6 6 6 6 9 H X LX.XO ; ; @ @ 1 @ @ @ @ @ @ @ @ @ @ @ @ @ @ @ @ @ @ @ @ @ @ @ @ @ @ @ @ ; @ @ @ @ @ @ ; 6 ; 9 K 9 6 8 6 = 2.V.W @ * 9 G @ @ 3 < X @ O X X O X X     O O   O X @ @ @ @ X ; > 9 > = X X O X X X < < 4 A O . & * = 6 @ @ ",
"3.3.7.;.*.x c n n c c g x H ) { n x 6 H H 0 8 0 0 v n n H H ~ ) ` -X4.P.E.D.( 8 8 > N B UX` < < hXVX  6 ; > ; @ @ @ @   ;X    9X  @ @ X @ @ @ @ X   KX`.    -.UX  @ @ ; ; @ * { ( O @XO @ ; ; ; ; 6 ; ] G.( 9 0 ( ( 0 0 @ 1XUX  O O O 6 @ ; 6 ; 8 6 9 r UX,.    DXSX  @ *.UX-.# UX[.O   OXUX+ p ,       H.UXr @ 6 6 1 6 O @ 8   O O o ; ; @ @ @ @ @ @ @ @ @ @ @ @ @ @ @ @ @ @ @ @ @ @ @ @ @ @ @ @ @ @ @ @ @ @ @ @ @ @ 6 ; 6 9 6 ; 9 2 a 9.j.F * 6 4 9 ; @ O X O O O O X O O         @ X   X @ @ @ @ X * > 9 > z > O O @ @ @ X X ; O O $ , = = 6 @ @ ",
"0.8.3.5.:.:.h n [ / ~ v v ( ) / / > 8 0 9 8 8 v H ~ n x x ~ ) n q.eXA.D.o.H > 6 > ] e.> dXUXPXIXUXm @ ; ; ; ; @ @ @ @   ;X    9X  @ @ @ @ @ @ X - * >.UXPXKXUX[.  @ ; > = d b H 1 O @XO ; 6 ; ; 6 6 > L.S.0 0 0 H H H 9   UXUXIXUXUXLX  @ ; 9 8 0 9 6   AXUXCXPXNXPX    IXVX    aXUX: y :XUX+ a '.UXHXDXUXkX  ; ; 6 @   sXUXUXUXUXUXUX7 ; @ @ @ @ @ @ @ @ ; @ @ @ @ @ @ @ @ @ @ @ @ @ @ @ @ @ @ @ @ @ @ @ @ @ @ @ @ @ 6 ; 6 6 6 > 6 , k ' g.A > 9 4 ; 6 @ X * @ O O O O O O O O       + & O @ X @ @ X = > 4 4 > J A @ @ O X X = d ;   , f k > 1 @ @ ",
"F.a.8.3.3.5.d.C n / / H v ( / ' x 6 0 8 8 8 v v 0 ~ x M / n ' 9.I.tXO.H 0 > a N ' O.@.A.8 q :.*.  @ ; ; ; ; ; @ @ @ @   ;X    9X  @ @ @ @ @ X 1 ~ >     *.=.#   # @ 8 x c V v 1 ; X @XO 6 ; 6 6 6 > ] P.e.8 0 0 0 0 9 6 1 :.:.:.:.:._ @ ; @ 6 9 0 6 6 6   `.XX;.  *.o 7 ,.+ : :   >.=.k 5.u.; X.9 _ `.XXn.  6 ; @ @ @ @ e =.>.:.*.*.=.; ; @ @ @ ; @ @ @ @ ; @ @ @ @ @ @ @ @ @ @ @ @ @ @ @ @ @ @ @ @ @ @ @ @ @ @ @ @ ; 6 6 6 6 ; > ; h 2.@.Y @ ; 4 1 1 4 < X ; 4 O   O O O O O O       o , = X X @ O X d 6 3 O @ Z 3 @ @ @ X ; = f 8 @ h 2.2.8 1 @ @ ",
"b.b.S.i.8.3.3.7.1.C m n n ~ ) ' > 0 0 > 8 v ~ v 0 n } } M 4.y.P.Y.<X6 8 > M 4.] ' e.l. .G ; @ ; ; @ ; ; ; ; ; @ @ @ @   ;X    9X  @ @ @ @ 1 X A K @ X @ @ X @ @ @ ; 8 ~ ( H 6 ; ; O ;XO 6 6 6 8 8 x y.E.[ 8 0 n v 9 9 6 9 6 9 9 6 6 6 6 > 6 ; C w ; 6 ; * @   X : , - o X X f a > @ ~ ..h.G 4 R K @ @ O @ @ ; ; ; @ @ @ @ X > b 6 X X ; ; @ 1 @ ; @ @ @ @ ; ; @ @ 1 @ @ @ @ @ @ @ @ @ @ @ @ @ @ @ @ @ @ @ @ @ @ @ @ @ ; 6 6 9 6 9 , h 6.x.K = > 4 1 < 3 O X 6 A O   O O O X O   O   X * s 5.g @ X & , > 4 3 O @ O O O @ @ @ @ > g 0 6 s 2.k 0 4 @ @ ",
"%.z.b.T.L.i.8.3.5.d.C x n ' } d > 8 0 x v ~ n x / %.@.V 0.L.G.o.` oXX > V r.[ ] r...K 9 6 ; 6 6 * @ ; ; ; ; ; @ @ @ @   ;X    9X  @ @ @ @ @ @ 1 < @ @ @ @ @ X * f 8 9 G G 4 @ ; 6   ;XO 6 6 8 8 8 ' P.G.H 0 n { v 8 6 ; 6 9 H 9 6 9 6 6 ; 9 ; C x > > 6 > g a = = > > > @ ; H 0 1 < G T T F @ 1 1 ; @ @ @ @ @ @ @ @ @ @ @ @ 6 ( R @ ; ; ; @ 1 @ ; @ @ @ @ @ @ @ @ 1 @ @ @ @ @ @ @ @ @ @ @ @ @ @ @ @ @ @ @ @ @ @ @ @ ; ; 6 6 9 8 6 C z 0.v.F d n 9 1 4 O X X 4 3 O O O X O X O   O   * ; > } X.4 X X f k 6 < @ @ @ X @ X @ X @ > d 0 1 = 2.M 9 < @ @ ",
"9.@.k.b.b.G.a.i.8.3.5./ B 9.V 8 8 x n ~ ~ v n / +.[ w.A.P.F.) 9 e oX> ] @.[ r.B.E 4 ; ; ; ; 6 6 ; @ ; ; ; ; ; @ @ @ @   @X    9X  @ @ @ @ @ @ @ X @ @ @ @ * d N c 6 4 4 ; ; ; ; ; O ;Xo 6 6 8 8 8 e.E.l.0 0 r.[ 0 9 8 > 6 9 9 5 5 6 6 1 6 ; 9 { v > x 6 ; ' / 0 9 9 9 1 @ < F F @ X < 1 1 @ @ X @ @ @ @ @ @ @ @ @ @ @ @ @ @ 6 0 4 @ ; ; ; @ 6 @ @ @ @ @ @ @ @ @ 1 1 1 @ @ @ @ @ @ @ @ @ @ @ @ @ @ @ @ @ @ ; @ @ @ ; ; ; 6 6 9 x 8 1.5.y.f.A x ( A 1 < X X @ < O O O O X X O O   O O   < 4 G W A @ X s N K 3 X @ @ @ O X @ X X > > 9 1 = s 8 4 @ @ @ ",
"/ N ' $.h.v.Y.P.a.8.6.9.r.V g > ~ / H 0 v v ~ ~ { r.P.G.z.) 8 6   qX8 [ } B.$.G 6 6 ; ; 6 6 @ @ @ @ @ @ ; ; ; @ @ @ @ *.|.    @X: @ @ @ @ @ X ; @ < @ X * > n v 6 @ @ ; ; ; ; ; ; O iX  6 9 0 8 v S.G.~ 0 ( x.~ 9 9 6 8 8 6 6 m C @ 6 ; 6 6 9 j.G 6 9 6 1 Q E 4 4 4 < @ @ @ @ @ @ @ @ X @ X @ @ @ @ @ @ @ @ ; @ @ @ @ @ @ X > v @ @ ; ; @ @ @ @ 1 @ @ @ @ @ @ @ @ 1 1 @ @ @ @ @ @ @ @ @ @ @ @ @ @ @ @ @ ; 1 1 @ @ 6 ; 6 6 9 0 ~ 0 7.8.G.Q ; > K A < @ X @ @ @ O       O X X O   O O   O O @ 4 4 @ * f ~ f.3 # O O @ @ X X X * = d # 7 a = 6 < @ @ @ ",
"..) B ] +.j.v.D.F.r.0.i.6.4.N *.b v 8 8 n n b u.y.P.b. ./ d > d n 0XZ.r.N.E 9 9 ; ; ; ; ; 6 6 @ @ @ @ @ ; > ; @ @ @   pX7 @ @ _ XX  @ @ X X @ X @ X = > 8 9 9 4 @ @ @ @ @ ; ; @ @ ).).@ 1 6 0 > ' P.l.0 0 ( +.v 8 8 9 0 9 1 9 n B ; @ @ 6 1 9 E 9 9 6 1 1 R A 1 @ @ @ @ @ @ @ @ X @ @ @ @ X @ @ @ @ @ @ @ @ @ @ @ @ @ @ @ X ; ~ 1 X ; ; @ @ @ @ 1 @ @ @ ; @ @ @ @ @ @ 1 @ 1 @ @ @ @ @ @ @ @ @ @ @ @ @ 6 6 6 ; ; 6 ; 6 ; 9 8 8 0 q 5.i.T.W d x A 4 @ X X @ @ O O       O X X X O O       O @ @ @ @ @ > 9 F 6 * d * X X @ X X = s l - h j > 1 @ @ @ @ ",
"..o.+.] / ) j.b.h.v.D.y.6.3.6.5.f 8 n [ B N p.L.G.O.H / M d V V [ c MXG G 9 6 ; ; ; ; ; ; 6 @ O O @ @ ; @ @ @ X @   (.|.O @ X   ;X=.O @ @ X @ @ * a e w 2 4 @ @ @ @ @ ; ; ; @ @ 7 kX  : @ ; 6 a y.G...v 0 r.) v x x 8 9 9 6 9 Q W 1 ; @ @ @ 6 9 ; 6 ; ; ; 1 1 6 @ @ @ @ @ X @ @ X @ @ X @ @ @ X @ @ @ @ @ @ @ @ @ @ @ @ @ @ > ~ @ X ; ; @ @ @ @ @ @ @ @ @ ; @ @ @ @ @ 1 @ 1 @ @ @ @ @ @ @ @ @ @ @ @ 6 6 6 6 6 6 6 ; 6 6 8 8 8 9 b 2.L.Y.R M n A 1 @ @ X @ @ X X O O O   X X X O O       X X X X @ @ 6 4 9 > > M { @ X @ @ @ = 2.2.N k 2.x 1 @ @ @ @ ",
"( ..+.[ n v ) } } h.v.D.S.i.8.3.k c ..' 0.L.P.C.( 0 ~ [ V V } ] y.y.^ lX;.  X @ @ @ @ @ @ X o & # X X X X : o     |.+X  : * X ;   aX_.    X X * > > w y & X X X O X X @ @ X   u.kXO e ; ; 8 8 4.L.C.( v [ e. .H ~ v 0 9 6 6 9 A A @ @ @ @ @ : 6 ; 6 ; ; ; 6 6 6 ; @ @ X X @ X @ X X @ X @ @ @ @ @ @ @ @ @ @ @ @ @ @ @ @ @ X * / 6 @ ; @ @ @ @ @ @ @ @ @ @ @ @ @ @ @ 1 1 @ 1 @ @ @ @ @ @ @ @ @ @ @ @ 6 6 ; ; @ @ 6 6 6 6 8 8 9 ; z 3.L.b.H N O.A @ @ X @ @ @ X X O X     X X O   O O     X X X X @ @ @ < < @ 3 1 G F @ X @ @ = k 4.9.6.2.0 4 @ @ @ @ ",
"E E [ N V } [ M N } k.z.v.D.B.9.4.9.} A.P.E.x./ n 8 / q.w.+.r.A.e.y.M   XXiXoX XXXXXXXXX X X X X X XXX X X X X+XiX>.  ; > > @ ; ;   (.pXXX X-X-XoXoX-X+X X X X XXXXXXXXXXX+XiX].  ~ x 8 > 0 n L.P.@.~ ~ k. .L H H H 9 6 ; ; 6 6 ; ; @ ; @ & p 7 6 6 ; ; 6 8 ; 6 < @ @ X * @ X X X X @ @ @ @ @ @ @ @ @ @ @ @ @ @ @ @ @ @ X * = n 6 @ ; ; 1 @ @ @ @ @ @ @ @ @ @ @ @ @ 1 1 @ 1 @ @ @ @ @ @ ; ; @ @ @ @ 6 6 @ ; ; ; 6 ; ; 6 8 6 8 > k 3.L.v.0 { g.A X @ X X @ O X X X X O   O O O     O     X X @ @ @ ; @ < @ X O O 4 A < @ @ @ * s ] ' 4.4.H 4 @ @ @ @ ",
"R W ( V 4.9.%...) ' @.+.h.g.g.h.@.} S.T.D.h.( ~ 8 n r.@...B.V.g.h.} > 6 X   r r r r r r r _ _ m r r r r _ m r #   @ 1 6 8 6 @ @ @ @ X   q m _ P P ` ` P r r r r r e r r r w   1 H G 0 9 6 0 / P.G.( ~ H o.G 9 0 0 9 9 6 6 @ 6 6 @ @ ; > ; i 1.X ; ; 6 ; 8 0 6 1 @ @ X @ * ; X X X @ @ @ @ @ @ @ @ @ @ @ @ @ @ @ @ @ @ @ X = g n 6 @ ; @ 1 @ @ @ 1 @ @ @ @ @ @ @ @ @ @ @ @ 1 @ @ ; @ @ @ @ ; ; @ @ @ @ @ @ ; ; ; ; ; 6 6 8 8 > = 5.8.G.g.9 ( Y < X X @ X X O O X X X O O O O O           X X @ @ * > ; < O X X X O O @ @ @ @ * a M ' 4.] G < @ @ @ @ ",
"9 K W Q @.V [ O.O. ./ M M '  .g.g.j.z.h.L G 8 x ~ %.%.[ k.j.K K g.G ; 6 6 ; 1 1 1 1 1 6 9 9 4 4 1 @ 4 4 9 1 @ @ @ @ 1 4 4 1 @ @ @ ; > 8 9 4 4 4 A F F 4 < @ @ @ @ @ 6 6 6 ; 6 6 9 9 6 6 6 > r.P.$.~ 0 ~ H 1 9 8 8 9 6 6 6 @ ; ; @ @ @ 6 ; C d.- ; 6 8 ; 8 B 8 1 @ X @ @ 1 @ @ @ @ @ X @ X X @ X @ X @ @ @ @ 6 @ @ @ @ @ X ; ~ v 6 @ 6 ; @ @ @ @ @ @ @ @ @ @ @ @ @ @ 1 1 1 @ @ @ ; @ @ @ @ @ ; @ @ @ @ @ @ ; ; ; ; ; ; 6 8 8 8 - 2.i.T.E x H 4 @ X X ; : X O O X X X X O O                 O X X * d 6 < @ O O X X X @ O X @ X = g M 4.n 4 < @ @ @ @ ",
"; 6 K o.h.L 0 / .. . ./ M N M ( W f.R G 6 > N ' ( e.r...L G 6 9 G 6 ; @ 6 ; @ @ 1 1 1 6 6 1 1 @ @ @ @ 1 1 @ @ @ @ X @ 4 1 @ @ * d d 0 4 < < @ @ 1 4 1 6 @ @ @ @ @ @ @ ; ; ; ; 6 6 6 6 9 6 x L.G.) v v / 9 6 8 8 8 6 6 6 ; ; ; 6 @ @ @ 9 9 &.q.l > 0 8 6 H #.0 @ @ X @ @ < @ @ @ @ @ @ @ X @ @ X @ X @ @ X @ 6 @ @ X @ @ @ 1 G v 8 @ ; ; @ @ @ 1 @ ; @ @ @ @ @ @ @ @ 1 1 @ @ @ @ @ @ @ @ @ @ @ @ @ @ @ @ 6 6 6 1 ; ; 6 8 8 x 0 f 2.i.D.E b 9 1 X X @ @ 6 = * X X       O O X X   O O       O X X * > 9 < X O O O X X @ X X @ o * a g N ~ 4 < @ @ @ @ ",
"; 6 / ' 0 Y R H x x ..k...n N M 8 9 9 6 > 4.9./ %.B.( 9 x > ; ; ; ; @ @ @ ; ; @ @ @ 1 6 ; @ @ @ @ @ @ @ ; ; @ @ @ @ @ @ @ @ = M c 9 1 @ @ @ @ X @ @ 6 > ; @ @ @ @ ; ; ; ; 6 6 6 ; ; 8 8 ; r.P.N./ v { ^ 9 9 8 0 9 6 6 ; ; ; ; 6 @ @ @ 6 G x.S.' > 9 8 9 E Q 4 @ @ @ @ @ @ @ @ @ @ @ @ @ @ @ @ @ @ X @ @ @ @ 6 @ @ @ @ @ X ; 9 v v ; ; @ @ @ @ 1 @ @ @ @ @ @ @ @ @ @ 1 1 @ @ @ @ @ @ @ @ @ @ @ @ @ @ ; 6 6 6 6 6 ; 6 6 8 8 8 9 m 3.L.b.E x G 1 X X X @ @ > x X O O O     O X X X O O       O @ X ; 6 4 < X X O X X @ X @ O . i f a > d 0 4 @ X @ @ @ ",
"6 9 ' x ; 6 K K L ( } 9.@...H > > g a b ..$.L ..x.( 1 6 g d ; @ ; ; @ ; ; ; ; @ @ @ 6 1 @ @ @ @ @ @ X @ ; ; @ @ X @ @ X ; 6 v 0 1 @ @ @ X X @ @ @ 1 9 ; * @ @ @ @ ; ; ; ; 6 6 ; ; 6 8 9 6 S.E.) ~ H +.0 6 9 0 9 6 ; ; ; ; ; ; 6 @ @ @ ; 9 z.v.W > > 9 6 A A < @ @ @ @ @ @ @ X X X @ @ @ @ @ @ @ X @ @ @ @ @ 1 1 @ @ @ @ X @ 9 v v ; ; @ @ @ @ 1 1 1 1 1 @ @ @ @ @ @ @ @ @ @ @ @ @ @ @ @ @ @ @ @ @ @ @ 6 ; ; ; 6 6 6 6 8 8 8 6 z 3.P.v.H 0 G @ X @ X X @ @ K 3 O   O O   X X   O O         O X X X 1 4 < ; X * X X X X O O $ i j k l g 6 @ @ @ @ @ @ ",
"6 ~ n > ; > 9 G K o.O.' c / ' ~ v 2.4.) j.( E Q L ; 6 0 d = @ ; ; ; @ @ @ ; ; ; @ @ @ @ @ @ @ @ @ @ @ @ ; ; @ @ @ X = f > 1 4 4 @ X X X X @ @ @ @ 1 1 6 ; @ @ @ @ ; ; ; ; 6 6 6 ; 6 9 6 0 T.V.( ~ ~ ) 9 6 9 9 6 ; @ @ @ 6 ; @ ; @ @ @ 1 4 h.R 4 8 8 6 6 1 @ @ @ @ @ @ @ X X X X X X X @ @ @ @ @ @ X @ @ @ @ @ @ @ @ @ @ @ @ 1 8 v @ 1 @ @ @ 1 1 1 @ @ @ @ @ @ @ @ @ @ @ @ @ @ @ @ @ @ @ @ @ @ @ @ @ @ 6 @ ; 6 6 6 6 6 9 8 8 6 k 0.G.g.n ~ A @ @ @ @ O O X < Z O   O O       O O O O       O X * * 1 3 @ ; ; > 8 @ O O O   % h 2.4.4.k 8 @ @ @ @ @ @ ",
"0 { c 6 9 9 6 8 G  .O.W L M 4.' O.e./ ( / H K ~ 0 6 6 0 g = * @ ; ; @ @ 1 ; ; ; @ @ @ X @ @ @ @ @ @ @ @ ; ; X @ X > b x @ < @ @ X @ @ X X @ @ @ @ 1 4 6 ; @ @ @ @ ; 8 > ; ; ; @ 1 6 6 @ ..Y. .~ v { 0 6 9 9 9 1 1 @ @ 1 1 1 @ @ @ @ @ X 4 L 1 ; 0 0 6 ; 6 @ @ @ @ @ @ @ @ @ X X ; X X @ @ @ @ @ @ X @ @ @ @ @ @ @ @ @ @ @ @ @ x v @ @ @ @ @ 1 < 1 @ @ @ @ @ @ @ @ @ @ @ @ @ @ @ @ @ @ @ @ @ @ @ @ @ @ @ @ @ @ @ ; ; 6 9 6 8 : 2.y.D.W M ) 4 @ X O X O O X O O O O     O     O O O       O X X = d 1 @ @ @ O @ 9 4 @ O O   & j 2.9.9.N 9 @ @ @ @ @ @ ",
"^ n ; 6 4 1 6 > 4 ~ / K R E / ) z.E F E H 9 ~ 0 6 6 9 0 x > * 1 @ X X @ < @ @ @ @ ; > * @ X @ @ @ X @ @ @ X * * > 0 G 1 @ @ ; X X @ @ @ X X @ @ @ @ 1 4 ; @ @ @ @ c c ; > ; ; ; ; 6 6 6 x.x.~ c c #.8 ; 8 9 6 ; ; @ @ @ @ @ @ @ @ @ * @ 1 9 6 6 9 9 > ; 1 @ @ @ @ @ @ @ @ X @ ; > * X X @ @ @ @ @ @ @ @ @ @ @ @ X X @ @ @ ; > x n @ @ @ @ @ @ @ 1 1 @ @ @ @ @ @ @ @ @ @ @ @ @ @ @ @ @ @ @ @ @ @ @ @ @ @ @ @ @ @ ; 6 6 6 8 0 - 2.A.b.L c E 4 O @ X O O O       O         X X X O O O       X X a g 6 O X O O < < 4 < O   . , j 2.+.[ B 4 O @ @ @ @ @ ",
") 6 6 1 ; 6 9 4 A n d 6 K T W R A 4 4 9 6 9 v 6 @ 1 G G 0 > ; @ @ X X @ @ @ @ @ @ ; 8 * @ @ X @ @ @ @ @ * s g 8 4 4 4 @ X ; ; @ @ @ @ @ X X @ @ @ @ 1 4 6 ; @ X @ &.n ; ; 6 ; ; ; 6 ; n C.@./ ' +...6 8 8 6 ; ; @ @ @ @ @ @ @ @ ; ; ; @ @ 0 6 6 9 9 8 > @ ; X @ @ @ @ @ X X X @ 9 @ X @ @ @ @ @ @ @ @ @ @ @ @ @ @ @ @ @ X @ 6 x n @ @ @ 1 1 @ @ 1 @ @ @ 1 1 @ @ @ @ @ @ @ @ @ @ @ @ @ 1 @ @ 1 1 1 1 @ @ ; ; @ @ ; ; 6 6 8 9 x 2.G.v.K v R 3 X X O O O       O O         X X X O O O       O X a b 4 < X O O O @ O O O   o , j 4...) n 4 @ @ @ @ @ @ ",
"0 @ * @ 1 1 2 5 9 x > ; 1 2 4 1 @ < 6 1 6 0 8 @ 1 1 4 A 9 ; @ @ @ @ X X @ @ @ @ < 1 @ @ @ @ X @ @ X @ ; c N x 1 @ @ @ X 1 G X @ @ @ @ @ X @ @ @ @ @ @ 4 6 ; @ @ A Q 9 6 6 6 ; ; 6 ; > w.A.] ] [ %.H 8 8 6 6 ; ; 1 @ @ @ @ @ @ ; 6 6 6 @ ; 9 6 ; ; 8 > k 8 1 @ @ @ @ ; @ X @ X @ A 4 X @ X @ @ @ @ 1 @ @ @ @ @ @ @ @ @ X * e e x / @ @ @ 1 1 @ @ 1 @ @ @ 1 1 @ @ @ @ @ @ @ @ @ @ @ @ @ 1 @ @ @ 1 1 1 @ @ ; ; 6 6 6 ; 6 6 8 G f 6.G.g.G 9 A < X X O O O             O O O X @ @ O O         O X > H A < @ @ X O O X O O O & - j V  .~ 0 4 @ @ @ @ @ @ ",
"; 6 ; 1 < @ p p 7 v > * p u & @ @ < O @ 6 v ; @ @ @ @ 1 6 @ < < @ ; ; ; * * X @ @ @ @ @ X X @ @ X = - 8 L L 1 X @ @ X @ 1 1 @ @ @ @ @ @ @ @ @ @ X @ @ 1 6 ; ; @ A F 9 9 6 > 6 8 6 ; B L.S.} 9.@.@.x > ; 6 6 ; @ 6 ; ; ; @ ; @ 6 6 1 @ @ 1 6 6 6 8 n 8 { x 1 @ @ @ @ @ @ @ @ @ @ @ @ X X @ @ @ @ @ < O O @ @ @ @ @ @ @ * , C <.m / ; @ ; 1 1 @ @ 1 @ @ @ 1 1 1 @ @ @ @ @ @ @ @ @ @ @ @ @ @ @ 1 1 @ 1 @ @ ; 6 6 6 6 6 6 6 8 9 s 6.F.W > 8 4 O X O O X X   O     X X O O O O O O O O           X > 9 3 O @ O O O O O O   . & f j ' ( n 9 4 @ @ @ @ @ @ ",
"@ ; : & * f , ; 9 x a a C , o @ @ # & 5 t p + @ @ @ @ 1 6 @ @ @ @ 1 6 ; ; ; ; X @ @ @ @ @ @ X X d M 8 A A 1 @ O @ @ @ @ @ X @ @ @ X X @ @ @ @ @ @ @ @ 1 1 ; ; @ @ 6 ; 9 6 8 6 0 6 6 A.P.N.%.} r.[ n x 8 8 ; ; X ; 6 ; ; ; ; ; 1 1 @ @ @ 6 1 6 6 8 v H o.H @ @ @ @ @ @ @ @ @ @ @ X * @ @ @ @ @ @ @ @ O X @ @ @ @ @ @ @ ; b z C b n 8 > ; 1 @ @ @ 1 @ @ @ 1 1 1 @ @ @ @ @ @ @ @ @ @ @ @ @ @ @ 1 1 @ 1 @ @ ; ; 6 6 ; ; 6 6 9 q k 0.D.R g 0 4 X X O O O O O O O     O O O O O O O O O           * > 1 < @ X @ O O O O X   o , k 2.[ ~ c 9 < @ @ @ @ @ @ ",
"@ , p # ~ ~ 6 6 0 c c N s ; ; ; * - 7 m C <.y @ @ @ @ 1 ; ; @ @ 1 1 1 ; ; ; ; ; X X X X O X a N x 9 < < @ X X @ @ X X @ @ @ @ @ @ X X X @ @ @ @ @ @ @ 1 9 ; * @ @ @ ; 8 8 8 8 0 9 v E.G.+.+.w.B.) / n x x > X t X 6 6 ; @ @ 1 1 @ @ @ @ ; @ ; 6 0 H 0 R 1 @ @ X @ @ @ @ @ @ @ @ @ ; @ @ @ @ @ @ @ X X   X @ @ 6 @ @ @ ; n [ } @./ 8 > @ 1 1 @ @ 1 1 @ @ @ 1 1 @ @ @ @ @ @ @ @ @ @ @ @ @ @ 1 1 @ 1 1 @ @ @ @ 1 ; 6 ; ; ; 6 t 5.y.v.K x J 3 O X O X X X O O O O O O O     O O X     O       X : > < O X X @ @ * X X X X o h 2.2.} ' l 6 @ @ @ @ @ @ @ ",
"x f 6 K K 4 4 1 H ) W R 9 ; 6 6 8 x V 4.k <.u o X @ @ ; ; ; @ @ 1 1 1 1 ; 6 6 > ; ; X * a l B H 4 < @ @ @ @ @ @ @ @ @ @ @ @ @ @ @ @ @ X @ @ @ @ @ X * @ 8 d > @ @ 6 9 8 9 8 0 8 6 $.E.N.O.@.A.+.H L L ~ n 8 s 5.; 6 > ; @ 6 @ ; @ @ @ @ @ ; ; 6 8 8 0 8 6 @ @ ; ; @ @ @ @ @ @ @ @ @ @ X @ @ @ @ @ @ ; X O @ @ 9 @ @ @ 6 ~ ..h.k.[ 0 9 @ @ @ 1 1 1 1 @ @ @ @ 1 @ @ @ @ @ 1 @ @ @ @ @ @ @ @ @ @ @ @ @ 1 @ @ ; @ ; ; 6 6 ; 1 C 3.y.g.9 8 K 3 O X X O O O O   O X O X O     O X O         X X X > ; < @ @ @ @ ; > 6 @ O O X h 2.4.} V k 8 @ @ @ @ @ @ @ ",
") 0 1 4 < @ @ 9 G G F 4 1 1 4 4 F K $.w.k C <.% X ; @ ; 6 ; @ @ @ @ @ 1 1 6 9 6 ; = a l n ~ A 4 @ @ @ @ @ @ @ @ @ @ @ @ @ @ @ @ @ @ @ @ @ @ @ @ @ @ ; @ 0 x ; ; @ 6 9 8 8 8 0 9 8 N.F.+.[ w.S.v / v G E H 6 c 9.> ; 8 6 ; ; @ ; @ @ @ @ ; ; ; 6 8 v v x 8 * @ ; 8 @ @ @ @ @ @ @ @ @ @ @ @ @ @ @ @ @ 6 @ O @ @ 1 @ @ @ 6 0  .Q o.) 0 ; @ @ @ @ @ @ @ @ @ 1 1 1 1 @ @ @ @ 1 1 1 1 1 1 @ @ @ @ @ @ @ @ 1 @ @ ; ; ; 6 6 6 ; 6 h 6.A.j.9 9 A O O X O X X X X     O O O O O O X X O O O + o X X * = 6 4 @ O @ @ O 1 A Z < X * j 2.9.} 4.k 0 @ @ @ @ @ @ @ ",
"A 1 @ @ @ X ; 6 9 6 @ @ @ @ 1 4 A K v.h.V k <.u @ @ @ 1 ; ; @ @ @ @ @ 1 1 6 9 6 4 8 n n G 4 @ X X @ @ @ @ @ @ X @ @ @ @ X X @ @ @ @ @ @ @ @ @ @ @ ; * w A 0 ; @ ; 6 8 6 8 8 8 6 c S.l.) / S.+.: { x 0 9 6 4 g.o.; 9 9 6 @ @ ; ; ; ; @ @ ; @ 6 6 0 v v v 0 @ @ 6 8 @ @ @ @ @ @ @ @ @ @ @ @ @ @ @ @ @ 6 @ O @ @ 1 7   6 6 H E G 9 ~ 9 6 @ @ @ @ @ @ 1 @ @ 1 1 1 1 @ @ @ @ 1 1 1 1 1 1 @ @ @ @ @ 1 1 @ @ @ ; 6 6 ; 6 6 > 8 6 z 0.G.g.1 6 1 X X X X X O O O     O O O O O O X X X X O O o @ @ = f 9 3 O O O O O O 3 3 O o = j 2.} ) N N 9 < @ @ @ @ @ @ ",
"4 @ @ X @ 6 ; 1 6 > X @ @ ; @ @ 1 H Q f.) j C y @ @ < 1 ; @ @ @ @ 6       O b 0 <   O   6 @       * @ X   : @ @ O         @ @ @ :   O :     7       * N O 4 > ;   8 ;   O   8 8 9.G.+./ [ %.{.UXR.6 X 7 _ < K K 1 9 9 @ 1 @ 6 ; ; @ @         8 v X   - O 6 X 9   : @         : @       X           q         O PXNX  9 G L 9 ; v 6 ; @ @ @ 1 @ 1 1 @ @ @ @ @ @ @ @ @ @ 1 1 1 1 1 1 1 @ @ @ @ 1 @ @ 6 ; ; ; ; ; 6 6 ; 0 7 7.0.b.W > ; < X o . $ $ . . O O o O O O X   X X X X X O O X @ @ = g G < O O @ O O @ O & , , , s 4.@.) N l 9 @ @ @ @ @ @ @ ",
"@ X @ @ 4 1 ; 1 6 ; @ 1 1 @ @ @ 9 ~ A f.g.N s & X @ < 1 ; @ @ @ @   9XUXUXxXX   iXIXUXzX  O u.LX|.  O m AX  @ O _ JXKXKXsX  @ @   VX-.  XXkX  kXJXJXIX= GXJ 8 @ HX@ *.IXUXKX; / P.B.) / +.L UX0 A 1 _.UXpX  6 6 ; 1 1 * ; ; 6 6 @ @ O GXUXUXhX  X dXJXIXxX  @ P SX  # DXKXKXBX    AXUXUX_ AXHXVXPXaX  CXUXIX_.*   JX).> 0 0 9 > n ; ; @ @ @ @ @ 1 @ @ 1 @ @ 1 @ @ @ @ @ 1 1 1 1 1 1 @ @ @ @ @ @ @ @ @ ; 6 6 1 ; 6 r : 6 q 5.a.b.L l ; + & y u <.<.y & X   o X X X X X @ X X ; X X @ X @ < > x A O O O O O O O + $ , i i a V  .H c x 4 @ @ @ @ @ @ @ ",
"@ ; @ @ < @ @ 4 9 ; @ @ X @ 1 @ 9 8 @ F f.[ = # # @ < ; ; @ @ @ X =.UX  O X.1 *.UX:   # @   lXxXHX    _ IX  @ X -.LX+ e # X @ @   PX,.  UXw   HXH.J c.O fXgXO |.NX  UX>.O _ 8 r.G.O.) / %.^ UXO 0   AX;.  q       ; 6 O X     6 @   vXpX    PXu.  AX-X2.BXaX  _ UX  7 UX7 r 7   lXhX  + @ w *.UXO # sXzX  7 q 9 @ hXpX* 0 0 8 d M @ @ ; 1 1 @ @ @ 1 1 1 @ @ 1 1 @ @ @ @ 1 @ 1 1 1 @ @ @ ; ; ; @ @ 1 ; 6 6 6 6 ; 6 8 N d l 3.L.z.v 4.0 # y i i i h h = * * X X X @ @ @ @ O @ ; ; @ O O O O 6 H Z O O O O       o & - f x l / R 9 > 6 4 @ @ @ @ @ @ @ ",
"; > @ @ @ @ 1 1 8 > @ @ X @ 1 6 9 X @ 4 T K 6 * & o @ 6 ; X @ @ @ (.AX  9 9 @ _.ZXX X @ @   IXw UXO O _ IX  X X -.KX  X @ @ @ @   KX-.iXzX    HX,.< 4 @ e IX  GX,.@ UXO v 0 M P.V.) / [ @.` UXO X `.UXJXH.  kXIXHX7 @ H.).DX.XX ;   HXM.@   xXoXX ZXqXy.-XBX  _ IX  7 UXO X @   DXH.@ @ @ X t IX    SX).  X @ A O kXaX1 8 9 9 M / @ ; @ 6 @ 1 1 1 1 @ @ @ @ @ @ @ @ @ @ @ @ @ @ @ @ @ ; 6 ; ; 1 ; 6 6 6 6 6 6 6 6 8 9.} g 6.P.v.n 9...> = a s j k M x 6 @ @ @ @ O O O < O O @ < < O O O X = 9 3 O O . o % %   X * = n ] V ( F 9 > ; < @ @ @ @ @ @ @ ",
"; > @ @ @ @ @ 9 ; ; @ @ @ @ 1 8 6 X @ 4 A A ; = i y < 6 ; @ @ @ @ -.UX*.7   @ `.ZX  @ @ @ # UX  PX*.  _ IX  @ X -.KXo r @ @ @ @   KX*.UXO @   HXH.w e ;   PX2 UX    IX[.q   0.P.%.[ / e.) ` UXO 9 @ HX).o [.CX  `.DX  H.UX:.@ 6 ;   JX).X   vX0XX ZX8Xw.vXaXX _ IX  7 UX7 e :   DX(.X @ @ @ t IX    kXVXw   O 6 O hXhX; 8 t ; V / @ ; 6 ; @ @ @ 1 1 @ @ @ @ ; ; @ @ 1 1 @ @ @ @ @ @ @ ; 6 6 @ @ 6 1 6 6 6 6 ; 8 8 x ..h.M 6.G.h.B } o.0 > 0 H ( o.g.W F 4 @ O O @ X X X O O O O O O O   * d 6 2 $ o   . , , X X * > c ] }  .F 6 = ; @ @ @ @ @ @ @ @ ",
"6 ; @ @ @ @ @ 1 6 > @ @ @ < 8 8 @ @ @ @ @ 4 6 a i u 5 @ ; @ @ @ @   9XKXUXkX  ].ZX  @ @ O H.SX  kX9X  _ IX  @ X =.UXJXUXH.  @ @   KXhXSX  ;   CXPXKXAX    .XKXsXX X H.GXUXHX0.A.} [ / B.0 ` UX  9   HXH.  iXsX  :.LX  ).ZX  6 6 ;   JXH.> O mX0XX mXPXGXUX` 8 ` IX  7 UXKXPX9X  DX(.X @ @ @ m IX  @ O mXIXUX,.X O hXhX> 8 t > } ~ @ 6 6 ; @ @ 1 1 1 @ @ @ @ ; ; @ @ @ 1 @ @ @ @ @ @ @ 1 @ 1 @ @ @ @ ; 6 6 6 ; 0 n n E E B i.Y.j.' ) W 9 4 A F T T U U Z < O O O O X ; X O O O O O       X = 7 y y , X X * = x 1 X > n V } E A d a ; < @ @ @ @ @ @ @ ",
"6 ; @ @ @ X @ 6 8 > ; ; @ 6 v ; X @ @ @ X 4 G x h <.y @ ; @ @ @ @ 6     O UXw [.CX  @ @   sXDXiXBXNX  _ IX  X X -.JX      @ @ @   LXw PX=.@   JX=.    > ; O UX7 6 8 ;     SXeXB.} ' %.#.8 ` UX  8   HXH.  0XhX  >.KX  ).SX  6 6 6   JXJ.9 O xX0XX ZX8XN.>.IX  ` IX  7 UX    O   DX(.@ ; ; @ t IX  @ @     H.JX  O hXdXx / b x +.0 ; 6 ; ; 6 1 1 6 1 1 @ @ @ @ @ @ @ @ @ @ @ @ @ @ @ @ 1 1 @ @ @ @ @ ; 6 ; ; 6 6 H E  .e z 0.b.W @.O.U A 3 3 < < 3 < O O O O   O O O @ < O O O   $ % % . o - 7 : = a d @ O @ G A 1 > n V ' E 1 a d ; @ @ @ @ @ @ @ @ ",
"1 @ @ @ @ = x 9 x > ; 6 @ 0 8 @ @ @ ; ; @ 4 Y ( l p y @ ; @ @ @ @ @   6   IXr _.CX  @     HX9X X|.IX  _ IX      -.KX      ; @ @   KX,.(.HX    HX>.X X ; ;   UX@ 8 0 ; n > vXtX@.@.) l.~ n ` UXO 8   HXH.  pXsX  =.LX  ).SX  8 6 6   HXn.6   xX-X* ZX8XC.^ UXX _ UX  7 UX  X X   SXH.X X X ; m IX  @     @ e IX  O hXdX~ ) ) / ) 6 @ 6 ; 6 1 @ 1 1 1 @ @ 1 @ @ @ @ @ @ @ @ @ @ @ @ @ @ 1 1 @ @ @ @ @ 6 6 ; ; 6 6 G K E _ 5.r.v.K ' j.4 O O O X   X X O     X     O O < < O @     $ % & o X * 6 6 x 8 0 4 < < Z 4 ; a l B  .R 1 a d 1 @ @ @ @ @ @ @ @ ",
"1 @ @ @ ; N N 8 x > ; 1 6 0 ; @ < @ > 6 1 4 Y E l h p : ; @ @ @ @ _ kXH.0XPX  7 UX`.H. XO UXO O   IX*.*.UX|.iX,.-.IX[.;X.X  ; ;   IXu.  PX`.  HXhX;XpX` ; O UX6 0 @ hX_.'.UX!.w.+.) $.~ / q UX  8   JX).O u.KX_ sXmX  _.HX  9 6 6 X 0XHXu._.UX| > FXMXeXDXvXX `.IX  7 UX.X9X9XO .XJX,.[.u.X _ UX    XX+X>.AXsXO @ lXqXW E E / ) 6 ; ; 6 1 1 @ 1 1 1 1 @ 1 1 @ @ @ @ @ @ @ @ @ @ @ @ @ @ @ @ @ @ @ ; ; ; 6 ; 6 9 6 6 A :.3.y.g.6 n Q 4 @ X X X @ O . % y % o & # + O O O O X     X - = = * * 1 1 4 A D D O X @ X = j 2.[ E F 6 a > 1 @ @ @ @ @ @ @ @ ",
"@ @ X 4 W ( 6 v d ; @ < 0 6 @ @ < 4 1 < @ < F f.) a e w @ @ @ @ @ @ iXBXzXO 6 ; =.xXBXXX: XX  X   [.:.: @XpXsX(.: 9XaXpX@X  @ ;    Xm X *. X  _.pXpXhX| ; @ @X6 0 8 {.mXZX/.e.%...+.) ) ) O IX_.@ X [.` ;   [.CXkX  6 ` [.@ 9 6 6 9   XXVXmXu.n ' &XjXjX'.9.8 CX:.X : @XpXpXaX@   |.BXmX>.O 7 @X  X :.hXCX@X  6 b UX>.R G 0 ) ..; ; 6 6 @ @ @ 1 1 1 1 1 1 1 @ 1 @ @ @ @ 1 @ @ @ 6 6 6 6 ; ; 6 6 ; ; ; 6 6 6 6 8 9 6 ; z 6.G.Q 8 8 K 1 @ X X X X X X & i , X X * X X O     O O O O @ 6 9 1 4 3 3 3 3 3 < O X * * a k 4.[ K 4 * s 8 < < @ @ @ @ @ @ @ ",
"@ @ @ 4 Y 4 4 H x ; < 1 0 @ @ @ 1 1 < @ @ @ A T L 8 , i o @ @ @ 1 ; O     6 9 n *     X @   @ X @ O ; *     O O X O     O ; ; ; ; O @ ; X X 6 @ @ @ X ; 6 8 @ 8 x n 8 x B.G.%.@.) %.( ( L 9 _ JX).; @ ; 6 6 @ O @ 9 6 ; @ 9 9 6 6 9 8 ; O X n [ w.A.G.e.B L./   ; 8 8 X X @ @ 8 9 @     ; @ @ O 1 ; X       > : PX X& 9 w t / ( @ ; 6 1 6 @ ; 6 6 1 1 1 @ @ @ 1 1 @ 1 @ @ @ @ @ ; ; 6 6 6 6 @ @ 6 6 ; 6 6 6 6 8 8 8 8 2.i.T.Q c v G @ @ X X X X X @ X a M x @ ; ; @ O   O O O O O O 3 Z 4 3 3 O O O O O   X ; = s k ] ..K 4 = s > < @ @ @ @ @ @ @ @ ",
"@ @ @ @ 4 @ 4 8 > @ @ 9 ; @ @ @ 1 < @ @ @ @ 1 F F 8 - , o @ @ @ 1 ; ; 6 ; 6 v n > @ @ @ @ X X X @ 4 @ @ @ X @ @ @ @ @ @ @ @ @ ; ; ; ; ; ; ; ; 6 9 6 ; 6 ; > 8 8 c n n r.E.S.@.[ +...H H 0 0 6   @ 8 6 6 6 9 9 G 9 6 6 ; 6 6 6 6 6 9 8 0 0 v ) [ e.P.E.B.w.G.n 8 9 9 6 ; 6 9 9 8 6 ; 6 ; > > @ 1 @ @ ; ; ; ; > l N / z > , C c H @ 6 6 6 6 6 ; 1 1 1 6 ; @ @ 1 1 1 1 1 1 1 @ @ @ @ ; 6 6 6 1 @ @ 6 6 ; ; 6 6 9 6 6 9 m 5.L.m.E N ) G ; @ @ @ @ @ X @ @ ; H L 4 4 < < O O O O O O O O O @ ; @ O   O O     X X * = j N [ E K 4 = s 8 < @ @ @ @ @ @ @ @ ",
"@ @ @ @ @ @ 4 8 > @ @ 6 @ @ @ @ @ @ @ @ @ @ @ 1 F 0 d * X @ @ @ 6 6 ; 6 ; 9 ' b ; @ @ @ @ @ X X @ 1 @ @ X X X @ @ @ @ @ @ @ ; ; ; ; ; ; ; ; ; 9 6 ; ; ; 6 6 6 0 [ n / P.P.e.@.+.O.H H 8 8 8 0 0 8 9 6 6 6 9 9 9 9 6 ; ; 6 6 6 6 6 6 8 0 0 v / [ S.P.E.N.B.F.~ 8 8 6 6 6 6 9 8 8 8 ; 6 ; > k = @ ; ; ; ; ; 8 8 4.L.r.} v b V / 9 ; 6 6 6 6 6 6 6 6 6 6 @ @ @ ; 1 1 1 1 @ @ @ @ @ @ @ @ 6 6 6 @ @ 6 6 6 6 6 6 8 9 6 6 h 5.A.v.~ 4. .G 6 @ @ @ @ @ @ @ @ @ A Y A 3 < O O         O O     * = @ O O O O     X * = s k ] ..R A @ = s 6 < @ @ @ @ @ @ @ @ ",
"* @ @ @ @ @ 4 ; ; @ 6 @ @ @ @ @ @ @ @ @ @ X X 6 A K 8 * X @ @ 1 1 6 ; 6 6 0 ' x @ ; @ @ @ X X X @ @ @ @ @ X @ @ @ @ @ @ @ ; ; ; ; ; ; ; 6 ; 6 9 6 ; ; ; 8 8 8 ~ ..~ w.P.G.+.[ ..) 0 0 8 8 8 8 8 8 9 6 6 6 6 9 6 ; ; ; ; 6 6 6 6 6 6 8 v 0 v / [ S.P.E.e.B.l.H v b - 6 6 6 6 6 8 8 ; ; 1 ; 9.d @ ; ; ; > 6 8 8 ] P.a.@.( n w.) 6 ; 9 6 6 ; ; 6 6 6 6 6 6 ; 6 1 @ 6 1 @ @ @ @ @ @ @ @ @ 6 6 6 @ ; 6 6 6 6 6 6 8 0 > ; z 3.G.g./ } E 4 1 @ @ @ @ @ < O X X < 3 < O O O             O O   * = @ O O O O O X X * a j k [ o.K 4 @ a a 6 < @ @ @ @ @ @ @ @ ",
"* @ @ @ @ @ 4 ; @ 6 8 @ @ @ @ @ @ @ @ @ < @ @ @ A F 1 @ X @ @ 1 4 6 6 6 6 ( ] > @ ; @ @ X @ X X X X X @ @ @ X X @ @ @ @ @ ; ; ; ; @ ; ; 6 6 6 9 6 8 ; 6 8 8 8 ~ H / A.E.N...) +.~ 8 8 8 0 > x > 6 6 6 6 6 6 6 6 6 6 6 6 6 6 6 8 6 8 0 v 0 v / } S.P.E.%.B.%.0 8 f f ; 0 8 6 6 8 8 6 ; ; 1 Q A > > ; > ; 6 8 v } E.L.l.H n k.E 6 > 6 6 6 6 1 ; 6 6 6 @ ; @ @ @ @ 6 6 6 ; 6 6 @ 6 @ @ 6 6 6 6 6 6 @ ; 6 6 6 6 9  .0 6 z 6.G.g.x +.W 4 1 @ @ ; @ @ @ @ @ @ @ O O     O O   O     O O     * > < O   O O O X - a s k V ..E A @ X a a 6 @ @ @ @ @ @ @ @ @ ",
"= > ; X X < 1 ; ; 8 ; X X @ @ @ @ @ @ @ @ @ @ @ < 4 1 ; @ @ @ @ 1 ; 6 6 4 O.b > ; @ @ @ @ X @ @ @ @ X @ X @ @ X @ @ @ @ ; ; ; ; ; ; ; 6 6 6 6 8 8 8 > 8 8 0 0 q =.9.P.P.+./ [ @.n 8 0 8 8 x N > 8 8 8 6 6 6 6 8 6 8 6 6 6 8 6 6 6 8 ~ ~ 8 n / @.G.E.P.@.B.r.b 0 4.k > 8 8 8 9 9 9 6 ; ; 4 A 1 > 8 ; 6 ; 6 0 0 @.G.G.K.v ~ O.L 6 ; 9 6 6 6 1 1 6 6 6 1 1 @ 1 ; @ 6 ; @ 6 1 1 6 @ ; 6 ; 6 6 6 6 6 ; 1 6 6 6 9 9 ~ ~ 6 k y.D.g.x ..R 4 @ @ @ 6 @ O X O @ X O O O   O X   O O O           X 1 < O O O X X X = j k 2.'  .K 9 @ o a x @ @ @ @ @ @ @ @ @ @ ",
"> = = ; X < 1 ; 6 ; X X @ @ @ @ @ @ @ @ @ 1 @ X @ < 6 @ @ @ @ @ 1 1 6 6 G ..x ; ; @ @ X @ X @ X X X @ @ @ @ @ @ @ @ @ ; ; @ ; ; ; ; ; 6 8 ; 6 8 8 8 8 8 > x f 7.5.L.E.I.{ / %.) n v 8 0 8 v { > 8 8 8 8 6 6 6 8 8 6 8 6 8 8 6 6 8 8 ~ ~ 8 n / w.P.E.P.@.C.y.V ~ l.) 8 0 v 8 6 6 6 6 6 ; 6 6 ; 9 9 6 9 9 9 8 0 $.S.P.a.4.0 ..( 6 ; 9 6 6 6 6 6 6 ; ; 1 1 6 6 6 6 6 6 6 1 6 1 ; ; 6 6 6 6 ; 6 6 6 ; 6 6 ; 6 6 8 8 ~ 9 2.y.b.E c  .F @ @ X @ @ @ O @ X O   , X   O O X O O   O O O       X @ < O O O X X X a k 2.V ' L 9 @ # , s > 1 @ @ @ @ @ @ @ @ @ ",
"8 > > > X @ @ d b * X O O @ @ @ @ @ @ @ @ @ @ X X 1 1 @ @ @ @ @ 1 1 6 ; G / > ; @ @ @ @ @ @ @ X X X @ @ @ ; @ @ * @ ; * * ; ; ; ; > ; 6 6 8 8 8 v x x x d z 5.6.a.G.P.a.{ ' r.~ n n x 0 0 E  .8 8 8 8 9 6 6 6 8 8 6 8 8 8 8 8 8 8 0 ~ ~ 0 / [ w.P.E.P.w.S.y.} H g.E 0 0 v 8 6 ; ; ; ; ; 6 ; ; 9 9 6 6 9 9 9 H ..C.G.P.0.8 ) ~ 6 6 9 6 6 6 6 6 6 6 6 1 1 1 6 6 1 6 6 6 6 6 6 ; ; ; 6 6 6 ; 6 6 ; 6 ; 6 8 8 8 > 8 ( ~ 2.A.b.L n E A X X @ @ @ @ O O X X X * 5.=     O X     O         X X @ O O O O X X * a l V @.O.( 0 @ o f k d 1 < @ @ @ @ @ @ @ @ ",
"9 9 6 X X @ d N d X O O @ @ @ @ @ @ @ @ @ @ @ @ @ 4 @ @ @ @ @ # @ 6 6 ; H b ; ; @ @ @ X @ @ X X X @ @ @ ; ; @ @ @ @ ; > > > > ; ; > ; ; 6 8 8 0 v c c f z 6.i.L.V.D.P.a.9.r.@.v v n x 8 0 K L 8 8 8 8 6 6 6 8 8 8 8 6 8 8 6 8 8 8 0 H 0 v / [ r.P.P.P.w.G.x.o.H K G 0 9 0 0 6 ; > > > ; 6 6 6 4 1 1 ; 6 6 > N ' V.V.T.L.c / ~ 6 6 9 6 6 6 6 6 6 6 ; 6 1 6 6 1 1 6 6 1 @ 1 @ 1 @ 1 6 1 @ ; 6 6 6 6 6 8 ~ 0 8 x n v 4.6.S.v.H ~ K 4 @ X O O @ O O O   X O X g M X   O O O     O O O   X * @ O O   X X * = d x ) o.Q L 9 1 @ a 2.x < @ @ @ @ @ @ @ @ @ ",
"6 6 ; ; ; 0 ' N * X X @ @ @ @ @ @ @ @ @ @ @ @ @ @ < @ ; @ * : 7 @ ; 6 9 ~ x ; ; @ @ @ @ @ @ @ X @ @ @ @ @ @ @ @ @ ; ; 9 8 > ; ; ; ; > > 8 8 8 x n c h 7.4.a.P.D.h.G.T.y.q.S.) n ~ v x 8 8 8 8 > 8 8 8 6 6 6 0 8 8 8 8 8 8 8 8 8 8 8 0 0 v ' [ y.P.P.P.r.G.k.L 0 8 0 0 9 0 6 6 6 8 8 6 @ 8 @ 6 6 6 6 @ 6 6 d 0.] %.l.F.P.4.' v 9 6 9 6 6 6 6 6 6 6 6 6 1 ; 6 1 1 6 6 @ @ 1 @ @ @ @ 1 1 @ ; 6 6 6 6 6 8 ( H 0 n m g 4.y.D.h.H ~ F @ @ X     X O O X O O O O @ c.Z       O       O O   X @ O O   . X * = a c v L K K G 9 1 @ = k v < @ @ @ @ @ @ @ @ @ ",
"> ; ; 8 6 H ) > X @ X @ @ @ @ @ @ @ @ @ @ @ 1 @ @ @ @ ; @ > - # @ ; 6 9 v X O # O O O O O O # # O # O O O O #   O ; 6 G G 8 > ; ; > > X X : ; x : C 7.2.y.F.j.R / B.b.y.q.@.; v ~ v x 8 8 8 8 9 9 8 8 6 6 8 v 0 8 8 9 8 0 8 8 8 8 8 v 0 n ' [ A.P.P.P.y.G.) x 8 0 8 8 9 ; ; 6 9 9 9 9 ; q ; ; ; 6 6 ; ; ; 8 r.w.$.e.C.G.y.] 0 8 6 6 6 6 6 6 6 6 6 6 6 1 @ 1 @ 1 6 6 @ @ @ 1 1 1 ; 6 ; 6 6 6 6 6 6 6 8 ( ( 0 t ,.V 9.x.b.k.' 0 A @ X @ X   X X O O O O   O < U U O     O O O   O     X X O O   o , * a l c v H G G 9 6 @ O * a 6 4 @ @ @ @ @ @ @ @ @ ",
"; @ @ 6 A W G @ X X @ @ @ @ @ @ @ @ @ @ @ @ @ @ X < 1 @ @ 6 > ; @ 4 9   '.0X9X@X@X@X@X@X@X@X@X@X@X@X@X@X@X@X@X;XiX_ @ 9 9 9 > ; 8 X :.iX0X0XqX0XpXdXeXtXtXqXqX0XeXqXtXtXeXsXqXJ.X v v 8 8 8 8 8 8 8 8 ; 6 8 v 0 8 8 9 9 0 8 8 8 8 0 v v n [ } G.P.E.S.S.G./ x 8 0 8 8 9 6 6 6 9 6 6 6 > 0 ; ; 1 ; ; ; 6 6 9 h.k.+.e.C.V.L.9.8 6 8 6 6 6 6 6 6 6 6 6 6 6 1 1 ; ; 6 6 @ @ ; 6 6 ; ; 6 ; ; 6 6 6 6 ; 8 v ~ ( 9 ,.5.i.y.v.j.) ] n 1 < X X X X X X O X O     X O O O O O   X     O O       O O O X = k j j j c ( H 0 8 8 6 @ # = = 1 < @ @ @ @ @ @ @ @ @ ",
"; @ < @ 4 A 4 @ X X @ @ @ @ @ @ @ @ @ @ @ @ @ @ @ 1 6 ; 6 9 ; @ @ 6 O hXJ.    O       O                         @ iX[.  6 6 > x   ;XoXO ; 8 b N 4.0.A.h.W 9 > ~ $.) k.G.y.7.X {.sXX n x 8 8 8 8 8 x 8 6 6 0 ~ 0 8 8 8 0 0 8 8 8 0 0 v v / [ @.P.E.P.G.S.F.) n 0 0 8 8 9 9 6 6 9 6 6 ; 9 G 6 ; 6 @ ; ; 6 ; 9  .o.@.@.C.k.F.A.x 9 6 ; 6 6 6 6 6 6 6 6 6 6 6 1 6 1 1 @ ; ; ; ; 6 6 6 6 6 6 6 > > 8 x 0 ~ ) ( ` 5.8.a.C.h.) ] r.( 9 @ X X X X X X X X X O O     O O O   X @ X   O       X X O O X * 2.2.2.N ' / n c c x 8 @ : a a @ @ @ @ @ @ @ @ @ @ @ ",
"X @ 1 6 < < @ @ @ @ @ @ O @ @ X @ @ @ @ @ @ @ @ @ 1 1 ; 9 A ; @ 1   kXq x > ; ; * @ @ @ @ @ X ; X X @ @ ; ; ; ; ;   '.).@ 8 x ; oXH.; / n { q.0.L.T.b. .n B ] @.w.9.N.T.L.s.:.> ` aXX x 8 0 8 8 x x 8 8 6 H H 0 8 8 8 8 0 8 8 8 8 0 v v ~ ) %.P.E.P.G.S.C.) ~ 0 0 8 8 8 8 6 6 6 6 ; ; 6 G 9 ; ; 1 @ ; ; ; 6 H L [ %.V.O.z.L.V ; 6 6 6 6 6 6 6 6 6 6 6 6 6 6 6 6 1 ; ; ; ; ; 6 6 8 8 6 8 > x x n 0 v L ( J b 3.8.G.v.o.' 4.r.o.4 @ @ @ X X X X X X X X X X         X X @ O O O O     X O O   X * g } @.[ ../ M N 4.N c > - s a @ @ @ @ @ @ @ @ @ @ @ ",
"X * > @ O @ @ @ @ @ O @ O @ @ @ 1 @ @ @ @ @ @ @ 1 1 6 ; 1 4 @ @ O [.n.( 8 ; ; @ ; @ X X @ @ @ @ @ @ @ ; ; ; ; ; ; ;   aX# v 0 ` aX6 n b b 6.i.P.T.z.) n V ] @.@.y.y.l.D.P.q.u.c x {.H.x 8 0 8 8 0 v 8 8 9 H G 0 0 8 6 8 9 0 0 0 0 0 v 0 ~ / e.P.E.P.S.S.V.( H 9 8 ; 6 8 8 6 6 6 6 ; ; 6 9 6 ; @ ; ; 6 6 ; 6 v v ) %.$. .) G.0.a 9 9 6 6 6 6 6 6 6 6 6 1 1 6 6 6 6 6 6 6 6 6 6 ; 8 v 8 x x n ~ H G G ~ b -.2.8.L.Y.z. .B 9.l.g.4 * X @ @ @ @ X X X X = * X   O     X X X O O O O O O X O O   X * > L j.E L ~ B V 4.4.B > = k d 1 < @ @ @ @ @ @ @ @ @ ",
"> x * O O O @ @ @ @ O @ O @ @ @ < @ @ ; @ @ @ @ @ 1 9 6 @ @ 1 @   pX  ~ 8 > X : X @ @ X @ @ @ @ @ X @ ; ; ; ; ; ; ; 8 >.{.9 1 0X` c C u.4.a.G.b.j. .c N ] } l.l.V.y.%.D.E.a.s.N n @ qX* > 8 8 0 H H 8 > 9 0 9 9 8 8 8 8 8 0 8 0 0 0 0 0 n / e.P.P.E.G.C.V.~ 0 8 b > 9 8 8 6 ; 6 6 6 6 6 6 ; ; ; > > 6 6 ; 6 v v / %.+.( ~ D.L.V 9 9 6 6 6 6 6 6 6 6 6 6 6 6 6 6 6 6 6 6 6 6 ; 6 0 ( 9 0 ~ ( L G G A > ;.5.3.0.G.Y.x.) n %.v.E 4 ; X X X O O X O X X * ; X * O   X * X X O O O     O X O   X X * = 0 K K G H / ' } } [ 0 > k x 1 < @ @ @ @ @ @ @ @ @ ",
"x ; O O O O @ @ @ @ O O @ @ @ @ @ @ @ > @ @ @ @ @ 6 0 1 @ X 1 1 e oX1 n ; > z , X @ @ X @ X @ X ; * @ ; ; ; ; ; > ; 8 @ 0XX   9XX 7.7.6.y.Y.v.o./ M 4.w.} e.e.O.z.r.9.V.E.L.s.z n > 0X: 8 0 8 8 0 0 8 > 9 8 6 8 9 8 8 8 6 8 0 8 8 8 0 0 n / e.P.P.T.G.C.l.H 9 x N > 9 9 9 ; ; 6 6 6 6 6 1 ; @ ; d ; 6 ; ; 8 v v n %.w.~ / O.T.w.9 > 9 6 6 6 6 6 6 6 6 6 6 6 6 6 6 6 6 6 6 6 6 6 H E K G ( L K A 6 > h 7.3.6.C.b.v.h. .H o.g.K 1 * - X X #   X X     @ 6 X * @     * X O O O         X O   * * > 8 8 9 0 8 8 ~ ~ )  .L G ; s 8 < @ @ @ @ @ @ @ @ @ @ ",
"6 @ O X X O @ @ @ * X @ @ @ @ @ @ @ ; ; X @ @ @ < 9 6 @ @ @ @ 6 r oXx M > k 5.= @ X @ X @ * * > - * @ ; ; ; ; ; > 6 8 O 0XX   pXz 5.0.A.b.j.( n V 9.@.k.@.%.O. .h.N.9.l.T.P.p.7.n ; 0X: x 8 8 8 8 8 8 6 6 6 6 9 9 8 8 8 8 6 9 8 9 8 0 8 ~ / B.E.G.P.S.C.$._ 6 0 ' 0 ; 9 9 6 6 ; ; 6 6 6 1 @ ; ; 8 9 ; ; ; 6 0 G n w.e.B / L v.b.9 6 6 6 6 6 6 ; ; ; ; ; 6 ; 6 6 6 6 6 6 6 6 6 9 G R F 4 A A 1 > s j 2.3.8.A.z.v.j.W W G L L G 9 > k a   & o X O X   X = ; @ 4 O O O @ O O O           O o * * 8 0 H 0 x d x n ~ ( ( K A ; = 6 1 @ @ @ @ @ @ @ @ @ @ ",
"@ O X @ O @ @ @ ; > X @ @ @ @ @ O @ @ @ @ @ @ @ 1 8 ; @ @ @ @ ; r XXB d 9 9.k * @ @ @ X @ X @ 6 > X ; ; ; ; ; ; 8 8 8   0XX i dX2.a.G.b.Q ~ x 9.9.@.+.+.$.O.L ~ o.N.9.N.F.P.a.q.n ; 0X: n 8 8 8 8 8 8 6 8 6 6 6 6 8 8 0 8 X   8 b 8 8 8 ~ / w.B.P.P.S.B.@.m > H h.0 > ; ; 6 6 6 6 6 1 @ ; ; ; 6 9 6 6 ; 6 6 0 9 v @.l.} n G R b.v 6 1 6 6 6 6 6 6 6 6 6 6 6 6 6 6 6 6 6 1 6 6 9 9 A 4 1 ; ; > a l 2.2.8.L.T.g.A z.G G O 6 0 8 8 > g b X * f X X X   X * ; O < O O O O O O           @ O o * > 0 G H 0 n x v ~ ~ ~ ~ 9 4 ; = @ < @ @ @ @ @ @ @ @ @ @ ",
"@ O X O O O @ @ ; > X X O X X @ @ @ @ @ @ @ @ @ 1 8 ; X @ @ ; 6 r oXB e W $.= * @ @ @ @ @ X 1 9 ; ; @ ; > > ; ; > > 8 X 9Xh 2.eX0.T.z.( x c V w.@.%...o.g.L 0 ~  .z.y.w.D.E.L.6.c ; 0X@ v 0 8 8 8 8 8 8 8 6 ; 6 8 9 0 0 ; H.mXX N x v 8 v > MXJXG.P.C.S.y.4.8 0 E 8 8 8 > 6 6 6 6 6 ; ; ; ; ; 1 4 1 6 6 6 9 9 9 0 %.O.%.B 9 4 h.} X H.` 1 6 6 6 6 6 6 6 6 6 6 9 6 6 6 6 1 1 4 4 6 1 @ * a s s s c V y.y.G.v.qXkXG G q BXu.9 9 v > 8 Q @ * g > O O   O @ A 3 O O O + O O     O     X O O o * 8 H G 9 0 ~ L L H H ~ v 9 < * = @ @ @ @ @ @ @ @ @ @ @ @ ",
"* X O X   O @ < 1 ; @ O O O O @ @ @ @ @ @ @ @ @ 1 6 X @ @ @ ; 6 r 0Xc e T Y @ @ @ @ X @ @ ; 1 6 ; ; ; ; > ; ; ; > 8 > o pX2.6.jXx.z.~ c M ] @.%.e.O. .E L 0 8 0 ( h.B.y.l.T.L.q.:.@ 0X@ 0 0 8 8 8 8 > 8 8 8 > 6 8 8 9 0 @  XIXX N x v 8 0 > KXUXS.G.S.S.e.[ 8 8 v 8 8 8 8 ; 6 6 6 @ ; 1 ; ; ; 1 1 @ 6 6 6 6 6 6 0 #. .+.{ 9 6 G e.u.UXP 1 1 6 6 6 6 6 6 6 6 9 6 9 9 6 1 < < 4 < @ * = g j j c c L %.y.G.Y.Y bXJXX 9 m UX).> 6 8 v 9 Y 4   4 K < O   O O 3 3 O       X X     O       O O X * 6 G G 9 G G R R A G H H G 1 * = @ @ @ @ @ @ @ @ @ @ @ @ ",
"* O O X   @ @ < 1 @ @ X O O @ @ X X ; @ X @ @ @ 1 ; X @ @ @ @ 6 P 0Xs , I 4 1 X X @ @ @ ; ; o X > ; ; ; ; ; ; 8 8 - C j eX0.V.tXD ~ g M ' ....%.+.Q L 8 0 0 8 0 H h.S.y.%.D.P.q.d.: 0X@ 0 0 8 8 6 6 6 0 8 8 ; 6 6 8 9 9 @ {.IXO ( 6 -.6 8 } A.G.S.G.N.N.o.K ; 8 0 H 8 8 9 @ O O @ @ @ @ ; ; X O O @ ; ; ; 6 9 6 @ +.H  .O.0 ; 4 H MXNX  6 6 6 6 9 9 @ @ @ 9 9 0 9 1 1 O O O O O   = g s M /  .R 9 V y.b.v.Z zXJXX G m UX).d > 9 0 @ O O O 3 D <   O O   X O O     X X X O           O X * * 9 G G 9 9 G K A G 1 9 J G 1 ; > 1 @ @ @ @ @ @ @ @ @ @ O ",
"*   O X X # O < @ @ X X O O O @ X ; ; X X @ @ @ 1 ; X @ @ @ @ ; P 0Xs a e 1 6 X X @ @ ; ;   PXiX  ; ; ; ; > > 8 > C 5.3.tXz.Y qXX N 9.} +.%...h.E 0 8 0 0 0 0 8 0 h.F.y.@.D.E.a.d.- 0X@ 0 8 8 8 6 6 9 H 0 8 6 6 6 6 6 9 @ [.IXO n.(.p : 8 r.I.I.G.S.V.E n.{._._ O H G J   ,.[.H.m   w @ 6   ,.`.).O @ ; 6 _ O 7 ].^ 0 L o.v ; 4 G UXH.@ 6 6 6 6 0   >.[.H.@ 8 8 9 r   ).`.w   ,.[.u.X n  .E O n.{.U.E f.Q 3 zXHXO Z r UXH.g 0 @ # _.].-.  @ O 2 O   -.,.    O     O O O O O O     O O   * ; 9 G 9 9 9 9 9 9 7 6 9 H J 4 ; ; < O @ @ @ @ @ @ @ @ @ O ",
"X X @ * > @ O O @ @ X X O O X O @ ; @ X @ @ ; < 1 ; @ @ @ @ @ 6 ` qXd d , 5 @ @ ; X * ; @   PX;XX ; ; ; > d d = 2.3.i.N.tXY O 0Xa 0.[ ..@.) Q E 0 8 8 0 0 8 8 8 0  .b.A.w.b.G.L.p.h 0X: 0 8 8 8 8 > 9 L G 9 ; 6 6 8 6 6 @ {.UXIXIXUXUX: x [ MXIXw.G.L bXUXHXKXUXAX  G   BXUXHXLXUXxX  ;   VXUXHXUXUX# @ O UX[.UXIX@ 0 0 L / > O |.IX6 ; 1 ; 6 6   hXUXPXIXUXO 9 P UXJXJXIXUXxXPXHXUX<XA W 4 UXIXJXUXIXY F O zXHXO 3 e UXH.d 0 =.UXPXGXUXxX    pXxXBXUXkX    X     O O O O O   O O       @ 9 G 9 6 9 9 9 9 9 9 0 8 6 G 1 ; ; < @ @ @ @ @ @ @ @ @ @ @ ",
"X X @ 8 > * X O O @ X X X X O O @ @ X @ @ @ @ @ 1 ; X @ @ @ @ 6 ` 0X9 d - p 5 X * X >       PXXX      > g d f k i.L.F.T 0X@ X pXg %. . .O.L L 0 8 H @ @ X X X X 0 ( z.B.r.l.G.P.i.C ;X: v x 8 8 > 8 0 9 9 6 ; 6 6 8 8 6 O [.UX,.  8 UXoX; @.nXKXw.S.&.UX:.    BXDX  9 >.UXe     DXBXX * u.UXr     IX9X  O IXHX7   ~ 8 9 G ( 8   HXaXK 6 ; 6 1 1 r UXH.  O e 3 3 w UXXX    PXAX    hXPXO 9 2 7   = X.UX.XO   zXJXO O e UX(.> O VXVX    `.UX#   |.UX#X    O   O X O   O O O       O O O   * 6 9 9 4 4 4 4 4 4 4 9 9 9 4 1 ; ; @ @ @ @ @ @ @ @ @ @ @ @ ",
"@ @ A G ; X X @ O @ @ X X O X O @ @ @ @ @ 1 @ @ 6 > X @ @ @ ; 9 ` <XF 8 a p y X @ X O IXPXLXUXIXPXPXkX* x g 2.0.P.Y.j.O iXX X eX9 ..( E E 0 0 0 0 6 hXpXpXpXpXhX| v h.C.0.%.F.E.a.7.:X@ v v x 8 8 8 8 8 6 6 > 6 8 8 8 > X |.UXO x 9 KXhX; @.nXLXy.A.U.UX` 8   VXDX  O `.UX: ;   HXNX  X oXIX  ;   KXaX  O UX_.X @ v 8 9 9 F G *.UX7 Q ~ ; 1 1 @ ,.UXq < < < @ @ w UXu.*   HXhX  O pXPX  y p = =  .Z IX@XO   lXHXO O w UX(.@   KXsX  O -.UXt   |.IX  O   O O O X O               O O O X = > 6 1 4 4 4 4 4 3 4 4 9 4 4 1 ; @ @ @ @ @ @ @ @ @ @ @ @ @ ",
"6 4 D 3 @ X O X O @ @ @ X @ X X @ ; X @ @ @ @ 1 6 > X X @ @ ; 9 ` oXA 0 s i p o @ @ X aX0XXXIXvX;XiX'.= k 3.0.D.v.g.8 X 0X; 1 tX9 ( H G 0 x v 0 0 7 KXHXHXHXHXPX>.v  .V.y.w.F.E.L.5.pX; x x x x 8 8 8 8 8 8 > 8 8 8 8 8 *  XUX> v H KXzX> w.nXKXB.S.{.UX{ v   CXDX  O [.UX7 ;   HXNXO O 9XIX    H.UX_.O O UX|.O @ 0 8 9 1 1 O zXBX  A ^ 8 1 1 1 7 UXxXH.-.  X * e UXH.*   JXkXO O pXPX  <.5.s u.{.{.UXoXX   lXHX  X w UX(.O   KXaX  + lXUX    |.UX+ O O       O O O O           X O O X = > 6 1 4 4 1 1 @ @ < < 4 7 7 * * @ @ @ @ @ @ @ @ @ @ @ @ @ ",
"6 @ 4 @ X X X X X @ @ * X X X X @ ; X @ @ 1 ; @ 8 d X X @ @ ; 0 m XX4 K c f i o @ @ 6       PXoX    ; 4.8.y.z.g.R 0 a a qX> 9 qX< G 9 6 0 v x 8 0 0             8 n ) V.A.9.V.E.P.4.pX= N M c c x x x d 8 8 > 8 8 8 8 x * =XUX8 0 H KXlX8 r.nXKXC.S.{.UXq.c X CXDX  X [.UX2 ;   HXNXO O 1XUXUXUXIXpX  ; O UX|.O @ 0 v 6 @ @ O UXu.X 6 ../ ; @ 1 O XXKXUXUXAX  d m UXH.4   JXkX    pXPX  5.3.PXUXCXmXUX+XX   lXHX    w UX(.    KXUXUXUXJX;.    |.UX+ O         O O O           X X O     * 8 9 6 1 1 1 @ @ O @ @ @ ; d s * 1 @ @ @ @ @ @ @ @ @ @ @ @ ",
"> = = * * * * * * ; ; = = * X X @ ; X @ @ ; ; ; 8 = X X @ @ ; 0 m  X< W / s - & @ @ ; ; ;   IXiX& C 2.0.S.h.R G d g M d qXd < qXO 9 6 6 9 0 8 6 6 8 6 9 9 0 0 0 0 ~ ( z.S.y.V.T.P.0.eXg 6.4.N M c c c x x 8 > 8 8 8 0 8 ; oXUX6 0 G KXhXn y.nXKXV.S./.UX&.x * CXFX  X [.UX2 @   GXNX    1XIXO O     : @ O UX|.  @ 0 v 9 @ O `.UX  > d ) ) ; @ @ 2       ).UXu.> m UXH.3   HXkX    pXPX. 2.dXUX1 O O IX+XO   lXHX  X w UX(.    JXsX        O   |.UX+ O               . $ .     X X O O X X 1 4 1 1 1 @ @ O O @ O @ * s k = @ @ @ @ @ @ @ @ @ @ @ @ @ ",
"= * * * ; * = = = > > a a a = > 6 * @ @ @ 6 ; 6 9 ; X X @ ; 6 ~ m  X< W L d = y O ; ; > ;   zX}.7.3.0.D.v.K ; = 2.N  .0 qX9 O qX  ; 6 9 9 9 9 ; 6 9 6 6 9 9 0 0 v v ( v.F.y.V.D.E.y.eXN 0.4.4.N V V M c x x 8 8 0 8 *.6 < ,XUX1 0 4 JXsX) S.nXKXk.G.K.UXJ <   DXFXa l u.UXO     JXNX    [.IX  @ @   @ @ O UX|.  @ 9 0 6 <   DXaX* d > 9 o.v @ @ o X = = o UX).4 I UXH.<   HXkX    pXPX* 2.jXPX3 A O IXoXO   lXHX  @ w UX(.O   HXsX  O     O   |.UX+ O       $ % y y % % $       X X   * ; < 4 < < < < O O @ X O O X a g > @ @ @ @ @ @ @ @ < @ < @ @ ",
"6 @ @ @ # + 6 6 > ; 8 d a a a d > * * ; 6 9 > 9 8 = > ; @ 6 9 n m  X@ K R 8 a , * ; 6 > = , - 2.8.y.b.g.K ; s 2.9.v L 4 qX3   0X  ; 6 9 6 9 6 6 ; q ; 6 6 9 0 0 H v ~ j.b.S.e.D.E.A.eX} %...} ] ] ] M c x x x x 0 8 m > * <XUX>.` H.UXH.%.S.nXKX..G.[ PXDXpXBXUXDX= N > IXVXiXAXUXNX  @ _ UX`.e _ sX_ X O UX|.O @ ; v ; @ _ UXm b n 4 4 K ' f * f  X:.m @XUXe 4 P UXn.    HXkX    pXPXa 9.,XUXn.7 @XUXXXO   lXHX  ; e UX(.    kXLX_ t ,.sX    |.UXo O O   $ u y y $ o o o X X   O O   X @ 3 O @ O O O O O O O O O X * > 1 < < @ @ @ @ @ @ @ @ @ @ @ ",
"< < < O o # 4 4 1 1 A 9 9 9 6 > > * ; ; 6 6 > 8 g a > ; @ 6 v V m XX@ 6 K 0 a = ; 6 8 = , 7.3.a.G.z.Q 9 = s N [ L H L 3 0XO   0X  ; 6 9 6 ; ; 6 8 M > ; 6 6 9 9 H 0 ~  .z.B.w.V.T.S.eX@...o...[ } @.) / n x x x x M N M l u.ZXIXUXUXaXX l.S.jXSX+.G.A.{ zXmX[.kXGX3  .8 m xXvX).NXNX  X   |.IXUXIXBX: X O JX].O @ ; x ;   sXmX  H [ 9 @ 3 ..2.s b FXUXUXIX(.O @ w IX,.O   CXaX  . :XSXa x.U BXUXUXBX].1XO   sXVX  6 q KX,.  @ O BXUXUXPXOX    }.JX+ O O     o - = = = = = * X X O O O O 3 3 < O O O O O O O O O o X @ @ 4 < @ @ @ @ @ @ @ O @ @ @ @ ",
"X X X l N * < 3 @ < 3 A 4 4 4 1 6 @ @ < 1 9 6 8 x d > ; ; 9 [ N m XX@ ; 9 G 8 = , r ; s 5.6.L.T.z./ x d M [ o.R G H E O ;XO   9X  ; ; 6 9 6 > d M 2.> ; 6 6 6 9 0 ~ n ( h.D.w.V.G.S.eXq.:.( E  .O.+.' ' c n x 0 8 ' ' c l l * X d g = B r.E.V.H C.S.L.V = *   zXGX3 W L 6 * *   CXBX  X :     O     @ @ :     1 @ ; ^ ; :     G F } l X < L 0.2.0   3 4   O @ @ @     X :     : m = = @.v.W   o X   <   @ @     @ 4 4     O X X     +     O o     X         * = a > ; ; 1 1 < @ O O O O O < O O O O O O O O O   X * * @ @ @ @ @ @ @ @ @ @ @ @ @ @ @ ",
"X   = 5.= O O 3 @ @ < 4 ; 6 4 1 @ @ @ @ 4 4 4 9 n 8 ; ; ; G O.V f +X  ; 9 G 9 > , p z 2.i.L.D.j.~ l k l ' E R 9 9 9 9 @ 0XO   9X  ; ; ; 6 9 8 > #.M ; ; ; ; 6 9 0 n v H O.x.e.N.D.A.eX4.u.x H L o.../ ] V M n v 0  . ./ [ ' B 4.4.9.' V y.T.x.$.k.x.G.^.&.; q LXBXO G 4 _.` 9 m IXvX* = * * X X X @ @ @ @ @ @ @ @ 6 ~ 8 ; 1 4 4 1 ~ 9.* @ 4 r.0.H A A 4 < @ @ @ @ : * X @ > ; * k 3.4.$.k.G 1 > 8 A 3 O + . O . + 2 < O X X X X O O O O X X X X * X   O     X 6 9 F D Z Z 3 3 6 X O     O O O O O O O O O O O O X = * @ @ @ @ @ @ @ @ @ @ @ @ @ @ @ ",
"@ 3 K 6 X O O @ @ @ @ @ * * @ @ X @ @ @ 4 1 4 9 n > @ 1 1 K o.V X pX  6 ; 9 8 8 h C 2.i.G.v.g.L c 2.4.[ ..H 9 9 6 6 6 u._.; X  Xm ; > ; > 9 G G g.G > ; ; ; 6 0 L H H H  .z.B.$.D.S.jX0.q.d 8 H  . . .[ ' B B c B .. .' [ [ ] 9.w.x.L [ C.D.l.@.%.z.l.vXUXUXUXIX:.x >   mXUXUXUXLX` x a = = * * X X @ @ X @ @ @ @ 1 G 0 > > @ @ @ G $.> X @ O.I./ 1 1 @ @ ; @ @ @ @ @ @ @ ; 6 > 3.3.w.l.[ 9 1 8 G A O o & % o . & 5 O X X X X X X O O   O O   X @ @ O O O O O 3 D D Z 3 < O O @ @ O       O O O O O O O O O   . X * ; @ @ @ @ @ @ @ @ @ @ @ @ @ @ @ ",
"X Z U < O   O O O O O @ * = ; @ @ @ X @ < @ 4 H c > @ @ ; G E n d u.`.X ; 6 6 g 2.3.y.b.v.W 0 x ] 9.@.[ n x 9 6 1 6   kX  ; ; @ sX  > ; > 6 G G W 9 ; ; ; 6 6 9 L H 0 v ( k.B.+.O.tX^.a.q.c x H ( ( (  . .) [ M 4.9.] ] B ' } r...j.K %.z.z.@.9.w.h.b.] @ ` ^ @ H ~ > d * @ ` P O E L 0 8 > a a a * @ @ # @ ; @ @ 1 4 9 8 f = @ @ 4 W 0 X @ G G.9.= X @ @ * @ @ @ @ 1 @ X @ 7 s 3.0.z... .G @ 1 Z 3 O o & & - X X * * X X X X X O O O O O O O O 3 < O O       O < < O O O     @ O O         O O O O O O O O   o * * @ @ @ @ @ @ @ @ @ @ @ @ O @ @ @ ",
"X < 3 O     O O O O O < ; > ; > * X X X @ @ 1 0 n > @ ; ; G L n x   pX:.X : m 4.6.S.v.g.0 q x ' } $.+.n g > 6 > ;   sX=.@ ; ; @ H.@X  ; > 8 x 8 8 > 6 6 6 6 6 9 9 0 8 8 H ..%.8 {.tXS.L.0.M x v ( ~ ) E E  .) } 9.4.4.] ' [ %.z.g.E v B.O.h.%.y.9.) k.A.M 9 0 L E L 9 8 n c d 0 L L K G G 0 g j k a = = - 1 @ @ @ @ 1 4 4 8 d > X @ A ~ > @ 4 z.a.2.X @ ; @ @ X X @ @ @ X o - j 4.V.j.L Q G X 3 3 O X X = a = * X * ; X @ @ @ O O O O O O O O O O O O O O O                   X X         O O O O O O O O O   X * * @ @ @ @ @ @ @ @ @ @ @ @ @ @ @ @ ",
"X O   O   O O O O O O 3 6 ; > > * @ @ @ @ @ 9 ~ b * @ 6 6 9 L 0 x >   ;X;Xz 2.9.O.U O   * X X 0 ~ > * X         -.hX=.@ 6 ; @ 6 O H.hX*.  X X X                         O 4 &.aX8Xk.E.P.i.N x n ~ v ~ H H ( ) %.w.w.w.@.[ @.k.j.W G v N. .( %.S.B./ O.L.V 8 9 G H G G H L H 0 8 n x 0 0 ~ v n B c a s k j f > X @ @ @ 1 4 4 0 = = ; < H 8 X @ L L.6.= @ ; @ @ X X * * > X : k 2...b.O.K H x @ < @ O O X ; ; ; @ @ @ 4 4 @ O O O O O O O O O O   O O O       O       O O       X @         O O O O O O O O O   * = * @ @ @ @ @ @ @ @ @ @ @ @ @ @ @ @ ",
"* O       O O O O O O 3 1 6 ; > * @ @ @ * ; 0 / x @ 1 9 6 6 G 0 x > > * 7.-XeXtXtX0X0XqXpXqXqXeXeXqXqXqX0X0X9X;X[.O @ ; ; ; ; ; @ @ @  X0XqXqXqX0X0X9X9X9X9X9X9X9X9X0X0X0XqX<X| @.b.G.P.a.4.x n 0 v ~ x n ~ ( %.$.l.l.@.} @.O.L 0 0 ~ k.H L k.G.B.] ..G.9.8 9 6 0 0 9 G E L G 9 n c g k N V / .. .n k 2.3.2.s * ; @ @ @ @ 4 4 9 8 > & 2 4 5 y 2 D.L.s X ; ; @ @ @ * = = * = 2.] O.@.$.H > 8 4 O O O X @ 1 9 A Z < < 4 < O O O O O O O O                                 O     X @ O     O O O O O O O       X * * @ @ @ @ @ @ @ @ @ @ @ @ @ @ @ @ @ ",
"*       X X X   O X   < 1 6 9 8 X O @ * d 8 H / ; < 4 6 6 6 0 0 c x k 3.i.e.W U O   = l = = l x 9 1 X X         @ > ; ; ; ; ; ; @ @ 6 @ O O O X X X X X                   O L h.+.k.G.P.L.4.x / ~ H ~ n n ~ ) $.O.k.l.O.@.@.( x M l [ ..0 0 Q b.e.9.) F.y.d 6 8 0 8 9 6 0 0 G H ( ~ n 4.4.4.' ~ ~ ' 4.9.9.4.g d a a = * X @ < 4 1 7 u p I p p w o.P.9.X 6 ; @ @ @ * > ; ; s V O.o.) $.~ 6 A 3 O O O @ @ 1 4 3 3 O O O X O O O                             X X   O O O         X @ O   O O O O O O O O       X * ; < @ @ @ @ @ @ @ @ @ @ @ @ @ @ @ @ ",
"* O O X * X   X X X X @ 1 1 9 ; X @ ; > 8 6 H 0 @ @ 1 6 6 9 0 9 g 2.3.a.D.g.R G ; l 0.%.[ 9.e.O.) v v x > > ; ; > * > * ; ; > ; @ @ 6 9 K G G v c c x c = ; ; 1 ; 6 6 9 8 0 L h.#.$.G.P.S.9./ ~ n H H / / / +.$.+.e.@.$.$...v c N 2.) ..n 8 E v.V.} ) x.A.g > d 8 8 8 8 0 0 0 0 (  .( +.w.9.[ ~ ~ V 9.w.l.O.H c j j j s * > @ X @ 7 i h > d f d ~ F.A.= @ ; ; @ @ ; # r d l Q g.W R o.( 4 D 3 O O O O X @ 3 O O   . O O O O     O   O   O               X X *   O O           X @ O     O O O O   O       X X * @ < @ @ @ @ @ @ @ @ @ @ @ @ O @ @ @ ",
"X   X f X O X * * X O 3 3 4 9 * * > 6 9 4 4 0 6 @ @ 1 @ 6 8 6 x 4.6.A.b.o.n x d d } %.w.[ O.o.~ v n 0 9 ; ; 9 ; * a s * ; * > ; @ @ @ 1 A 4 9 9 0 0 L 0 ; 6 ; @ ; ; 6 6 8 8 L [ 9.e.D.G.S.0.] ( n 0 L ) ) / +...w.w.w.9.e.L H / } w.) ) V x ~ o.V.w.] %.A.N > x 0 8 8 x 0 0 9 9 G H L O.k.k. .v n ' ] @.h.Q R L n N 2.k s a = * * ; g s s l l c 0 h.G.V X 1 1 @ ; : t q M n f.T F F A R 3 3 O O O O   O O O O O   o . O   O #   O X     O               X * @ O O               @ O     O O   O   O   X   X * * @ @ @ @ @ @ @ @ @ @ @ @ @ @ @ @ @ @ ",
"X O ; - X O @ 6 @ O 3 3 < < 6 > = 6 4 3 O 6 0 @ @ @ < ; 8 = a 9.y.F.v.O.c j l g n O.+.@.O.Q H 8 n V 8 9 8 ; 6 6 ; n = ; > ; ; @ @ @ @ @ 1 1 1 9 9 G L 9 ; ; ; ; ; ; ; 8 8 8 ~ } 9.N.b.F.S.y.4./ ~ H L  .) [ @.} w.y.r.r.w.( ~ ) k.v.) +.V l c ) e.r.9.w.A.4.x n H 0 0 0 H G 9 9 G H H L Q Q E 0 v [ +.O.j.L H H ..@.@.n g j k s a a x n 0 ~ ) L G R b.y.a @ ; ; * > g 2.M g.T 3 4 2 5 D 3   X O       O O O O O   . o O     = *   X X     O O           O @ @ O O               O @ X X X X X O O O   X X X = ; @ @ @ @ @ @ @ @ @ @ @ @ @ O O @ @ @ ",
"X 3 4 @ O < 4 4 4 @ O O X ; ; 6 1 < O O @ 9 ; X @ @ @ 9 > j 6.r.b.z. .c k l c l w.O.E ( L 9 0 9 ' x ; @ : 6 6 @ 2 E ; * ; 2 & # X @ ; @ @ @ @ 6 9 9 9 9 ; * @ @ ; ; ; 6 8 v H k.l.%.z.b.S.y.0./ ( H L E ( @.w.w.r.y.S.N.+.H c 9.k.g.(  .) M M / %.B.9.9.S.9.n ~ H 9 9 0 H 9 9 0 v n n H K K G 9 H )  .o.E H / c L o.h.E H M k k k k ] o.F Y W Q G A W G.V * ; > ; > 2.6...g.Z O @ o p 2 O   X         O O O O O   . X X O   a f     X X O O O     X     O O O O O                 @ X X X X X O O X X X X X * ; @ @ @ @ @ @ @ @ @ @ @ @ @ @ @ @ @ @ ",
"@ 4 3 O O 3 3 O @ O X X @ 6 6 1 O O X X ; 8 ; X X @ 6 4 c 6.0.N.+.9.9.] ' / 4.6.6.[ ..n 8 d c n ..8 = f = ; * a e H * * - i y & o @ ; X @ @ @ @ @ 6 6 7 & & # X ; ; ; 6 8 v H j.v.+.%.x.C.S.y.} H 0 H H ~ } @.r.y.L.S.x.$.H B r.O.K K E o. ./ B $.x.B.r.N.r.' 0 9 9 9 9 G 0 6 8 x n c 0 9 4 1 9 G L E E H 0 n / H E Q E G  .) n 4.2.4.9.n 9 K G 9 6 4 z.B.> ; ; 1 d 3.9.v.Q @ O * X e = X O O       X X O O O O   . # @ O   * v O   X @ O O     X X X     O O O O                 X X @ O @ @ O O X ; X X * * @ @ @ @ @ @ @ @ @ @ @ @ @ @ @ @ @ @ @ ",
"X @ @   O O O X X * = ; 1 4 < @ X X @ @ 8 > X X X ; 9 G w.S.S.@.[ 6.6.] [ ] 0.y.4.2.4.M g k 2.4.} g k 2.k a j 2.2.2.j j k 2.2.s = > > * * * X ; * > = h C i o X ; ; ; 9 0 H 0 o.o.+.%.x.C.F.y.9.n x x 8 n } @.C.A.G.V.N...G $.k.L 9 H ~ ( E ) 9.+.z.V.B.B.A.] G 9 9 9 9 9 9 9 9 v ~ v 9 1 @ 1 1 6 0 G H ~ v ~ ( 0 H ~ v 0 K R E ) 9.4.2.2.a 6 9 0 > ; W z.x ; 6 ; a } v.g.K > = * @ > g O   O O     X X O O       . # @ O   O Z Z   X @ O O       X X O     O O                 X * @ < O @ < O O X ; X X = * @ < @ @ @ @ @ @ @ @ @ @ @ @ @ @ O @ @ ",
"* X X     O   * a f > @ < @ @ X X O @ ; x > X * ; ; ; E b.z...H O.} V n [ [ N.l.] k l x d k 2.2.j s 2.2.s j 3.3.3.3.2.3.3.3.3.2.s 8 = a s a a a s j 2.3.3.2.s > > > 8 8 n M M ' } e.e.k.V.V.B.6.c c x 8 ] } %.V.G.D.l.N.L 9 j.g.K 9 8 n ~ H +.9.} o.k.N.A.L.0.0 9 9 6 4 4 4 9 9 G G G 9 1 @ @ 1 1 9 9 9 0 ~ H K G 0 v x d 6 A K ( o.z.+./ x > 8 0 d a 0 o.{ o @ > = O.v.Y F x s * O 1 J <   O O   X X X O       O   w @ O     < < O O O O O       O O O O             O         X = ; 3 O @ @ < o * * @ @ * ; @ @ @ @ @ @ @ @ @ @ @ @ @ @ @ @ @ @ @ ",
"* O O O O X * > > 6 @ O O X O O X X @ 8 8 @ ; ; 6 6 4 f.j.h.K R g.Q [ @.E f.g.g.Q K K G K  . .~ 0 L +.~ 9 / } 9.9.N M 4.0.6.4.j a 8 = s a a a s s j 3.3.3.3.j d 8 8 8 g N 4.V 9.0.y.r.w.S.C.C.0.N c x x w.} e.C.D.k.l.h.K 0  .K 9 1 9 H H 0 [ r.} ) h.h.S.A.y.8 1 6 6 1 4 1 1 4 4 4 4 1 1 @ @ @ < 4 4 4 9 0 9 A 9 G G L 9 1 1 9 0 ( g.g.W F 9 6 0 x c d / q.C > d 8 +...A A x b 1 O @ F 4         X @ @ O       O   - @ O   O O O   O O O O     O O O O                         X a ; 3 O X X O X = X 2 ; * @ < @ @ @ @ @ @ @ @ @ @ @ @ @ @ @ @ @ @ ",
"= X     X * > 9 4 < O     O O   X @ ; v ; @ 4 4 4 4 3 Y ) / 9 G K ..@. .Y Y Y Y Y F A 4 Y T T F G T f.F F T f.g.W R W g.v.h.) ~ 4 4 9 9 9 9 9 8 6 ~ w.y.0.N a > 6 9 > d B } } 9.0.y.r.r.A.e.F.y.4.B c c e.@.e.V.b. .h.W 9 G K 4 5 5 4 K 9 9 ..k.} n ..o.v.b.x.6 @ @ @ @ @ @ @ 1 < < < < < @ O O < 3 3 3 4 A 4 4 4 4 A W K 4 4 1 9 ~ H Y U D A 1 9 n c n M 0.3.j d H ) ~ 4 @ 6 R Z O O G <           O O O O     O   X 6 O     O O     O O           O O                           = 8 < O X o # * = 7 e * X @ @ @ @ @ @ @ @ @ @ @ @ @ @ @ @ @ @ @ @ ",
"= X * a * ; 4 3 < O O     O O   @ @ 8 x @ 3 4 4 4 4 < F ' s * ; / )  .F < @ 6 6 1 @ @ @ 1 4 4 6 6 4 Z 3 < Z U U D D U f.f.f.L H < < 3 A A A A A F T g.v.g.R 1 1 1 6 9 L o. .) l.V.N.e.e.C.e.V.A.6.] x n @.w.C.v.j.W g.G 6 G A 2 p u 5 A 6 0 O.j.( c / ) g.v.g.9 # @ o @ @ @ @ < < @ @ @ @ O O O @ O O < < 3 3 < @ @ < 4 9 1 < 4 4 H 9 4 < < 4 4 9 ~ ' 0 B a.i.2.v L ~ R A * 4 D 3 O X 1 @         O O O O           X 9 O                         O O O                           * v < O X & : = * e = = @ @ @ @ @ @ @ @ @ @ @ @ @ @ @ @ @ @ @ @ @ ",
"= * a d @ 3 < O O O O O   X X @ O 1 8 ; O 3 3 < < @ O R ' l > 0 E R K ; X 1 1 @ X X @ 1 @ X @ 1 @ @ @ O @ X X @ O O @ < 4 4 b = @ X O @ O < < 4 4 A Y T T A 1 1 1 ; 0 K E L ) l.v.x.l.k.V.%.C.S.0.9.m { w.B.z.g.E K L x 9 4 6 > h p y 4 6 x ) o.Q ( ( / ( Q W 0 , @ X @ @ @ @ @ O @ @ X X X O X X X X X @ O O O @ X @ < < 1 @ < 4 K G @ @ @ @ ; 9 H [ H ( V.P.w.O.G G Y 4 @ 3 3 O X X @ @ O O O   O O O O       O   X 1 O O X   X X           X     O O                           X 0 < O + - a a > q a a 1 @ @ @ @ @ @ @ @ @ @ @ @ @ @ @ @ O @ @ @ ",
"= ; 9 < O O O     O       X X O 3 9 0 @ O O @ X @ X ; E / 2.d J Y A ; * X @ @ @ X X @ @ @ X < 1 @ X X O X X X X X X X X X 9 K X @ X O X X X X X @ @ @ ; 1 * * > > d x 8 8 0 ~ +.Q h.$.O.l.+.C.G.a.q.d.u.w.C.h.E H x M x 6 6 ; > l z p & 1 H ~ n E Q E { M 0 G / f ; 1 @ O X X X X X X X X X O O O O   X O O X X X O @ O O @ @ O < 9 A 4 @ X @ * > 1 ../ G j.m.D...9 G 9 ; 4 3   O O O X O O       O   O O       O   O 4 O   X   X *   O       X     O O                             6 @ . $ = k s 8 d k > < @ @ @ @ @ @ @ @ @ @ @ @ O @ O O @ @ @ @ ",
"> 4 3 O O   O O     O O O @ @ O < 0 8 O O @ @ @ X X x o.V 2.c 9 4 4 6 > X @ @ @ X X X @ @ X @ 4 1 X O X X O X X X X X X @ 4 F @ X X O X @ @ X X X @ * ; ; * = a a d x x 8 8 ( E  .k.....$.$.B.G.L.q.d.5.A.x...~ x N 4.v 6 ; ; 0 / M C y 4 K R 0 0 K L +.n 0 1 ] l > ; < @ X X X X + X X X O O O O O X X O O X * X X X X X @ @ O O 4 4 1 @ X * > 8 6 L @.8  .j.b.$.9 9 > @ 1 O         O O O     O O               O   O O O X     @ O O       O O   O             O                 ; @ $ & = s c 0 s k > < @ @ @ @ @ @ @ @ @ @ @ @ @ O O O O @ @ @ ",
"1 < O O   X X X   O O @ O O O O 6 n ; O @ @ @ X @ 1 N  .9.3.z = @ 4 ; > X @ @ @ ; X X @ X X @ < < O X X X X X X X X X X @ < < @ X X X X X X X X X > * > > > > > 8 8 0 0 9 9 E G ~ $...@...%.B.G.G.a.6.a.S.$.[ n n } ) 0 6 ; 9 G Q +.h i 4 K R K 9 G K o.L G 4 +.#.6 ; O @ @ @ @ X & . X X X X X X   X X   X X > X X X O X @ @ O O 4 4 @ ; > d g n 9 A %.B / O.h.j.A 9 6 4 < O         O O O     O O                 $   O   O O   3 < O     O O O O               O                 = ; o f s s ~ ^ a g 6 4 @ @ @ @ @ @ @ @ @ @ @ @ @ @ @ O @ @ @ @ ",
"@         * X X   O @ O O O O @ 8 v X O @ @ X X @ H M L r.3.7., X 1 6 > * @ @ @ ; X X X X X @ < @ X X X X X X X X X X X X X X X X O X X X * * * * > * * ; 6 6 9 4 G G 9 9 9 G 8 / / ) w.) e.V.D.G.L.L.P.V...) n ) h.Q H 9 6 9 K W j.V h @ 4 9 9 9 9 G Q R 4 3 g.Q 4 1 O X X @ 1 @ f * X X X X X X X : X     X 6 @ X @ O X @ < X O @ @ O ; > x v ~ H A o.r.c / ..g.A 1 F 3 < @ O O O   O O O     O O       O       . y       O O O < O O     O O                                     * > X s 2.l H n j > 4 < @ @ @ @ @ @ @ @ @ @ @ @ @ @ @ @ @ @ @ O ",
"    O O X @ O O O O X O O O @ 6 n > X X @ @ X X 4 R n R N.6.7., X 6 6 > > X @ @ @ X X X X X @ @ @ X X X X X X X X O O X X X X X @ @ * * = * * X ; ; ; ; 6 6 4 4 4 A A 9 6 6 6 8 / H ) w.~ %.x.b.G.P.P.G.h. ...( E Q K 0 9 9 1 1 K g.) g X @ > 6 6 6 4 R K 1 1 T Y 4 4 @ X X @ > > k > @ @ X X O @ X X @ O O O 4 @ @ X O @ ; @ X X @ X @ 1 9 F R K G 4 K N.@.L ..+.; 3 Z 4 O @ @ O   X O O       O         O O O   . u o     O O   O O         O           O O X         O         O X d ; s k B H M k > < @ @ @ @ @ @ @ @ @ @ @ @ @ @ @ @ @ @ @ O O ",
"    O O 1 O O O + + X X X @ < 9 n @ O X X @ @ @ 4 R 9 K B.6.5.- ; 6 @ > > @ ; X @ X X       X @ O   X X               @ X       * * = = > *     O 6 1 @ O O < 1 1 @ O 6 6 @ ; 9 K A o.+...O.O.O.F.E.E.b.R 0 B ~ E G @ 9 9 4 4 @ 4 R W H @ @ ; 6 6 ; 1 A 1 @ @ < 1 ; 1 @ @ X X = * N x O @ @ X O @ @ @ @ O O O O O @ X X O @ @ X X @ X @ 4 Z U U Y A 1 4 h.z.Y K } > 3 3 3 O @ ;   O O @ O       O         O   O X   i * O   O                       O O     O O         O O       O   h 6 a c  .G > g 9 < @ @ @ @ @ @ @ @ @ @ @ @ @ @ @ @ @ @ @ @ @ ",
"X O   d ; O O   # O X X @ < 4 H 8 X X X X @ @ @ 4 G >  .G.i.2.= ; @ ].> > ; @ _.@ @   +XlXiX:   m ,.    ,.t _ .X(.`.|.O   aXkX(.X * ; @ @ @ sXkX[.O   (.kXgXt O O >.).O @ H.w n.<X).,XoX9 {.8X{.$.G.T.K _.vXjX^ 6 @ H.` 4 1 1 4 4 9 T A y + 1 6 6 ; 1 @ : @ @ @ ; * ; @ @ ; X 6 4 ..G O @ @ @ O O O O @ O O O O O O O X O @ @ X X @ < < 3 3 3 3 Z 4 4 3 W v.F A X.9 < O < O @ ; O O O @ O O O O O               X   , d O     O           O       O   O   O     O O     O         . o m x = G W G ; 8 4 @ @ @ @ @ @ @ O @ @ @ O @ @ @ @ O O @ @ @ @ ",
"O O X z *   X * X X @ @ O < 1 v ;   X X X X @ 1 4 9 c +.G.a.2.a ;   UX7 ; ; o UX7   AXxX[.hXm   +XVX    CX+X;.hXIXNXkX  PXdX|.kX  @ < <   UX9X|..X  ].PX]..XUXw   xXUXw   KX(.|.dXUXzXhXO UXjXMXUXD.N.qXLX-XqXUX2   JX].O @ @ @ < 1 A 4 p y @ 1 ; * ; * w O @ O 1 6 @ @ @ 6 @ 3 3 T Z O @ ; @ O O O X X X X O O   X X X X O O < < 3 3 O O O O O O @ < 3 D f.Z 3 U U O O O O O 4 < O O @ O O O O O O       O     X . o x <     O O O     O O O   O O O         O O O O             X - s 4.g 4 F 9 ; 1 < @ @ @ @ @ @ @ @ @ @ @ @ @ @ @ @ @ @ @ @ @ O ",
"X O v * X   X X @ @ @ O O O 9 0 X O X X X X @ < 4 9 c $.T.a.k a ;   UX7 > ; o UX7   UX  X   O   .XxX    mXOX    DXu.  =.PX      @ @ @ O ,.DX  O O   AX,.    lXXX  xXAXsX  DX).*   IX| 1 G UX{ > MXqX~ KXt.k.O ZX_.  DX).O @ @ @ @ 1 < ; z h X ; ; @ ; > e & X O 1 9 @ O @ 8 @ 3 < D 3 O X ; @ O O O O X @ X   O   X X X X O O 3 < < O O O O O O O O O O < Z 3 O Z Z O X O   O 3 3 O   O O O   O O O             X + y J 3 O   O O O     O O O O O O           O O O           X X X = j 2.V 4 6 > > @ < @ @ @ @ @ @ @ @ @ @ @ @ @ @ @ @ O @ @ O @ O ",
"  Z T O   O @ O O < O   O @ 0 ;     O O O O O @ 4 A / j.b.r.M a @   UX7 d > o UX: o UXO X       .XlX    xX+X    DX(.  _ IX    O @ O O   ).DX  @ @   DX(.    kXiX  NX`.IX  DX).g X IX&.H A UXt.' MXtX4 PXU.j.O CX[.  DX).O @ @ @ @ @ @ > 2.s X ; ; @ 6 6 , ,   O < 9 @ O < 6 @ X @ < @ O X @ @ O O O O O < O     X X @ @ @ @ O O O O O O O O O O O O O O O O O X O O   X     O O O O O @ X O   O O O O X X X X X O + p 4 3 O O O             O                                 = = * = k 4...K > a * @ @ @ @ @ @ @ @ @ @ @ @ @ @ @ @ O O O O O @ @ @ ",
"O D D O O < 3 O O O O   O 1 8 X   O O O O X O O 3 Y L f.v.+.c = @   UX7 c g + UX7 : UXO ;..X=.  [.UXDXDXUX|.    DX(.    DXUXAX,.  O O   ).DX  O X   DX).    kXiX  NXH.DXr DXJ.n O IX&.G 4 UXZ.Z.UXR.Z IX!.R   VXXX  DX).O @ @ O @ 1 @ 4 r.d X @ ; 1 1 4 8 > X O @ 1 @ O @ 4 @ O @ X O O O @ O O O   O O < O O O X @ 3 3 < @ O O O X O O O O O O O O O O O   O O   O O O X     O O O O @ X O O   O O O O @ X X X O   - 8 3 O O O O O                                           a > * = M w.o.Y > a ; @ @ @ @ @ @ @ @ @ @ @ @ @ @ @ @ @ O O O @ O @ @ ",
"O O     O O O O O       O 9 ;     O O     O O @ 3 D 4 F g.+.c * X   UXq c d o UX: # UX  u.BXBX   XNXr w NXOX    GX(.  @   P (.UX#   O   ).DX  O X   DX(.    kXiX  NX[.`.gXBXR.E < IX| 9 1 IXGXUXqXY 4 IXJ.4   VX|.  DX).O @ @ O @ < O Z g.q & @ @ @ 1 4 0 8 O X O 4 @ X @ 4 O O @ X O O O O O O O X   O O O O O   O 3 3 O O O O O O   O O O O O   O O O O O O O   O O O O O           : @ O O           @ O O O O   = n <     O O O O                                         * 0 9 = n $.Q F > > 6 < @ @ @ @ @ @ @ @ @ @ @ @ @ @ O O O @ O O O @ @ ",
"        O O           O @ 8 X     O O     O X X < Z 1 0 W %.B X X O UXJ n > o UX: o UX  X ).NX  XXxX    bXOX    GX(.    O     HX,.      (.DX  O O   DX(.    kX9X  NX|.O PXmXR.Y O IX` 6 ; UX4 8XSXO 4 IXc.5   VX[.  DX(.O O X O @ @ O 3 f.S i X @ X < < 9 6     O < @ X @ @ X O X X O O O O O   O O     O O   O O O O O O O O O O O O   O O O     O     O X     O     O O O O         @ @ < O       X X   O O 3 3 O @ H 3 O   O     O                                         O Z U @ 8 E T A d > 4 @ @ @ @ @ @ @ @ @ @ @ @ @ @ @ @ O O @ O O O @ @ ",
"  X O O O O         O   6 ; X     O O O O O @ @ @ < > M Q @.M * X   UX4 1 X @ UX7   UX7   (.BX  .XxX    NXOX    DX(.    w     UXt       t IX    .   xX#X    DX_.  BX.X  BXUXH.4 X IX_ 8 x UXc.T UXq 4 GX[.    KX;.  DX(.+ + X O @ @ O O Z 9 , o ; @ @ @ F 2 + O O @ ; @ @ O O O O O O   O O O     O O   O O   O O O O   O O O O       O     O O O O O     X     O       O O O         @ 4 O O O X X X * O O O O O O O A 3 O     O                                           . . 5 3 O A T U 4 > 6 < < @ @ @ @ @ @ @ @ @ O @ O O @ @ @ @ @ @ O O @ @ ",
"O X   O O           O O 6 @     O O O O O O @ @ O 4 b c W %.l * X   HXIXIXCX  IX: X ).UXIXIX.X  |.xX    xXXX    AX(.  : IXIXUXiX  X O O   kXUXIXDX  X KXIXUXBX  O mX|.O n.UXH.8 * LX_ v ~ IXh.F hXdXG X.PXIXUXlX    xXIXIXPX  O X @ O O < 8 - X @ @ @ @ 4 7 + O O @ 6 @ @ O O O O O O O O O O O   O O O O O O O X O O O O O O O   X     X X O O           X             O O O         @ < O O O O @ X * O O O O O   O 4 3 O     O                   O                       % y y & $ & ! I @ ; ; @ @ @ @ @ @ @ @ @ @ @ @ @ O O @ @ @ @ @ @ O @ @ @ ",
"O O     O O         X 1 1 O       O O O O @ @ X O A ~ x g.@.k - X 6         b   8 x #   #     @     o @     X X     X     + +   O       o     O   z =   o O   4 4   O 1 O   X M {   ; / $.O Q E O 6 L Z   : +   @ :         O O X ; X O O 6 x X # X @ @ @ > X   X @ 1 @ @ O O O O O O O O   X     O O O       O O   O O O O O   X X O   X O O O           X O O O O                   O O O O O O < @ ; < O     O     @ O O   O O                                         . y i i h , y i f = X @ @ @ @ @ @ @ @ @ @ @ @ @ @ @ @ @ @ @ O @ @ @ @ @ @ ",
"O O O           X X * 9 @           O O O < O O O F G x g.@.k - X @ @ 1 9 0 0 9 0 ; e O X X O O         O O                         O O   X O   * c ; 1 4 3 4 < O X @ @ < < > ] / 6 x )  .L L G 9 L 9 4 9 8 X @ @ @ O O O O O O @ ; X X O 4 v = = = @ X X > * O O < 4 3 O X O   O O O O O   X X         O         &   O O O O   X X X X O O O O   O   O O O O O       O       O     O O O       O O 1 4 < O         X X O O   O O                                   . .   . o f j j j h s k s * @ @ @ @ @ @ @ @ @ @ @ @ @ @ @ @ @ @ @ @ @ @ @ @ @ @ ",
"O   O       X X * * > @   O O       O O O O O   @ F G c Q @.2.= X @ @ @ 4 9 9 9 0 = e O X X X O O       O O                 O O O       O O     A R 3 4 3 < @ X @ @ @ @ @ @ v } ~ 6 ' ( K H 9 6 9 G 1 4 F 9 @ @ X @ X X X O O X ; 6 X X O 3 H > l x X X @ 9 ; O X @ 1 < O X O O O O O O O O ; X   X               - X     O O   @ O O O O O O O O O O O O O O O           O O O O O   O O         O 1 9 3 O O       X @ O       O   O       .                         -   . - j 2.j 2.2.2.k g ; @ @ @ @ @ @ @ @ @ @ @ @ @ @ @ @ @ @ @ @ @ @ O @ @ @ ",
"          X * = * 6 < O O O   O     O O O O   X 1 A 9 M Q } 2.= @ X @ @ 4 G 6 9 9 x = X X X X O                             O O O     O O   O O Z Z 3 O O O O X @ @ @ X * ; / } 8 x [ K 9 9 9 6 9 9 1 @ A A @ @ @ @ @ X O O X O ; ; O   X O G > c > X X < 9 @ O X ; 6 @ @ @ X   O O O O O @ @ @ O X X   O     O X k a           O O O O O O O O O       O O O           O O O O O O   O O       X   X b < O O       O O O O         O     .               O         X l - % , s k M ] N j j v 4 @ @ @ @ @ @ @ @ @ @ @ @ @ @ @ @ @ @ @ @ O O O O @ @ ",
"O     X * = = ; < 3 O O         O O   O O   X X X 4 L c E e.2.> * @ @ @ 1 9 1 6 G v > X X X O O X O O O               O O       O O         O O O O X O O X X @ @ @ @ @ ; @ ( ' g B L A < 6 9 > 9 1 @ @ 4 4 @ @ @ O O @ X O X X 9 4 O O O O A G K 4 @ @ < 4 < O X > ; X @ X X     O O O O O < @ X X O     O O   X l a   O     O O O O O O O O O O         O O O X   O O O O   O O   . O O       X X X 8 @ O O O     O O O       .   O       X X X X X O O       . $ . - f , = j V ) ( / n 0 G 4 @ @ @ @ @ @ @ @ @ @ @ @ @ @ @ @ @ @ @ @ @ @ @ @ @ @ ",
". O X = a > 1 O O O O O     O O O O   O   X ; @ X 4 R x E l.4., * @ @ @ 1 4 1 9 G 0 * X X X O X O O O O               O       O         O O O O O O X X O X @ @ @ @ @ @ 1 < ( ] M ' 9 ; ; 9 0 8 6 1 @ @ @ < @ O O O @ @ X X O X 9 1 O O   O A F R 4 @ @ @ 3 2 O @ @ @ O @ X @ O O O O O O O @ @ X O O O     O     H K     O   O O O O O O O O O O O         O O O O O O O O   O O   . . O       X O O A Z O O O   . + O + . . .           X X X     O O       . y u y , g a s j V ~ G 0 9 4 4 < @ @ @ @ @ @ @ @ @ @ @ @ @ @ @ @ @ @ @ @ @ @ @ @ O O ",
"X X * > ; < < O O     O       O     X   X * ; @ O 3 Y 8 W $.2.C - @ @ @ 1 1 6 9 G 9 > X X X X X O O O O                     O O         O O O       O   X O @ @ O O @ @ @ @ ) ] ' H 8 l > 9 8 6 6 @ @ @ @ @ O & & O O @ O X O @ 1 O O O O @ 4 4 4 < @ X X < @ O O < < O @ @ X   O   O O O O @ @ X O O O     O O O D U O       O O O O O       O O       X X O O O O @ O O         X & .         : O O 3 3 O     + + o O   X X X X X X X O O O O O O O O     . % y i f a g k s s x 9 1 1 4 4 < @ @ @ @ @ @ @ @ @ @ @ @ @ @ @ O O @ @ O O @ O @ @ O O ",
"* * 6 1 < O O           .       X X X X @ ; @ < @ 3 A 8 R +.3.7.- X @ @ 1 1 6 8 9 6 > * X X X X X O O O X       O O           O O               O O O     O O O O O @ X @ ; [ } ) G x l > 9 9 6 1 @ @ @ O O O % y O O @ X @ @ @ 4 O + O O X X @ ; @ @ @ X O @ o O < @ @ @ ; X X       O O O O @ @ O O O         O 3 3   O         O         O O O     X X X O O O O O O           X , &   O     ; O O   O     O X X X X X X X X X X   O O O O O O O O O . $ $ $ - j 2.k j j d 9 9 4 4 @ @ @ @ @ @ @ @ @ @ @ @ @ @ @ @ @ @ @ O O O O O O O O @ @ O O ",
"= 6 4 < O             o   X X X * > X @ 4 4 @ @ X < G 8 K @.3.7.- X @ @ ; 6 6 6 9 6 > ; * X X X X O O   X       O O O       O                   O O       O O O O X @ X X 8 #.) F 9 v b ; 9 9 @ @ 1 @ @ @ O @ - y   O O @ @ X ; @ *     O O @ 1 1 @ @ @   O @ & O O @ @ @ ; @ @       O O O O ; ; O O O         O       O O     O O           O O O O O O O O O O O O O           O , : O   O   O < O X   O X X X X X @ @ X @ X X O O O O O O O O O O   . $ $ * j 2.2.k s > 6 4 4 4 < @ @ @ @ @ @ @ @ O @ @ @ @ @ @ @ @ @ @ @ @ @ @ @ @ @ @ @ @ O O ",
"> 8 @ # X X     O   * f * X O X ; @ O 3 3 < X X X 1 Y 8 H r.8.2.* @ @ @ ; 6 6 ; 0 > > > * X X X X X O   X X     O O         O               O         O O O O O X O @ @ 1 9 O.K 4 6 K G 1 4 4 @ @ 1 @ @ @ @ X = i   O O @ @ > * X f *   O O @ 1 @ X X @ X O @ , O O X @ 1 6 1 @ O O O   O O O ; > X         O     O     O   X X   O   O     X X O O O O O O O O     O O O         O w q X O   O O 3 X X   X X X X @ @ O O O O O O < O O O O         . . o - = = s j M x 9 4 4 4 < @ @ @ @ @ @ @ @ @ @ @ @ @ @ @ @ @ @ @ @ @ O O @ @ @ @ @ @ O O O O ",
"a a = * * X       X k = X   @ < 4 O @ < O X X X @ 1 G 9  .S.i.2.* * @ @ ; @ O @ * X X X X X                                                                       O   O O 4 R 9 6 A K A 1 1 @ @ @ @ @ @ @ X O x f X   O < @ ; @ X s * O O X * @ @ @ @ O X X 1 > O O X @ 1 9 1 @ X             ; 9       O O               O X X X O O     O X O O O O O O O O O                     y q @ O   O     O X O O X O O @ 9 O < < O O O O O             $ $ o * a s a = 8 G F 4 4 < @ @ @ @ @ @ @ @ @ O O O O @ @ @ @ O @ @ O O O @ @ @ @ O O @ O O O O O ",
"d s a a - X   O   6 b @ O O O 3 3 O X X O O X X @ < 4 9 Q G.a.z - X @ @   ).OX9X;X;X@X@X+X+X+X+XOXOXOXOXOXOXOXOXOXOXOXOXOXOXOXOXOXOXOXOXOXOXOXOXOXOXOXOXOXOXOXOXOXOXOX@X1X<XJ.  @ 1 4 4 1 < @ @ @ @ @ @ @ O < H x   O O O @ 1 @ ; 8 O   O * f X @ @ @ O O O 1 8 X @ @ @ 1 9 6 @ X     O O     @ 1 @ O     O         X O   O X : X       O O O O O O O O O O O O       #     O       u _ 4 O       O O O O O @ O O @ 4 O O O O O O O           . . $ & - = a a = > 9 A A 4 < @ @ @ @ @ @ @ @ @ @ @ O @ @ @ @ O O O O @ @ O O O @ O O O O O O O O @ @ ",
"x g a s =   O O < Y 4 O O O O O O O X   O O O X @ < 4 9 Q D.i.z o X   H.sX,.2 2 : : : : # # # # # # # # # # # # # # # # # # # # # # # # # # # # # # # # # # # # # # # # # 7 ).kX;.O 1 1 @ @ @ @ @ @ @ @ @ O 3 F 0 X O O O < 4 1 1 Z <   O * f X @ @ @ X X O 4 9 @ X @ 1 1 6 6 @ @     O O   O O 4 O O               X X   O @ @ @       X O O O O O O O O O   O O O   X X   O O O   u *.4 O       O O O O O O O O O < O O O O O O O . .   X o & & o f s a = > 6 4 4 4 < @ @ @ @ @ @ @ @ @ @ @ @ @ @ @ @ O O O O @ O O O O @ @ @ @ @ @ O O O O O @ @ ",
"9 = l s X   O O 3 D O O O O     O O O O O O O X @ @ 4 9 Q b.0.z ,   [.[.  @ < 4 9 8 ; @ 6 ; X X X X     O O O         O O O     O             O   O     O   O O O O O 4 < 1 @   iXH.O @ @ @ @ @ @ @ @ @ O O O D A X O   O 3 < < 4 S O O O 1 0 @ @ @ @ X O O 4 4 @ X @ 1 @ 6 6 @ @ X           O < O O   O     O     O O O O O < < O   X O O O O O     O O         O   * = X   O O   i m 1 O O       O O O O O O   O < O     .   O O o o X * - , - = j k s > 4 1 4 < @ @ @ @ @ @ @ @ @ @ @ @ @ @ @ @ @ O O @ O O @ O O O O @ @ @ @ @ O O O O O @ @ @ ",
"A 9 n *         O O   O O O O O O O O   X X X X @ @ 4 x ..z.0.5., *.;X  ; @ @ 4 9 8 ; 7 1 6 X X X O   O                   O O               O O O O   O         O O O 4 < @ @ 1   aX7 @ @ @ @ X ; @ @ @ O O O 3 3 @     O < O O 2 :   O O 4 A @ @ @ @ X X O < 4 @ @ @ 1 1 6 9 1 @ @         O O O @ O O O O         O O O O O O < O O O O O O O       O X   X X   O X * -       O   i z 9 O                 O . $   O O   $ $ o     X = = * , , j s s s d 6 < @ @ @ @ @ @ @ @ @ O @ @ @ @ @ @ @ @ @ @ @ @ @ @ @ @ @ O O @ @ @ @ @ @ @ @ O O @ @ @ @ ",
"Z K 0   O +       O   O X O O   O O O O X X X X X @ 4 n [ z.0.2.o iX  : @ @ @ 4 9 6 ; e 1 1 X X X X   O                                       O O O O O           . O 3 @ @ < @ 6 7 @XO @ O O X ; * X O O O O O 3 O o   O O O O = a X O O 4 4 @ @ @ @ @ O O O 1 @ @ @ 1 1 1 9 1 1 @     O O O O O O O O O O         O O O   O O @ O   O O O O X X X     X   X X   O O @ 6 O O   O   i | K O         . . .   O $ y . O   . . o X X X X = = * a k j s = 8 9 < @ @ @ @ @ @ @ @ @ @ @ O @ @ @ @ @ @ O @ @ @ @ @ @ @ @ @ O @ @ @ @ @ @ @ @ @ @ @ @ @ @ @ ",
"4 J 1   O             O X X   O O O O O O X X @ X @ A ~ [ z.i.3.X +X  ; ; @ X < 4 9 > 6 1 ; @ X X X   O O O O O                               O     X   O   X X = * X X @ O @ @ >   9XO @ X X X ; @ X O O O O O O O % .     O X a d X O O O @ @ @ @ @ O X O O @ @ 6 @ @ 1 1 9 6 @ < X   O O O O O O X @ O   O     O O O O   O O X O O O O O   X O O O O O O X X O O O O A 3         , X.Y <     . $ y y y % . . , - O     * = = * X o = = * f j j d ; 4 4 4 @ @ @ @ @ O @ @ @ @ @ @ @ @ @ @ @ @ @ @ @ @ @ @ @ @ @ @ O O @ @ @ @ @ @ @ @ @ @ @ @ @ @ ",
"6 9 O   O O     O O X * X   O O O O O O O X X @ X @ A ( @.z.a.2.h +X  ; @ @ X @ 4 9 8 6 @ @ @ X X X       O O                 O   X X X X o   O O O X X O   X X f * * X @ @ X @ 6   @XO X O @ @ 1 @ X O O O O O O   & . O     X 9 9 X   O X @ @ @ @ @ X X X X @ @ 6 @ @ 1 1 9 0 6 @ X   O O O O X O X * X       O O O   O   X   O O O O O O O O O O O O O O O X O O O O 3 @ . $ $ % i | S y % $ % % % y & &     s k     X * = * X O o = c > = a d 6 1 4 < O @ @ @ @ O O @ @ @ @ @ @ @ @ @ @ @ @ @ @ @ @ @ @ @ @ @ O O O @ @ @ @ @ @ @ @ @ @ @ O @ @ ",
"6 @   O O O O O O   = *     O O O O O O O O X X @ @ F L [ z.L.2.h +XO @ @ @ X @ 4 9 8 8 @ @ @ X X X       O O                 O   X * X * X   O O O @ O   X X X > X @ @ @ X X @ 1   @X+ X O O O < @ O O O O O O O X - &   O   < Y D O   O O O @ @ @ @ X X X X @ 2 2 1 < @ 1 9 0 6 @ @ O O O O O     X = *     O O O       X * X O O   O O O O O O O @   O @ O O O O . $ $ , y <.u u <.=.I y $ . o * f a = = *   a l * X X X * # 5 O * a j a * 6 9 4 4 < O O @ O @ @ @ O O @ @ @ @ @ @ @ @ @ @ O O O @ @ @ @ @ @ @ @ O O @ @ @ @ @ @ O O O O O O @ @ ",
"6   O     O O O   X > X       O O O O O O   O O X O A o.+.j.C.j z  XO @ @ @ @ @ 4 9 8 8 @ @ @ X X X O X X                         X *   @ X   O O O @ O   X @ 1 G 3 < O @ X @ 4 4   +X+ O O O O @ @ O O     O O O X = y $   O 3 D 3 O O O O =.@ @ @ @ X X @ ; @ 5 p @ 1 @ 1 4 G 9 @ @ X O O X     O O * X O   O   O o     * = X O O e t   O O O O O   `.H.  O O   $ y u 1.<.u u u y <.:.G - = * a a s s a = X X ; ~ 6 X $ % 5 5 2 X * a s = @ 4 < < < @ @ @ O O @ @ @ O @ @ @ @ @ @ @ @ @ O O O O O O @ @ @ @ @ @ @ @ O O @ @ @ @ O O O O O O O @ @ ",
"@ O O   O O O O O @ @   O     O O O   O O   O @ X @ A E ~ v.k.5.7. X  @ @ @ @ @ < 4 @ X X @ X     X X X           O       O       O @   O O O   O @     X @ O < 3 3 < @ O X @ < <   +X+ O O O O O O X O   O O O O O ; y y   O 3 3 O O O O O UXH.O @ @ X @ @ 6 @ p p @ 1 1 1 4 G 4 @ 1 @ X O O X     O @ @ O O O O O   PX`.  = X O   AXAX  O O O O   5 UXUX  . o . y u % UXsXo f s = 7.4.~ s a = a = d x 9 6 @ @ 1 K 4 $ y y & ; > = * = ; 1 4 @ @ @ @ @ @ @ O @ O O O O O O @ @ @ @ @ @ @ O O O O O @ @ @ @ O @ @ @ @ @ O O O O @ @ O O O O O O @ @ ",
"    O O O O O   < 3 O     O O O O O O O O     @ X @ A K / h.l.0.7. Xo @ X @ @ X 1 O _.hX(.  q _.|.r   X o `.:   X   `.sX`.  ;.`.].).O ,.[.(.  o O   `.t   O _ ].].@ X X @ X X @ O   +X+     O O O O O O   O   O O < 1 i y   O O   O O O O + UX,.O @ @ X @ 1 1 @ p p @ < 1 @ 1 A 4 @ 1 @ @ X X X X   O 3 < O O   O O ).UX  @ 6 @ O   mXmX    O     . . 9X|.  % o   & i X LX;Xa j j s z 4.n d > 1 4 4 A Y F F 3 @ @ A 5 y i h s a a = ; ; 1 < < @ @ @ @ @ @ O O @ O O O O O O @ @ @ @ @ @ @ O O O O O @ @ @ @ O O @ @ @ @ O O O O @ @ O O O O O @ @ @ ",
"          O O O O O O O   O X X O     X X X X X @ @ 4 L N ) r.a.5.-Xo @ @ @ X @ O 1XAX).dX  ).IXXXUX>.  _.UXkX    sXNX).|.  HXhXpX.X  IXiXxXBX    =.UXVX    kXCXiXUX# X @ X   @ @   #X+   O O O X   O O X @ O O O O 1 f -   O         @ O + UX,.      X @ 1 4 O   i     6 1 1   @ 1 6     X O @     @ O O O O   O   SXsX  < D 3     mXNX        X $ u     : - X     X   KX;X= d x   > [ O 3 K Z Z Y W W F 3 3 O o 5 5 , j k j a = > 1 @ @ @ @ @ @ @ @ @ @ @ @ @ @ @ @ @ @ @ @ @ @ @ @ @ O @ @ O O @ @ @ O @ @ @ @ @ @ @ @ @ @ @ @ @ @ @ O @ @ @ O O ",
"            O O O O X X X X O X O O X X X X @ @ @ @ 4 ( M ) A.a.5.-XX ; ; X X @   HXP * * * ).BX  (.NX  xX_.PX    PX#       HXt       IX#   UX    iX.XIX    hX|.  zX[.  @ @ O X X   #X+   O O X O O O X - X O   O O 4 b *   e KXUXIXNX+ O + UX_.HXIXAXw @ 1 O H.PXUXUXlX  1 r PX>.@   vXHXO O + HX_.  O O O O O O e UXt   O 3 < O   NXlXsXPXKX).  .   BXaX  f X (.KXPXFXUX0X3 R 3 gXIXUXPX.X3 Z 6 0 0 6 @ O O . % & - j 2.2.j = 6 1 1 @ @ @ @ @ @ @ @ @ @ @ @ @ @ @ @ @ @ @ @ @ @ @ @ @ @ @ @ @ @ @ @ @ O O O O O @ @ @ @ @ @ @ @ @ @ @ @ @ @ @ @ O ",
"X     X X   O O O       X O O O O X X X X X X X @ @ 4  .n O.G.A.5.-XX ; ; @ X @   BXaX: X = ).BX  (.NX  IX  IX#   IXw       HX-.w +   IXw w LX    DXt JXP   kX|.  xX[.O X O @ X X * ;X+ O O X X   X O X *   O O O O 3 H *   IXxX*.,.hX  O + UXIX,.>.JXDX  1 7 UXoXd.;.IXpXO O IXoXO O UXUX>.O _ UX*.      O O O   aXDX    O + + O   xXUX#X*.kXUXw X   HXlX  a =.UXXX>.R.UX<XU U ].UX].c.aXUXe * = * * * X     + : = j k k j x 9 4 1 @ @ @ @ @ @ @ @ @ @ @ @ @ @ @ @ @ @ @ @ O O O O @ @ @ @ @ @ O O O O @ @ @ @ O O @ @ @ @ @ @ @ @ @ O O O @ @ @ @ ",
"X     X X     O O O O O O O O O O O O X X X X X @ @ 4  .~ j.G.S.5.-XO @ @ @ X @ @ 2 BXIXSX  H.KX|.IXu.# IX  xX(.  IXw       CXHXHX`.  JXzXHXsX    UX  iX+X  iXHXxXJX  X X X X O X * ;X+ O O   X X X   O @   X   O   3 Y < t UXe       @ O + UX_.O    XIX  @ ).UX@ q.o kXFX    AXkX  *.JXzXXX  _.UX+ O X O O O O   UX`.  . . % %     xXAX  O # UX,.O   HXlX  O oXIX  D Z IX<X3 O bXCX$ c.S UXH.* * * @ O + .   X a j j j g 8 4 4 1 1 @ @ @ @ @ @ @ @ @ @ O @ O O @ @ @ @ @ @ O O O O @ @ @ @ @ @ O O O O @ @ @ @ O O @ @ @ @ O @ @ @ O O O O @ @ @ @ ",
"    X X         O O O O O O O O O O O O O O X X @ @ A L H v.b.B.q. X  @ @ @ X @ @ < O   HXu.H.JX|.*.  ,.UXxXPXiX  PXe       HXw       IX:   KXw t UXNXHXxX  sXpXpXaX  X O X X O < @ @X+ O O O X X     O 3 O X   O   3 D < w UX`.      O O + UX_.O   XXIX. @ ].UX1 y.* lXHX    hXJX  ].BX[.xX  aXHX  O O O O O   M.UX  # $ . & &     xXAX    7 UX(.    HXlX  3 aXIX  3 < IX1X    BXVX. 2 _ UX-.X @ @ O & $ . X * s j s d 9 4 4 @ @ < @ @ @ @ @ @ @ @ @ @ @ @ O @ O O @ @ @ @ @ @ @ @ @ @ @ @ O O @ @ @ O @ @ O O O O @ @ O O O O @ @ @ @ O @ @ @ @ @ ",
"X O @ X     O                 O O O O O O O X X @ @ A H H g.b.A.q. Xo X * X X @ @ O     GX:.).VX  X   lX+Xt ;.JX  KXw       HXe       IX*   IXt .XzXw t IX  sX0XO UX  O X O O O 4 < @Xo X X   @ X X   O < @ X   O   O 3 @   NXUXIXHX.X  O + UX_.O O +XIX. O |.UX1 B.* lXJX  O ].IXO lXsX;.KX  CXzX  X O O O     AXkX  X & X * = *   xXSX  O 7 UXH.O O HXlX  O sXIX      IX#X    NXLXlXBXUXCX  @ < 5 y % - = * * = d 6 9 4 1 @ @ @ @ @ @ @ @ @ @ @ @ @ @ @ @ O O O O O @ @ @ @ @ @ @ @ @ @ @ O O @ @ @ @ @ @ O O @ O @ @ O O O O @ @ @ @ O @ @ @ @ @ ",
"X O < O     O             X O O O O O O X X X X @ @ A G 9 Q x.a.q.-Xo X * X X X   sXJXKXBX  ).VX  @   KXt     UXo ,.UXSXDX  NXKXKXAX  FXJXIXsX  CX,.    KXw gX1X  lX.X  X X O @ 3 3 @Xo O   X @ X   O O O O O       O O O %   ;.).zXUX-.  + UX_.O O oXIX% O [.UX1 z.4 lXJX  4 _ UX2 DX).7 UX  IX|.  O O O O O e UXt   X * * * = *   xXSX  O 7 UXH.O   HXlX    aXIX  o   IX#X    NXJX-X-XH.  1 < $ y i - a s * * ; 9 1 4 @ @ @ @ @ < @ @ @ @ @ @ @ @ @ O @ @ @ @ O O @ @ @ @ @ @ @ @ @ @ @ @ O O @ @ @ @ @ O O O O O O O O @ @ @ O O O @ @ @ @ O @ @ ",
"X O O   X X           O O   O O O O O O X X X X @ @ 4 G 9 L V.L.q.-X- @ ; X X @ @   2 J   x X   1 @ @     X X   X     e   o         R 3 O     #     O @   @ 3 Z @   + O O O O O O O +X+ O O X @ X O O O O O O O   O O O O % .   X * UX`.  + UX_.X O @XIX% O `.UX3 g.! lXHX  1 O UX=.UX_   UXr UX-.O O O       iXDX  X X ; X @ 9 @   xXDX  O 7 UXH.O   HXlX    iXPX  o   IX;X    NXVXX 9.1 O + + & - j j s a * @ @ 1 1 1 @ @ @ @ @ @ @ @ @ @ @ @ @ @ @ O @ @ @ @ O O @ @ @ @ @ O @ @ @ O @ @ O O @ @ @ @ @ @ O O O O O @ @ @ @ @ O O O @ @ @ @ O @ @ ",
"X O O X X X X         O O O         O O X X @ X @ @ 1 4 8 ..D.G.9.-X* @ @ X @ @ X @ 1 4 P ; ; @ @ @ X X X X X X X                 O U U 3 O   O @ O O O   O 3 3       O O O O O O   +X+ O O O @ @ O   O O O O O O   O O   % .     z UXH.  + UX_.@ X @XIX: O :.UX2 Z . AXBX  @   JXiXUXO   DXiXUX# O O         IX[.  X @ 1 < 4 F 3   xXSX    7 UXH.O   HXlX    |.UX    - UX;X    sXKX  0 O 5 % & * a k j a > @ @ @ < @ @ @ @ @ @ @ @ @ @ @ @ @ @ @ @ @ O O O @ @ @ @ @ @ O O O O O O O @ @ @ @ O O O @ @ @ @ @ @ @ @ O @ @ @ @ @ O O @ @ @ @ O O O O ",
"X O O X X X X       O O O O X X     O O X O X X X @ < 1 g @.m.S.q.-XX @ @ X @ X X @ 1 6 I 2 ; @ @ X X X X X X   X             O   O 3 O O   O O < O O   O O O         O O O O O     +X+ O O O @ @ X X     O O O O O O     t UXJXDXUXAX  O + UX[.O O pXUX* ;   CXUXAXKXUX;.& 5   xXUXHX  O sXUXPX  O O       `.UX  @ O O 3 3 4 Z <   AXJX  O w UX_.O   PXNX  X # UXPXSXUXSXhX  O 2 UXIXGXPXUX. = = a l s > 1 < @ @ @ @ @ @ @ @ @ @ @ @ @ @ @ @ @ @ @ @ O @ @ @ @ @ @ @ @ O O O O O O O O @ @ @ @ O O O @ @ @ @ @ @ @ O @ @ @ @ @ O @ @ @ @ @ O O O @ ",
"X O O O @ O X       O O O   X X   X O     X X X X @ @ 9 M @.j.B.q.-X* X X X @ X X @ @ ; ! + d * X X * X X X X X .               O   O         O O O     O O O         O O O   O O   +Xo   O O @ @ X X X       O       O X * e (.XX{.  O O O =.7 < 4 J J./ @ 9   H.0X-X, & p # @ q :.r @ @ 7 =.r   X X   O   t e O < O O 3 < O O @ O e t O O O ;.1 O   m w X X X w |.|.m   r O + + # |.qXH.  s j = = > 8 1 < @ @ @ @ @ @ @ @ @ @ @ @ @ @ @ @ @ @ @ @ @ @ @ O @ @ @ @ @ @ @ @ @ O O O O O @ @ @ @ O @ @ @ @ @ @ @ @ @ O @ O @ @ @ @ @ @ O O O @ @ @ @ ",
"O O O O O O     O   O O   X   X X O O X   X X X X @ @ H ' / j.B.q.-XX X X X X X X @ @ > e + a * * * X * X X X X o .       O     O   O   O     O O O O O       O X O   O O O   X O   +Xo O O O @ X X X O O O         O O O 8 X   O U O O O O O O 2 3 4 g. .< 1 @ < < ' d - > > ; 1 1 1 1 1 @ @ @ X X X X O O O O < O O O O   O O X X X X @ O O O O X     O X = * X   O 2 5 + & y % % & 0 1 = j s = * 6 4 4 @ @ @ @ @ @ @ @ @ @ @ @ @ @ @ @ @ @ O @ @ @ O O O @ @ @ @ @ @ @ @ @ @ @ O O O @ @ @ @ O @ @ @ @ @ @ @ @ @ O O @ @ @ @ @ @ O O O O @ @ @ @ ",
"O O O @ O O       X X X   O     O     O X X X X X @ 1 W ~ B O.A.4.:X  * * X X X O X 1 x - 5 > * ; @ @ ; ; X X X - .     X X       O         O O O O   O O O     X X   @ O O O X X   iX  O   O O O O O O O O O   O   O   O H X   3 U     O O O . y O 3 f.W @ < < 1 G k.n = d > 6 1 1 1 1 1 1 1 @ X O X O         O O O O O O X X O X = = X @ X X X   . $ o , , i % & 5 y u y y y y & a ' x * a d 1 @ < @ @ @ @ @ @ @ @ @ @ @ @ @ @ @ @ @ @ O O O @ @ @ @ O @ @ @ @ @ @ @ @ @ @ @ @ @ O O @ @ @ @ @ @ @ @ O O O O @ O O O @ @ @ @ @ @ @ @ O @ @ @ O O ",
"O X X O       O     X X   O X O O X X X X X X X X X 4 W ~ { k.A.q.:Xm * * ; X @ ; @ 4 8 , p ; = ; @ ; * ; ; * * f X   X   O               O O O O O   O O     O O   O O O   X X   >.`.  O O O O O O O O O O O   O   O O O 9 @ O O & y .     X X , ; 3 Y Y < < < 4 A g.` > 0 6 1 4 1 1 1 1 1 1 @ @ X X           O X X     X X X X X = a X X X & & . % y i i i i i & & i i h f h = a k V 8 * * 6 < < @ @ @ @ @ @ @ @ @ @ @ @ @ @ @ @ @ @ @ O O O @ @ @ @ @ @ @ @ @ @ @ @ @ @ O @ @ @ O @ @ @ O O @ @ @ @ @ O O O @ @ O O O @ @ @ @ @ @ @ O @ @ @ O @ ",
"O X   O         O X X   O O O O X X X X X X X X X @ 4 R ~ ' z.L.p.i kX  > * X * = ; A 8 h p ; d > ; @ * ; ; * a k X   X O O X     O O O O   O O O   O O   O O O O   O O O O X X   lX  @ O O O O O O O O O O   O O   O O O A @     y u $   X X = k = @ Z A O O O 3 A T c.4 K A 4 1 1 1 1 1 1 1 @ @ X X X         O X X X X X X X X O @ > o $ & u y % , i C h f k j a a k 2.2.2.j s a k M 8 @ 1 4 < @ @ @ @ @ @ @ @ @ @ @ @ @ @ @ @ @ @ @ @ @ @ @ @ @ @ @ @ @ @ @ @ @ @ @ @ @ @ O @ @ @ @ O O O O @ @ @ @ @ @ O O O O @ @ O O O O O O O @ @ @ @ O O O ",
"X X   O         O @ X     O X X X X X X X X X X @ @ 1 F  .~ z.L.5.7.e lXm   X = s @ A > f : 6 c = X @ @ @ @ X d g       O   O       O O             O         O O   O O O     m lXo @ O     O O     O O             O O O A X     & , X X X X = 2.a X O < @ @ @ < 3 K X.D U A 4 @ 1 1 1 1 1 1 @ ; X X X         O X X X @ @ @ o O 5 2 I y u u <.i h s j 2.2.2.2.2.k j 2.2.2.2.k s a g v 6 1 @ @ @ @ @ @ @ < @ @ @ @ @ @ @ @ @ @ @ @ @ @ @ @ @ @ @ @ @ @ @ @ @ @ @ @ @ @ @ @ @ @ @ @ @ @ @ @ @ @ @ @ @ @ @ @ @ @ @ @ @ @ O O O O O O O @ @ @ @ O O O ",
"X X O           O @ O   O   X X @ @ X X X X X @ @ @ 1 F  .H v.L.3.7.o o iX;X[.'.'.`.].{. X].[.{.'.[.].].[.[.[.{.[.`.`.`.`.`.`.`.`.`.`.`.`.`.`.`.`.`.`.`.`.`.`.`.`.`.`.`.`.[.1XXX  X O . y %   O   X X               O   O 4 @   X a a * X @ @ > 9.; @ X @ O O O O O 9 ) 4 3 3 < @ @ < 1 1 1 1 ; ; * X X X X X X X   # o @ @ & y y y p ! p C C 7.2.2.2.2.3.3.2.2.2.2.k 2.3.2.k g > 6 9 9 1 @ @ @ @ @ @ @ @ @ @ @ @ @ @ @ @ @ @ @ @ @ @ @ @ @ @ @ @ @ @ @ @ @ @ @ @ @ @ @ @ @ @ @ O @ @ @ @ @ @ @ @ @ @ @ @ @ @ @ @ @ @ @ @ @ @ @ O O @ @ @ @ O O O @ ",
"O X     O O   + O O O   X X   X @ @ @ @ X X X @ @ @ @ 9 ) ~ v.P.8.7.o -   O =.H.:.>.>.H.u.>.>.u.u.:.-.>.>.>.n.n.>.-.-.-.=.-.-.-.-.-.-.-.=.=.=.=.=.=.=.=.=.=.=.=.=.=.=.-.-.*.    X X O y <.u   O X X X X         X X O O X 1 @   X = = X @ < 3 A g.4 O O @ O O O   O 1 ~ X O O < < < < 1 1 1 6 ; > > * X X X X * X o & & O @ i i i C f k 2.3.3.3.3.3.2.2.2.2.k 4.4.4.2.2.4.V n 0 9 1 1 4 1 @ @ @ @ @ @ @ @ @ @ @ @ @ @ @ @ @ @ @ @ @ @ @ @ @ @ @ @ @ @ @ @ @ @ @ @ @ @ @ @ @ @ @ @ @ @ @ @ @ @ @ @ @ @ @ @ @ @ @ @ @ @ @ @ @ @ @ O @ @ @ @ @ O O O @ ",
"O       O . $ % y $ +     O X O O O @ X X X X @ @ @ ; 9 ~ ~ v.P.8.k , - 6 6 G Y @ 1 F Q 0 @ 4 H d > @ @ @ @ 4 F @ X X   O O O O   X O O           O O   .           O O O X O + X X   o i &   O X X X   X X     X       O 1 X   @ 9 9 O O O 3 F f.4 @ X @ O O O   O 6 J O O O O O O O @ < 1 1 ; > = o y & & * * X & i , * * j 2.2.3.3.3.3.3.3.3.3.2.N ' } @.+.+.w.9.V B ) ( G 4 4 1 1 @ @ @ @ @ @ @ @ @ @ @ @ @ @ @ @ @ @ @ @ @ @ @ @ @ @ @ @ @ @ @ @ @ @ @ @ @ @ @ @ @ @ @ @ @ @ @ @ @ @ @ @ @ @ @ @ @ @ @ @ @ @ @ @ O O O O @ O O O O @ @ @ O @ @ ",
"O O   X . $ y u u y . + O       + O X X X X @ @ @ @ @ 9 n H v.P.8.2.z - @ ; G A @ @ Y f.6 1 4 G x > 6 @ @ @ @ < X X           O O O O . .   . $ . O     +           O O     + X X X * k j = X X X X X X X X X   X     O X @ X O 3 D D < O O @ 4 F 4 @ O @ O O     O 7 I O   O O O O O O @ @ 1 6 > ; u u i , = * * s 2.2.s a 2.3.3.3.3.3.3.3.3.6.0.[ ) L h.$...+.} ' M n H G 4 4 1 @ ; @ @ @ @ @ @ @ @ @ @ @ @ @ @ @ @ @ @ @ @ @ @ @ @ @ @ @ @ @ @ @ @ @ @ @ @ @ @ @ @ @ @ @ @ @ @ @ @ @ @ @ @ @ @ @ @ @ @ @ @ @ @ @ @ O O O @ @ O O O O @ @ @ @ @ @ ",
"O X X X X * , , y $ . + o o . # o   X X X X @ @ @ @ @ G 0 H v.P.6.2.2., @ ; 1 < X @ D Y 1 1 4 G 6 > ; @ @ @ X X X O + # +     O O O   X o   o & .       o       O O O O X X X X @ X = 2.s * X X @ ; X X O     O O O O O O 1 O   < D Z O O O O @ < < @ O X O O X   O e P O   X O O O X @ @ @ 1 1 w p <.C s k j a s 2.3.3.k s 2.3.3.3.3.2.6.0.w.l.b.h. .L ..@.B c n n 0 9 4 4 1 < @ @ @ @ @ @ @ @ @ @ @ @ @ @ @ @ @ @ @ @ @ @ @ @ @ @ @ @ @ @ @ @ @ @ @ @ @ @ @ @ @ @ @ @ @ @ @ @ @ @ @ @ @ @ @ @ @ @ @ @ @ @ @ @ @ @ @ O @ @ @ @ @ O @ @ @ @ @ @ @ @ ",
"  X X X * = a a = * X o X X X # + O O X X X X @ @ @ < A 9 9 v.T.9.2.k , @ @ X X X X 4 4 @ @ < 4 6 > * @ @ @ X @ X X o o       X O O X f * X o X o .   X X X       O O O X X X X @ O ; B 8 @ @ O < < @ O O O O O O O O O O 4 O   O O O O O   O @ @ @ O X X   O O O   p !     X   X   X X X @ X 5 <.p 5.3.3.3.2.l s 2.3.3.2.j 2.0.0.9.w.O.j.v.j.j.j.O.n n c g d > 8 9 9 1 < @ @ @ @ @ @ @ @ @ @ @ @ @ @ @ @ @ @ @ @ @ @ @ @ @ @ @ @ @ @ @ @ @ @ @ @ @ @ @ @ @ @ @ @ @ @ @ @ @ @ @ @ @ @ @ @ @ @ @ @ @ @ @ @ @ @ @ @ @ @ @ @ @ @ @ @ @ @ @ @ @ @ @ O @ ",
"  X X X * a s a = * X X X X X * X O O X O X X X @ X @ 4 1 x b.b.w.4.2., @ X X X o @ @ @ @ X @ 4 6 d > * @ @ X @ X X X X X O   X O O X a * X * * X     X X X         O O   O X O O < A Q F < O O < < @ O O O   O O     O O @ O         O     O @ @ X O X X X O   O   C t   X X X X X X X X * * C C 2.3.3.3.3.2.l g k 4.9.M g [ l.l.b.j.W g.f.g.o.) N l a a a > 6 1 1 1 @ @ @ @ @ @ @ @ @ @ @ @ @ @ @ @ @ @ @ @ @ @ @ @ @ @ @ @ @ @ @ @ @ @ @ @ @ @ @ @ @ @ @ @ @ @ @ @ @ @ @ @ @ @ @ @ @ @ @ @ @ @ @ @ @ @ @ @ @ @ @ @ @ @ @ O O @ @ @ @ @ @ @ @ O O ",
"O < O @ 6 9 8 > X X X X X X * X X X X X X X X X X X @ 4 9 N V.v.%.0.2.- @ X X @ X @ @ @ @ @ @ 4 9 d = ; ; ; X @ X X X X X X O X O   * = X * > X X   O @ X O O   X O   O O O O O O < Y f.F 3 O O < @ @ O O O   O         O @ O O O   O O O O X @ X X O X X X     O X m q O X X X X X X * * - , k 3.3.3.6.6.4.9.c c ' $.z...c  .j.h.h.Q E K K H c k j s > 6 9 4 1 1 @ @ @ @ @ @ @ @ @ @ @ @ @ @ @ @ @ @ @ @ @ @ @ @ @ @ @ @ @ @ @ @ @ @ @ @ @ @ @ @ @ @ @ O O @ @ @ @ @ @ @ @ @ @ @ @ @ @ @ @ @ @ O O O O @ @ @ @ @ @ @ @ @ @ O O @ @ @ @ @ @ @ @ O O ",
"O < 3 A D U D 4 < O @ O O @ @ X O     X X X X X X @ X < 0 4.e.j.r.0.2.* @ @ * * * X X @ @ @ @ @ A 8 = ; ; ; X @ X X @ @ X   O   O O A 6 O 4 1 @ X   O < O O   X @ O O O O O O O O O 4 F 3 O O O O @ O O O           O O O ; X   O   O O O X X @ @ @ X @ X X     X X c n   X X X X X X * * i C 2.3.3.0.F.k.l.l./ / ..k.$.[ n H R Q E L b v 8 > s s g 8 6 1 1 1 @ @ @ @ @ @ @ @ @ @ @ @ @ @ @ @ @ @ @ @ @ @ @ @ @ @ @ @ @ @ @ @ @ @ @ @ @ @ @ @ @ @ @ @ @ O O @ @ @ @ @ @ @ @ @ @ @ @ @ @ @ @ @ @ @ @ O O @ @ O O @ O @ @ @ O O O O O O O @ @ @ @ O O ",
"O O < Z D U D 3 < < < O < < O O O O O O @ X X X X X @ @ L 9.4.) y.0.3.= * * * * X X X @ @ @ @ < A 9 ; ; @ @ @ @ < < @ O O O O   O O U Z < 3 4 3 @ O O O O     X X O O   O O   O X X @ 4 O     O O @ O O       X X X O O O > *   O O O O O O X @ @ X O # X     O O X n ~   X X X X X X * i C k 3.8.0.V.v.v.h.l.' / ~ ) [ B c 0 9 G H n k s = = > 8 9 6 1 1 @ @ @ @ @ @ @ @ @ @ @ @ @ @ @ @ @ @ @ @ @ @ @ @ @ @ @ @ @ @ @ @ @ @ @ @ @ @ @ @ @ @ @ @ @ @ @ O O O O @ @ @ @ @ @ @ @ @ @ @ @ @ @ @ @ @ @ O O O O O O O O @ @ @ O O O O O O O O @ @ @ O O ",
"O O O O O < O O O O O O < 3 O O O O X @ @ @ @ X X X @ 4 Q 9.2.~ L.i.2.= * ; ; @ @ X @ @ @ @ @ @ Z A 6 ; ; @ @ @ < < @ O O O O O   O D 3 O 3 3 < O O O O       @ O       O O   X X X @ O O     O O O O       X X   O O O X ; X   O O   O O O X X @ X   : O O     O @ E K   O X X X X X , C z 3.6.A.F.v.f.Q ( / c n x n B M c x > 8 8 s j a * ; 6 4 4 1 < @ @ @ @ @ @ @ @ @ @ @ @ @ @ @ @ @ @ @ @ @ @ @ @ @ @ @ @ @ @ @ @ @ @ @ @ @ @ @ @ @ @ @ @ @ @ @ @ @ @ O O O O @ @ @ @ @ @ @ @ @ @ @ @ @ @ @ @ @ @ O O O O @ @ @ O O O O O O O O @ @ @ O O O O ",
"O   O +   X   O O     O O O O O O X O X O O X @ X X @ A f.9.N ..P.0.z - @ 1 1 < @ @ @ @ < @ @ O 3 4 1 > * @ @ @ @ @ @ O X     O O O O   O O O O O           O < O       O O X   X X < O O O O O O O         X X O O O O O 4 O O O     O O X X @ @ X   7         O < T Y   X X X X X o i 7.3.3.N.Y.v.f.F 0 ~ H 0 8 8 v n c M s s a a a d > @ 1 1 @ @ @ @ @ @ @ @ @ @ @ @ @ @ @ @ @ @ @ @ @ @ @ @ @ @ @ @ @ @ @ @ @ @ @ @ @ @ @ @ @ @ @ @ @ @ @ @ @ @ @ @ @ @ @ O O O @ @ @ @ @ @ @ @ @ @ O O @ @ @ @ O O O O O O @ @ @ @ O O O O @ @ O O @ @ @ @ O O ",
"  X : O   X   O O   X     O O O       O O O X X @ X @ A f.} N v.P.0.1.y ; 1 @ @ X X X X @ @ @ X < 3 @ d d X @ X X X X X X               O O O O O           O < O     O X   O O @ O O O @     O O X     X X X @ O O O O < D <         O O O @ @ @ X   w         O O F Z O X X   b b b 5.8.i.y.D.Y.b.X.n { &.` -.:.{ { } 9.9.4.4.N B / ^ ^ ^ ^ ^ ^ ^ ^ ~ ~ ~ ~ ~ 6   @ @ @ @ @ @ @ @ @ @ @ @ @ @ @ @ @ @ @ @ @ @ @ @ @ @ @ @ @ @ @ @ @ @ @ @ @ @ @ @ @ @ @ @ O @ @ @ @ @ @ @ @ @ @ @ O O O @ @ @ O O O O @ O @ @ @ @ @ @ @ @ @ @ @ @ @ @ @ @ @ O O O ",
"  * - X O O     O O O O O O O       X   O X X X @ @ @ 4 g.@.N v.G.0.d.u @ 1 @ X X X X X X X @ X O 3 @ = g * @ X X X X O X X O X       O O O O O O   O       O O       O X   O O O O   X X       O X X X X O O O O O O O < 3 O           O X X O @ @ O w O O     O X 4 < X X   4X3X!.~.!.!.!.!.U.U.U.!.!.!.!.~.!.!.!.!.!.!.!.!.!.~.~.~.~.!.~.~.~.~.~.~.~.~.~.~.!.wXK.  @ @ @ @ @ @ @ @ @ @ @ @ @ @ @ @ @ @ @ @ @ @ @ @ @ @ @ @ @ @ @ @ @ @ @ @ @ @ @ @ @ @ @ O @ @ @ O @ O O O O @ @ @ O O O @ @ O O O O @ @ @ @ @ @ @ @ @ @ @ @ O O O @ @ @ O @ O O ",
"X = X O O O X X   O O O O O   O X * X X X X X X @ X X 4 T +.4.v.D.6.7.i                               * =                                                           O O X X O O O O   O @       X X X O O O O O O O X   O O O             O O X X @ X ; X O     X X @ X X   rX&.                                                                                  &X!.    O O O O O O O O O O O O O O O O O O O O O O O O @ @ @ @ @ @ @ @ @ O O O O O O @ O O @ @ @ O O O O @ @ O O O O O O O O @ @ @ O O O @ @ @ @ @ @ @ @ @ @ O @ @ @ @ @ O @ @ @ ",
"@ ; O O O O X X     X X     X O * f X X X X X X X X @ < Y +.4.j.N.i.^.~.!.~.!.!.~.~.~.~.~.~.!.!.~.~.~.~.~.!.~.^.~.~.^.^.~.~.~.~.^.~.~.~.~.~.~.~.~.~.~.^.~.~.~.^.^.X   O X O O O O O O O O O     X X O O O O O O O O X   . O O O         O O O X @ X @ 6 X       X X @ @   rX`                                                                                       ^.4XZ.&.| | &.&.&.&.&.&.&.&.&.&.&.&.&.&.&.&.&.&.&.t.|   @ @ @ @ @ @ @ @ @ O O O @ @ @ @ @ @ @ @ O O O O @ @ @ @ O O @ O O O @ @ @ @ O O @ @ @ @ @ @ @ @ O @ O O @ @ @ @ O @ @ @ ",
"D O   O O O X X               X = * X X   X X X X X X < T O.4. .G.8X&X&X&X&X&X&X&X&X&X&X&X&X&X&X&X&X&X&X&X&X&X&X&X&X&X&X&X&X&X&X&X&X&X&X&X&X&X&X&X&X&X&X&X&X&X&X&X3X    O O O         O O       O O O O O                                     O O   + !             X   rX^                                                                                           ~.5X3X3X3X3X3X3X3X3X3X3X3X3X3X3X3X3X3X3X3X3X3X3X3X4X^.  O O O O @ @ @ @ @ @ @ @ @ @ @ @ @ @ @ @ O @ @ @ @ @ @ @ @ @ @ O O @ @ @ @ O O @ @ @ @ @ @ O O O O @ @ O O @ @ @ @ @ @ ",
"D O   O O O O               X X X X O X O O X X X X X < T j.g r.4X/./.&X3X&X&X&X&X&X&X&X&X&X&X&X&X&X&X&X&X&X&X&X&X&X&X&X&X&X&X&X3X&X&X&X&X&X&X&X&X&X&X&X&X&X&X&X3X3X5XZ.^ b b b b b ^ ^ ^ b ^ ` X.X.^ ` ^ ^ ^ ^ ^ ^ ^ ^ { ` ` ^ ^ ^ ^ ^ ^ ^ ^ ^ ^ ^ =.,.^ b b b ^ ^ | rX`                                                                                               ~.5X&X&X&X&X&X&X3X3X&X&X&X&X&X&X&X&X&X&X&X&X&X&X&X4X&X^ ^ | @ O @ @ @ @ @ @ @ @ @ @ @ @ @ @ @ @ @ @ @ @ @ @ @ @ @ @ @ @ @ @ @ @ O O @ @ O @ @ @ O O O O @ @ @ O O @ @ @ @ @ ",
"O O     O O O O O             3 < X O O O X X X @ @ @ @ Y Y t.4X/./.4X^.Z.K.K.K.K.K.K.K.K.K.K.K.K.K.K.K.K.K.K.K.K.K.K.K.K.K.K.K.K.K.K.K.K.K.K.K.K.K.K.K.K.K.K.K.K.K.K.K.~.~.~.~.~.~.~.~.~.~.~.~.~.~.~.~.~.~.~.~.~.~.~.~.~.~.~.~.~.~.~.~.~.~.~.~.~.~.~.!.~.~.~.~.~.~.~.7                                                                                                   | K.K.K.K.K.K.K.K.K.K.K.K.K.K.K.K.K.K.K.K.K.K.K.K.K.~.~.~.rX^   @ @ @ @ @ @ @ @ @ O @ @ @ @ @ O O O O O @ @ @ @ @ @ @ @ @ O O @ @ @ @ O O @ @ @ @ @ @ @ @ @ O O O O @ @ @ ",
"        O O O   O       O O O 3 3 O   O O X X X X @ X @ 3 c.wX/./.5XZ.                                                                                                                                                                                                                                                                                                                                                              O rX|   @ @ @ @ @ @ O O @ @ @ @ O @ @ @ O O O O @ @ @ @ @ @ @ @ O O @ @ @ @ O O @ @ @ @ O @ @ @ @ O O O O @ O O ",
"O   O O   X O       o   O   O O O O   O O O O X X O X   X.wX/./.5Xt.                                                                                                                                                                                                                                                                                                                                                                    rX`   @ @ @ @ @ O O O @ O O O O @ @ @ @ @ @ @ @ @ @ O O @ @ O O @ @ @ @ O O @ @ O O O O @ @ @ @ O O O O O O ",
"  X X     O O   X * o   X X           O O O O O X @   ` 5X/./.5XZ.                                                                                                                                                                                                                                                                                                                                                                        rX`   @ @ @ @ O O O O O O O O @ @ @ @ @ @ @ @ @ @ @ O @ @ O O O @ @ @ O O @ @ O O O O @ @ @ @ O O O O O O ",
"X X       O     * f X   O             O O O O X X   ^ 5X/./.5Xt.                                                                                                                                                                                                                                                                                                                                                                            rX` O @ @ @ O @ @ @ @ @ @ O @ O @ @ @ @ @ @ @ @ O O @ @ @ @ O O O O @ @ O O @ @ @ @ O O O @ O O O O @ @ ",
"X X   O   O O X a s X X O O   O O       O O O X   ^ 5X/./.5Xt.                                                                                                                                                                                                                                                                                                                                                                                rX` O @ @ O @ @ @ @ @ @ @ @ O @ @ O O @ @ @ @ O O @ @ O @ O O O O @ @ O O @ @ @ @ @ @ O O @ O O O @ @ ",
"X O O O     O @ 8 *             O     O O O X O q wX/./.5XZ.                                                                                                                                                                                                                                                                                                                                                                                    rX`   @ O O @ @ @ @ @ @ @ O O @ O O O @ @ @ @ O O O O O @ O @ @ @ @ O O @ @ @ @ @ @ @ @ @ @ O O O O ",
"X X O       O F G   X           O     O     X   /.&X/.4XZ.                                                                                                                                                                                                                                                                                                                                                                                        rX`   @ O @ @ @ @ @ @ O O O O O O O O @ @ @ O O O O O @ @ @ @ @ @ O O O @ @ @ @ O @ O @ @ O O O O ",
"X X O X     O U 3 O X X O     O X X X X O X X   &X&X&X!.                                                                                                                                                                                                                                                                                                                                                                                            rX`   @ @ @ @ @ @ @ O @ @ @ @ @ @ @ @ @ @ @ @ @ @ @ @ @ @ O O O @ @ @ @ @ @ @ @ O O O O O @ O O ",
"X X X X   O O Z 3 X X X   O   X X X X X X X X   &X&X3X&.                                                                                                                                                                                                                                                                                                                                                                                              rX^   @ @ @ @ @ @ @ @ @ @ @ @ @ O @ @ @ @ @ @ @ @ @ @ @ @ O O @ O @ @ @ @ @ @ @ @ @ @ O @ @ @ ",
"O O X X O O O O O @ X X X O X X X X X X O X X   &X/.3Xt.                                                                                                                                                                                                                                                                                                                                                                                                rX`   @ @ @ @ @ @ @ @ @ @ @ O O O O @ @ @ @ @ @ @ @ @ @ O O @ O O O @ @ @ @ O O @ O @ @ @ @ ",
"  X X O O O X   @ @ X X X X X X X X X X X X X   &X&X3Xt.                                                                                                                                                                                                                                                                                                                                                                                                  rX`   @ @ @ @ @ @ O O @ @ O O O O @ @ O @ @ @ @ @ @ @ O O @ O O O @ @ @ O O O O O @ @ @ O ",
"X   X O O O X O @ @ X X X X O O O O X X X X X   &X/.3Xt.                                                                                                                                                                                                                                                                                                                                                                                                    rX`   @ @ @ @ @ O O @ @ O O O O O @ O O @ @ @ @ O O @ O @ O O O O O @ @ O O O @ O @ O O ",
"X X X O O O O @ @ @ X X X O O O O O X X X X X   &X/.3Xt.                                                                                                                                                                                                                                                                                                                                                                                                      rX`   @ @ @ @ O O @ @ O O O O @ @ O O @ @ @ @ O O @ O O @ O O @ O @ @ O O O @ @ @ O O ",
"* * * X X X   X X O X X X O O O O X X X X X X   &X&X3Xt.                                                                                                                                                                                                                                                                                                                                                                                                        rX^   @ @ @ @ @ @ @ O O O O @ @ O O @ @ @ O O O @ @ O O @ @ @ @ @ @ @ @ O O O @ O O ",
"* = * * * X X X X O O O X X X O O X X X X X X   &X&X3Xt.                                                                                                                                                                                                                                                                                                                                                                                                          rX`   @ @ @ @ @ O O O O O O @ O O @ @ @ @ O O @ @ O O @ @ @ @ @ @ @ @ O O O O O O ",
"> * * = = X @ @ X @ O O O X X O X X X X O X X   &X&X3Xt.                                                                                                                                                                                                                                                                                                                                                                                                            rX`   @ @ @ @ O @ O O O @ @ @ @ @ @ O O O O @ @ O O O @ @ @ @ @ @ @ @ @ O O O O ",
"@ ; * * * X @ ; * X O @ X X X O O X X X X X X   &X&X3Xt.                                                                                                                                                                                                                                                                                                                                                                                                              rX`   @ @ @ @ O O O O @ @ O @ @ @ O O O O @ @ O O O O @ @ O O @ @ O @ O O O O ",
"3 < @ ; X O @ ; = * X O X X X O O O X X X X X   &X&X3Xt.                                                                                                                                                                                                                                                                                                                                                                                                                rX`   @ @ @ @ @ @ @ @ @ O O @ @ @ @ @ O @ @ O O @ @ @ @ O O O O O O O O O O ",
"3 3 4 1 X   X * = * @ @ ; X X O   O O X X X X   &X&X3Xt.                                                                                                                                                                                                                                                                                                                                                                                                                  rX`   @ @ @ @ @ @ @ @ O O @ @ @ @ @ @ @ @ O O @ @ @ @ O O O @ @ O O O O O ",
"@ 4 4 < @ X @ ; * X X * > @ X X X O O O X X X   &X/.3Xt.                                                                                                                                                                                                                                                                                                                                                                                                                    rX`   @ O @ O O O O @ O O @ @ @ @ @ @ @ @ @ @ O O O @ @ @ @ O O @ @ O @ ",
"X @ 1 ; ; 6 1 1 @ X * * ; X * * X   o o   X X   &X/.3Xt.                              # t             . +               .     +   # t o         .         +                                                                                                                                                                                                                                                                                                                   rX^   @ @ @ @ @ @ @ O @ @ @ @ @ @ O @ @ @ @ O O O @ @ @ @ O @ @ @ O @ ",
"X * * * * 6 9 1 @ O ; ; @ X * * X * * * X X X   &X&X3Xt.                            |.UXHXIX    LXIXIXPX  .XNX      OXUXIXUX`.  #XUXHXHXw UXIXIXUXw zXUXIXUX*.w UXIXIXIXt                                                                                                                                                                                                                                                                                                       rX`   @ @ @ @ @ @ @ @ @ @ @ O O O O @ @ @ @ O O @ @ @ O O O @ @ @ @ ",
"X X * = = > 6 6 @ @ 1 @ @ @ * * * = a = * * *   &X&X3Xt.                            UX          UX.       |.NX      iXkX        UX          sXOX    VX(.      w UX    ).DX                                                                                                                                                                                                                                                                                                        rX&.  @ @ @ @ @ @ @ @ @ @ O O O O @ @ @ @ O O @ @ @ O O O @ @ @ @ ",
"@ < 1 ; = * * * ; 6 6 ; @ ; ; * * a s = * = = X &X&X3Xt.                          + UX          UX#       |.NX      iXlX      5 UX          kXiX    BX).      w UX    *.PX                                                                                                                                                                                                                                                                                                          rX8 O @ @ @ @ O O O @ @ @ @ @ @ O O @ @ @ @ O O O @ @ @ O O O O ",
"@ < 4 1 6 * * * * > > * ; 9 ; * * a d * > = a X &X&X3Xt.                            IXkX(.      IX).).,.  |.NX      #XVX(.`.+ # UX          kXiX    mXpX(.).  w UX    *.IX                                                                                                                                                                                                                                                                                                          | ~.  @ @ @ @ O O O @ @ @ @ @ @ O O @ @ @ @ O O O @ @ O @ O O O ",
"O < 4 4 1 @ * * * * * = ; 6 ; ; 0 8 ; ; * a a X &X&X3Xt.                            # sXCXUX+   IXlXxXOX  |.NX      OXJXkXxX# # UX          kXiX    xXCXlXkX  w UX    *.PX                                                                                                                                                                                                                                                                                                          b ^.  @ @ @ @ @ @ O O O O O @ O O O @ @ @ @ O O @ @ @ @ O @ O O ",
"O @ 1 4 6 ; ; ; * * * = > > > 8 H G 1 @ ; > >   &X&X3Xt.                                  NX|.  UX#       |.NX      iXkX      # UX          kXiX    BX(.      w UX    *.PX                                                                                                                                                                                                                                                                                                          ^ ~.  @ @ @ @ @ @ @ O O O O @ @ O O O @ @ @ O @ @ @ @ @ @ @ @ @ ",
"@ @ ; 6 ; ; ; ; ; 6 6 > > > > x 0 9 1 6 9 9 6   &X&X3Xt.                          .       NX|.  UX+       .XxX      iXkX      o UX          kXiX    BX(.      w UX    =.HX                                                                                                                                                                                                                                                                                                          ^ !.  @ @ @ @ @ @ O O @ @ @ O O @ @ O O O O @ @ @ @ @ @ @ @ @ @ ",
"@ ; ; ; ; ; ; 6 6 9 9 6 6 ; > x 8 > ; 6 9 4 4 O &X/.3Xt.                            HXsXkXUX    UXVXVXAX# OXUXmXDXt iXIXNXAXOX  VXAXiXVX#   xXsX    VXHXBXDX(.w UXVXAXUX).                                                                                                                                                                                                                                                                                                          ^ !.  @ @ @ @ @ @ O @ @ O @ O O O @ O O O O @ @ @ @ @ @ @ @ @ @ ",
"* ; ; @ @ @ @ ; 6 1 1 1 1 6 8 8 ; * * > 8 6 9 O &X&X3Xt.                            t `.|.+     *.,.,.,.  # -.,.,.o # -.,.,.t     (.OX(.    e w     w ;.,.,.w   =.;.,.5                                                                                                                                                                                                                                                                                                             q !.  @ @ @ @ @ @ O @ @ @ @ @ @ @ @ @ @ @ @ @ @ O O @ O @ @ @ @ ",
"@ 1 4 3 < < < @ 1 4 4 < 1 6 8 8 ; @ * = * > >   &X&X3Xt.                                                                                                                                                                                                                                                                                                                                                                                                                            q !.  @ O O @ @ @ @ @ @ @ @ O @ @ @ @ @ @ @ O O O O O O @ @ @ @ ",
"3 3 3 3 < < < < < < @ < @ 1 9 9 @ ; > > * * *   &X/.3Xt.                                                                                                                                                                                                                                                                                                                                                                                                                            q !.  @ @ O @ @ @ @ @ @ @ @ @ @ @ @ O O O @ @ @ @ @ @ @ @ @ O O ",
"5 2 < O O O O < O O @ @ < 4 1 1 @ 6 8 6 @ @ @   &X/.3Xt.                                                                                                                                                                                                                                                                                                                                                                                                                            q !.  @ @ @ @ @ @ @ @ @ @ @ @ @ @ O O O @ @ @ @ @ @ @ @ O O O O ",
"y & . o o . + O O O O @ < 4 4 O @ 8 6 @ < 4 1   &X&X3Xt.                                                                                                                                                                                                                                                                                                                                                                                                                            q ^.  @ @ @ @ @ @ @ @ @ @ @ @ @ @ @ @ @ @ @ @ @ O O O O O O O O ",
", o o $ $ % $ & . . $ & @ @ O + @ > @ @ @ < < $ /.&X3Xt.                                                                                                                                                                                                                                                                                                                                                                                                                            q ~.  @ @ @ @ @ @ @ @ @ @ @ @ @ @ @ @ @ @ @ @ O O O O O O O O O ",
"a * * - - , & & o & y & X X & & * > # o X @ 5 y n.4X3Xt.                                                                                                                                                                                                                                                                                                                                                                                                                            q &X  @ @ @ @ @ @ @ @ @ @ @ @ @ @ @ @ @ @ @ @ O O O O O @ @ O @ ",
"s a s a a a a * * = f * * * = = > * * * * * * f - ^.4Xt.                                                                                                                                                                                                                                                                                                                                                                                                                              3Xt.  @ @ @ @ @ @ @ @ @ @ @ @ O @ @ @ @ @ @ @ @ @ @ @ @ @ @ @ ",
"s s j j j k s s s j k a = a j a d a = = a a s k 2.a &XZ.                                                                                                                                                                                                                                                                                                                                                                                                                                wXZ.  @ @ @ @ @ @ @ @ @ @ @ O @ @ @ @ @ @ @ @ @ @ @ @ @ @ @ ",
"a j s s j j s s j k j a a s j a a a a a a a j k k j q.K.                                                                                                                                                                                                                                                                                                                                                                                                                            ^ ~.  4XZ.  @ @ @ @ @ @ @ @ @ @ @ @ @ @ @ @ @ @ @ @ @ @ @ @ @ @ ",
"d d a a s s a s j j a = a s s a a a = = = a j j j a q.K.                                                                                                                                                                                                                                                                                                                                                                                                                            ` wXK.  wX@ @ @ @ @ @ @ @ @ @ @ @ @ @ @ @ @ @ @ @ @ @ @ O @ @ @ ",
"8 8 8 8 x d d d c x > > > d > > > > > > > 8 v n x > t.K.                                                                                                                                                                                                                                                                                                                                                                                                                            b 4X5XO Z.Z.O @ @ @ @ @ @ @ @ @ @ @ @ @ @ @ @ @ @ @ @ @ O @ @ @ ",
"0 0 0 0 0 0 8 0 v 0 0 9 8 8 8 8 8 9 9 8 8 0 H H 0 6 Z.K.                                                                                                                                                                                                                                                                                                                                                                                                                              4X4X^ | K.O @ @ @ @ @ @ @ @ @ @ @ @ @ @ @ @ @ @ @ @ @ O @ @ @ ",
"8 8 8 0 0 0 0 0 0 0 0 0 0 0 0 8 8 8 8 8 9 9 9 9 9 1 Z.K.                                                                                                                                                                                                                                                                                                                                                                                                                              @ rXb t.Z.O @ @ @ @ @ @ @ @ @ @ @ @ @ @ @ @ @ @ @ @ @ @ @ @ @ ",
"8 8 8 8 8 8 8 8 8 8 8 8 8 8 8 8 8 8 8 8 8 8 8 9 9 1 t.K.                                                                                                                                                                                                                                                                                                                                                                                                                            7 ^ @ O K.&.O @ @ @ @ @ @ @ @ @ @ @ @ @ @ @ @ @ @ @ @ @ @ @ @ @ ",
"8 8 8 x x x x x x 8 x x 8 8 8 8 8 8 8 8 8 8 8 6 6 ; t.K.                                                                                                                                                                                                                                                                                                                                                                                                                            | rX^   K.&.O @ @ @ @ @ @ @ @ @ @ @ @ @ @ @ @ @ @ @ @ @ @ @ @ @ ",
"v x v v v v v v v x x x x 8 8 8 8 8 8 8 8 8 8 8 8 ; t.K.                                                                                                                                                                                                                                                                                                                                                                                                                            ` 4X5X  K.&.O @ @ @ @ @ @ @ @ @ @ @ @ @ @ @ @ @ @ @ @ @ @ @ @ @ ",
"n v n n n n n n n n n v v 0 v x v v x x x x 8 8 8 ; t.K.                                                                                                                                                                                                                                                                                                                                                                                                                            O 5X4Xq K.&.O @ @ @ @ @ @ @ @ @ @ @ @ @ @ @ @ @ @ @ @ @ @ @ @ @ ",
"n n n n n n n n n n v v v v v v v v v v v v x 8 8 ; t.K.                                                                                                                                                                                                                                                                                                                                                                                                                              | rXq K.&.O @ @ @ @ @ @ @ @ @ @ @ @ @ @ @ @ @ @ @ @ @ @ @ @ @ ",
"n n n n n n n n ~ ~ ~ 0 v 0 v v v n n v v v x 8 8 6 t.K.                                                                                                                                                                                                                                                                                                                                                                                                                            :   &.7 K.&.O @ @ @ @ @ @ @ @ @ @ @ @ @ @ @ @ @ @ @ @ @ @ @ @ @ ",
"/ / / / / / ~ ~ ~ ~ ~ H H 0 H H 0 v v v v v x 8 8 ; t.K.                                                                                                                                                                                                                                                                                                                                                                                                                            ^ rXO   K.&.O @ @ @ @ @ @ @ @ @ @ @ @ @ @ @ @ @ @ @ @ @ @ @ @ @ ",
"/ / / / / ~ ~ ~ ~ ~ H H H H H H 0 H v v v v v x 8 ; t.K.                                                                                                                                                                                                                                                                                                                                                                                                                            q 4X3X  K.&.O @ @ @ @ @ @ @ @ @ @ @ @ @ @ @ @ @ @ @ @ @ @ @ @ O ",
") ) ) ) ~ ~ ~ ~ H H H H H H H H H H H H v v v 0 8 ; t.K.                                                                                                                                                                                                                                                                                                                                                                                                                            @ 5X5Xq K.&.O @ @ @ @ @ @ @ @ @ @ @ @ @ @ @ @ @ @ @ @ @ @ @ @ @ ",
") ) ( ~ ~ ~ ~ H H H H H H H H H H H H H H H 0 0 0 6 t.K.                                                                                                                                                                                                                                                                                                                                                                                                                              ~.wX^ K.&.O @ @ @ @ @ @ @ @ @ @ @ @ @ @ @ @ @ @ @ @ @ @ @ @ @ ",
"( ( ~ ~ ~ ~ H H H 0 H H H 0 0 0 H H H H H 0 0 0 0 9 Z.K.                                                                                                                                                                                                                                                                                                                                                                                                                                &Xb K.&.O @ @ @ @ @ @ @ @ @ @ @ @ @ @ @ @ @ @ @ @ @ @ @ @ @ ",
"( ~ ~ ~ ~ ~ H 0 0 0 0 0 0 0 0 0 0 0 H H H H H 0 0 6 t.K.                                                                                                                                                                                                                                                                                                                                                                                                                            ^ &X    K.&.O @ @ @ @ @ @ @ @ @ @ @ @ @ @ @ @ @ @ @ @ @ @ @ @ @ ",
"~ ~ ~ ~ v 0 0 0 0 0 0 0 0 0 0 0 0 0 H H H H 0 0 0 6 t.K.                                                                                                                                                                                                                                                                                                                                                                                                                            ` wX!.  K.&.O @ @ @ @ @ @ @ @ @ @ @ @ @ @ @ @ @ @ @ @ @ @ @ @ @ ",
"~ ~ v v v 0 0 0 0 0 0 8 0 0 0 0 0 0 0 0 0 0 0 0 0 6 t.K.                                                                                                                                                                                                                                                                                                                                                                                                                            q 5X5XO K.&.O @ @ @ @ @ @ @ @ @ @ @ @ @ @ @ @ @ @ @ O O @ @ @ @ ",
"v v v v v v 0 0 0 0 0 0 0 0 8 8 0 0 0 0 0 0 0 0 0 6 t.K.                                                                                                                                                                                                                                                                                                                                                                                                                              &X4X^ K.&.O @ @ @ @ @ @ @ @ @ @ @ @ @ @ @ @ @ @ @ @ O @ @ @ @ ",
"~ v v v v v 0 0 0 0 0 0 8 0 8 8 0 0 0 0 0 0 0 0 0 6 t.K.                                                                                                                                                                                                                                                                                                                                                                                                                              O rX^ K.&.@ @ @ 1 @ @ @ @ @ @ @ @ @ @ @ @ @ @ @ @ @ @ @ @ @ @ ",
"~ v v v v v 0 0 0 8 0 8 0 0 0 8 0 0 0 0 0 8 0 0 8 6 t.K.                                                                                                                                                                                                                                                                                                                                                                                                                            ^ &.  O K.&.@ 1 1 1 @ @ @ @ @ @ @ @ @ @ @ @ @ @ @ @ @ @ @ @ @ @ ",
"v v v v v v 0 0 0 0 0 8 0 0 8 8 0 0 0 0 0 8 8 0 8 ; Z.K.                                                                                                                                                                                                                                                                                                                                                                                                                            q rX|   K.&.O 1 1 @ @ @ @ @ @ @ @ @ @ @ @ @ @ @ @ @ @ @ @ @ @ @ ",
"~ v v v v v v 0 0 0 0 0 0 0 0 0 0 0 0 0 8 8 8 8 8 6 t.K.                                                                                                                                                                                                                                                                                                                                                                                                                            q 4X5X  K.&.O 1 1 1 @ @ @ @ @ @ @ @ @ @ @ @ @ @ @ @ @ @ @ @ @ @ ",
"~ ~ ~ v v v v v 0 0 0 0 0 0 0 0 0 0 0 0 8 0 0 0 0 6 Z.K.                                                                                                                                                                                                                                                                                                                                                                                                                            q 5X4Xq K.&.O 1 @ 1 1 1 @ @ @ @ @ @ @ @ @ @ @ @ @ @ @ @ @ @ @ @ ",
"~ n v v v v v v 0 0 0 0 0 0 0 0 0 0 0 0 0 0 0 0 0 8 Z.K.                                                                                                                                                                                                                                                                                                                                                                                                                            q 4X4X` K.&.@ 1 @ 1 1 1 @ @ @ @ @ @ @ @ @ @ @ @ @ @ @ @ @ @ @ @ ",
"/ n n n v v v v v 0 0 v 0 0 v 0 0 0 0 0 0 0 0 0 0 8 Z.Z.                                                                                                                                                                                                                                                                                                                                                                                                                            q 4X4Xb K.&.O 1 1 1 1 1 @ @ @ @ @ @ @ @ @ @ @ @ @ @ @ @ @ @ @ @ ",
"/ / n n n n v v n v v 0 0 v v v 0 0 0 0 0 v v 0 0 8 t.!.                                                                                                                                                                                                                                                                                                                                                                                                                            q 4X4X^ K.&.O 1 1 1 1 1 @ @ @ @ @ @ @ @ @ @ @ @ @ @ @ @ @ @ @ @ ",
"/ / / n n n n v n n v v v v v v 0 0 v v v v v v 0 v @ wXq                                                                                                                                                                                                                                                                                                                                                                                                                           q 4X4X  K.&.O 1 1 1 6 1 @ @ @ @ @ @ @ @ @ @ @ @ @ @ @ @ @ @ @ @ ",
"/ / / / n n n n n n v v v v v v v 0 0 0 v v v v 0 v 0 6 rXq                                                                                                                                                                                                                                                                                                                                                                                                                         q rX    K.t.O 1 1 1 1 @ @ @ @ @ @ @ @ @ @ @ @ @ @ @ @ @ @ @ @ @ ",
"' ' / / / n n n n n n n n n n n v v v v v v v v v v 0 0 ; rXb                                                                                                                                                                                                                                                                                                                                                                                                                       b q   @ rX@ @ 1 1 1 1 1 @ @ 1 @ @ < @ @ @ @ @ @ @ @ @ @ @ @ @ @ ",
"' ' ' ' / / / / / / / ~ n n n n n n n v v v v v v v v v 0 ; rXb                                                                                                                                                                                                                                                                                                                                                                                                                         b rX6 @ 1 @ 1 1 1 1 1 1 < @ @ @ @ @ @ @ @ @ @ @ @ @ @ @ @ @ ",
"] ' ' ' ' ' ' / / / / / ~ / / ~ / n n n v n v v v v v n n v 6 rXq                                                                                                                                                                                                                                                                                                                                                                                                                     6 rX@ @ 1 1 1 1 1 1 @ 1 1 1 1 < @ @ @ @ @ @ @ @ @ @ @ @ @ @ @ ",
"} ] ' ' ' ' ' ' ' ' ' / / / n / n n n n n n n n n n n n n n v 8 rXq                                                                                                                                                                                                                                                                                                                                                                                                                   4X| @ 6 1 6 1 1 1 1 1 < @ @ @ < < @ @ @ @ @ @ @ @ @ @ @ @ @ @ ",
"} } } } ] ' ' ' ' ' ' / / / / / / / / / n n n n n n n n n n n x 8 rXb                                                                                                                                                                                                                                                                                                                                                                                                               6 5X  6 6 6 6 1 1 1 1 1 @ @ @ @ @ @ @ @ @ @ @ @ @ @ @ @ @ @ @ @ ",
"+.} } } } [ } [ } [ ' ' / / / / ' ' ' / / / / n n / B B B B n n v 8 rXb                                                                                                                                                                                                                                                                                                                                                                                                             &.~.O 6 6 1 1 1 1 1 1 1 1 @ @ @ @ @ @ @ @ @ @ @ @ @ @ @ @ @ @ @ ",
"+.@.} @.[ [ [ [ [ [ [ [ ' [ ' ' ' ' ' ' / ' ' ' B ' ' B B B ' n n n x rX^                                                                                                                                                                                                                                                                                                                                                                                                           Z.Z.@ 6 6 6 1 1 1 1 1 1 1 @ @ @ @ @ @ @ @ @ @ @ @ @ @ @ @ @ @ @ ",
"+.+.@.@.+.+.[ @.[ [ [ [ [ ) ) [ [ [ ' ' ' ' ' ' ' ' ' ' ' ' ' / / / n n rX^                                                                                                                                                                                                                                                                                                                                                                                                         Z.Z.@ 6 6 1 1 1 1 1 1 < @ @ @ @ @ @ @ @ @ @ @ @ @ @ @ @ @ @ @ @ ",
"+.+.+.+.+.+.+.+.+.[ [ [ ) ) ) ) ) [ [ [ [ [ } [ ' ' ' ' ' ' ' / / / ' / v rX^                                                                                                                                                                                                                                                                                                                                                                                                       ^ ~.O 6 6 6 1 1 1 1 1 1 @ @ @ @ @ @ @ @ @ @ @ @ @ @ @ @ @ @ @ @ ",
"+.+.+.+...+.+.+...) ) ) ) ) ) ......[ [ [ [ @.@.[ [ [ [ [ [ ' / / / ) ) / 0 rX^                                                                                                                                                                                                                                                                                                                                                                                                     q /.  6 6 6 1 1 1 1 < @ @ @ @ @ @ @ @ @ @ @ @ @ @ @ @ @ @ @ @ @ ",
"+.+.+.+.....+.....) ) ) ) ) ) ........[ [ +.+.+.+.[ [ [ [ [ ) ) ) ) ) ) / / 0 rX^                                                                                                                                                                                                                                                                                                                                                                                                   q /.  6 6 6 1 1 1 1 < < @ @ @ @ @ @ @ @ 1 1 @ @ @ @ 1 @ @ @ @ @ ",
"+...+.+...) ) ) ) ) ) ) ) ) ) ..........+.+...+.+.+.[ [ [ ) ) ) ) ) ) / / / ~ 0 rX^                                                                                                                                                                                                                                                                                                                                                                                                 b /.  6 6 6 1 1 1 < 1 1 @ @ @ @ @ @ @ @ 1 @ 1 @ @ @ < @ < @ @ @ ",
"....+.+.) ) ) ) ) ) ) ) ) ) )  .....) ............+.) ) ) ) ) ) ) ) ) ) ~ ~ ( ~ 9 rXq                                                                                                                                                                                                                                                                                                                                                                                               ^ ^.X 8 6 6 1 1 1 1 1 1 @ @ @ @ @ @ @ 1 1 @ @ @ @ @ < @ 1 < @ @ ",
"..........) ) ) ) ) ) ) ( ( ) ) ) ) ) ) ..........) ) ) ) ) / / / / / ) ~ ~ ~ ~ ~ 6 rXq                                                                                                                                                                                                                                                                                                                                                                                             ^ ^.X 8 6 6 6 1 1 1 1 @ @ @ @ @ 1 1 @ 1 1 @ 1 1 1 @ @ < < @ @ @ ",
" . .....) ) ( ( ) ) ) ~ ~ ~ ( ( ( ( ( ( ) ) ..) ) ) ) ) ) / / ~ / / ~ / ~ ~ ~ ~ ~ 0 6 rXq                                                                                                                                                                                                                                                                                                                                                                                           K.K.> 8 8 6 6 1 1 < 1 @ @ @ @ @ 1 1 1 1 1 @ 1 @ @ @ @ @ @ @ @ @ ",
"L L ( (  .( ( ( ( ) ( ~ ~ ~ ~ ~ ~ ~ ~ ~ ( ) ..) ) ) ) ) ~ ~ ~ / / ~ / ~ ~ ~ ~ ~ ~ 0 0 6 rXq                                                                                                                                                                                                                                                                                                                                                                                       ` wXX 8 8 8 9 1 1 < @ @ @ @ @ @ @ 1 1 @ 1 @ @ 1 @ @ @ @ < @ @ @ @ ",
"L L L L L L L ( ( ( ~ ~ ~ ~ ~ ~ ( ~ ~ ( ( ) ) ) ) ) ) ) ~ / / ~ / / / ~ ~ ~ ~ ~ 0 0 0 0 ; rXq                                                                                                                                                                                                                                                                                                                                                                                   ^ rX@ 8 0 0 9 6 1 1 1 @ @ @ @ @ @ 1 @ 1 @ @ @ @ 1 @ @ @ @ < < @ @ @ ",
"H H L L L L L L ( ( ( H ~ ~ ~ ~ ( ~ ~ ( ( ( ( ) / / ) / ~ ~ / / / / ~ ~ ~ ~ v v 0 0 0 0 8 6 rXq                                                                                                                                                                                                                                                                                                                                                                               ^ wX~.X 0 0 9 9 1 1 < @ @ @ @ @ @ 1 1 1 1 1 @ @ 1 @ @ @ @ @ @ < @ @ @ ",
"H H H H H L L L L L L H H ~ ~ ~ H ~ ~ ~ ( ( ~ / / / / ~ ~ / / / / / ~ ~ ~ n n v v 0 0 0 0 8 6 rXq                                                                                                                                                                                                                                                                                                                                                                           ^ wX/.^.@ 0 0 9 9 4 1 1 @ @ @ @ @ @ 1 1 1 1 1 1 @ @ @ @ @ @ @ @ < @ @ @ ",
"0 0 H H H H H H H H H H H H H H H ~ ~ ~ ~ ~ / / / / / ~ ~ / / / / / / ~ ~ v v v v 0 0 0 0 0 8 6 rXq                                                                                                                                                                                                                                                                                                                                                                       ^ wX/.&X/.@ 0 9 9 4 4 1 @ ; @ @ @ @ @ 1 1 1 @ @ @ 1 @ @ @ @ @ @ < < @ @ @ ",
"0 0 9 9 9 9 G H H H H H H H H H H H H H ( ~ ~ / / / / / / / / / / / / / ~ n v n v 0 0 0 0 0 0 8 6 rXq                                                                                                                                                                                                                                                                                                                                                                   ^ rX3X4X4X&XO 0 9 4 4 4 6 6 ; ; @ 1 1 1 1 1 1 1 1 1 1 1 @ @ @ @ @ < < @ @ @ ",
"9 9 9 9 9 9 9 0 0 H 0 0 H H H H H H H H H ~ ~ ) / / / / / ' ' / / / / / / / v v ~ v 0 H 0 0 0 0 8 ; rXq                                                                                                                                                                                                                                                                                                                                                               &.wXv ~ ~ ^ ~ 0 9 4 4 4 6 ; ; ; ; 6 6 @ 1 1 1 1 1 1 1 1 1 @ @ @ @ @ 1 1 @ @ @ ",
"9 9 9 9 9 9 9 9 9 9 9 9 9 G G H H H H H H ~ ( ) ) / / / / ' ' ' [ / / / / / v n ~ ~ 0 0 0 0 0 0 0 0 6 5X/.~.~.~.~.~.~.~.~.~.~.~.~.~.~.~.~.~.~.~.~.~.!././.Z.                                                                                                | /././././.^.~.~.~.~.~.~.^.^.^.^.^.^.~.~.~.^.~.~.^.^.^.^.^.~.~.~.~.~.~.~.^.^.^.^.~.K.K.K.K.K.K.K.K.K.K.K.K.K.K.K.K.K.K.K.K.K.K.K.K.K.K.K.K.K.K.K.K.K.K.K.K.K.K.K.K.K.K.K.K.K.K.K.K.K.K.K.K.^./.^./././.&X5X@ 6 9 9 9 8 9 4 4 4 1 6 > ; ; ; 6 6 ; 1 1 1 1 1 1 1 1 1 @ @ @ @ @ 1 1 1 @ @ ",
"9 9 9 9 9 9 9 8 9 9 9 9 9 9 9 9 H H H H H L ( ( ( ) / / / ' ' ' ' ' / / / n n n n n v v v v v v v v 0 @ ~ v v v v v ~ ~ ~ ~ ~ ~ ~ ~ v v v v v v v v 0 0 { &X/.    O     O O O O   O @ @ @ @ @ @ @ @ @ @ @ @ @ @ @ @ @ @ @ @ @ @ @ @ @ @ O     O O O O O   Z.wX/ / ' / / / ~ ~ / ~ ~ ~ 0 ~ 6 6 ^ 0 0 0 0 H 0 0 ~ 0 0 ~ 0 ~ H H ~ H H ~ H ~ H H ^ 5X&X&X&X&X&X&X&X&X&X&X&X&X&X&X&X&X&X&X&X&X&X&X&X&X&X&X&X&X&X&X&X&X&X&X&X&X&X&X&X&X&X&X&X&X&X&X&X&X&X3X4Xt.6 9 9 0 0 0 O 9 9 9 8 9 9 9 4 4 4 6 > > ; ; ; 6 6 ; 1 1 1 @ 1 1 1 1 1 1 1 @ < @ @ @ @ @ @ ",
"9 9 9 9 9 9 9 9 9 9 9 9 9 9 9 9 9 G H H H L L ( ( ( ~ ) ) [ [ [ ' ' / / / n n n c n n n n n n n n v 0 0 8 8 8 8 8 8 0 0 0 0 0 0 0 0 8 8 8 8 8 9 9 9 9 8 6   K.wX3X3X3X3X3X3X3X3X3X3X4X4X4X4X4X4X4X4X4X4X4X4X4X4X4X4X4X4X4X4X4X4X4X4X4X4X4X3X3X3X3X3X3X3X4X3X&X{ wX!.K.wX/ 3X5X~ wX!.Z.wX^ &X4X0 wX~.Z.wX^ &XwX0 wX^.#.wX#.&XwX0 wX^.#.wX#./.wXX.4X&X&X&X/.&X&X&X&X&X&X&X&X&X&X&X&X&X&X&X&X&X&X&X&X&X&X&X/.&X&X&X&X&X&X&X&X&X&X&X&X&X&X&X&X&X&X&X/.&X&XO @ 6 6 6 6 6 6 9 9 9 9 9 9 9 4 4 4 6 > > > > 6 6 6 6 1 1 1 1 1 1 1 1 1 1 1 1 1 < @ @ @ @ @ @ ",
"9 9 9 9 9 9 9 9 9 9 9 9 9 9 9 9 9 9 9 G H H L L L ( ( ) ) ) [ [ [ ' ' / / / / B c c n n n n n n n n v 0 0 8 8 8 8 8 8 0 0 0 0 0 0 8 0 8 9 8 8 9 9 9 8 8 8 8   Z.3X&X&X&X&X&X&X&X&X&X&X&X&X&X&X&X&X&X&X&X&X&X&X&X&X&X&X&X&X&X&X&X&X&X&X&X&X&X&X&X&X&X&X&X&X&X4X[ 3XK.Z.3X/ /.&Xn wXK.t.wX^ /.&X0 5X!.&.4X^ ^.3X0 4X~.| 4XX.^.3X9 3X!.X.4X| ~.4X^ 4X&X&X&X&X&X&X&X&X&X&X&X&X&X&X&X&X&X&X&X&X&X&X&X&X&X&X&X&X&X&X&X&X&X&X&X&X&X&X&X&X&X&X&X&X&X&X&X&X/.O 9 6 6 6 9 6 6 9 9 9 9 9 9 9 9 4 4 1 6 > > > 8 9 9 6 6 1 1 1 1 1 1 1 1 @ 1 1 1 1 @ @ @ @ @ @ @ ",
"9 9 9 9 9 9 9 9 9 9 9 9 9 9 9 9 9 9 9 9 0 H H L L L ( ( ) ) ) [ [ ' [ ' ' / ' n c c c n n n n n n n v v 0 8 8 8 8 8 8 0 v x 8 0 x v 0 8 8 8 8 9 8 9 8 8 8 8 8 @ O O O O X O X X X X X X X ; ; > > > > * > > > ; ; @ 1 1 1 6 9 0 9 G G A G G K L L ( ( ) ~ ~ 0 / x n c x n 8 ; n @ ; 8 X 8 @ @ 8 O @ 6 O 6 O O 9 O @ ;   6 @ O 8 O @ 6 O 6 @ O 8 @ @ @ 1 @ ; ; 6 6 9 9 9 9 9 6 6 1 1 6 1 @ O @ @ @ @ @ @ @ O O O X X @ @ @ @ @ O O O O O   O O O O O 9 9 9 9 6 9 9 6 9 9 9 9 9 6 6 4 4 1 6 > > > 8 8 8 9 6 1 1 1 1 1 1 1 1 1 @ @ 1 1 1 1 1 @ @ @ @ @ ",
"9 9 9 9 9 9 9 9 9 9 9 9 9 9 9 9 9 9 9 9 9 0 H H H H L (  . .) ) ) ) [ ' ' ' ' ' n n n n n n c n n n v v v v 8 8 8 8 0 v n v n x x x v 8 8 9 8 8 8 8 8 8 8 8 8 8 8 8 8 8 8 8 8 8 8 8 8 8 8 v v n n n n n n n n n v H H H H H ~ ( ( ( L L L L (  .o...O.O...) ) ) ) [ ' ' / n n n n v v v 0 0 0 0 0 0 0 9 9 9 9 9 9 9 9 9 9 9 8 8 8 8 8 0 8 8 8 0 0 0 0 0 0 0 0 v H ~ ~ ~ ~ ~ ~ H H 0 H 0 0 0 0 8 0 0 0 0 0 9 9 9 8 0 0 0 0 0 8 8 8 9 6 9 6 6 8 8 8 8 8 9 9 9 9 9 9 9 9 6 6 6 9 9 4 4 1 6 ; > > 8 8 8 8 9 6 6 1 6 1 1 1 1 1 1 1 1 1 1 @ @ 1 @ @ @ 1 @ ",
"9 9 9 9 9 9 9 9 9 9 9 9 9 9 9 9 9 9 9 9 9 9 0 H H H L L ( ( ) ) ) ) ) [ [ [ [ [ / n n n n n n n n n v 0 v v v v v 8 x n n n x c c x n x 8 8 8 8 8 8 8 8 8 8 8 8 8 8 8 8 8 8 8 8 8 x x x x v n n n n n n n n / ~ ~ H H H H H H ~ L L H L H H L L  . ..... .) ) ( ) [ [ ' / / / n n n v v 0 0 0 0 0 8 8 9 9 9 9 9 9 9 9 9 9 8 8 8 8 8 8 8 8 8 0 0 0 0 0 0 0 0 0 0 0 ~ H ~ ~ ~ H H H 0 H 0 0 9 9 0 9 9 0 0 9 9 9 9 9 0 0 0 0 0 0 0 9 9 9 9 6 6 8 8 8 8 8 6 9 9 9 9 9 9 6 6 9 6 9 9 4 1 1 6 ; > > 8 0 8 0 9 6 6 1 6 1 1 1 1 1 1 1 1 1 1 @ @ 1 1 @ @ 1 1 ",
"9 9 9 9 9 6 6 9 9 9 9 6 9 9 9 9 9 9 9 9 9 9 9 0 H H H L L ( ) ) ) ) ) [ ) [ } [ / / / / / / / n n v v v v v v v v v n n n n n n c c c x x x x x x x x x x x 8 8 8 8 8 8 x x x x x x x x x n n n n n n n ~ ~ ~ ~ H H H H H H H H H H H H H H H L (  . . . .( ( ) ) ) ) ) ) / / / n n n n v v v v 8 8 8 8 9 9 9 9 9 9 9 9 9 8 8 8 8 8 8 8 8 8 0 0 0 0 0 0 0 0 0 0 0 H H H H H H H H H H 0 0 9 9 9 9 9 9 9 9 9 9 9 9 9 8 0 0 0 0 9 9 9 9 9 9 9 9 9 8 8 8 8 9 9 9 9 9 9 9 9 9 9 6 4 4 1 ; ; ; > 8 8 0 0 0 0 6 6 1 1 1 1 1 1 1 1 1 1 1 1 @ @ @ @ @ @ @ @ ",
"9 9 6 6 9 6 6 6 9 9 6 6 9 9 9 9 9 9 9 9 9 9 9 0 0 0 H H H ( ( ( ( ) ) ) ) [ @.[ / ~ ~ ~ ~ ~ ~ ~ ~ v v v v v v v v n n n n n n n n n c x x x x v x x x x n v x 8 8 8 x 8 v n n x x x x x n n n n n n n ~ ~ ~ H H H H H 0 H H H 0 H 0 H 0 0 0 0 H H L L ( ( L L ( )  .) ) ( / / / n n n n n n v v x 8 8 8 8 9 9 9 9 6 6 6 9 8 8 8 8 8 8 8 8 8 0 0 0 0 0 0 0 0 0 0 0 0 H H 0 0 0 0 0 0 H 0 0 9 9 9 9 9 9 9 9 9 9 9 9 9 9 9 9 9 9 9 9 9 9 9 9 9 9 9 9 9 0 8 9 9 9 9 9 9 9 9 9 6 4 4 1 1 ; ; ; 8 8 0 0 0 0 0 9 6 1 6 1 1 @ 1 1 1 1 1 1 @ @ @ @ @ @ @ @ @ ",
"6 6 6 6 9 9 6 6 6 6 6 9 6 9 9 9 9 9 9 9 9 9 9 0 0 0 0 H H H L ( ( ( ) ) ) [ @.) ) ~ ~ ( ( ( ~ ~ ~ ~ ~ 0 0 v v 0 v v n n n n ~ ~ / n n n n v v v v v v n n n v x 8 8 x v n n n n n n n n n v v ~ ~ ~ ~ ~ H H H H H 0 0 0 H 0 0 0 0 0 9 0 9 0 0 0 H H H ( L H H ( (  . .( ) ( ) / / ~ n n n n n v v 8 8 8 8 9 9 9 6 6 6 6 8 8 8 8 8 8 8 8 0 0 0 0 0 0 0 0 0 0 0 0 0 0 0 0 0 0 0 0 0 0 0 0 0 9 9 9 9 9 9 9 9 9 6 9 9 9 9 9 9 9 9 9 9 9 9 9 9 9 9 9 9 9 9 9 9 9 6 9 6 9 9 6 9 9 4 4 < ; ; ; ; 8 0 0 0 0 0 9 9 6 6 6 1 1 @ @ 1 1 @ @ @ @ @ @ @ @ @ @ @ @ ",
"6 6 6 6 9 9 6 9 6 6 6 6 6 6 6 9 9 9 9 9 9 9 9 9 0 0 0 0 H H H ~ ( ( ) ) ) @.@.) ~ ( L L L L L H H H H H H 0 0 0 H H v ~ H H H ~ ~ ~ n n v v v v v v n n n n v v 8 x v n n n n n n n n / n v H ~ ~ ~ H H H H H H 0 0 0 0 0 9 0 9 0 9 9 9 0 0 0 0 0 0 ~ H H H H H ( ( ( ( ( ( ) / / / ~ ~ / n n n n x 8 8 8 9 9 9 6 8 8 8 8 8 8 8 8 8 x v 0 0 0 0 0 0 0 0 0 0 0 0 0 0 0 0 0 9 9 9 0 0 0 0 0 9 9 9 9 9 9 9 6 6 6 6 9 9 9 9 9 9 9 9 9 9 6 9 6 9 9 9 9 6 9 9 9 6 9 6 6 6 9 9 9 9 4 4 1 ; ; ; 6 8 0 0 0 0 0 9 9 6 6 6 1 1 @ @ 1 1 @ 1 @ @ @ @ @ @ @ @ @ @ ",
"6 6 6 6 6 6 6 6 6 6 6 6 6 6 6 6 6 9 9 9 9 9 9 9 0 0 0 0 0 H H H ~ ( ) ) ) @.[ / ~ H H L L L H H H H H H H H H H 0 H H H H H H H ~ ~ ~ H 0 0 0 0 0 v v n n n v v x v n n n n n n n n / ~ ~ H H H H L H H H H H 0 0 9 9 0 9 0 9 9 9 9 9 9 0 0 0 0 0 0 H ~ H H 0 H H L L L L ( ( ( / / / / n n n n n n v 8 8 8 8 8 8 8 8 8 8 8 8 8 8 8 0 0 0 0 0 0 0 0 0 9 9 9 9 9 0 0 0 9 9 9 9 9 9 0 0 0 9 9 9 9 6 6 9 6 6 6 6 6 6 9 9 9 9 9 6 6 6 6 6 6 6 6 6 6 6 6 6 6 6 6 6 6 9 6 9 9 4 4 4 < ; ; ; ; 6 9 9 9 0 0 0 9 9 6 6 6 1 @ @ 1 @ @ @ @ 1 1 @ @ @ @ @ @ @ @ ",
"6 6 6 6 6 6 6 6 6 6 6 6 6 6 6 6 6 6 9 9 9 9 9 9 0 0 0 0 0 H H ~ ~ ~ ( ) ) @.[ / ~ H H H H H H H H H H H H H H H H H H H L L H H H H H H 0 0 0 0 0 0 0 v v v v v v v v n n n ~ n n ~ ~ ~ H H H H H H H H H 0 0 9 9 9 9 9 9 9 9 9 9 9 9 9 0 0 0 0 0 0 H H H 0 0 H H H H H H L ( ( ( ~ ~ / / / / n n n n v 8 8 8 8 8 8 8 8 8 8 8 0 0 0 0 0 0 0 0 0 0 0 0 9 9 9 9 9 0 0 9 9 9 9 9 9 9 0 0 0 9 9 9 9 9 6 9 6 6 6 6 6 6 6 6 6 6 6 6 6 6 6 6 6 6 6 6 6 6 6 6 6 6 6 9 6 6 6 6 9 4 1 1 1 ; ; ; 6 9 9 9 9 0 0 9 9 9 6 6 6 1 @ 1 1 @ 1 @ 1 1 1 @ @ @ @ @ @ @ @ ",
"6 6 6 6 6 6 6 6 6 6 6 6 6 6 6 6 6 6 6 9 9 9 9 9 9 0 0 0 0 0 H ~ ~ ~ ( ) ) @.[ ~ ~ H H H H H H H 0 H H H 0 0 0 9 H H H H H H H H H H H H H 0 0 0 0 0 H 0 H 0 0 0 0 v v ~ ~ ~ ~ ~ ~ ~ H H H H H H H H H 0 0 9 9 9 9 9 9 9 9 9 9 8 9 9 9 0 9 0 0 0 0 0 H H 0 0 0 0 0 G H H H L L ( ( ( ( ) ) / / / n n n v 0 8 8 9 8 8 8 8 8 8 8 8 0 0 0 0 0 0 0 0 0 9 9 9 9 9 9 9 9 9 8 0 9 9 9 9 9 0 0 0 9 9 9 6 9 6 9 6 6 6 6 6 6 6 6 6 6 6 6 6 6 6 6 6 1 6 6 6 6 6 9 6 6 6 6 6 6 6 1 1 4 1 @ ; ; ; 6 6 9 9 9 9 9 9 9 9 9 6 1 6 6 1 1 1 1 1 @ @ @ @ 1 @ @ @ @ @ @ @ ",
"6 6 6 6 6 6 6 6 6 6 6 6 6 6 6 6 6 6 9 9 9 9 9 9 9 0 0 0 0 0 H ~ ~ ~ ( ) ) @.[ ~ 0 0 H 0 0 0 0 0 0 9 9 9 9 9 9 9 9 H G H H H H H H H H H 0 0 0 0 0 H H H H H 0 0 0 0 H ~ ~ ~ ~ H H H H H H G H H 0 0 0 0 9 9 9 9 9 9 9 9 9 9 9 9 9 9 0 0 9 0 0 0 0 0 H H 0 0 0 0 0 0 0 H H H H L L L ( ~ ( ) / / / n n n v 0 8 8 8 8 8 8 8 8 8 0 0 0 0 0 0 0 0 9 9 9 9 9 9 9 9 9 9 9 8 8 8 9 9 9 9 0 0 0 9 9 6 6 6 6 6 6 9 6 6 6 6 6 6 6 6 6 6 6 6 6 6 6 6 6 6 6 1 6 6 6 6 6 6 6 1 1 1 1 1 1 ; ; ; 6 6 9 9 9 9 9 9 9 9 9 9 6 6 6 6 1 1 1 1 1 @ @ @ @ @ 1 @ @ @ @ @ @ ",
"6 6 6 6 6 6 6 6 6 6 6 6 6 6 6 6 6 6 9 9 9 9 9 9 9 0 0 0 0 0 0 H ~ ~ ) ) +.@.) ~ 0 0 0 0 0 9 9 9 0 9 9 9 9 9 9 9 9 9 9 9 9 9 0 0 G G 9 9 9 9 9 0 0 0 H H H G H 0 H 0 H H H H H H H H H H H 9 9 9 9 9 9 9 9 9 9 9 9 9 9 9 9 9 9 9 9 9 9 9 9 0 0 0 0 0 0 0 0 9 0 0 0 0 0 0 9 G H H H H H ~ ( ( / / / n n n v 8 8 8 8 8 8 8 8 8 0 0 0 0 0 0 9 9 9 9 9 9 9 9 9 9 9 9 9 9 8 8 0 0 9 9 9 0 0 0 9 9 9 9 6 6 6 6 6 6 6 6 6 6 6 6 6 6 6 6 1 1 6 6 6 6 6 6 1 1 1 1 1 1 6 1 1 1 4 4 1 1 ; ; ; 6 6 6 6 6 9 9 9 9 9 9 9 6 6 6 6 6 1 1 1 1 @ @ @ @ 1 1 1 1 @ @ @ @ ",
"6 6 6 6 6 6 6 6 6 6 6 6 6 6 6 6 6 6 9 9 9 9 9 9 9 9 0 0 0 0 0 H ~ ~ ) ) +.@./ n 0 0 0 0 0 0 0 9 9 9 9 9 9 9 9 9 9 9 9 9 9 9 9 9 9 9 9 9 9 9 9 9 9 9 H G G G 0 G G 0 H H H H H H G H G 0 0 9 9 9 9 9 9 9 9 9 9 9 9 9 9 9 9 9 9 9 9 9 9 9 9 9 0 0 0 0 0 0 0 9 9 9 9 0 0 9 9 9 H H H H H L ( ( ~ ~ ~ n n v 0 8 8 8 8 8 8 8 0 9 0 0 0 0 0 9 9 9 9 9 6 6 9 9 9 9 9 9 9 9 8 8 8 8 8 9 9 9 0 9 9 9 9 9 6 6 6 6 6 6 6 6 6 6 1 6 6 6 6 6 1 1 6 6 6 6 6 6 1 1 6 6 1 1 1 4 1 1 < < 1 @ ; ; 6 6 6 6 6 6 9 9 9 9 9 9 9 6 6 6 6 6 1 1 1 1 1 @ @ @ 1 1 1 1 1 @ @ @ ",
"6 6 6 6 6 6 6 6 6 6 6 6 6 6 6 6 6 6 9 9 9 9 9 9 9 9 0 0 0 0 0 0 H ~ / ) +.@./ v 0 0 0 9 0 0 0 0 9 9 9 9 9 9 9 9 9 9 9 9 9 9 9 9 9 9 9 9 9 9 9 9 9 9 9 9 9 9 9 9 9 0 H H H G 9 9 9 9 9 9 0 9 9 9 9 9 9 9 9 9 6 9 9 9 9 9 9 9 9 9 9 9 9 9 9 9 0 0 0 0 0 0 0 9 9 9 9 0 0 0 9 9 9 0 0 0 H H H L ~ ~ ~ ~ ~ ~ 0 8 8 8 8 8 8 0 8 9 9 9 9 9 9 9 9 9 9 9 6 9 9 9 9 9 9 9 9 8 8 8 8 8 8 9 9 9 9 9 9 9 6 9 9 6 6 6 6 1 6 6 1 6 1 1 6 6 6 6 1 1 6 6 6 1 1 6 1 6 6 6 1 6 1 1 4 4 < < @ ; ; ; 6 6 6 6 6 6 6 9 9 9 9 9 9 9 6 6 6 1 1 @ 1 1 @ @ @ @ 1 1 1 1 @ @ @ @ ",
"6 6 6 6 6 6 6 6 6 6 6 6 6 6 6 6 6 6 6 9 9 9 9 9 9 9 9 0 0 0 0 H ~ ~ ) ) @.} / v 0 0 0 9 0 0 9 0 9 9 9 9 9 9 9 9 9 9 9 9 9 9 9 9 9 9 9 9 9 9 9 9 9 9 9 9 9 9 9 9 9 9 9 9 0 9 9 9 9 9 9 9 9 9 9 9 9 9 9 9 9 9 9 9 9 9 9 9 9 9 9 9 9 9 9 9 9 9 0 0 0 0 0 0 0 9 9 9 9 0 0 0 0 9 9 0 0 0 0 H H H H H ~ ~ ~ ~ 0 0 8 9 9 9 9 0 9 9 9 9 9 9 9 9 9 9 9 9 9 9 9 9 9 9 9 9 9 9 9 8 8 8 8 9 9 9 9 9 9 9 6 6 6 6 6 6 6 6 6 6 6 6 6 1 6 6 6 6 1 1 6 6 1 1 1 6 1 6 6 6 6 1 1 < < < < < @ ; ; ; 6 6 6 6 6 6 6 6 9 9 9 9 9 9 6 6 6 1 1 @ 1 1 @ @ @ 1 1 1 @ @ @ @ @ @ ",
"6 6 6 6 6 6 6 6 6 6 6 6 6 6 6 6 6 6 6 6 9 9 9 9 9 9 0 0 0 0 0 H ~ ~ ( ) @.} / v 0 0 0 9 0 0 0 8 0 0 9 9 9 9 9 9 9 9 9 9 9 9 9 9 9 9 9 9 9 9 9 6 6 9 9 9 9 9 9 9 9 9 9 9 9 9 9 9 9 9 9 9 9 9 9 9 9 9 9 9 9 9 9 9 9 9 9 9 9 9 9 9 9 9 9 9 9 9 9 0 0 0 0 0 0 9 9 9 0 0 0 0 9 9 9 9 9 9 9 0 H H H H H H H H 0 0 9 9 9 9 9 9 9 9 9 9 9 9 9 9 9 9 9 9 9 9 9 9 9 9 9 9 9 9 9 0 9 9 9 9 9 9 9 9 9 9 6 6 6 6 6 6 6 6 6 6 6 6 6 6 6 6 1 1 1 6 6 1 1 1 1 6 1 1 1 6 6 1 4 < < @ @ @ ; ; ; 6 6 6 6 6 6 6 6 6 9 9 9 9 9 9 9 6 1 1 @ 1 1 @ 1 1 1 1 1 1 1 @ @ @ @ @ ",
"6 6 6 6 6 6 6 6 6 6 6 6 6 6 6 6 6 6 6 6 9 9 9 9 9 9 0 0 0 0 0 H ~ ~ ( ) @.[ / 0 0 0 0 0 9 9 0 0 0 0 9 9 9 9 9 9 9 9 9 9 9 9 9 9 9 9 9 9 6 6 6 6 6 6 6 9 9 9 6 6 9 9 9 9 9 9 9 9 9 9 9 9 6 9 9 9 9 9 9 9 9 9 9 9 9 9 9 9 9 9 9 9 9 9 9 9 9 9 9 8 8 0 0 0 9 9 9 9 9 9 9 9 9 9 9 9 9 9 9 9 0 H H H H H H 0 0 9 9 9 9 9 9 9 9 9 9 9 9 9 9 9 9 9 9 9 9 9 9 6 6 6 6 9 9 9 9 9 0 9 9 9 9 9 9 9 9 9 6 6 6 6 6 6 6 6 6 6 6 1 6 6 6 6 1 1 1 1 6 1 1 1 1 6 6 1 1 1 1 1 1 < @ @ @ @ ; ; 6 6 6 6 6 6 6 6 6 6 6 6 9 9 9 9 6 6 1 1 1 1 @ 1 1 @ 1 1 1 1 @ @ @ @ @ @ ",
"6 6 6 6 6 6 6 6 6 6 6 6 6 6 6 6 6 6 6 6 6 6 9 9 9 9 9 0 0 0 0 0 ~ ~ ( ..@.[ ~ 0 0 0 0 0 0 9 9 9 0 9 9 9 9 9 9 9 9 9 9 9 9 9 9 9 9 9 9 6 6 6 6 6 6 6 6 6 6 6 6 6 6 6 9 9 9 9 9 9 6 9 9 9 9 9 9 9 9 9 9 9 9 9 9 9 6 9 9 9 9 9 9 9 9 9 6 9 9 9 9 8 0 0 0 9 9 9 9 9 9 0 9 9 9 9 9 9 9 9 9 9 9 9 9 H H H H 0 0 9 9 9 9 9 9 9 9 9 9 9 9 9 9 9 9 9 9 6 9 6 6 9 6 6 9 9 9 9 9 9 9 9 9 9 9 9 9 9 9 6 6 6 6 6 6 6 6 6 6 6 6 1 1 6 6 6 1 1 1 6 6 1 1 1 1 6 1 1 1 1 1 1 1 < @ @ @ ; ; ; 6 6 6 6 6 6 6 6 6 6 6 6 9 6 6 6 6 6 6 1 1 1 1 1 1 @ 1 1 1 @ @ @ @ @ @ @ ",
"6 6 6 6 6 6 6 6 6 6 6 6 6 6 6 6 6 6 6 6 6 6 9 9 9 9 9 0 0 0 0 0 v ~ ( ) @.[ v 0 0 0 0 0 0 9 9 9 9 9 9 9 9 9 9 9 9 9 9 9 9 9 6 9 9 9 6 6 6 6 6 6 6 6 6 6 6 6 6 6 6 6 9 6 6 9 9 9 9 9 9 9 6 9 9 9 9 9 9 9 9 9 9 6 6 9 9 9 6 6 9 9 9 9 6 9 9 9 9 8 0 0 9 0 9 9 9 9 9 9 8 9 9 6 9 9 9 9 9 9 9 9 9 9 0 0 H 9 9 9 9 9 9 9 9 9 9 9 6 9 9 6 9 9 9 6 6 6 6 6 6 6 6 6 6 9 9 9 9 9 9 9 9 9 9 9 9 9 9 6 6 6 6 6 6 1 6 6 6 6 1 6 6 6 6 6 1 1 1 1 1 1 1 1 6 6 1 1 6 ; 1 4 < @ @ @ @ ; ; 6 6 6 6 6 6 6 6 6 6 6 6 9 9 6 6 6 6 6 6 1 1 1 1 1 1 1 1 1 1 @ @ @ @ @ @ @ ",
"6 6 6 6 6 6 6 6 6 6 6 6 6 6 6 6 6 6 6 6 6 6 9 9 9 9 9 0 0 0 0 0 ~ ~ ( ) @.) ~ 0 0 0 8 0 8 8 9 9 9 9 9 9 9 9 9 9 9 9 9 6 6 9 9 9 9 9 9 6 6 6 6 6 6 6 6 6 6 6 6 6 6 6 6 9 6 6 6 6 9 9 9 6 6 9 9 9 6 6 6 6 6 9 9 9 9 9 9 9 6 9 9 9 9 9 9 9 9 9 8 8 8 8 0 9 9 9 9 9 9 9 9 9 9 9 9 9 6 9 9 9 9 9 9 9 9 0 9 9 9 9 9 9 9 9 9 9 6 6 6 9 9 6 9 9 9 6 9 6 6 6 6 6 9 9 9 9 9 9 9 9 9 9 9 9 9 9 9 9 9 6 6 1 6 6 6 6 6 6 6 6 1 1 6 1 6 6 6 1 1 1 6 6 6 6 6 6 @ 1 1 1 1 < < @ @ @ @ @ ; 6 6 6 6 6 6 6 6 6 6 6 6 6 6 6 9 6 9 6 6 1 1 1 1 1 1 1 @ @ @ @ @ @ @ @ @ @ ",
"6 6 6 6 6 6 6 6 6 6 6 6 6 6 6 6 6 6 6 6 6 9 9 9 9 9 9 0 0 0 0 0 v ~ ) [ @.) v 0 0 0 0 0 8 8 9 9 9 9 9 9 9 9 9 9 9 6 6 6 6 6 6 6 6 9 6 6 6 6 6 6 6 6 6 6 6 6 6 6 6 6 6 9 6 6 9 6 6 9 6 6 6 9 9 9 6 6 6 6 6 6 9 9 9 9 9 9 9 6 6 9 6 6 9 9 9 9 9 8 0 8 0 9 9 9 9 9 9 9 9 0 9 9 9 9 9 9 9 9 9 9 9 9 9 9 9 9 9 9 9 9 9 9 9 9 6 6 6 6 6 6 6 6 9 9 6 6 6 6 6 6 6 9 9 9 9 9 9 9 9 9 9 9 9 9 9 9 9 6 6 6 6 6 1 1 1 6 6 6 1 6 6 6 6 6 6 1 1 1 1 1 1 1 6 6 1 1 1 1 1 < @ @ @ @ @ ; ; 6 6 6 6 6 6 6 6 6 6 6 6 6 6 9 9 9 6 6 6 6 1 1 1 1 1 1 @ @ @ 1 1 @ @ @ @ @ ",
"6 6 6 6 1 1 1 1 6 6 6 6 6 6 6 6 6 6 6 6 6 6 9 9 9 9 9 0 0 0 0 0 v ~ ) [ @./ v 0 0 0 8 9 8 9 9 9 9 9 9 9 9 9 6 6 6 6 6 6 6 6 6 6 6 6 6 6 6 6 6 6 6 6 6 6 6 6 6 6 6 6 6 6 6 6 6 6 6 6 6 9 9 9 6 6 9 9 9 6 6 6 6 9 9 9 9 9 9 9 6 6 6 6 6 6 6 9 9 8 9 8 8 9 9 9 9 6 9 9 9 0 8 9 9 9 9 9 9 9 9 9 9 9 9 9 9 9 9 9 9 9 9 9 9 9 6 6 6 6 6 6 6 6 6 6 6 6 6 6 6 6 6 6 9 6 9 9 9 9 9 9 9 9 9 9 9 9 9 6 6 6 6 6 6 1 1 1 6 6 6 6 6 6 1 6 6 6 6 6 1 1 1 1 1 1 1 1 1 1 < < @ @ @ @ @ ; 1 6 6 6 6 6 6 6 6 6 6 6 6 6 9 9 9 9 9 6 6 6 6 1 @ 1 1 1 1 1 1 1 1 1 1 @ @ @ ",
"6 6 6 6 1 1 1 1 1 1 6 6 6 6 6 6 6 6 6 6 6 6 6 9 9 9 9 9 0 0 0 0 v ~ ) +.@./ v 0 9 0 0 0 8 8 9 9 9 9 9 9 9 9 6 6 6 6 6 6 6 6 6 6 6 6 6 6 6 6 6 6 6 6 6 6 1 6 6 6 6 6 6 6 6 6 6 6 6 6 6 6 6 6 6 6 9 6 9 6 6 6 6 9 9 9 9 9 6 9 6 6 6 6 6 6 6 9 9 9 8 8 9 9 9 9 9 6 9 9 0 8 8 9 9 9 9 9 9 9 9 9 6 9 6 9 9 6 9 6 9 9 9 9 9 9 9 6 6 6 6 6 6 6 6 6 6 6 6 6 6 6 9 6 6 6 9 9 9 9 9 9 6 9 9 9 9 9 9 6 6 6 6 1 6 1 1 1 6 6 6 6 6 6 6 6 6 6 6 6 1 1 1 1 1 1 1 1 1 1 < @ @ @ @ @ @ @ 1 6 6 6 6 6 6 6 6 6 6 6 6 6 9 9 6 6 6 6 6 6 1 1 @ 1 < 1 1 @ @ @ @ @ @ @ @ @ ",
"6 6 6 6 6 6 1 1 1 1 1 1 6 6 6 6 6 6 6 6 6 9 6 9 9 9 9 9 9 0 0 0 H ~ ) +.[ / 0 0 9 0 8 8 8 9 9 9 9 9 9 9 9 6 6 6 6 6 6 6 6 6 6 6 6 6 6 6 6 6 6 6 6 6 1 6 6 6 6 6 6 6 6 6 6 6 6 6 6 6 6 6 6 6 6 6 6 6 6 6 6 6 6 6 9 9 9 9 9 9 6 6 6 6 6 6 6 9 9 9 8 8 9 9 9 9 9 9 9 9 8 8 8 8 9 9 9 9 9 9 9 9 9 9 9 6 6 6 6 9 6 9 9 9 9 9 9 9 6 6 6 6 6 6 6 6 6 6 6 6 6 6 6 9 9 9 9 9 6 9 9 6 9 6 9 6 9 6 6 6 6 6 6 6 6 6 6 6 6 6 6 6 1 1 6 6 6 6 ; ; @ 1 6 1 1 1 1 1 1 1 @ @ @ @ @ @ ; 1 1 6 6 6 6 6 6 6 6 6 6 6 6 6 9 9 6 6 6 6 6 6 6 1 1 1 1 @ 1 1 @ @ @ @ @ < @ @ ",
"6 6 6 6 6 6 1 1 1 1 6 1 6 6 6 6 9 9 1 1 6 9 9 9 9 9 9 9 9 0 0 H ~ ~ ) +.[ / v 0 9 0 8 8 8 9 9 9 9 9 9 9 9 9 9 9 6 6 6 6 6 6 6 6 6 6 6 6 6 6 6 6 6 6 1 1 1 6 6 6 ; 6 6 6 6 6 6 6 6 6 6 6 6 6 6 6 6 6 6 6 6 6 6 6 9 9 9 9 9 9 9 6 6 9 6 9 9 9 9 8 8 8 9 9 8 9 9 8 8 8 8 9 6 8 8 8 9 9 9 9 9 9 9 9 9 9 6 6 6 9 6 6 6 6 6 9 9 9 9 6 6 6 9 9 6 6 6 6 6 6 6 9 9 9 9 9 9 9 6 6 9 6 6 6 6 9 6 6 6 6 6 6 1 6 1 6 6 6 6 6 1 1 1 @ 1 1 6 6 ; @ 6 6 6 6 1 1 1 1 4 1 @ @ @ @ @ @ 6 1 1 6 6 6 6 6 6 6 6 6 6 9 6 6 9 9 9 9 9 6 6 6 6 1 1 1 1 1 @ 1 1 @ @ 1 1 1 1 @ "
};
