/* XPM */
static char *_a6a217c8d8342959394cafb39566b78115h0Wm3PU2A1XHD[] = {
/* columns rows colors chars-per-pixel */
"600 43 256 2 ",
"   c None",
".  c #000104",
"X  c #000A05",
"o  c #00050A",
"O  c #00090D",
"+  c #0A0B0C",
"@  c #0B0405",
"#  c #150706",
"$  c #021303",
"%  c #021C02",
"&  c #01120D",
"*  c #011B0D",
"=  c #0B1607",
"-  c #151408",
";  c #000513",
":  c #010C12",
">  c #01051B",
",  c #000C1A",
"<  c #0B0C12",
"1  c #001414",
"2  c #0C1213",
"3  c #011A15",
"4  c #01151B",
"5  c #001B1B",
"6  c #0B1B1A",
"7  c #121416",
"8  c #141619",
"9  c #151A1C",
"0  c #1A1C1C",
"q  c #1B1718",
"w  c #100F11",
"e  c #260305",
"r  c #2B100C",
"t  c #042608",
"y  c #053707",
"u  c #022315",
"i  c #01221D",
"p  c #022B1B",
"a  c #052A15",
"s  c #14261B",
"d  c #043718",
"f  c #162F06",
"g  c #292E0C",
"h  c #000423",
"j  c #010C23",
"k  c #010C2B",
"l  c #01042A",
"z  c #011423",
"x  c #011C22",
"c  c #01142B",
"v  c #011C2A",
"b  c #0C1C26",
"n  c #191E21",
"m  c #000A37",
"M  c #011C33",
"N  c #011538",
"B  c #181735",
"V  c #012323",
"C  c #022B24",
"Z  c #01242B",
"A  c #022B2C",
"S  c #0B2725",
"D  c #182627",
"F  c #033324",
"G  c #02332C",
"H  c #023C2C",
"J  c #063826",
"K  c #012433",
"L  c #022B34",
"P  c #022C3B",
"I  c #052639",
"U  c #1A2636",
"Y  c #023333",
"T  c #02333C",
"R  c #023B3B",
"E  c #053A37",
"W  c #173637",
"Q  c #173629",
"!  c #222325",
"~  c #24292C",
"^  c #27292B",
"/  c #2A2D31",
"(  c #262D32",
")  c #2D3134",
"_  c #283538",
"`  c #313234",
"'  c #353A3D",
"]  c #36383B",
"[  c #28362A",
"{  c #2B0522",
"}  c #532612",
"|  c #054519",
" . c #0C4E0B",
".. c #0F6B10",
"X. c #044628",
"o. c #035629",
"O. c #044638",
"+. c #045638",
"@. c #17532D",
"#. c #2A4C31",
"$. c #06682B",
"%. c #0A6F34",
"&. c #2A6415",
"*. c #4E6821",
"=. c #000A45",
"-. c #011945",
";. c #001A57",
":. c #012847",
">. c #013444",
",. c #01334B",
"<. c #023C4B",
"1. c #043A44",
"2. c #012855",
"3. c #023957",
"4. c #1A3548",
"5. c #393D43",
"6. c #2B3947",
"7. c #013A66",
"8. c #022F6C",
"9. c #011967",
"0. c #044848",
"q. c #05574A",
"w. c #034858",
"e. c #045957",
"r. c #164E4E",
"t. c #294747",
"y. c #3C4245",
"u. c #374549",
"i. c #365055",
"p. c #046548",
"a. c #057849",
"s. c #066856",
"d. c #057659",
"f. c #157053",
"g. c #034866",
"h. c #035765",
"j. c #014877",
"k. c #025874",
"l. c #17516A",
"z. c #335665",
"x. c #056667",
"c. c #05786A",
"v. c #026977",
"b. c #047775",
"n. c #166E64",
"m. c #326C6B",
"M. c #2A645A",
"N. c #45494C",
"B. c #454749",
"V. c #484D53",
"C. c #4B5656",
"Z. c #55585B",
"A. c #4A544C",
"S. c #4C6558",
"D. c #5A5E61",
"F. c #485B66",
"G. c #5D6264",
"H. c #58686A",
"J. c #576F71",
"K. c #626365",
"L. c #65696B",
"P. c #696E71",
"I. c #6D7274",
"U. c #677879",
"Y. c #737679",
"T. c #76787A",
"R. c #63706C",
"E. c #078B2F",
"W. c #1A8923",
"Q. c #058657",
"!. c #0B8D4E",
"~. c #058868",
"^. c #068678",
"/. c #0B9370",
"(. c #149D62",
"). c #708A77",
"_. c #4D8B6D",
"`. c #458027",
"'. c #013C82",
"]. c #025885",
"[. c #03738A",
"{. c #367191",
"}. c #567487",
"|. c #7A7D81",
" X c #6D7B8B",
".X c #4C5183",
"XX c #807F95",
"oX c #079786",
"OX c #048A8D",
"+X c #129E95",
"@X c #7D8283",
"#X c #7B8889",
"$X c #708E90",
"%X c #65A29F",
"&X c #7ABAC2",
"*X c #828385",
"=X c #878A8C",
"-X c #888D92",
";X c #8E9193",
":X c #899798",
">X c #929395",
",X c #949B9C",
"<X c #9A9B9D",
"1X c #949898",
"2X c #89928C",
"3X c #92A699",
"4X c #9D9EA2",
"5X c #8899A8",
"6X c #9CA4A4",
"7X c #92ACAB",
"8X c #A2A3A4",
"9X c #AAACAD",
"0X c #A5A8AA",
"qX c #AEAFB1",
"wX c #A1ABB0",
"eX c #ADB3B3",
"rX c #A6B3B7",
"tX c #B2B3B4",
"yX c #B5BABB",
"uX c #BABBBC",
"iX c #B5B7B8",
"pX c #ABB5A9",
"aX c #A29C9B",
"sX c #BAC5BC",
"dX c #8EC7B4",
"fX c #BBBCC2",
"gX c #9BB9C2",
"hX c #C1BDC4",
"jX c #BDC2C2",
"kX c #BAC4C8",
"lX c #B6CCD0",
"zX c #BEE3D2",
"xX c #C3C4C5",
"cX c #CBCCCC",
"vX c #C6C9C9",
"bX c #CBCED2",
"nX c #CED1D2",
"mX c #C5D6D9",
"MX c #D2D3D4",
"NX c #DBDCDC",
"BX c #D5D8D9",
"VX c #CBD3CB",
"CX c #DCDEE1",
"ZX c #CED6E3",
"AX c #DDE0E1",
"SX c #DBF8F4",
"DX c #E3E3E4",
"FX c #EBECEC",
"GX c #E5E8E8",
"HX c #EDEFF1",
"JX c #EDF5F3",
"KX c #F3F4F4",
"LX c #FEFEFE",
"PX c #F7F7F7",
"IX c #ECF4ED",
"UX c #E3E4DF",
/* pixels */
"                    . . . . . . . . . . . . . . o o . . . . . o . . . . o . . o o . . o o o o o o o o o o o o o o o o o o o o o o o o o o o o o o o o o o o o o o o o o o o o o O O O O O O O O O O O O O O O O O O O O O o O O O O O O O O O O O O O O O O O O O O O O O O O O O O O O O O O O O O O O O O O O O O O O O O O O O O O O O O O O O O O O O O O O O O O O O O O O O O O O O O O O O O O O : : & O O j H  .e 1 O 1 4 & O c u X o O : , 1 O ; c * O X O O X O O O & & 1 1 1 = & ;.x.^.*.t 4 i 5 3 5 i 3 3 5 5 u V d 5 T >.v.x.OX(.a.b.c.$.d x :.g.w.q.0.H i x V 5 i 5 x Z 5 1 Z G T 0.T >.P Z h.<.P E p V V 5 5 5 5 5 5 i i x V 3 5 3 3 5 5 5 5 3 X.e.v p $./.2.O * 3 & o.c.:.A Z i 1 1 1 1 5 3 M O : O O : O & O : & & O O . e Z o . O X O ; 1 , O q s k o X c > . . o X e g N o O j > . O O . . . . X & : O O o . X O o o o o o o o o o X O O o o o o o o o o o o o o o o o o o o o o o o o o o o . . . . . o o o o . . . o o o o o . . . o o o o . . . . . . . . . . . . . . . . . . . . . . . . . . . . . . . . . . . . . . . . . . . . . . . . . . . . . . . . . o o . . . . . . . . . . . . . . . . . . . . . . . . . . . . . . . . . . . . . . . . . . . . . . . . . . . . . . . . . . . . . . . . . . .                     ",
"              . . . . . . . . . . . . . . . . . o o o . . . . o . . . . o o o o o . . o o o o o o o o o o o o o o o o o o o o o o o o o o o o o o o o o o o o o o o o o o o O o O O O O O O O O O O O O O O o O O o O O O O O O O O O O O O O O O O O O O O O O O O O O O O O O O O O O O O O O O O O O O O O O O O O O O O O O O O O O O O O O O O O O O O O O O O O O O O O O O O O O O O O O O O O O : : & O O : v  .# O X h 4 % : , $ O : O : O X > 4 j * O X X O : O X : & O & 1 4 z K :.e.b.E.t 1 3 3 1 5 u 1 5 5 5 i Z C V ,.].OX/.!.q.x.s.+.:.g.q.0.q.d 4 :.A 1 5 5 1 5 5 1 5 5 z L 5 3 u V Y G P b.e.G 3 & 5 V V x 5 5 ,.K 3 i 5 4 3 5 1 1 5 5 5 5 5 1 | 0.K A @.!.k.j 3 & X.oX2.A T z & 1 1 1 : d Y ; O O O : O O O O o o o . . q :.k z z ; | N 3 4 O + o . @ g M > . . o O # * > = | <.l X O o . . . @ # & O . O t i , . o o o o o o o o o O O O o o o o o o o o o o o o o o o o o o . . o o o o o o o o . . o o o o . . o . o o o o . o . . o o o . . . . . . . . . . . . . . . . . . . . . . . . . . . . . . . . . . . . . . . . . . . . . . . . . . . . . . . . . . o o . . . . . . . . . . . . . . . . . . . . . . . . . . . . . . . . . . . . . . . . . . . . . . . . . . . . . . . . . . . . . . . . . . . . . .               ",
"            . . . . . . . . . . . . . . . . . . o . . . . . o o o . . o o o o o o o . . o o o o o o o o o o o o o o o o o o o o o o o o o o o o o o o o o o o o o o o o o o o O O O O O O O o O O O O O O O o o O O O O O O O O O O O O O O O O O O O O O O O O O O O O O O O O O O O O O O O O O O O O O O O O O O O O O O O O O O O O O O O O O O O O O O O O O O O O O O O O O O O O O O O O O O O O : : & O O O m  .% o O > 3 & : : O O O . o . . o =.C $ O O O O O , 1 : & & 4 c V M V c k.[.E.* 1 3 3 x C 3 5 Z A Z Y >.,.g.OXoX/.Q.w.v.b.x.0.s.$.G i 4 5 x T F 3 5 5 3 5 5 5 3 5 5 & 3 5 1 3 1 1 A b.e.x V 1 A E 5 x 5 5 C A 5 5 i x & 5 x x 5 5 V 5 5 V 4 * +.1.X.0.a.b.-.X X.~.g.T Y K 4 1 1 & 1 O X 1 4 1 : : : O X O k ; O : } S.4.S c : O . . . o o o O o O o . d -.o . o @ & ; . . . . o o . . . . . . . $ , O X . . o o o o o o o o o o O O o o o o o o o o o o o o o o o o o o . . . . o . . o o o o o o o o o o o o o o o o . . . . . . . . o . . . . . . . . . . . . . . . . . . . . . . . . . . . . . . . . . . . . . . . . . . . . . . . . . . . . . . . . . . o o . . . . . . . . . . . . . . . . . . . . . . . . . . . . . . . . . . . . . . . . . . . . . . . . . . . . . . . . . . . . . . . . . . . . . . . .           ",
"        . . . . . . . . . . . . . . o . . . . . . . . . . . o o o . . o o o o o o o o o o o o o o o . . o o o o o o o o o o o o o o o o o o o o o o o o o o o o o o o o o O O O O O O O o o O O O o O O O O O o O O O O O O O O o O O O O O O O O O O O O O O O O O O O O O O O O O O O O O O O O O O O O O O O O O O O O O O O O O O O O O O O O O O O O O O O O O O O O O O O O O O O O O O O O O O : : 1 O O O O c | f + : : & : , 1 X . O o . . . X m P = X O O O O X & X , z x u c P t j >.v.!.% 1 5 3 K d 5 x v L G :.k.^.d.^.!.l.OXoXp.+.+.d 5 Z A C 5 x V V 3 5 5 5 3 5 3 5 5 5 5 v >.3.3.w.l.W A OXoXO.Y L Y i 3 5 <.V 5 x Z Z v 5 1 5 x V x 5 3 3 3 5 i 4 & X.L X.Y $./.2.p ~.g.L <.T v 1 & & 1 1 : 1 3 x 4 5 : O # g <.j O O e s l . . O O . . O o o O O u h . . t : . X o . O O o X O o X 2 > . . . . . . X O O O X X O o o o o o o o O o O O o o o o o o o o o o o o o o o o o o o . . . o o . . . o o o o o o o o o o o o o o o . . . . o . . . . . . . . . . . . . . . . . . . . . . . . . . . . . . o . . . . . . . . . . . . . . . . . . . . . . . . . . . . . . o o . . . . . . . . . . . . . . . . . . . . . . . . . . . . . . . . . . . . . . . . . . . . . . . . . . . . . . . . . . . . . . . . . . . . . . . . .         ",
"      . . . . . . . . . . . . . . . . . . o . . o o o . . . . o o . o o . o . . o . . o o o o o o o o o o o o o o o o o o o o o o o o o o o o o o o o o o o o o o o o o o O O O O O O O O O O O O O O O O O O O O O O O O O O O O O o O O O O O O O O O O O O O O O O O O O O O O O O O O O O O O O O O O O O O O O O O O O O O O O O O O O O O O O O O O O O O O O O O O O O O O O O O O O O O O O O : : 1 O O O O 4 V t X > 1 & O o O . o . o o . . o ; , 4 O O O : : X ; , 4 5 $ k Z % : 4 P k.~.E * 3 5 C a 5 i 3 M k.~.Q.%.h.~.b.p.+.c.~.F i Y G i i 3 i V i 5 3 5 5 1 1 5 4 x L V K i.#.M.#.#.] s x e.d.V C V V 4 O 4.i 5 i V i i Z K 1 3 5 1 i Z 4 V L V Z v 5 4 i x i T +.p.q.c.e.w.>.A V j Z P 4 1 4 1 0 Z < + . X o . . X O O # s > O O o * v ; . O O O O O . o o . . X o o O : O o . X & : + o . . . . . o . . o X . . O o o o o o o o o o O O o o o o o o o o o o . o o o o . o o o o o o . o o o o . o o o o o o . o o o o o o . . . . . . o . . . . . . . . . . . . . . . . . . . . . . . . . . . . . . . . . . . . . . . . . . . . . . . . . . . . . . . . . . . . o o . . . . . . . . . . . . . . . . . . . . . . . . . . . . . . . . . . . . . . . . . . . . . . . . . . . . . . . . . . . . . . . . . . . . . . . . . .       ",
"    . . . . . . . . . . . . . . . . . . . o o . . o o . . . . . . . o . o . o . o o o o o o o o o o o o o o o o o o o o o o o o o o o o o o o o o o o o o o o o o o o o o o o O O O O O O O O O O O O O O O O O O o O O O O O O O O O O O O O O O O O O O O O O O O O O O O O O O O O O O O O O O O O O O O O O O O O O O O O O O O O O O O O O O O O O O O O O O O O O O O O O O O O O O O O O O O O : : 1 O O O O O N  .- ; & X . o o ; : X o o o o o O : O : , & : : =.A = O 1 z K u 1 1 3 >.].!./ L & 4 d u 5 v 7.OX(.%.O.h.c.Q.q.s.p ,.^.Q.5 C C i 5 5 5 5 5 5 5 K 5 L i 1 Y V S 3 3 = 4 4 : 4 5 5 v x.b.C C V x V Z ^ . 1 5 5 5 3 5 ,.& 3 1 5 3 1 S T i 3 D x S W x 3 E 1.O.P +.oXk.5 C r.g.6.i.,.4 1 & a j . . O O : o O : O O O O o O O O o & 1 O X O O O O O : ; . X 5 > X O : O o o . . X > . . . . . . . . $ ; o . . . o o o o o o o o o o O O o o o o o o o o o o o o o o o o o . . . o o . o o o o . . o o o o o . o o o . o o . o o . o . . . . . . . . . . . . . . . . . . . . . . . . . . . . . . . . . . . . . . . . . . . . . . . . . . . . . . . . . . . . . . o o . . . . . . . . . . . . . . . . . . . . . . . . . . . . . . . . . . . . . . . . . . . . . . . . . . . . . . . . . . . . . . . . . . . . . . . . . . .     ",
"    . . . . . . . . . . . . . . . . . . . . o o . . o . . o . . . . . . . . o . . o o o o o o o o o o o o o o o o o o o o o o o o o o o o o o o o o o o o o o o o o o o o o o O O O O O O O O O O O O O O O O o O O o O O O O O O O O O O O O O O O O O O O O O O O O O O O O O O O O O O O O O O O O O O O O O O O O O O O O O O O O O O O O O O O O O O O O O O O O O O O O O O O O O O O O O O O O : : & O O O O O c  .# . . o O O ; : X . o O X . . > z X O , 5 4 4 3 $ X O 4 i 5 1 1 1 3 I ]./.&.4.h.#.s 2.h.x.s.o.H P ].%.O.X.A Y x.G w.+Xa.x T Y C 5 x x V V 1 I Y a 3 1 & 1 4 4 4 4 V x , 4 V i Z x.^.H C 5 x 5 L V 1 x 1 5 5 3 A 3.: 3 5 5 3 3 3 s r.c 1 5 6 5 3 5 3 O.<.e.x./.j.3 R i.r.<., W j O O X O O O : : X b j O : O O & z O O O O O O ; . . X O O . t h . X 1 > . o O ; . . O . . . . $ 1 t F l . . $ O O > . o o o o o o o o o o O O O o o o o o o o O o o o o o o o o o o o o o . . o o o o . . o o o o . . o . . . o o o o o . o o o o . . . . . . . . . . . . . . . . . . . . . . . . . . . . . . . . . . . . . . . . . . . . . . . . . . . . . . . . . . . o o . . . . . . . . . . . . . . . . . . . . . . . . . . . . . . . . . . . . . . . . . . . . . . . . . . . . . . . . . . . . . . . . . . . . . . . . . . .     ",
"  . . . . . . . . . . . . . . . . . . . . . . . . . . . . . . . . o o . . o o o o o o o o o o o o o o o o o o o o o o o o o o o o o o o o o o o o o o o o o o o o o o O O O o O O O O O O O O O o o O O O O O O o O O O O O O O O O O O O O O O O O O O O O O O O O O O O O O O O O O O O O O O O O O O O O O O O O O O O O O O O O O O O O O O O O O O O O O O O O O O O O O O O O O O O O O O O O O : 1 O O O O O O l  .f . . o O : : X . . O O X . . > z $ > z c & X O O O O : X c u * 1 3 :.k.!.f X M l.h./.E.O.#.S T j.%.s :.O.p >.l.n.0.^.c.OX@.6 G V 5 5 5 3 5 3 5 1 1 3 1 5 5 4 1 5 Z x x.H 5 V 5 0.c.V V 5 x 5 A C 5 T . 1 5 5 x V v & V 5 5 5 5 X B.l.4 V 5 V I K Z v X.0.+.oXk.K G L S E U 4.h X X O : : : : O X u , X O O + s c o . X : : : u E N o X : O X O o o . . o o 1 , , ; o . X , ; X X . X . . o . X & 3 : o o o o o o o o o o O O O o o o o o o o o o o o o o o o o o o o o o . . . o o o o o o o o o . . o o . . o o o o . . o . o o . . . . . . . . . . . . . . . . . . . . . . . . . . . . . . . . . . . . . . . . . . . . . . . . . . . . . . . . . . . o . . . . . . . . . . . . . . . . . . . . . . . . . . . . . . . . . . . . . . . . . . . . . . . . . . . . . . . . . . . . . . . . . . . . . . . . . . . . .   ",
"  . . . . . . . . . . . . . . . . . . . . . . . . . . o . . o . . o . . . . o o o . o o o o o o o o o o o o o o o o . o o o o o o o o o o o o o o o o o o o o o o o o o O O O O o o O O O O o O o O O O O O O o O O O o O O O O O O O O O O O O O O O O O O O O O O O O O O O O O O O O O O O O O O O O O O O O O o O O O O O O O O O O O O O O O O O O O O O O O O O O O O O O O O O O O O O O O O : , 1 O : O O O X -...g @ X : : , & X . o o O O . o j c c x $ : 1 & : X : : & & 4 3 3 1 3 :.].Q.y 2.v.~.E.o.O.F p Z ].(.X.,.o.u V Y Q S 0.Y e.^./.d 5 V i 5 5 5 5 3 5 5 5 1 x 3 1 A C x Z V p a V i V e.oXA V V V V 5 5 5 1 5 O 1 3 L i Z X i i 5 5 5 5 - u.5 i L A A V 5 3 i u %.^.q.3.u T K S _ 6.j & 1 : : : : : : O O O O O X O ; O u q.=.X i , & X o o o O X : ; o o o . @ r K z 4 > X o * z > o . . . . . . . t C l . o o o o o o o o o o X O O o o o o o o o o O o o . o o o o . . . o o o o o o . o o o o o o o o . o o o o o o o o . o . . . . . . . . . . . . . . . . . . . . . . . . . . . . . . . . . . . . . . . . . . . . . . . . . . . . . . . . . . . . . . . o . . . . . . . . . . . . . . . . . . . . . . . . . . . . . . . . . . . . . . . . . . . . . . . . . . . . . . . . . . . . . . . . . . . . . . . . . . . . .   ",
". . . . . . . . . . . . . . . . . . . . . . . . . . o . . o . . . o . . . o o o o o . . o o o o o o . . o o o o o o o o o o o o o o o o o o o o o o o o o o o o o o o O O O O O o O O O O O o O O O O O O O O o O O O O O O O O O O O O O O O O O O O O O O O O O O O O O O O O O O O O O O O O O O O O O O O O O O O O O O O O O O O O O O O O O O O O O O O O O O O O O O O O O O O O O O O O O O : : & O : O O O O N o.f # o : : , 1 $ o O o O O . h z z & X O : 1 1 & , M * & 1 1 3 5 3 i 3.[.oX~.d.a.o.R Y H p 5 8.!.X.0.O.a i i C C C K q.A 0.x.d.F 1 i 5 5 5 5 3 5 5 3 1 V 3 4 3 5 x 5 5 V 3 5 5 V e.oXR V V i 5 L A 3 5 x 5 O 1 x 1 v x 1 C 5 5 5 1 2 U 5 5 5 3 3 5 5 5 i x @.b.$.k.5 q.w.I x : 1 1 1 : : : O : . X O : : & z O 3 : * a , O . O O O . X 1 j O X o o o o . o @ O o . . X o $ , : o o X h o $ : O & o . . o o o o o o o o o o O O O o o o o o o o o o o o o o o o o . . . o o . o o o o o o o o o o o o . o o o o o o o o o o o . . . . . . . . . . . . . . . . . . . . . . . . . . . . . . . . . . . . . . . . . . . . . . . . . . . . . . . . . . . . . . o . . . . . . . . . . . . . . . . . . . . . . . . . . . . . . . . . . . . . . . . . . . . . . . . . . . . . . . . . . . . . . . . . . . . . . . . . . . . . . ",
". . . . . . . . . . . . . . . . . . . . . . . . . . o . . . . o o o o o o o o o o . o o . o o o o o . o o o o . o o o o o o o o o o o o o o o o o o o o o o o o o o O O O O O O O O O O O O O O O O O O O O O O O O O O O O O O O O O O O O O O O O O O O O O O O O O O O O O O O O O O O O O O O O O O O O O O O O O O O O O O O O O O O O O O O O O O O O O O O O O O O O O O O O O O O O O O : O : : & : O O : O O m +...e o o o ; O X o o O O . ; , & : X O : : O X : N u & 4 3 1 5 i i v ]./.[.E.J >.G p C 5 x 2.o.% c G a 5 i 5 5 V C V A A Y w.OX(.d : V i 5 5 5 5 5 1 1 & 5 4 5 1 x 5 5 5 5 V x 5 R s.A 5 5 5 1 i.W V V 5 5 L 1 z X G ,.& i i 3 5 : 3 L 5 5 5 5 5 5 5 3 5 1 %.[.O.b.K +.1.K v 4 O 1 1 1 : 3 z $ L N O : O X O + & : o O 1 ; O & : : O 5 C P h . o o o . o . $ , o O O o t x j ; . o X ; X O o . . O X . o o o o o o o o o o O O o o o o o o o o o o o o o o O o o o . o o o . o . . . o . . o o o o o o o o . . o o o o o . o . o . . . . . . . . . . . . . . . . . . . . . . . . . . . . . . . . . . . . . . . . . . . . . . . . . . . . . . . . . . . . o . . . . . . . . . . . . . . . . . . . . . . . . . . . . . . . . . . . . . . . . . . . . . . . . . . . . . . . . . . . . . . . . . . . . . . . . . . . . . . ",
". . . . . . . . . . . . . . . . . . . . . . . . . . . . . . . o . . o o o o o o o o o o o o o o o o o o o o o . o o o o o o o o o o o o o o o o o o o o o o o o o o o O O O O O O O O O O O O O O O O o O O O O O O O O O O O O O O O O O O O O O O O O O O O o O O O O O O O O O O O O O O O O O O O O O O O O O O O O O O O O O O O O O O O O O O O O O O O O O O O O O O O O O O O O O O O O O : : 1 O : O O O O O k O...e o o . o O X O o O X O , X > 1 X O : & X O N 3 X : 4 N A i Z i 8.~.e.d.o.T X.i i V i 8.!.f : Z a 5 i 3 I H i V V V V i T c./.c.+.3 C 5 5 3 5 5 3 3 1 5 5 4 L i V V 5 x i C i 5 ^.A 5 5 x 5 W S 5 5 5 5 5 P 3.X 1 Z 4 * p 5 1 1 3 5 1 5 5 5 5 5 3 J L u d.e.E a.:.i L Z 4 S I : 1 1 : a x X & : : : O O O O : 1 4 : & S N O . & x x V c , ; . . o o % H -.: a v ; . % O ; o o . . @ = j o $ 4 > . . o o o o o o o o o o X O o o o o o o o o o o o o o o o o o o o o o . o o . . . o . o o o o o o o o o . . . o o o o o . . o o o o o . . . . . . . . . . . . . . . . . . . . . . . . . . . . . . . . . . . . . . . . . . . . . . . . . . . . . . . . o o . . . . . . . . . . . . . . . . . . . . . . . . . . . . . . . . . . . . . . . . . . . . . . . . . . . . . . . . . . . . . . . . . . . . . . . . . . . . . ",
". . . . . . . . . . . . . . . . . . . . . . . . . . . . o o o o . . . . . o . . o o . o o o o o o o o o o o o o o o o o o o o o o o o o o o o o o o o o o o o o o o o o o O O O O O O O O O O O O o O O O O o O O O O O O O O O O O O O O O O O O O O O O O O O o O O O O O O O O O O O O O O O O O O O O O O O O O O O O O O O O O O O O O O O O O O O O O O O O O O O O O O O O O O O O O O O O : : 1 O O O O O O O j d t @ o O X . O O O O . o m * X : : X O O X h M * X j -.L V 3 5 3 N x.$.j.%.s L p 5 i i 2.+.% N R O.a 5 5 3 i p 5 i V V i Z F V h.^.a.C 3 Z x 5 1 x 5 1 Z 3 5 1 O.F 5 5 5 i 5 1 5 P s.G i 5 V 5 C i 5 5 5 5 3 T <.i X V x & J 5 O 1 i Z 5 5 5 5 5 5 5 5 F E ~.q.0.E.j.& A A e.t.,.: 1 1 1 : X O O 1 1 1 : : 1 5 ;  .3.> X X o X 1 x x x V M j 1 J N 1 h = X.k . . . . . o . o o . o X # = , e  .E l X O o o o o o o o o o o O O o o o o o o o o o o o o o o . o o o o o o o . . . . o o . . o o o o o o o o . . . . . o o o . . o . . o . . . . . . . . . . . . . . . . . . . . . . . . . . . . . . . . . . . . . . . . . . . . . . . . . . . . . . . . . o . . . . . . . . . . . . . . . . . . . . . . . . . . . . . . . . . . . . . . . . . . . . . . . . . . . . . . . . . . . . . . . . . . . . . . . . . . . . . . ",
". . . . . . . . . . . . . . . . . . . . . . . . . . . . . . o o . . . . . . . o . o o o o o o o o o o o o o o o o o o o o o o o o o o o o o o o o o o o o o o o o o o o o O O O O O O O O O O O O O O O O o o O O O O O O O O O O O o O O O O O O O O O O O O O O O O O O O O O O O O O O O O O O O O O O O O O O O O O O O O O O O O O O O O O O O O O O O O O O O O O O O O . O O O O O O O O O : : & O O O O O O O c | f @ o ; O o o o o o . ; , $ O : : O : & X =.d - : 1 4 v u z 3 N [.E.3 '.W.D R a x 3 ;.~. .c >.X.u 5 5 5 3 5 5 5 5 i V i 5 L G L e.c.O.Y & x 5 5 5 i 1 V 3 5 5 1 5 5 5 5 5 Z 4 4 T w.0.5 5 5 5 x i 5 5 i 5 i V 5 V 5 i v 3 V x V Z V Y V 5 5 5 5 5 i 5 G @.oXq.,...OXw.e.e.>.5 x 5 4 1 1 1 1 X 1 1 1 1 : 1 & i j o . : O . & x x v x 5 V v c 5 C k o O o . . o . o . o . $ , O t k ; ; . . @ . @ - * ; o o o o o o o o o O O O o o o o o o o o o o o o o o o o o o o o o o . o o o o o o o o o . . . . . o . . . . . . o o o . o o . . . . . . . . . . . . . . . . . . . . . . . . . . . . . . . . . . . . . . . . . . . . . . . . . . . . . . . . . . . o . . . . . . . . . . . . . . . . . . . . . . . . . . . . . . . . . . . . . . . . . . . . . . . . . . . . . . . . . . . . . . . . . . . . . . . . . . . . . . ",
". . . . . . . . . . . . . . . . . . . . . . . . . . . . . o . . o . . . o o o o o o o o o o o o o o o o o o o o o O . . O o o o o o o o o o o o o o o o o o o o o o o o o O O O O o O O O O O O O O O O O O O O O O O O O O O O O O . . : O O O O O O O O O O O O O O O O O O O O O O O O O O O O O O O O O O O O O O O O O O O O O O O O O O O O O O O O O < . . 2 . . : O . 9 o : O O O O O O O : 1 1 . . : O O O O , F y # . ; X . O O o . . + . O O : O O O 1 , . O 1 & : z 5 x 4 U j.!.y M g.o.G F 5 * 2./. .3 v V u O & V 3 1 4 5 5 5 5 x 5 i 5 T p L 0.c.q.+.X x V V 1 1 1 1 5 5 5 x 5 5 5 A V i 5 Y b.e.1 4 : O 4 1 1 1 1 1 5 x 5 i 1 i <.+ t.w.0.A Y Z 5 5 5 A 5 5 5 5 5 @.b.E Y X.Q.3.G K 5 3 6 O . : 1 5 , X 1 1 1 1 1 O # D l X : o O u L c a T k 4 5 v x ; . O : o O . o o . . 4 h . $ : O . . . . X ; @ # 2 > . o o o o o o o o o o O O O o o o o o o o : . . O o o o . o o o o . o o o o o o o o o o o o . o . . . o . . o . o o o o o . o o o . . . o o . . . . . . . . . . . . . . . . . . . . . . . . . . . . . . . . . . . . . . . . . . . . . . . . . . . . . o . . . . . . . . . . . . . . . . . . . . . . . . . . . . . . . . . o . o 8 o . . . . . . . . . . . . . . . . . . . . . . . . . . . . . . . . . . . . . . . . ",
". . . . . . . . . . . . . . . . . . . . . . . . . . . . . o . . o . . o o o o o o o o o o . o o o o o o o o o o o . <XxX. o o o o o o o o o o o o o o o o o o O . o O o o O o O O o O O O O O o O O O O O O O O O O O O O O O O o + FXG.. O O O O O O O O O O O O O O O O O O o O O O O O O O O O O O O O O O o O O O O O O O O O O O O O O O O O O O O O O . G.@X. tXuX. . I.LX=X. O O O O O O : , 1 . vX;X. O O O O , Y  .# . ; : : o O . ,X5.. O O O , & O O ; ( PXD : 4 4 4 5 . 0XLX%Xy z :.x.| i 3 3 -.~. .> K G d . 6XsX. 3 K J 4 L d 5 5 x V V 5 L u v x./.O.q.1 5 i T 3 5 5 x V 5 V V A C H G A 3 1.oXx.V O.s.s.s.q.c.q.s.O.^.c.d.oXd.d.+Xq.C F i i V x i x 5 A 5 5 5 3 4 +.w.Y * G %.3.p x : 5 O C.FXn O 1 O & 1 : 1 1 1 : X 1 5 x ; 1 v G I z z : 4 4 5 x 4 b 0XD O : o . O O . . . o . o . . . . . e a -.j < O . X o o o o o o o O o o o O O o o o o o o o . ~ 0X+ o o o o o o o . o o o . . o o o o o o o o . . ~ PX~ . o o o o o o o o o o o . . ) PX) . o o . . . . . . . . . . . . . . . . . . . . . . . . . . . . . . . . . . . . . . . . . . . . . . . . . . . . o . . . . . . . . . . . . . . . . . . . . . . . . . . . . . . . . . . C.LXLXZ.. . . . . . . . . . . . . . . . . . . . . . . . . . . . . . . . . . . . . . . . ",
". . . . . . . . . . . . . . . . . . . . . . . . . . . . . . . . . . . . . o o o o o o o . o o o o . . o o o o . o . uXAX. o o o o o o o o o o o o o o o o o o o . O O O O O O o o o O O O O O O O O o O o O O O O O O O O O O O o O LXY.. O O O O o O O O O O O O o O O O : . o O O O O O O O O O O O O O O O O O O O O O O O O O O O O O O O O O O O O O O . LX;X. MXBX. . Z.KXD.. O O O O O O : : & . DX9X. O O O O : F t o . O : O O . y.LXD . . o : : O O k O [ LXU 5 & . , V . 5XJX`.x P ,.c...Z a -.q.d i : i u 1 . jXBX. 3 1 5 5 5 5 i 5 5 V V V i P C 0.^.^.x.q.5 3 3.B.O 5 5 V V C V V i 1 5 0.0.0.c.s.i F +.+.O.O.q.H F u o.O.H O.p F X.A C 1 1 3 5 5 5 5 5 5 5 3 5 i V Q.g.C & Y o.x.x R e.h.; L.LXD O 1 O O 3 4 1 : 1 1 a Z , & 5 x x V v 4 4 4 : 1 5 x . 5XLX< : : : o . . o . . . o @ a l O . # } H =.. . . . . o o o o O . o O o o O O O o o o o o o O . cXNX. o o o o o o o o o o . . o . . o o . . o o o . ` LX/ . o o o . . . o o o o o o . ] LX5.. . . . . . . . . . . . . . . . . . . . . . . . . . . o . . . . . o . o . . . . . . . . . . . . . . . . . . o o . . . . . . . . . . . . . . . . . . . . . . . . . . . . . . . . . + LX>Xo o . . . . . . . . . . . . . . . . . . . . . . . . . . . . . . . . . . . . . . . . ",
". . . . . . . . . . . . . . . . . o o . . o . o . . . . . . . o . . . . . o o o o o o . . BXo . O o . . . . . + o . tXNX. . . . O o O . . . . . O o o o o O . . vX! . : O o . . . . O O O O O O O O . . . . . < O O . . . . . : o O LXI.. O : . . . . . : O : . . . . . < . N.tX. . : O O O O : . . . . . < : . . . . . < O < . . . . . o . . . . < O O O . V.LX< . vXnX. 2 . . . 2 O : . . . . . & O . AX0X. . . o : , a X BX7 . < O O . vXvX. : O . o . . c ,.y [ LXD . > t u 3 -.j...d :.0.g.^.@.u c w.d M O $X<X. 1 . jXnX. . . 1 i 5 5 5 . . . . 5 C V Z & i w.+.V f.i K t.5 i 5 x G F i 3 5 h.^.~.X.R p.O.1 1 5 5 5 Z C x P . MXD X C 5 . V O . H 4 . . . . & 5 i Z . 1 . X p.L A & F | Q.3.K x 1 . J.LXn O , t C . . . & 3 3 . 5.sX. c x x : . . . o 4 1 5 x : KX#X. O . 4 . . + 1 . e f m l a m . . MXq . o X X . . . . O O o . T.*X. o o O . . . . . O o o . 7 LX] . O . . . . o O o o . . . . o o . . . . . . o . ) LX/ . o o . . . . . o o o . o . ] LX] . . . . o . . . . . . . + . . + . + . . + . . . . . . o . . . . o . q NX. . o . . . . . . o . . . . . . . ^ nX. . + . . . . . + . . . . . . . . . . . . . . . . . . . . . . . o . 8 LX0 . . o . . . . . o . o . . . . . + . . . . . . . . . . o . . . . . . . . . . . . . . ",
". . . . . . . . . . . . . . 8 T.8 . . V.Z.. . . ^ fXvX;X! . o . ` iXMX8X7 . o o o o . / eXLX1XN.. . 5.<XvXtX` . O . tXMXy.qX<X7 . O . . >XcX9XC.. o o o o . D >XLX8XG.. . o =XcXvXZ.. O O O O O O . O <XcX0XB.. O . 2 <XnXyX] . O O LXI.. O . ) iXMX6X7 . < . 9 0XnXiX) . V.GXFX=XD . O O O O . < 6XMXuXy.. o B.8XcX9X) . O . N.9 >XMX6X. Z.nXfX/ . O O O . BXeX. . vXnX. o 8 @X9 . O . Z.vXvX1XV.X O . DX-X' eX;X+ . ; &.pXLX,XG.. O . 8 LXy.. ; 2 :XnXVX}.K c.W.#.LXm.7XlX_.$ c j.!.#XA Z A 7.~.@.2.^.&.l L ).PXBX#XS . jXjX( 9X6XD O i 5 . H.vXnX#X4 5 1 C.W U.BXmXM.A p.1 5 i V 5 V i 5 0.c.p.+.H 3 x Y 3 G i 1 5 x V V i & t.wXLX6XH.X S H.. $XiXJ S H.kXvX1X9 O 5 4 C.D eXnXgXJ v & a t.zXmX6Xt.: . J.LXn & O [ :XkXuXR.. O . N.DXIX5XW , . t.yXBX6X8 . & 5 : i.LXb o _ y.X 5X6X; . C.xXnX=X. . . ! 8XLX4XZ.. % u.>XxXiXN.. o O D.PXcXY.+ o . V.xXcX=X+ . O o . *XKX. O . N.vXuXT.7 . o . Z.vXvX@X. . 0 T.jXjXY.. . . ) LX/ . o . Z.xXcX*X. . o o o o . ] LX] . . T.V.. . X >XMXuXB.. . Z.N.. . . Z.V.. . 0 eXvX>X^ . . . . . . ] BXPX=X` . . 8 9XMXiX^ . o . . . . . 5.DXKX*X^ . ] ^ o 9XT.. ! *XjXxXL.. . . ^ ^ ` vXcXK.. . o . N.xXuXT.+ . 2 <XLX8XL.. . 7 4XMXuX) . o . ] ! o 0X*X. N.w 9XcX=X. Y.MXiX8 . . . . . . . . . . . . . . . ",
". . . . . . . . . . . . . . ] LX] . . BXGX. . ! LXBXiXFX>X. . ` LXcX;XFXKXo . o . o . L.GXLXcXK.. 2 FXvX8XDXLX^ . . <XLXFXeXHXKX+ . . nXPX9XMXGXo . o o o . C.DXLXnX=X. . cXKX>X9XLX@X. O O O O o . DXPXqXBXNX. . + FXFX;XMXLX] . O LXI.. . ' LXnX;XKXFX+ . 2 PXAX,XnXG.. 0XPXGXxX( . O O O . + FXFX,XnXL.. n KXvX6XDXLXD . . xXLXvX>XPXPXDX;XNXLX7 o O . n LX) . . vXnX. . ) LXy.. . Y.LX9X,XDXLX~ . . vXLXNXuXLXCX. . H.GXLXcX@X. o . =XHXo A % MXKX,XiXLX).. X ~ LXLXfXnXLXH.8.E.).LXW L 1.].(.J v...- c W sXLXDXyXS . 6XLXDXyXKXKX6 3 . #XLXeX6XLXxX. . 6XLXGX3XMXLX/.A ~.u 4 4 1 A q.s.s.H 5 5 C C 5 W F.. V 1 i i 5 5 5 . H.DXLXMXrX4 D LXBXPXiX. F.PXuXeXLXDX+ X + KXPXfX7XLXZXO X s LXIXlXDXiXG K }.LXs . . yXDX9XvXLX2XX < pXLXGXsX_ . u.LXcX1XFXKX+ O 5 . vXbXo > Z.PXFXHX:X. L.LXtX;XKXNX. . Z.DXLXMX|.. + CXMX8XBXLXC.. n vXLXCX9X2 . P.LXtX<XLXnX. o o . HX*X. . K.LXjXxXPXV.. . @XLXeX9XxXo . 8XGXqXvXLX1X. . ) LX/ . . Y.LXtX8XLXxX. . . . o . ] LX] . Z.LX` . . NXKX>XvXLXN.. uXKX. . . LX<X. 0 LXDXtXGX8X. . . . . . =XKXPXxXB.. 8 LXNX;XvXLX^ . . . . . . >XPXKXhX] . |.KXFXFXL.. 9XDX9XvXLX*X. . Z.LXKX<XiXLXK.. . G.LXxXjXPXZ.. ] NXLXMX>X. o KXDX;XxXLXB.. . *XKXKXGXP.. DXLXuX<XLXFXNX=XGXFXo . . . . . . . . . . . . . . ",
". . . . . . . . . . . . . . ` LX` . . xXNX. . 9XGX. . . . o . fXNX. . ! LX] . o . . O . D.LX. . O o . . . + PXT.. . 0XKX. . 7 LXB.. / LX^ . . . O o o o o O . ) LX7 . . ! LX^ . . =XPX. o O O O . V.LX9 . . . O . Z.LX< . . KX,X. O LXI.. . fXNX. . ~ LXy.. I.LX. . . . < . NXqX. . O O O O . Z.LX+ . . . 2 O . . . 2 LXY.. . jXDX. . Z.LX9 . 2 LXD.. O . <XDX. O . vXnX. . ( LX' . . HX>X. . V.LX~ . . MXNX. . ] LX( O . i.LX+ . 4 & ; KX3X$ * [ LX! o . ,XKXo , 6.LXu.. . cXZXH t U.LX4.T <.k.d.^.*.i A p 5 . FX2X. 1 . eXKXX . D LXH.. O PX,X. . U.LX6 . :XLX2 : * PX&Xp.0./.u 0.0.q.H X . 1 & & & X O . AXR.. 5 5 i 5 5 i i . y.LX3 O R b LXyX. 1 0.4 . . . i.LX_ X O KXwX. t &XLXS . @XLXu O.H x.,.o H.LXD . 2 . . . . vXGXi h . BXtX. : . jXNX. . ~ LXu.. 4 D LXi., > 5.LXY.. o o FX4X. . D LX6.o . ` LX= o = y t o . . KX8X. . . PXI.. o . GX0X. . Z.LX7 . . 5.LX8 . . GX8X. . . . o . PX@X. . . o O . . . . 9XHX. . ) LX/ . . KX>X. . L.LX2 . . . o . ] LX` . LX;X. . B.LX8 . . FX9X. Z.LX8 . ! LX) . ;XPX. . . . o . . . . o . ;XGX. . . T.PX. . . FX0X. . . . . . . tXBX. . . Z.LXB.. . + . . . . uXDX. . B.LX^ . . NXxX. . DX9X. . . . o . 0 LX0 . . C.LX. . . cXcX. . K.LXN.. . . DXvX. . *XLX. . / LX/ . . . . . . . . . . . . . . ",
". . . . . . . . . . . . . . ` LX` . . xXNX. . uXGX. . . . . . MXvX. . 0 LX] . o o o o . Y.LX+ . o O . . . . PX@X. . qXDX. . 2 LXL.. y.LX~ . . . O o o o o o . B.LX~ . . ` LX~ . . *XPX< . O O O . C.LX2 . . . O . T.PXo . . KX6X. O LXI.. . BXuX. . 9 LXB.. ;XKX. o O O O . CXiX. O O O O O . I.LX+ O O O O : . . . . PX|.. . vXMX. . G.LX7 . 9 LXG.. O . LXY.. O . vXnX. . ( LX' . o PX=X. . H.LX~ . . NXiX. . ) LX' . $ }.LXq o : o i.LXs . . y.LXU ;.X *XPX< . ( LX_ . . fXIX .> U.LXW :.O.w.c.%.Q R a i 3 X KX,X. 5 . yXAX. X 6 LXR.. 6 LXU.. . H.LX6 . :XKXX O b PX-Xh.!.0.b.+.a O 6.BXkXsXuXuXjXsXjXeXeXLX#X. 3 5 5 i i 1 o C.LXD 1 3 S LXJ.. T T 1 O . . D LX_ & : PX=X. o.}.LXD . -XLX: $.7.L z . H.LXD O 1 O . . . 6XDX. + . CXuX. - . MXvX. . n LXy.. . #XPXO v ; u.LXD 2 K j PX-X. > 0 LXB.. . N.LXD . X o . . . . DX8X. . + PX*X. o . PX@X. . B.LX8 o . vXcX. o . KX,X. . . o . + LXY.. . o o o . . . . *XKX. . ) LX/ . + PXL.. . Z.LX7 . . . o . ] LX8 ,XKX. . . K.LXo . . NXiX. 8 LX' . K.LX+ . <XKX. . . . . . . . . . . 4XFX. . . 8XFX. . . NXuX. . . . . . . uXNX. . . K.LXo . . . . . . . ;XGX. . N.LX0 . . cXMX. . FX0X. . . . . . ` LX` . . T.PXo . . tXDX. . K.LX+ . . . DX0X. . =XKX. . / LX` . . . . . . . . . . . . . . ",
". . . . . . . . . . . . . . ` LX` . . xXNX. . D.LXMX0XK.. . . MXNX/ C.DXPXo . o o o o . Y.LX+ . O . D 4XxXcXLXY.. . 9XDX. . 7 LXI.. + KXPXtX=X9 . O o o o o . B.LX~ . . 5.LX/ . . *XPX2 . O O O . n LXGXqX@X7 . . @XLXB.N.tXLX' . O LXI.. . MXBX) Z.DXPX+ . ;XKXo o O O O . NXiX. O O O O O . P.LXO o O O < . / 6XxXMXLXI.. . xXBX. . L.LX8 . 9 LXD.. . V.LX2 o O . vXnX. . ( LX' . O PX;X. . H.LX~ . . BXxX. . ' LX' o $ H.LX8 O x . xXnX. > o u.LXU o . -XPX2 . ( LXu.. ; lXDX: O U.LX4.0.g.[.(.+.0. .X O & O KX,X. 1 . iXDX. O 6 LXR.. 6 PX6Xy.U.PXcX. . :XKXO 5 b PX*Xv ^.+.w.c.q.5 4 W W Q D D D D D 6 BXyX2 1 1 5 5 1 1 C O C.LXD 1 5 6 LXU.. 5 x & J.eXvXAXLX( O 1 PX;X. O.J.LXQ . u.LXNXsX%Xx 5 . H.LX9 o . + ).jXxXPXnX. 2 & CXkX; r Z ZXNX) C.NXPX+ X o KX-Xo C z i.LX_ 1 K j PX-X. , U LXC.. . C.LX4.> t . 0 1XxXvXLX1X. . + PX*X. o + PX9X` L.PXMX. . 7 LXB.. o . 9XLXvX<Xy.. . < LXT.. . o o . o T.iXxXKXDX. . ) LX/ . + PX<X` K.PXvX. . o o o . ] LXP.LX/ . . . K.LXB.B.<XLXN.. . KX;X. tXNX. . N.LXBX0XP.. . . . . . . . 6XFX. . . 8XFX. . . NXxX. . . . . . . uXNX. . . G.LX+ . . . + T.uXxXKXNX. . N.LX! . . MXMX. . 8XLXxX<XB.. . . ` LX` . . I.LX+ . . tXDX. . K.LX7 . . . DXqX. . =XPX. . ` LX` . . . . . . . . . . . . . . ",
". . . . . . . . . . . . . . ` LX` . . xXNX. . . K.vXDXLX8X. . vXLXGXDXqX8 . O o o o o . Y.LX+ . . ^ LXBXY.I.LXT.. . 9XDX. . 7 LXL.. . ! iXMXLXKX+ . o o o o . N.LX~ . . y.LX/ . . *XLX7 . O O O O . ) uXBXLXGX+ . T.LXFXDXcXy.. O O LXI.. . xXLXGXDXiX8 . . ;XKXo o O O O . NXiX. O O O O O . P.LXO o O O . ] LXMXY.Y.LXY.. . xXBX. . L.LX8 . 9 LXD.. . MXxX. : O . vXnX. . ( LX' . + PX;X. . H.LXD . . BXxX. . ' LX' . ; J.LX9 > k 6 LXB.. O . y.LXU . . *XPXN 1 _ LX' ; :.zXGXA x }.LXr.J 2.OXc.[.!.y X : 3 X KX1X; +.. iXDXO i 6 LXU.. 6 PXPXFXDX,XO O . :XKX4 Z 3 PX-X. P k.a.e.0.x.X.O 5 i 1 1 3 1 1 D 3X. & 5 5 5 4 3 1 5 X S.LXD 1 5 6 LXU.. 5 : #XLXeXU.:XLXW : O PX-X$ q.D.LXQ & . C.jXBXLXnX. . H.LX9 . . DXPX:XJ.BXBX. 2 X AXsX. . . vXLXFXDXtX8 . X u.LXD , V z i.LX_ O 4 < PX2X. : W LXC.. . A.LXn . . 8 PXGXT.K.PX<X. . + PX*X. o + HXPXGXDX<Xo . . Y.PX. o o . O >XcXFXLXZ.. 2 LXT.. o . . . MXLX-XD.vXGX. . ) LX/ . + FXPXGXDX;Xo . o o o o . ] LXy.KXT.. o . G.LXHXGXnXB.. . . iXMX. DX<X. . . Z.xXNXLXuX. . . . . . . 4XFX. . . 0XFX. . . NXvX. . . . . . . uXNX. . . G.LX+ . . . NXPX*XD.cXAX. . N.LX! . . MXnX. . o =XvXFXLXK.. . ` LX` . . I.LX+ . . tXDX. . K.LX7 . . . DX9X. . =XPX. . ` LX` . . . . . . . . . . . . . . ",
". . . . . . . . . . . . . . ` LX/ . . xXNX. . o . . . >XPXo . MXxX. . . . o o o o o o . Y.LX+ . . >XPX. . . PXT.. . 9XDX. . 2 LXG.. O . . . ^ LXC.. o o o o . B.LX~ . . ` LX~ . . *XPX+ . O O O O < . . . ] LX5.. T.PX. . . . O o + LXI.. . NXiX. . . . O . ;XKX. o O O O . AXiX. O O O O O . I.LX+ O O O . 8XKX. . + LXT.. . xXBX. . L.LX8 . 9 LXD.. 9 LX) . O O . vXnX. . ( LX' . . PX=X. . C.LX~ . . BXxX. . ' LX' o j $XLXr.y . Y.KX. , & . u.LXD X . @XPX: l t.LX+Xx.x.zXGXH v }.LX0.i 8.E.1.O.3.e.q. .. . KX3X. 1 . iXDX. . S LXH.. 4 LXU.. . . X 4 . ,XKX1 1 6 PX#X1 x 0.^.+.x.F w.^.X.1 5 5 A 5 3 5 X 5 1 5 5 5 5 1 1 3 . F.LXD : 1 6 LXU.. 3 o FXyX. . _ LXW O X PX-X% q.Z.LXD & i o . . ).LXS . H.LX9 . 6.LX6.. . 9XUX. : . NXuX. . . MXxX. . . . 2 . xXnX. L M : i.LX_ O z < PX-X. , U LXN.. . N.LXn . . L.LX+ . . DX8X. . + PX@X. o o PXT.. . . . O . GX-X. O o O . . . . DXvX. + LXY.. . . . ! LXB.. . ;XFX. . ) LX/ . + LXD.. . . . o o o o o . ] LXn V.LX7 . . K.LX. . . . . . . L.PX. LXB.. . . . . . T.LX+ . . . . . . 4XGX. . . 8XFX. . . NXxX. . . . . . . uXNX. . . G.LX+ . . ^ LX^ . . <XGX. . N.LX! . . MXnX. . . . . . NXcX. . ` LX` . . T.LX+ . . tXAX. . L.LX7 . . . DXqX. . =XPX. . ` LX` . . . . . . . . . . . . . . ",
". . . . . . . . . . . . . . ` LX^ . . vXNX. o . . . . P.LXo . xXBX. . . . o o o o o o . T.PX. . . >XKX. . + LXT.. . eXCX. . + LXN.. . . . . + LXC.. O o o o . N.LX9 . . ~ LX~ . . |.PX. o O O o O . . . . n LX] . L.LXo . . . . O + LXI.. . xXMX. . . . O . T.PX. . . . < . DXtX. o O O O O . D.LX+ . . . . ,XHX. . + LXY.. . xXBX. . L.LX8 . 9 LXD.. -XFX. O O O . vXMX. . ( LX' . . GXtX. . ;XLXD . . BXxX. . ' LX5.o . H.LX:.:.0.IX7X% # . . ( LXD . . -XPXj w.(.LXM.I & bXAXu 4 U.LXW v w.M.w.q.| j w.c.Q.y KX:X. X . iXDX. X s LXH.. < PX#X. . . . V . :XKXO 5 2 PX#XO C 5 P x.s.~.u w.+Xd.3 5 A A 5 i V 5 1 1 3 5 3 5 1 3 X F.LX6 O 5 6 LX X: 1 O FXeX. . u.LXQ X + PX-Xt I S.LXD 1 1 . X o i.LXt.V *XLX4.. 6.LX( . . vXNX. O . AXiX. . . jXMX. . . . X 6 LXi.w T N O i.LXt.D R h KX:X. . 0 LX` . . V.LX8 . . K.LXX . . KX4X. . + PXY.. . . KX>X. . . . . / LX9 . o o O . . . . MXcX. o PX*X. . . . n LX5.. . 0XFX. . ) LX/ . . PXT.. . . . O o o . . . ] LX] . GXvX. . B.LX+ . . . . o . ! LXZ.LX8 . o . . . . Z.LX2 . . . . . . 0XGX. . . =XPX. . . DX0X. . . . . . . xXBX. . . G.LX+ . . ^ LX^ . . uXDX. . N.LX! . . MXcX. . . . . . vXcX. . ` LX` . . Z.LXo . . vXMX. . K.LX7 . . . DX9X. . =XPX. . ` LX` . . . . . . . . . . . . . . ",
". . . . . . . . . . . . . . + PXBXZ.9XLXDX. . T.vXT.@XLX4X. . N.LX8XP.tXBX+ . o o o o . K.LX@X` . ' LX0XG.MXLX=X. . iXLX*XK.MXPXo . ! nX;XL.AXPX2 . o o o o . ] LX0X5.. . CXGXL.|.LX8X. O o O O . ) MX=XL.FXDX. . 2 PXnXL.;XGXy.. O LX@X. . V.LX0XI.9XAX+ . n LXnXG.eXL.. . cXPXG.n . O O O . 2 PXBXL.0X|.. V.LX0XL.MXLX=X. . BXGX. . Y.LX9 . n LXL.. LXT.. O O O . NXDX. . ) LXy.. . Z.LXDXFXPXLXD o . DXMX. . y.LXy.. . i.LX6X4.z.LXl.p.r.H p $ DXDXL.#XLXdXX.>.M.LXhX X7XLX$XC 1 }.LXQ =._.LXkX>.+.R G L k.a.JXDXS.6 . vXKX. X D LXU.X . rXLX@X#XnXeX. . 0XPX+ 1 2 LX6X. V V x P ^.~.p.C A x.x.F $ 5 5 V V 5 5 4 A L x 3 5 5 X z.LX6Xu.O 9 LX#Xo 1 . wXLX#X|.GXLX' O + LX4Xp , $XLXD . H.BX#X@XLXlX! r.5XLXU . + KXNXH.9XLXUX. , . nXPXG.n . C.LX0XI.qXNX. <XLXo x v x o F.LX6.= 1.l =XLX#XL.DXGX. . . y.LX1X] . D LXvXG.xXLXqX. . o KXNXN.+ . ;XLX*XT.vXiX. MXMX. O o o . tXiXP.<XLXC.. . 6XLX*XT.uX2 . FXDXK.,XPXKX. . ] LX` . . <XLX*XY.vXtX. . o . . . B.LXB.. ` LXZ.. + KXBXL.;XGXN.. . o PXPXNX. . . L.cXT.T.LXiX. . . . . . . >XLXL.! . 0 LXuXK.0XLX] . . . . . . . 9XLXD.n . I.LX2 . . o KXNXZ.8XLXGX. . C.LX^ . . DXDX. . 9XuXI.8XLXZ.. . ] LX] . . + PXcXG.>XLXZ.. . Y.LX8 . . . KXxX. . 8XLXX . ] LX] . . . . . . . . . . . . . . ",
". . . . . . . . . . . . . o . ) BXFXuXn P.. . 5.uXDXGX=X. . o . Z.NXFXvXV.. . o o o o . o 8XKXI.. . G.DXFXY./ C.. . ~ ;XNXFXvX0 . . < <XNXFXxX9 . O o O O o o . *XFX4X. . + 9XFXGX@X. o O O O O . 8 8XNXFXuX2 . : . ~ cXFXBXY.O . + 4X5.. O . Z.NXFXxXV.. O . ) nXHXMXB.. . D MXKX~ . O O O : . ~ cXFXNXZ.. . Y.DXGXL.) C.. . L.Y.. . ' 4X2 . 2 6X( 8 9X2 o O O O . P.Y.. o n 9XD . : . _ |.B._ LX~ o . T.L.. o D 9XD o c * :XHX%Xm.5XK :.3.7.].a.r.lXJXHX%X>.3.w.h.$XkXFXGX$XA <.P $XLX~ 7.%.LX3X. <.w.h.o.Z K {.SXJX| . H.#X* X 6 0X' X 1 O -XGXGXiX_ : O C.,X: 1 & 1XC.O 5 V C 4 e.e.h.F 5 F v [.~.* 1 L A V 5 1 5 5 5 3 3 5 x O 2XFX6X. 3 0Xu.. & & 1 wXFXUXt.J.W 1 & :XC.p.M t.6Xb . [ 9XDXFXaX%.l.I 6.6X6 O . ( nXHXyXn P.: , . D MXKX~ . . Z.NXFXvXS.o 2XF.o v x x 1 4.wXW j 4 v o |.DXFXfX7 . o . . *XFX>X. . B.NXFX;XD D.. o . y.CXNX2 . . |.DXGXiX/ . 4X) . o o o . K.xXGXDXD.. O o . =XDXGX9X+ . n cXFXxX8 L.. . 0 0X9 . . . =XDXGXqX/ . . . . . . D 0Xn . . |.T.. . q xXGXNX@Xo . . . V.LX6X. . . ) tXDXFX>X. . . . . . . . 2 iXKXN.. . / MXFXBX' . . . . . . . . 8 xXKX' . ` 8Xo . . . n cXFXuX7 L.. . ^ 9X7 . . I.P.. . D.vXDXNXK.. . . 0 8X0 . . . q vXFXNXZ.. . . ` 8X+ . . . T.Z.. . N.;X. . q 8X0 . . . . . . . . . . . . . . ",
". . . . . . . . . . . . . . o . . . . . . + O . . . . . . . . o . . . . . O o o o o . . . . . . O O . . . . . . < O . . . . . . O O o . . . . . O o O o o O O O . . . : O . . . . . O O O O O O O o . . . . . : O : . . . . . O O O . . < O : . . . . . : O < . . . . . < < . . . . < O O O O < . . . . . < : . . . . . . < 1 . . < < . . O : o . . O . o : O O O < . . 1 : o . . : < . . . . ) LX~ o < . . < : . . o & j K $ h M M k 3.3.3.0.L -.c l 2.,.,.e.g.h.w.I u z c K O.2.M }.LX6.O.S.LXS t j 8.n.t.k.f.P w.d.~.$.$ . 1 5 3 . 5 J u 1 . . . . O 5 5 . . b 1 O . . V 5 3 :.A P Y 3./.a Z F V [.oX+.X i 5 3 1 3 5 5 4 1 1 V x . . . 6 5 . . 4 1 3 1 . . . & . 4 5 V : X n.1.c . i A V O . a -.a b.m . . & 1 5 . . . . O . 2 : < . . . . O + . . . . X b . o b x z 5 v 4 . z v 5 c , . . . . . o . o . . . . O X . . . . . . < o : . . . . O O . . . . . : . . : o o o O . . . . . O o O o . . . . o O . . . . . . O o . . . o o . . . . . . o o o o o o . . . O o . . O o . . . . . . + . . . PXZ.. . o . . . . . . o . . . . . o . . . . o o . . . . . . . . . . . . o . . . . + . . . . . o . . . . . . o o . . . . o . . o o . . . . . . . o . . . . . . . . . . . . . o . . . . . o . . o o . . . . . . . . . . . . . . . . . . . . . ",
". . . . . . . . . . . . . . . . . . . . . . o o . . . . . . . . . . . . . o o o o o o . o o . o o o o o . o o o o o o o o o o o o o o o o o o o o o o o O O O O o o o O O O O o o O O O O O O O O O O O O O O O O O O O O O O O O O O O O O O O O O O O O O O O O O O O O O O O O O O O O O O O O O O O O O O O O O O O O O O : O O O O O O O O O O O O O O O O O O O O O O O O O O . y.yXZ.y.DXLX+ o : : : O : : O : O O : j N P :.,.,.,.>.:.1.>.P ,.7.h.g.e.w.<.<.w.e.0.W P Y >.m.lXPX2.y =X).. s 4 x & ; Z T a -.c.o.7.c.$.% : & : Z C i 1 1 & 4 5 1 4 s 4 4 1 A [ 3 5 5 V S 5 v V 4 4 k.(.a x 5 5 0.^.p.u & 5 1 5 5 5 1 4 Z 3 5 4 1 1 5 5 1 1 & 3 3 3 5 5 5 1 1 u p +.c.d.k.5 V O.w.w.w.I Z 4 L , d x.3.i I : 1 4 : 1 1 O 1 1 O : 1 O O O : O O X O O o O 1 5 z q S :.c a T Z B D N o . O O o o . & ; X ; . . . . O O o o O o o o o o o o o O O o o o o o o o o o o o o o o o o o o o o o o o o o o o o o o o o o o o . o o . . o o o . . o o o o . o o . o o o . o . . . . . . . . . . . ] N.vXPXo . . . . . . . . . . . . . . . . . . . . . . . . . . . . . . . . . . . . . o . . . . . . . . . . . . . . . . . . . . . . . . . . . . . . . . . . . . . . . . . . . . . . . . . . . . . . . . . . . . . . . . . . . . . . . . . . . . . . ",
". . . . . . . . . . . . . . . . . . . . . . . . . . . . . . . . . o o o o o o o . . o o o o o o o o o o o o o o o o o o o o o o o o o o o o o o o o o O O O O O O o O O O O O O O O O O O O O O O O O O O O O O O O O O O O O O O O O O O O O O O O O O O O O O O O O O O O O O O O O O O O O O O O O O O O O O O O O O O O O O O O O O O O O O O O O O O O O O O O O O O O : O O O . D vXPXPXNXy.. : : : : : : : : O : & & j -.>.>.P L Z x v v v -.1.3.w.w.w.3.w.w.3.g.e.q.T :.r.PXKX.X+.f o X 5 5 3 x u O Z Y Y L j.E.t -.].!.d V Y ) q 5 5 4 T F x 5 P t.2 5 4 w.r.5 5 5 Z C i 5 P p T q.OXa.3 V A 3 A w.oXH & 1 i V 5 V Z 5 1 1 3 1 1 5 5 3 3 3 1 : 1 p F o.p.d.~.c.^.[.>.h.R w.0.<.P L A V z a ,.* q.v.:.: 5 4 1 1 1 1 Z 1 5 : & 1 : O O : . . X o X : & 4 5 C B F -.5 c a +.O.c : ; O $ , > o O O e * l . X . . O O O O O O o o o O o o O O O o o o o o o o o o o o o o o o o o o o o o o o o o o o . o o o o o . . o o o . o o o o . . o o o o o o o o o o . o o . o . o . o o . . . . 0XLXNX0 . . . . . . . . . . . . . . . . . . . . . . . . . . . . . . . . . . . . . o o . . . . . . . . . . . . . . . . . . . . . . . . . . . . . . . . . . . . . . . . . . . . . . . . . . . . . . . . . . . . . . . . . . . . . . . . . . . . . . ",
". . . . . . o . . . . . . . . . . . . . . . . . . . . . . . . . o . o o o o o o o o o o . o o o o o o o o o o o o o o o o o o o o o o o o o o o o o O O o O O o O O O O O O O O O O O O O O O O O O O O O O O O O O O O O O O O O O O O O O O O O O O O O O O O O O O O O O O O O O O O O O O O O O O O O O O O O O O O O O O O O O O O O O O O O O O O O O O O O O O O O O O O O O : O . . o . . < : O : : : : : : : : 1 1 , N K Z V i 4 4 4 c 4 N ,.g.x.r.w.w.0.3.h.h.e.r.0.3.0.>.% ;...U d 1 5 5 * 4 * k 1.s Z T ,.].%.* j w.| K T S 2 1 1 1 4 1 4 4 1 O 1 1 3 : 1 4 1 3 3 5 5 5 1 0.C 1.<.+Xo.5 Y i 5 V q.0.0.a O 3 V K & & 1 V 5 3 5 5 1 O & 3 d +.Y +.^.b.h.Y x 3 x O X.e.3.5 G 1.T P K Z 4 $ L C v u /.,.: 5 4 x 4 1 5 : O O 1 : O O O . & j . & ; O 1 4 z z 5 x z 4 V c ;  .>.> : , , ; O o . o = 3 > . . . . O O o O O O o o O o o o O O O o o o o o o o o o o o o o o o o o o o o o o o o o o o . o o o o o o o o o . . o o o o . . . . o o o o o o o o o o o o o o o . . o . . . o . . . . + . . . . . . . . . . . . . . . . . . . . . . . . . . . . . . . . . . . . o o . . . . . . . . . . . . . . . . . . . . . . . . . . . . . . . . . . . . . . . . . . . . . . . . . . . . . . . . . . . . . . . . . . . . . . . . . . . . . . ",
". . . . . . . . . . . . . . . . . . . . . o . . . . . . . . . . o o o o o o o o o o o o o o o o o o o o o o o o o o o o o o o o o o o o o o o o o o o O o O O O O O O o O O O O o O O O O O O O O O O O O O O O O O O O O O O O O O O O O O O O O O O O O O O O O O O O O O O O O O O O O O O O O O O O O O O O O O O O O O O O O O O O O O O O O O O O O O O O : O O O O O O O O O : , : O O O : O O : O O O : : : O : t O , 1 , z K C x x x x v x c 2.w.w.w.h.w.g.n.z.e.r.E L 3.h.u.b.o.L u 5 5 5 3 X ; Z Z L A L Y ,.q.H L g.a.y O 4 x p * 1 1 1 1 1 1 1 1 1 1 & 1 1 1 1 5 4 5 5 5 4 V 3 Z 7.oX* V Z V V i V h.g.+.p 5 & 3 3 3 x : & i F a.p.q.O.q.e.z 1 x , : 1 3 i & a r.E x.z G 1.>.L L K : X 4 X O.> C w.M : 1 1 4 1 1 ; o e [ l . O O o 1 j ; X O O & 5 z i M j | 1.h o @ $ v l X : , O . o o . X : O X o X . O O O O O O O O O o o o o O O o o o o o o o o o o o o o o o o o o o o o o o o o o o o o o o o o o o o o o o o o o . . o o . o o o o o o o o o o o . o o o . . . . . o . . . . . . . . . . . . . . . . . . . . . . . . . . . . . . . . . . . . . . . . . . o o . . . . . . . . . . . . . . . . . . . . . . . . . . . . . . . . . . . . . . . . . . . . . . . . . . . . . . . . . . . . . . . . . . . . . . . . . . . . . . ",
". . . . . . . . . . . . . . . . . . . o . . . . . . . . . . o o o o o o o o o o o o o o o o o o o o o o o o o o o o o o o o o o o o o o o o o o o o o o O O O O O O O O O O O O O O O O O O O O O O ; O O O O O O O O O O O O O O O O O O O O O O O O O O O O O O O O O O O O O O O O O O O O O O O O O O O O O O O O O O O O O O O O O O O O O O O O O O O O O O O O O O : O O O O : : : O : : : : : O O O : : O O : : & & : : : , , : N G x 5 z x K 2.g.w.h.q.3.v.n.n.x.r.E P 3.k.x.@.v C 3 4 5 3 & O z i x x x V Z V :.x.o.: [...: 5 M O.a & : 1 1 1 1 1 1 1 & & 1 1 1 1 1 4 1 1 3 1 5 V 1 x ,.q.* 5 x 5 i 1 Z Z e.oXE S 3 u 3 F a.O.J +.^.1.V V u & 4 3 3 & & u x 1 $ Y k * s.M C R >.L L K 4 & : ; * j . 1 O.R O & 1 , & F Z @ J m X X : ; O o X . O & 3 x z z c a Y k & : : ; % c o O : ; o . . . . . . $ : O o O O O O O O O O o O O o o O o o o o o o o o o o o o o o o o o o o o o o o o o o o o o . . . . . . o o o o o o o o . . . o . . . o o o o . . . o o o o . . . . . . o . o . . . . . . . . . . . . . . . . . . . . . o . . . . . . . . . . . . . . . . . . . o . . . . . . . . . . . . . . . . . . . . . . . . . . . . . . . . . . . . . . . . . . . . . . . . . . . . . . . . . . . . . . . . . . . . . . . . . . . . . . . ",
"  . . . . . . . . . . . . . . . . . . . o . . . o . o o . . . . o o o o . o o o o o o o o o o o o o o . o o o o o o o o o o o o o o o o o o o o o o o O O O O O O O o O O O O O O O O O O O O O O O O O O O O O O O O O O O O O O O O O O O O O O O O O O O O O O O O O O O O O O O O O O O O O O O O O O O O O O O O O O O O O O O O O O O O O O : O O O O O O O O O O : O O O O O : : O O O : : O O : : O : : O : : O : & 1 : O : 4 1 4 z c 5 x x V -.7.w.w.,.g.x.z.e.e.+.E ,.j.OXQ.@.T C a 3 5 3 & , <.#.i p i 3 v p , w.d.$.-.Q.f 4 1 O.3 C $ O 1 & 1 1 & 1 1 3 3 3 3 3 5 5 3 3 5 1 5 5 x 5 J x.Q.d +.+.+.+.+.+.p.~.~.e.E p.d.q.e.Z 4 1 3 1 5 3 X.C + D 1 1 3 V & 1 5 V x X O.I i T >.P L K z 1 1 : . 3 4 X t ~.2.& 5 4 : 3 z < * x 1 4 , O O O O o . X 1 4 5 D ..2.; . r Q =.. X u l X : o o o . . X o . o . . o O O O O O o O O O o O o O ; o o o o o o o o o o o o o o o o o o o o o o o o o o o o o o o o o o o o o o o . . o o o o o o . o o o o o . . . . o o o o . . . o o o o o . . o . . . . . . . . . . . . . . . . . . . o o . . . . . . . . . . . . . . . . . . o o . . . . . . . . . . . . . . . . . . . . . . . . . . . . . . . . . . . . . . . . . . . . . . . . . . . . . . . . . . . . . . . . . . . . . . . . . . . . .   ",
"  . . . . . . . . . . . . . . . . . . . o . . . . o . o . . . . o o o o o o o o o o o o o o o o o o o . o o o o o o o o o o o o o o o o o o o o o o o O O O O O O O O O O O O O O O O O O O O O O O O O O O O O O O O O O O O O O O O O O O O O O O O O O O O O O O O O O O O O O O O O O O O O O O O O O O O O O O O O O O O O : : O : O O O O O : : : : : : : : : : O : O O O O O , 1 O : : O O O O O O : : : : : : X , 5 c i * : : 4 1 1 , z z v Z -.3.h.e.h.v.^.^.^.c.c.$.A P 3.~.*.q M p u 5 3 4 A T u 4 i i i u x 5 v 7.~.| [.&.1 3 x p z Y u & & & 1 O 3 4 i i 5 5 V O 1 1 1 3 F C C E x.d.>.x.s.b.c.s.q.x.R 0.x.x.0.K 4 4 1 X & 5 a u 3 1 i 5 5 1 ^ u.X 1 * Y x i C A 1 $.w.5 A R T L K x 1 1 : O 6 , X O * E K : 3 4 : O e Q m 1 c O . o u , o X & , a 0.p.x.g.l X = z > . . t m O , ; . . + < < 1 3 : X X O O O O O O O O O O O O O O ; O o o o o o o o o o o o o o o o o o o o o o o o o o o o o o o o o o o o o o o . . o o o o o o o o o o o o . . . . o o o o . o o . o o o o o o o o . o . . . . . . . . . . . . . . . . . . . . . . . . . . . . . . . . . . . . o . . . . . . . . . . . . . . . . . . . . . . . . . . . . . . . . . . . . . . . . . . . . . . . . . . . . . . . . . . . . . . . . . . . . . . . . . . . . . .   ",
"    . . . . . . . . . . . . . . . . . . . . . . . . . . o o . o . . . o o o o o o o o o o . . o o o o o o o o o o o o o o o o o o o o o o o o o o o o O O O O o O O O O O O O O O O O O O O O O O O O O O O O O O O O O O O O O O O O O O O O O O O O O O O O O O O O O O O O O O O O O O O O O O O O O O O O O O O O O O O O O O O O O O O O O O O O O O O O O O O O : : O O : O : : & O O O O O O : : : : : : : : : X o : N I t j 4 3 c 5 & , c C x -.7.h.h.O.1.q.H V 5 : O & & m v...= c p 3 1 1 1 4 5 i u 1 4 i 1 4 5 F 3 -.[./.a.f Y J i 1 4 G V & . O V 3 . . o X 3 i X.p C i R O.V K v v <.1 z O X X & 1 X : 5 1 & 6 X X O X X O 5 V 1 X O X 1 1 1 . r.v X 1 x 4 5 V Z T X.w.1 V T T L K 4 1 : O O & 1 . O & x A K O Z , X # Q ,.k X O . $ 6 l . - G >  .h.7.3.m o $ : o . . . = 5 h X , ; O o O o . . = * ; O O O O O O O O O O O O O O O o o o o o o o o o o o o o o o o o o o o o o o o o o o o o o o o o o . o o o o . o o o o o o o o o o o o o o . . o o o o o o o o o o o o . . . . . . . . . . . . . . . . . . . . . . . . . . . . . . . . . . . . . . . . . . . . . . . . . . . . . . . . . . . . . . . . . . . . . . . . . . . . . . . . . . . . . . . . . . . . . . . . . . . . . . . . . . . . . . . . . . . . . . . . .     ",
"    . . . . . . . . . . . . . . . . . . . . . . . . . . o o . o . o o o o o o o . . o o o . . o o o o o o o o o o o o o o o o o o o o o o o o o o o o O O O o o O O o o O O O o O O O O O O O O O O O O O O O O O O O O O O O O O O O O O O O O O O O O O O O O O O O O O O O O O O O O O O O O O O O O O O O O O O O O O O O O O O O O O O O O O O O O O O O O O O O O O O O O O : : O O O O : O O : O O O : : : : O > a a 4 , & j x 3 j =.O.d V 5 M :.<.S - o O O 4 * 1 1 1 5 5 4 3...- > i 3 * X , 1 1 : 4 V 4 3 1 & m s. .j w.<.OX..4 3 i 3 1 4 5 1 5 5 O o F C V F C A O.5 5 1 z G X 1 X i 5 V 1 z A 5 5 1 4 5 C C x v 5 X 1 5 5 5 1 5 5 3 1 1 1 1 4 3 C c 1 4 1 3 3 V 4 Z u q.c 3 A T L v 1 & : O O & 5 : o 4 ; O E :.. 3 z > t ,., 5 $ d v ; $ & 2 &.Q.8.-.{ g } @.;.e g 2.h @ # d ;.O O o . o o o X o . . O O O O O O O O O O O O o O O O o o o o o o o o o o o o o o o o o o o o o o o o o o o o o o o o o o . o o o o o o o . o o o o o o o o o o o o o o o o . . o o o o o . . . . . . o o o . . . . . . . . . . . . . . . . . . . . . . o . . . . . . . . . . . . . . o . . . . . . . . . . . . . . . . . . . . . . . . . . . . . . . . . . . . . . . . . . . . . . . . . . . . . . . . . . . . . . . . . . . . . . . . . . . .     ",
"      . . . . . . . . . . . . . . . o . . o . . . . . . o o o o . . o o o o o o o o o . o o o o o o o o o o o o o o o o o o o o o o o o o o o o o o o O O O O O O O O o O O O O O O O O O O O O O O O O O O O O O O O O O O O O O O O O O O O O O O O O O O O O O O O O O O O O O O O O O O O O O O O O O O O O O O O O O O O O O O O O O O O O O O O O O O O O O O O O O O O O : : 1 O O O O O O O O O O : : : O O O : c y 4 z & : , 1 X , m v i c Z 5 X . , 3 : 5 3 1 1 , Z * , v g...+ 1 1 & & O 4 1 1 1 1 1 1 4 i * 1 c Z 3 :.| =.p.t : G u 1 1 4 5 p 4 1 5 A C 5 4 O O O 1 z 5 5 4 X 1 5 5 3 5 & i G C i 3 3 1 3 V 5 5 3 3 X i Z v 5 x x 5 1 1 3 1 1 1 : & 5 5 5 5 5 V V 5 $ !.:.5 C T P Z 1 O X 1 O : : : . = L ; O %.w.c z & 3 + t x a +.-.X & 5 j  .c.7.B ! ( t.g.=.O : h ; o . X C m X : o o O o X O . X O O O o o O O O O O O O o O O O o o o o o o o o o o o o o o o o o o o o o o o o o o o o o o o o o o o o o o o o o . . . o . . . . o o o o o o o o o o o . o o o o o o o o o o . . o . . . . . . . . . . . . . . . . . . . . . . . . . . . . . . . . . . . . o o . . . . . . . . . . . . . . . . . . . . . . . . . . . . . . . . . . . . . . . . . . . . . . . . . . . . . . . . . . . . . . . . . . . . . . . . . . . .       ",
"        . . . . . . . . . . . o o . o . . . . . . . . . o o . o . . o o o o . o o o o o o o o . . . o o . o o o o o o o o o o o o o o o o o o o o o O O O O O O O O O O O O O o O O O O O O O O O O O O O O O O O O O O O O O O O O O O O O O O O O O O O O O O O O O O O O O O O O O O O O O O O O O O O O O O O O O O O O O O O O O O O O O O O O O O O O O O O O O O O O O O : : O O O O O O O O O O O O : : O O : O $ o j N y + ; : : : , 4 c i $ . O 1 : c a 1 1 X , J * : 4 4 2.W.r & V t O 4 V & O z 3 & 1 4 5 z i & : 1 z T x g.o.3 3 & 1 p i 5 V a O 5 5 5 5 1 1 1 1 4 p 3 & 1 5 5 5 x Z A 1 A G P V 5 i 4 5 i u 5 5 5 1 & 1 x Z 1 1 3 5 3 1 1 1 & 3 i 5 1 5 5 5 5 5 5 O !.w.1 i T P v 1 3 b O : O O 1 O . = :.O p e.7.; & 4 > d -.: , v v 4 > g E.k.9.j > @ 1 ; . o . . . . o . & l O * > o . . . . X O O O o o O O O O O O O O o O O O o o o o o o o o o o o o o o o o o o o o o o o o o o o o o o o o o o o o o o o o O o o o o . . . o o o o o o o o o o o o o o . . o o o o . . o . . . . o . . . . . . . . . . . . . . . . . . . . . . . . . . . . . . . . . . o o . . . . . . . . . . . . . . . . . . . . . . . . . . . . . . . . . . . . . . . . . . . . . . . . . . . . . . . . . . . . . . . . . . . . . . . . . . .         ",
"          . . . . . . . . . . . . o o o . . . . . . . . . . . . o o o o o o o o o o o o o o o o o o o o o o o o o o o o o o o o o o o o o o o o O O O O O O O O O O o o O O O O O O O O O O O O O O O O O O O O O O O O O O O O O O O O O O O O O O O O O O O O O O O O O O O O O O O O O O O O O O O O O O O O O O O O O O O O O O O O O O O O : O O O O O O O O O : O O O O : : 1 O O O O : O O : : : : : : O O : O : 5 t < N u O : O : : c 5 * X o : 1 O : , & & : 2.| x V x 5 1 8.E.f , x % O 4 1 : u 5 1 O 1 1 O 1 4 5 5 5 C P X.:.!.y R X.V +.p 5 5 F t : O : 1 1 5 5 4 4 R 3 4 5 x 5 5 3 4 V X : 1 5 V i 5 5 5 5 A 5 5 5 5 1 O 1 1 5 5 x x 4 1 1 O 1 V x 1 1 4 4 x 5 3 3 , ..v.1 i Y T v O 1 v : X O O 1 , O t W 2.O + +.c.k $ o $ > : ; . $ Z ,  .Q.9.; @ $ X O O o . . . X O o % d l o . . . . . . . . o O O O O O O O O O O O O o O O o o o o o o o o o o o o o o o o o o o o o o o o o o o o o o o o o o o o o o o o o o o o o o o o o o o o o o . . . . . o o o o o o o o o o o . . o . . . . . . . . . . . . . . . . . . . . . . . . . . . . . . . . . . . . . . . . . . . . . . . . . . . . . . . . . . . . . . . . . . . . . . . . . . . . . . . . . . . . . . . . . . . . . . . . . . . . . . . . . . . . . . . . .             ",
"              . . . . . o . . . . . o . o . . . . o . . . o . o . o o o . o o o . o . o o o o o o o o o o o o o o o o o o o o o o o o o o o o o O O O O O O O o O O O O O O o O O O O O O O O O O O O O O O O O O O O O O O O O O O O O O O O O O O O O O O O O O O O O O O O O O O O O O O O O O O O O O O O O O O O O O O O O O O O O O O O O : O O O O O O O O O O O O O O : : : O : : : : : O O O : : : : O O : O O : O : , 1 O O : O O h N = o O : O O X , & & 1 v c K 1 K 3 x :.o.% O 4 4 i = + , Z % : 1 O : 4 3 1 5 5 5 1 K h.q.b.$.Z 1 5 A 5 : 0.O.0.a A o.G C C V p : K 1 5 1 1 1 4 5 5 3 O 1 5 5 V 5 5 5 5 5 1 & & C i : d O.: 4 5 4 1 1 3 : O 1 1 ! D : 1 1 5 1 1 5 1 u e.M V A >.j X O O O & O : O 1 a v # O.2.+ a q.k.Z | 0.e.E a 5 & $ 6 [ 3.j # g M , O . . . o . O O . t H m o . . . . . . X O O O O O O O O O O O O O O o O O o o o O O o o o o o o o o o o o o o o o o o o o o o o o o o o o o o o o o o o o o o o o o o o o o o o o o o . . . . o o o o o o o o o o o o o . o o . . . . . . . . . . . . . . . . . . . . . . . . . . . . . . . . . . . . . . . . . . . . . . . . . . . . . . . . . . . . . . . . . . . . . . . . . . . . . . . . . . . . . . . . . . . . . . . . . . . . . . . . . . . . . . .               ",
"                    . . . . . . . . . o . o o . o . . . . o o o o o o o o o o o o o . o o o o o o o o o o o o o o o o o o o o o o o o o o o o o O O O O O O O o O O O O O O O O O O O O O O O O O O O O O O O O O O O O O O O O O O O O O O O O O O O O O O O O O O O O O O O O O O O O O O O O O O O O O O O O O O O O O O O O O O O O O O O O O : O O O O O O O O : O O O O : : O O O O : O : O O : : : : : : O O : & $ , z x 5 $ O O O 4 3 = . O O O ; : X O 1 * : 1 1 $ , i 3 5 -.X.t O : M <.g # & O : : 1 & O 1 3 4 3 4 v x Z c h.w./.&.X 5 i 3 1 : O , V Z Z 4 4 4 4 F 1 1 1 1 1 1 1 1 1 1 1 O 1 5 5 5 A E 5 V V L Z & o : 1 L v O 5 4 4 4 x : O 1 1 3 [ i.O 1 1 5 4 1 1 1 & p.3.V Z K , X O O & 6 ; & * 5 , . . - 0.0.:.k V E K -.O.:.p K V X.+.p.8.; X 1 j O . . . o o O O O o t z > O . . . X . . . O O O o O O O O O O O O O O o O O O o O O O O o o o o o o o o o o o o o o o o o o o o o o o o o o o o o o o o o o o o o o . . . . o . o o . . o o o o o o . . . . o o o o . . . . o o . . . . . . . . . . . . . . . . . . . . . . . . . . . . . . . . . . . . . . . . . . . . . . . . . . . . . . . . . . . . . . . . . . . . . . . . . . . . . . . . . . . . . . . . . . . . . . . . . . . . . . . . . . . .                     "
};
