/* XPM */
static char *_5c6e5b37c6f4b68b35840a94ef1f5dc4AeojekvCWrrbDVd[] = {
/* columns rows colors chars-per-pixel */
"800 57 256 2 ",
"   c None",
".  c #000204",
"X  c #010A05",
"o  c #00050A",
"O  c #00090D",
"+  c #0A0B0D",
"@  c #0B0505",
"#  c #150707",
"$  c #011304",
"%  c #021B04",
"&  c #01120D",
"*  c #011B0C",
"=  c #0A1507",
"-  c #191707",
";  c #000513",
":  c #000C12",
">  c #0B0D11",
",  c #00041B",
"<  c #000C1B",
"1  c #0A0918",
"2  c #001314",
"3  c #0D1213",
"4  c #001A15",
"5  c #00141B",
"6  c #001B1B",
"7  c #0C1819",
"8  c #121315",
"9  c #131619",
"0  c #16191C",
"q  c #1A1C1D",
"w  c #161914",
"e  c #170513",
"r  c #290C09",
"t  c #032707",
"y  c #053606",
"u  c #012214",
"i  c #022B14",
"p  c #01221C",
"a  c #012B1C",
"s  c #0B2717",
"d  c #14281A",
"f  c #02331C",
"g  c #043719",
"h  c #15320C",
"j  c #282C11",
"k  c #000423",
"l  c #000B23",
"z  c #000C2B",
"x  c #02052B",
"c  c #011423",
"v  c #001C23",
"b  c #01142A",
"n  c #011B2B",
"m  c #0C1A24",
"M  c #191D22",
"N  c #000835",
"B  c #011433",
"V  c #011B33",
"C  c #011C3B",
"Z  c #01143B",
"A  c #1A0D36",
"S  c #012323",
"D  c #022B24",
"F  c #01242B",
"G  c #012B2B",
"H  c #0B2626",
"J  c #1C2124",
"K  c #162828",
"L  c #023324",
"P  c #02332B",
"I  c #043A28",
"U  c #012433",
"Y  c #012B33",
"T  c #01243B",
"R  c #012C3A",
"E  c #0B2837",
"W  c #023333",
"Q  c #023C33",
"!  c #01333B",
"~  c #023B3C",
"^  c #0B3636",
"/  c #163637",
"(  c #183030",
")  c #24282A",
"_  c #292D32",
"`  c #2B3236",
"'  c #283738",
"]  c #35383B",
"[  c #2B3628",
"{  c #241C27",
"}  c #4C0E07",
"|  c #532F1C",
" . c #054707",
".. c #034618",
"X. c #0A560F",
"o. c #2F4C12",
"O. c #0A6A0D",
"+. c #054728",
"@. c #05562B",
"#. c #044637",
"$. c #045738",
"%. c #154F32",
"&. c #2D4833",
"*. c #06662B",
"=. c #056838",
"-. c #0B7531",
";. c #2F6E15",
":. c #514E2F",
">. c #010946",
",. c #011846",
"<. c #011856",
"1. c #040C54",
"2. c #012B43",
"3. c #022848",
"4. c #013343",
"5. c #023C44",
"6. c #01334B",
"7. c #043B4B",
"8. c #012756",
"9. c #023956",
"0. c #183244",
"q. c #393E43",
"w. c #283644",
"e. c #022968",
"r. c #013965",
"t. c #033274",
"y. c #071B62",
"u. c #024344",
"i. c #044949",
"p. c #055749",
"a. c #024253",
"s. c #02445B",
"d. c #034B57",
"f. c #045858",
"g. c #164E52",
"h. c #394546",
"j. c #304E50",
"k. c #046747",
"l. c #057849",
"z. c #066957",
"x. c #067757",
"c. c #196750",
"v. c #2E6855",
"b. c #034767",
"n. c #025766",
"m. c #024874",
"M. c #025676",
"N. c #1B5970",
"B. c #315867",
"V. c #056668",
"C. c #067668",
"Z. c #046977",
"A. c #057876",
"S. c #16726A",
"D. c #2F6967",
"F. c #44474A",
"G. c #494D52",
"H. c #4D5254",
"J. c #475759",
"K. c #555A5D",
"L. c #5A5B5D",
"P. c #535558",
"I. c #4A554B",
"U. c #585D61",
"Y. c #485866",
"T. c #5D6264",
"R. c #566667",
"E. c #546C6E",
"W. c #65676A",
"Q. c #6B6E72",
"!. c #6D7274",
"~. c #677677",
"^. c #75787A",
"/. c #63726C",
"(. c #576759",
"). c #0A8932",
"_. c #1A8F1B",
"`. c #078E51",
"'. c #068867",
"]. c #068776",
"[. c #089778",
"{. c #0B946C",
"}. c #19A161",
"|. c #73837E",
" X c #579760",
".X c #02398A",
"XX c #015489",
"oX c #037888",
"OX c #036888",
"+X c #3B728F",
"@X c #6B7984",
"#X c #787B81",
"$X c #547889",
"%X c #038687",
"&X c #089889",
"*X c #059195",
"=X c #0AA68C",
"-X c #1B989F",
";X c #7B8685",
":X c #728B8D",
">X c #6EA19D",
",X c #818384",
"<X c #858689",
"1X c #858A8B",
"2X c #8A8C8D",
"3X c #898E92",
"4X c #8C9294",
"5X c #8B9899",
"6X c #929495",
"7X c #9A9B9D",
"8X c #94999A",
"9X c #879088",
"0X c #9D9FA2",
"qX c #8A9AB2",
"wX c #9CA3A4",
"eX c #92ADB1",
"rX c #A2A4A5",
"tX c #A7ABAC",
"yX c #ABADB1",
"uX c #ABB5B6",
"iX c #B2B4B5",
"pX c #BABCBD",
"aX c #B5B8BA",
"sX c #A6B2AD",
"dX c #92A29C",
"fX c #B0C8B7",
"gX c #BCBFC2",
"hX c #A7B7C3",
"jX c #BDC3C3",
"kX c #B8D0CB",
"lX c #9BDBD0",
"zX c #C3C4C5",
"xX c #CBCBCC",
"cX c #C5C8C9",
"vX c #C9CDD2",
"bX c #CED1D1",
"nX c #C6D8DA",
"mX c #D3D4D4",
"MX c #D6D9DA",
"NX c #DBDCDC",
"BX c #D6D8D8",
"VX c #CAD2CD",
"CX c #D6E2DA",
"ZX c #D9DCE1",
"AX c #DCE1E2",
"SX c #CBE7EF",
"DX c #E3E4E4",
"FX c #EBECEC",
"GX c #E6E9E9",
"HX c #EDEEF1",
"JX c #EEF2F1",
"KX c #F4F4F4",
"LX c #FDFEFE",
"PX c #F7F8F8",
"IX c #ECF2EE",
"UX c #E2EAD4",
/* pixels */
"                            . . . . . . . . . . . . . . . . . . . . . . . . o o . o o . . . . . . . . . . . o o o o o o o o o o o o o o o o o o o o o o o o o o o o o o o o o o o o o o o o o o o o o o o o o o o o o o o o o o o o o o o o o o o o o O O o o o O O O o o o O O O O O o o o o o o o o o o o O O O o O O O O o o o O O O O O O O O O O O O O o o O O o o O O O O O O O O O O O o o O O o o o O O O O O O O O O O O O O O O O O O O O O O O o O O O O O O O O O O O O O O O O O O O O O O O O O O O O : O O O O O O O O O O O : : : O O O : Z .. .r 2 & : 2 6 2 & & < c t $ O o o ; : < 2 & : < b 2 X O X O O O O O O O O & O & 2 2 2 2 3 2 b e.z.%X}.;.i 4 6 p 6 4 6 v p 4 6 4 6 6 p a F L p S 4.#.r.'.f.oX[.}.x.Z.].x.=.%.a S T 6.9.d.p.p.#.L 6 S S 6 6 p 6 6 S F 6 2 2 5 P W 6.i.! ! 4.! F G V.4.R W Q L p G 6 6 6 6 6 6 p 6 p S p 6 v F 4 6 6 6 4 4 6 6 6 6 4 6 f $.7.v p I -.{.m.c * 4 4 4 2 X.l.n.U Y G p p 5 2 2 2 & 6 5 2 z : O : : O : : O & O O O O $ O O O O . r h N . . O O X o o O : < O 5 { d Z , O O : k o . . o o X @ } y Z ; o . o ; o . O o o . . . . . . X : O O : O o . X o o . o o o o o o o o o o o X O o o o o o o o o o o o o o o o o o o o o o o o o o o o . o o o o o o o o o . o . o o o o o o o o . . . . o o o . . . o . . o . . o o o o . . . . . . . . . . . . . . . . . . . . . . . . . . . . . . . . . . . . . . . . . . . . . . . . . . . . . . . . . . . . . . . . . . . . . . . . . . . . . o o . . . . . . . . . . . . . . . . . . . . . . . . . . . . . . . . . . . . . . . . . . . . . . . . . . . . . . . . . . . . . . . . . . . . . . . . . . . . . . . . . . . . . . . . .                             ",
"                      . . . . . . . . . . . . . . . . . . . . . o o . . . . . . . o o . . . . . o . . o o o o o . . o o o o o o o o o o o o o o o o o o o o o o o o o o o o o o o o o o o o o o o o o o o o o o o o o o o o o o o o o o o o o o o o O O o o o o O O O O o o o o O O o o o o o o O O o o O O O O O O O O O O o o O O O O O O O O O O O O O O O O O O O O O O O O O O o o O o O O O O O o o o O O O O O O O O O O O O O O O O O O o O O O O O o O O O O O O O O O O O O O O O O O O O O O O O O O O O O O O O O O O O O O O O : : 2 O : O O b L O.r O O O , l 2 & X < 5 % + o o O : : O O , < : z 4 $ O X X O O O O O O : & O : 2 & 2 2 5 n V t.p.Z.`.X.u 2 6 4 4 4 6 p u 2 4 4 6 6 p p G L S D 2.b.OX%X*X{.`.z.V.C.k.$.S ,.9.d.f.V.k.f v C R p 6 6 6 6 4 6 6 6 2 6 6 5 c 6.S 6 p f S G ~ ~ R s.%XV.u.Q 4 & 6 6 S S v v 6 6 Y T v 4 p p 5 5 4 6 6 2 4 4 S 6 6 6 6 6 6 t *.d.v L 7.o.`.Z.C 4 4 4 4 a `.oXV G W G 5 2 2 2 2 4 2 2 X.a., 2 : O O : : O O O O O O O o o . . . r S x . O : : O y 8.z a b O 2 e + o o # r L >.. . o . o O o # * k X t $.b.1.; X ; o . . . . . @ @ * < o O O o % * 5 O . o o o o o o o o o o o o O o o o o o o o o o o o o o o o o o o o o o o o o o o o o . o o o o o o o . o o o o o o o . o o o o . . o o o o o . . . . . o . . . . . o o . . . . . . . . . . . . . . . . . . . . . . . . . . . . . . . . . . . . . . . . . . . . . . . . . . . . . . . . . . . . . . . . . . . . . . . . . . . . . o o . . . . . . . . . . . . . . . . . . . . . . . . . . . . . . . . . . . . . . . . . . . . . . . . . . . . . . . . . . . . . . . . . . . . . . . . . . . . . . . . . . . . . . . . . . . .                       ",
"                  . . . . . . . . . . . . . . . . . . . . . . . o o o . . . . . . . . . . . o o o o o o o o o o o . o o o o o o o o o o o o o o o o o o o o o o o o o o o o o o o o o o o o o o o o o o o o o o o o o o o o o o o o o o O o O o o O O O O o o o o O o o o o o o o O o o o o O O O O O O O O O O O O O O O O O O o O o O o O o O O o o O O O O O o o O O O O O O O O O o O O O O O O O O O O O O o o O O o o o O O O O O O O O o o O O O O O O O O O O o O O O O O O O O O O O O O O O O O O O O O O O O O O O O O O O O O : : : & O O O O < v y = o . o , l 4 $ O < & X ; : O O o . . o o z B v * O O O X X O : : : O < 2 & O $ & z 6 b 3.i ,.V.Z.'.X.* 2 4 5 4 4 c a 4 5 v F p p p D Y W Y 8.M.oX*X&X`.$.d.n.f.i.u.9.n.C.=.f u p p 6 F T ~ 4 6 6 6 6 2 6 4 4 6 6 4 5 5 4 4 6 6 5 p S S p v ! A.p.D 6 6 2 2 W F 6 v v 6 6 S 7.U 6 p p 6 v 2 6 6 6 6 2 4 6 6 6 6 6 S v 4 i i.2.i u.^ -.%X8.6 p 4 +.'.A.2.W W R b 2 2 2 2 2 2 : = $ : : O : : : O : O O O O o X . . . O @ [ b.0.6.V c < O y u o . o o o . o o O @ - & o . ; o X o o @ = 4 k @ % % & o . X o o . . . . . @ @ X . X O o = y 6 ; . o o o o o o o o o o o o o O o o o o o o o o o o o o o o o o o o o o o o o o o o o . . . o . . o o . . o o o o o o . . o o o o o o o o o o o o . o o o . . . . o o . . . . . . . . . . . . . . . . . . . . . . . . . . . . . . . . . . . . . . . . . . . . . . . . . . . . . . . . . . . . . . . . . . . . . . . . . . . . . . . o o . . . . . . . . . . . . . . . . . . . . . . . . . . . . . . . . . . . . . . . . . . . . . . . . . . . . . . . . . . . . . . . . . . . . . . . . . . . . . . . . . . . . . . . . . . . . . .                   ",
"              . . . . . . . . . . . . . . . . . . . . . . . . . o o . . . . . . . o . . . . o o o o o o o o o o o . o o o o o o o o o o o o o o o o o o o o o o o o o o o o o o o o o o o o o o o o o o o o o o o o o o o o o o o o o o O O O o o o O O o o o o o o o o o o o o o o o o o o o o O O O O O O O O o O O O O O O O o o o O o o O O O O O O O O O o o O O O O O O O O O O o O O O O O O O O O O O O o O O O o o O O O O o o O O O o o O O O O O O O O O O O O o O O O O O O O O O O O O O O O O O O O O O O O O O O O O O O O : : : 2 O O O O < C O.y @ & O ; : * O : < O O o O O . . . o . X k 1.L = O O O O X O O : 5 * : 2 & 2 c B n D T p 4 ,.n.OX`.O.4 4 4 6 4 v G i 4 4 S Y G T ! 5.7.a.b.OX*X&X}.].].f.Z.A.A.A.k.p.@...D ! P p S 6 F Y ^ 4 6 6 6 6 6 6 6 6 6 6 6 v p 6 6 p 6 4 6 u v v S i.A.A.W F F v 5 #.D 6 v 6 v v 6 a S v v 6 p n 2 2 6 6 S S 6 6 p p 6 6 p p S 6 y =.9.g k.b.*.{.m.V 6 g =.C.9.4.! W T c 2 2 2 2 2 2 O : & 2 5 2 : : : : : O o O n B : O : r | I.e.{ 4 : O O O o o O O O . o o O o ; ; O o t @.<., . O O o O O o o . . . . X o o . . . . . . . . . X & 5 ; . . . X o . o o o o o o o o o o o o O o o o o o o o o o o o o o o o o o o o o o o o o o . . . . . o o . . . . . . o o o . . . . . o o o o o o o o o o o o o o o o . . . . . . . . . . . . . . . . . . . . . . . . . . . . . . . . . . . . . . . . . . . . . . . . . . . . . . . . . . . . . . . . . . . . . . . . . . . . . . . . . . . . o o . . . . . . . . . . . . . . . . . . . . . . . . . . . . . . . . . . . . . . . . . . . . . . . . . . . . . . . . . . . . . . . . . . . . . . . . . . . . . . . . . . . . . . . . . . . . . . . .               ",
"            . . . . . . . . . . . . . . . . . . . . . . . . . . . . . . . . . . . o . . . . o o . . o o o o . . o o o o o o o o o o o . o . o o o o o o o o o o o o o o o o o o o o o o o o o o o o o o o o o o o o o o o o o o o o O O O O o o o O O O O O O O o o o o o o o o o o o o O O O o O O O O O O O O o O O O O O O O O O O O O O O O O O O O O O O O O O O O O O O O O O O O O O o O o o O O O O o o O O O O O O O O O O o o O O O O O O O O O O O O O O O O O O O O O O O O O O O O O O O O O O O O O O O O O O O O O O O O : : : 2 : O O : O 2 V  .y # O : : 2 O : < < & O X o o o X . . . O ; >.Y 7 X O O O O O O X O O O : 5 c v p % Z R h 3 C u.n.].O.3 4 6 6 6 n I i v v n F 4.~ P 2.m.oX'.x.%X`.v.M.*X&Xx.k.@.#.I S S F G G D 6 v 6 v D 4 6 6 6 v 6 6 6 4 6 6 6 6 6 6 5 V 2.T 2.9.9.b.7.D u.%X&Xp.W ~ W Y W 6 6 6 U a.D p v v F G F v v 2 5 6 6 p H 6 6 4 4 4 4 6 p p 6 5 % @.6.a @.4...`.OX,.f x.].9.G 4.! R V 5 2 2 2 5 2 2 & O & 2 5 5 3 5 < : : r | p.,.< O O + r - B o X o O O o . X . O o o o O O * n k X o X $ o . . O o . X O o o . O o o . X & , o . . . . . . . X X O o O o & O o o o o o o o o o o o o o O O o o o o o o o o o o o o o o o o o o . o o o o o o o o o o o . o o o o o o o o o o o o o o o o o o o o o o o o o o o o o o . . o o o o . . . . . . . . . . . . . . . . . . . . . . . . . . . . . . . . . . . . . o . . . . . . . . . . . . . . . . . . . . . . . . . . . . . . . . . . . . . . . . . o . . . . . . . . . . . . . . . . . . . . . . . . . . . . . . . . . . . . . . . . . . . . . . . . . . . . . . . . . . . . . . . . . . . . . . . . . . . . . . . . . . . . . . . . . . . . . . . . . .             ",
"          . . . . . . . . . . . . . . . . . . . . . . . . o . . . . o o . . . . . o . . . . o o . . o o . . . . o o o o o o o o . . o o o o o o o o o o o o o o o o o o o o o o o o o o o o o o o o o o o o o o o o o o o o o o o o O O o o o o O O O o O O o O o o o o o o o o o o o o o o O O O O O O O O O O O O O O O O o o o o O O O O O O O O O O O O O O O O O O O O O O O o o O O O O O O o o O O O O o O O O O O O O O O O o o O O O O O O O O O O O O O O O O O O O O O O O O O O O O O O O O O O O O O O O O O O O O O O O O : : : 2 O O O O O & b p y = O , : 2 & O : O O X . o o o O o . . o O k b 6 & O O O O : : O X O : < B 6 % O Z p % : 2 b 4.b.oXl.D * 4 4 6 F f 4 v F p a p T b.Z.{.`.k.V.x.V.z.V.l.A.'.+.P a G W D D S p 6 p S D p 6 6 6 6 6 6 4 6 6 2 5 6 v v n T b.D.f. XJ.v.I.I.[ 6 ~ C.'.#.D G D D S 2 & 5 R L 6 S S S D S G G U 5 6 6 v 6 2 S G 6 6 S F v 6 6 6 6 6 2 a U 6 f d.W -.Z.5.z.x.a.d.9.W W Y c : o 6 6 : 2 5 c + d ! b 9 2 O . X @ @ X X O O O O - d B O O O O O : < : o O O o o O o O X . o o . . . X o o o . O O o o o O O O : & * , o . . . . . . . . X X o X O X . o o o o o o o o o o o o o O O o o o o o o o o o o o o o o o . o o . o o . o o o o o o o o . o o o o o o o o o o o o . o o o o o o o o o o o o o o o o . o o o o o . . . . . . . . . . . . . . . . . . . . . . . . . . . . . . . . . . . . . . . . . . . . . . . . . . . . . . . . . . . . . . . . . . . . . . . . . . . . . . . . o . . . . . . . . . . . . . . . . . . . . . . . . . . . . . . . . . . . . . . . . . . . . . . . . . . . . . . . . . . . . . . . . . . . . . . . . . . . . . . . . . . . . . . . . . . . . . . . . . . .           ",
"        . . . . . . . . . . . . . . . . . . . . . . . . . o . . . . . o o . . . . o o . . . . o . . o o o o . o . o o o o o o o o o o o o o o o o o o o o o o o o o o o o o o o o o o o o o o o o o o o o o o o o o o o o o o o o o o o o o o o O o o o o o o o O O O o o o o o o O O o o o o O O O O O O o o O o O O O O O o o o o O O O O O O O O O O O o O O O O O O O O o O O o o O O o O O O O O O O O O O O O O o O O O O O O O O O O O O O O O O O O O O O O O o O O O O O O O O O O O O O O O O O O O O O O O O O O O O O O O O : : : : O O O O : O 5 V y % O , : & X . o o o o ; O X o O O o . o o O : : : & O X O : : : z 5 2 2 & O : z U i & 5 4 v 6.b.]._.0.a 4 6 6 D f p 6 p a ,.m.%X}.).=.#.m.'.A.C.C...W u.%X[.+.D G Q P p p p 6 6 6 6 4 6 6 4 6 6 4 5 2 6 n R G ^ P 6 H [ j 2 d 8 & 2 2 2 6 G i.C.G S F v v v v : j.( O 5 6 6 6 6 4 4 v 2.2 4 4 2 4 6 p p v v H ^ G H ( U 4 D T v 4 p R 6 $.s.i =.A.Z.f.~ W Y F F V 0.B.r.n 2 2 2 4 m 9 O . . . X O O O O O O O O : O # 3 o O O O o o t F < X X O O O O O O O , o o o . o o X O O : : ; O o o . X $ : ; . . . o . . . . . . . X . o o . X X o o o o o o o o o o o o o o O o o o o o o o o o o o o o o o . o o o o o . o o o . . . o . . o o o o o o . . o . o o . o o o o . . . o o o o . . o . . . o . o o . . . . . . . . . . . . . . . . . . . . . . . . . . . . . . . . . . . . . . . . . . . . . . . . . . . . . . . . . . . . . . . . . . . . . . . . . . . . . . . . . o . . . . . . . . . . . . . . . . . . . . . . . . . . . . . . . . . . . . . . . . . . . . . . . . . . . . . . . . . . . . . . . . . . . . . . . . . . . . . . . . . . . . . . . . . . . . . . . . . . . .         ",
"      . . . . . . . . . . . . . . . . . . . . . . . . . . o o o . . o . . . . . o . o . . . . o . . o o o . o o o o o o o o o o . . o o o o o o o o o o o o o o o o o o o o o o o o o o o o o o o o o o o o o o o o o o o o o o o o o o o o o o o o O o o o o o O O O O o o O o O O O o o o o O O O O O o o o o o o O O O O O o O O O O O O O O o o O O O o O O O o o O O o o O O O O O O O O O O O O O O O O O O O O O o o O O O O O O O O O O O O O O O O O O o O O O O O O O O O O O O O O O O O O O O O O O O O O O O O O O O O O : : : : 2 O O : O O O 5 ,.X.y # : O X X o o o O , : X X o O X . . o o , : O O : 5 2 & < 5 Z 2.y = O < 4 c V a 4 2 2 4 v 2.m.%X_.) R a 2 v f u S S U r.OX{.-.$.#.i.M.l.C.-.Q d.x.i 4.p.C.'.a G D S D p 6 6 6 6 6 v S 6 n E S U ^ s 2 S L 6 7 2 4 2 2 v S S v 6 S S p 6 5.A.&X#.P D S 6 S D D K . 2 2 6 6 6 6 6 4 6 9.5 & 6 6 6 6 6 4 4 ^ Y 6 4 2 7 4 6 ( ^ S 6 v @.f.G @.9.#.'.*X7.6 D ^ S.M.j.q.' G c 2 5 : * S < o o O : : O : X O : O O O O O O O O O O O O O O O O O o X O X O O O O : ; o . = a N . O O : o O o o o o X X o o X . . . . . . . . . X & < o . . X X o o o o o o o o o o o o o O O ; o o o o o o o o o o o o o o o o o o o o o o o o o o o o . . . o o o o o o . . . o o o o o o . . . . . o o o o . . . . . . o . . o o . . . . . . . . . . . . . . . . . . . . . . . . . . . . . . . . . . . . . . . . . . . . . . . . . . . . . . . . . . . . . . . . . . . . . . . . . . . . . . . o . . . . . . . . . . . . . . . . . . . . . . . . . . . . . . . . . . . . . . . . . . . . . . . . . . . . . . . . . . . . . . . . . . . . . . . . . . . . . . . . . . . . . . . . . . . . . . . . . . . . .       ",
"      . . . . . . . . . . . . . . . . . . . . . . . . . . . o o o o o o o . . . o . o . . o . . . . o o o . . o o o o o o o o o o o o o o o o o o o o o o o o o o o o o o o o o o o o o o o o o o o o o o o o o o o o o o O o o o o o o O O o o o O O o o o o O o o o o o o O O o o o o O o o O o O O O o o o o O o O O O O O o o o O O O O o o O O O O o o O O O O O O O o o O O O o o O O O O O O O O O O O O o o O O O o o O O O O O o O o O O O O O O O O O O O O O O O O O O O O O O o O O O O O O O O O O O O O O O O O O O O O O : : : O O O O O O : O b  .y # X X . o o O o : : X X o o O O X X o o , < & O O < 5 4 l 6 * & X O O : 6 p 4 2 * 2 2 4 6 2.b.%X`.%.w.m.V.&.h C 9.n.V.z.$.$.Q #.4.XX).#.@.( W L 7.C.f a.V.*X'.i Y ! Y G p 6 v S 6 F G 5 6 K ^ i 4 2 2 2 2 5 5 6 5 5 4 v S v 5 2 p S S 6 5.z.&Xi.G D S 6 S p F R 2 2 2 2 4 6 6 6 4 Y a.c & 4 6 6 6 4 4 4 4 K i.C 2 5 6 6 v 6 6 6 p 2 g d.6.p.C.S.&Xe.6 I j.I.5.~ 3.w / B O : O X O O O O O : : : $ c l O : O O O o & < : O O O O O O O ; o . . X O O O . $ s N o o = & ; o o o O : ; o o o o . . . . . X % < s  .,., . o X $ O X , ; X . o o o o o o o o o o o o o O O ; o o o o o o o o o o o o o o o o o o o o o o o o o o o o o o . o o o o o o o . . . o o o o o . . o o . . o o o o o o . . o o o . . . . . . . . . . . . . . . . . . . . . . . . . . . . . . . . . . . . . . . . . . . . . . . . . . . . . . . . . . . . . . . . . . . . . . . . . . . . . . . . . . o . . . . . . . . . . . . . . . . . . . . . . . . . . . . . . . . . . . . . . . . . . . . . . . . . . . . . . . . . . . . . . . . . . . . . . . . . . . . . . . . . . . . . . . . . . . . . . . . . . . . .       ",
"    . . . . . . . . . . . . . . . . . . . . . . . . . . . . . . . . . . . . . . . . o . . . . o . . o o o . . o o o o o o o o o o o o o o o o o o o o o o o o o o o o o o o o o o o o o o o o o o o o o o o o o o o o o o O O o o o o o o O O O o o O o o O O O o O o o o o O O O o O o o o o O o O O O o o o O O o O O O O O o O o o O O O O o O O O O o o O O O O O O o o o O O O o O O O O o O O O O O O O O o o O O O O o O o O O O O O O O O o O O o O O O O O O O O O O O O O O O O O O O O O O O O O O O O O O O O O O O O O O O : < 2 O O O O O O : O l y  .# . . . o O O : O O . . . o O X . . o X l c % X : l b 6 & O O O O O O O : & c v 4 4 2 4 6 3.d.%X_.o.3 U u.&.0.XX[.`.p.p.&.G 5.Q t.`.%.G 3.#.f Y 4.b.A.#.Z.].].C.z.&.H P D S p 6 6 4 4 6 6 6 p 4 5 2 4 2 6 2 6 6 5 6 6 v F v d.i.4 S S p n 5.A.! D S 6 v S 6 F ~ 2 6 g.O 2 2 6 6 4 F F n 2 4 p 6 6 4 6 6 4 = :.N.V 2 S 6 4 6 v S F F T D z.b.+.'.*Xm.G Q R Y F %.4.{ ^ z X X X O O : : : : O : O t D l O O O O O # d B , O O O O ; o O : p E B , X O ; o X O o X o o o . o O o $ < , o o o o . X O ; o X % : + $ o o . o . . $ * 2 & < o o o o o o o o o o o o o o O O ; o o o o o o o o o o o o o o o o o o o o o o o o o o o o . . o . o o o o o o . . o o o o o o . o o o . . o o o o . . o . . o . . . . . . . . . . . . . . . . . . . . . . . . . . . . . . . . . . . . . . . . . . . . . . . o . . . . . . . . . . . . . . . . . . . . . . . . . . . . . . . . . . . o . . . . . . . . . . . . . . . . . . . . . . . . . . . . . . . . . . . . . . . . . . . . . . . . . . . . . . . . . . . . . . . . . . . . . . . . . . . . . . . . . . . . . . . . . . . . . . . . . . . . . .     ",
"    . . . . . . . . . . . . . . . . . . . . . . . . . . . . . . . o . . . . . . . . . . . o . . . o o o o o o . o o o o o o o o o o o o o o o o o o o o o . . o o o o o o o o o o o o o o o o o o o o o o o o o o o o o o o o o O O o o o o o O O o o o o o O o o O O o o o O O o o o o o O O o o O O O O O O O O O O O O O O O O O O O O O O O O O O O O O O O O O O O o O O O O O O O O O o o O o O O O O O O O O O O O O O O o O O O O O O O O O O O O O O O O O O O O O O O O O O O O O O O O O O O O O O O O O O O O O O O O O O : : : 2 O O : O O O O O Z +.O.r . X O o O : < & X o . o o o X o o o o < < & k z 6 5 5 & X O O O O : : & & 5 6 4 & 2 2 6 8.d.Z.O.t 6 v 8.OX'.l.-.X.F P ( W W XX`.+.S 3.#.f p G s.j.w.V.Q V.p.oX=X=.4 D S S p 4 6 6 6 6 6 4 6 6 4 6 4 2 2 6 4 6 S 6 S Y F S p.$.4 S S 6 Y f.%XQ p D v v S v S S 6 6 4 2 O & 4 6 4 U 4 R c & S p 6 6 6 6 6 6 # P.6.6 S v T G 5.Y Y v 6 p p +.k.{.A.f.3.a P ! Y F G _ j.,.O : 2 2 : : : : : : : O o . O : O O O O # 3 < : o ; : O * n < & f F l ; X & : , X : ; o o o o . . o # u N * B x . . . $ 2 l < ; . . . . . . . . . . . $ 5 < o o o o o o o o o o o o o o . X O o o o o o o o o o o o o o o o o . o o o o o o . o o o o o . o o o o o . . o . . . o o o o o o . . o o . o o o o o . . . o . . . . . . . . . . . . . . . . . . . . . . . . . . . . . . . . . . . . . . . . . . . . . . . . . . . . . . . . . . . . . . . . . . . . . . . . . . . . . . . . . . . . . o . . . . . . . . . . . . . . . . . . . . . . . . . . . . . . . . . . . . . . . . . . . . . . . . . . . . . . . . . . . . . . . . . . . . . . . . . . . . . . . . . . . . . . . . . . . . . . . . . . . . . .     ",
"  . . . . . . . . . . . . . . . . . . . . . . . . . . . . . . . . . . . . . . . o . . . . o . . . o o o o o o o o o o o o o o o o o o o o o o o o o o o o o o o o o o o o o o o o o o o o o o o o o o o o o o o o o o o o o o o O O o o o o o O o o o o o o o o o O O o O o O O O O o o o O o o O O O O O O O O O O O O O o o o O O O O O O O O O O O O O O O O O O O O O O O O O O O O O O O O O O O O O O O O O O O O O O O O O O O O O O O O O O O O O O O O O O O O O O O O O O O O O O O O O O O O O O O O O O O O O O O O O O O : < 2 & O : : O O : O & ,.+.O.r @ & O : : : 2 % X O O o o O O O o o < z b B v % X : : 2 2 : O O : 2 2 & & 5 6 4 4 4 4 v 8.M.*X).( 8.OX{.`.*.+.#.u.#.L D G XX}.-.#.6.=.g D S G P S p R u.F V.f.A.[.*.6 D p p p p 6 6 6 6 4 6 6 6 4 2 v S 2 5 5 #.S 6 F S p 6 2 p p S p G f.&Xp.D D S S S S 6 6 6 6 6 6 5 2 2 4 6 Y 6 S v & 4 D 6 6 6 6 6 6 + ] U 6 p D R p p 4 p 6 p a S D @.[.s.l.b.p P 4.Y H ' E ) b 2 2 2 2 : : 2 : : : : O O : : O : O O O O : : & X.z.1.X & 4 : O . . . O X o o X = : ; o o o o o O # r f N & X ; . X O & 2 l , o o . . . . . X . . . t g Z ; X o O o o o o o o o o o o o o O O o o o o o o o o o o o o o o o o o . o o o o . . o o . o o o o o o o o . . . . o o o o o o o o . . o o . o o o o o . . . . o . . . . . . . . . . . . . . . . . . . . . . . . . . . . . . . . . . . . . . . . . . . . . . . . . . . . . . . . . . . . . . . . . . . . . . . . . . . . . . . . . . . o o . . . . . . . . . . . . . . . . . . . . . . . . . . . . . . . . . . . . . . . . . . . . . . . . . . . . . . . . . . . . . . . . . . . . . . . . . . . . . . . . . . . . . . . . . . . . . . . . . . . . . . .   ",
"  . . . . . . . . . . . . . . . . . . . . . . . . . . . . . . . . . . . . . . . o . . . . . . . . o o o o o o o o . o o o o o o o o o . o o o o o o o o o o o o o o o o o o o o o o o o o o o o o o o o o o o o o o o o o o o o O o o o o o o O o o o o o o o o o o O o O o o O O O o o o o o O O O O O O O O O O O O O O o o O o o o O O O O O O O O O O O O O O O O O O O O O O O O O O O O O O O o o o o O O O O O O O O O O O O O O O O O O O O O O O O O O O O O O O O O O O O O O O O O O O O : O O O O O O O O O O O O O O O O : : : O O : : O O O O O Z W O.- @ . O : : : l * X o o O o O O o . , z 6 c * X o O : : 2 2 2 & z n u & & 2 2 4 4 6 6 6 F 9.Z.].].C.l.k.*.#.~ ~ W +.f S S t.`.O.a.u.#.y S a p D D D D p 4.z.p d.u.V.z.#.6 6 p 6 6 6 6 6 4 4 6 6 6 2 2 6 S 4 6 6 2 5 6 v 6 6 D p 4 6 6 S W z.&Xz.D G S p p 6 S Y 4 6 6 v 6 6 2 2 2 S 6 4 n 5 2 p D 4 6 6 6 2 & ( F 6 6 6 6 6 4 6 6 6 4 p a F ..[.6.-.M.F P p.s.T V v 2 2 2 2 2 2 : : : : : O o X O : : : O 2 c : & 6 : & % & : O O o O O O O o X & 2 < ; X O o o o o o . o o o O o . o X . X o X & < : o o o X : , X % : O O $ . . X . o o o o o o o o o o o o o o O O o o o o o o o o o o o o o o o o o o o o o o o . . . . o o . . o o o o . o o o o . o o . . . . o o o o o o o o o o o o o o o . o . . . . . . . . . . . . . . . . . . . . . . . . . . . . . . . . . . . . . . . . . . . . . . . . . . . . . . . . . . . . . . . . . . . . . . . . . . . . . . . . . o o . . . . . . . . . . . . . . . . . . . . . . . . . . . . . . . . . . . . . . . . . . . . . . . . . . . . . . . . . . . . . . . . . . . . . . . . . . . . . . . . . . . . . . . . . . . . . . . . . . . . . . .   ",
"  . . . . . . . . . . . . . . . . . . . . . . . . . . . . . . . . . . o . . o o o o . . . o . . . o o o . o o o o o o . o o o o o o o o o o o o o o o o o o o o o o o o o o o o o o o o o o o o o o o o o o o o o o o o o o o o o o o o o o o o o o o o o o o o o o O o O o o O O O o o O O o O o o O O O O O O O O O O O O O O o o o O O O O O O O O O o O O O O O O O o o o O O O O O O O O O O O O O O o O O O O O O O O O O O O O O O O O O O O O O O O O O O O O O O O O O O O O O O O O O O O O O O O O O O O O O O O O O O : O : : & O O O O O O O : O B 9.O.j # . o o O O : & X . o o o O O . o k 2 2 : X O O : : & O : : l C a % 2 2 2 2 2 6 6 6 6 T XX[.A.%X).@.Y ~ W L P L 4 n D y.p. .v T Q f 6 p S S p S D D D v ~ Q F f.u.A.].l.4 v v v 6 6 6 4 6 6 6 4 2 2 2 2 6 5 5 6 5 v S 6 6 6 6 6 6 6 6 F p.z.i.S S 6 6 v 6 0.B.& G D 6 6 6 F 2 2 5 5 2 a.V & 4 D 6 4 6 5 2 & ^ n 6 6 6 6 6 6 6 6 6 6 4 p p X.&X9.$.Z.6.Q z.a.R C v 5 2 2 2 2 2 : : : O : & v B < O O : O X 2 : & 2 : ; . O : : O O O : : : . & 6 D 5.N o o . . o o . . . o $ < ; . . . . . X 2 5 < ; o . o X : , X O ; . X & < . X . o o o o o o o o o o o o o o O o o o o o o o o o o o o o o o o o o o o o o o o o o . . o o . . o o o o o o o o . . o o . . o o o . o o o o o o o o o o o o . . . . . . . . . . . . . . . . . . . . . . . . . . . . . . . . . . . . . . . . . . . . . . . . . . . . . . . . . . . . . . . . . . . . . . . . . . . . . . . . . . . . o o . . . . . . . . . . . . . . . . . . . . . . . . . . . . . . . . . . . . . . . . . . . . . . . . . . . . . . . . . . . . . . . . . . . . . . . . . . . . . . . . . . . . . . . . . . . . . . . . . . . . . . .   ",
". . . . . . . . . . . . . . . . . . . . . . . . . . . . . . . . . . . . o . o . . . o . o o o o . o o o . o o . o o o . o o o o o o o o o o o o o o . o o o o o o o o o o o o o o o o o o o o o o o o o o o o o o o o o o o o o o o o o O o O O o o o o O O O O O o o O o o o o o O O o O O o O o O o O O o O O O o o O O O O O o o O O O O o O O O O O o o O O O O o o o o o o O O o o O O O o O O O O O O O O o O O O O o o O O o O O O O O O O O O O O O O O O O O O O O O O O O O O O O O O O O O O O O O O O O O O O O O O O O : : : & O : : O : O O O O b 9.O.o.r o o o o o O O X o o o O O X . , : X l 2 & O O : : & O O : z 4 $ : < 6 6 v 6 v F F S e.A.`.Z.'.*.Y i.#.f u 6 S U S e.z.y 2 v F u p p p u v D S S S D D S F D G n.A.&Xl.p.u 6 G a 6 6 6 6 6 6 6 4 2 2 4 6 6 4 6 2 6 S 6 6 6 6 6 H G 6 S F V.u.6 6 6 6 v 6 / j.2 G S 6 6 4 W 4 R n & & W T 2 4 u p 6 6 5 : 4 D 6 6 6 6 6 6 6 6 6 6 u G 6 S *.].7.~ `.r.u G U F S n 5 2 2 2 2 2 2 : t ! , % P V < O : & O O O O O : : o O 2 2 5 < < 2 O & 2 5 S v S c l O o o o . . . o o @ & c 2 6 v 5 ; =  .a l , ; o o . . . @ X , o . . . X X . . o o o o o o o o o o o o o O O o o o o o o o o o o o o o o o o o o o o o o o o o o o o o o . . o o o o o o o o . o o o o o o o . . o o o o . o . . o o o o o . . o o . . o . . . . . . . . . . . . . . . . . . . . . . . . . . . . . . . . . . . . . . . . . . . . . . . . . . . . . . . . . . . . . . . . . . . . . . . . . . . . o o . . . . . . . . . . . . . . . . . . . . . . . . . . . . . . . . . . . . . . . . . . . . . . . . . . . . . . . . . . . . . . . . . . . . . . . . . . . . . . . . . . . . . . . . . . . . . . . . . . . . . . . . ",
". . . . . . . . . . . . . . . . . . . . . . . . . . . . . . . . . . . . . . . . . . o . o o o o o o o o . o o . o . o o o o o o o o o o o o o o o o . o o o o o o o o o o o o o o o o o o o o o o o o o o o o o o o o o o o o o o o o o O O O o o o o O O O O O o o o O o o o o O O O o o o o O O O o O O o O O O o o O O O O o O o O O O O o o o O O O O O O O O o O o o O o O O O o o O O O o O O O O O O O O o o O O O O o o o O O O o o O O O O O O O O O O O O O O O O O O O O O O O O O O O O O O O O O O O O O O O O O O O O : : 2 & O : O O O O O O O c T O.h # o o O . o o O X O o O O o . , : O O l 2 O O : : & O O : N 4 & O : 5 n ,.W i v F a <.oX`.p.M.-.+.R +.i v S a D i <.C.O.m 4 n L a 6 6 p 4 V i.f S S S S S S G D G z.z.].C.`.t S D p S 6 4 6 6 6 4 4 2 2 6 6 6 c 5.D 6 G p 6 v v 6 S D p S ].p.6 S 6 6 S 6 P / 2 6 6 6 6 6 6 2 b.2.2 2 2 F 5 2 * L 6 2 2 2 6 4 5 5 6 6 6 6 6 6 6 6 f ! S P `.n.$.6._.M.6 P Y Y v 6 K 0.B & 2 2 2 2 & & O O X O & 2 & & O O O O 2 : 4 F l O O t E x o . X 4 v c v S V z < , . . . o o @  .i.<.k t D c O o . . X X o . o o X . . # % z , X y F N . . . o o o o o o o o o o o o o O O o o o o o o o o o o o o o o o o o o o o o o o o o o o o o o . . o o o o o o o o . o o o o o o o . . . o o o . . . . o o o o o . . o o . o o o o . . . . . . . . . . . . . . . . . . . . . . . . . . . . . . . . . . . . . . . . . . . . . . . . . . . . . . . . . . . . . . . . . . . . . . . . . . . o . . . . . . . . . . . . . . . . . . . . . . . . . . . . . . . . . . . . . . . . . . . . . . . . . . . . . . . . . . . . . . . . . . . . . . . . . . . . . . . . . . . . . . . . . . . . . . . . . . . . . . . . ",
". . . . . . . . . . . . . . . . . . . . . . . . . . . . . . . . . . . . . . o o o . . . . . . o . o o o . o o o . . o o o o o o o o o o o o o o o o o o o o o o o o o o o o o o o o o o o o o o o o o o o o o o o o o o o o o o o o o O o o o O O O o o o o O O O o o o o o O O O O o o o o o o O O o O O o O O O O O o o o o o O o o O O O O O O O O o O O O O o O O O O O O O O o o O O O o o O O O O O O O O o o O O O O O O o O O O O O O O O o O O O O O O O O O O O O O O O O O O O O O O O O O O O O O O O O O O O O O O O : : : : O O O O O O O O O : 5 S y = @ . o X X . o O O O O O o . k N % & o : : O O O O O O z n * $ O l ,.R G p 4 6 p 6 n 8.x.*.r.A.O.H G G a 6 p S D 8.p.y : V ~ ~ +.u 6 6 6 4 6 p 6 6 p p S S S v R I S a.n.[.=.p.4 p F v p 6 2 6 v 4 2 v v 4 6 6 6 i.P 6 6 6 6 6 S 6 2 v v 4.z.i.6 S 6 p S 6 D D 6 6 6 6 6 6 p 6 a.W D 2 O Y v 4 4 I S 2 2 4 6 G v 6 6 6 6 6 6 6 6 6 p 4 #.P {.m.@.9.O.oXV a G G G f.j.g.B & 2 2 2 & 2 O O O : & 2 2 2 2 : : 2 p c :  .z.>.O O O X O X 2 6 v v v 6 S n c 5 2 f ,.5 4 l + y L l o . . . . o . o X X o o . . . . @ # % < @ r X.Q N X X o o o o o o o o o o o o o o O O o o o o o o o o o o o o o o o o o o o o o . o o o o o o . o o o o . . . o . . . o o o o o o o o o . . o o o . . . . o o o o . . . . . . . o . . . . . . . . . . . . . . . . . . . . . . . . . . . . . . . . . . . . . . . . . . . . . . . . . . . . . . . . . . . . . . . . . . . . . . . . . . . . . o . . . . . . . . . . . . . . . . . . . . . . . . . . . . . . . . . . . . . . . . . . . . . . . . . . . . . . . . . . . . . . . . . . . . . . . . . . . . . . . . . . . . . . . . . . . . . . . . . . . . . . . . ",
". . . . . . . . . . . . . . . . . . . . . . . . . . . . . . . . . . . . . . . o o . o . . . . . . o o o o . . o . o o o o o o o o o o o . o o o o o o o o o o o o o o o o o o o o o o o o o o o o o o o o o o o o o o o o o o o o o o O O o o O O O o o o o O O O o o o o o o O O O O o o o o o O O O O O o O O O O O O o O o o o O o o O O O O O O O O O O O O O O O O o O O O O O o O O O O O O O O O O O O O O o O O O O O O O O O O O O O O o o O O O O O O O O O O O O O O O O O O O O O O O O O O O O O O O O O O O O O O : : < : & : O O O O O O O O O b +. .- @ . o O X o o o o o X o . O x 5 % + : < 2 2 : : O X : 1.g - O < 5 5 V D u 5 v u v t.'.O.a e.A._.M ! +.i 6 S u <.A.;.l U 6.#.f p p 6 6 6 4 6 S 6 6 p p p S p p v ~ L F f.f.'.#.a.u 4 S 6 p 6 2 S 6 2 n P 4 6 6 6 2 6 p 6 6 6 6 D S 6 5 v a.i.d.G v 6 6 6 6 6 S 6 6 6 p 6 6 p S S 6 S 6 2 p F 6 p p 6 2 4 v p Y F S 6 6 6 6 6 6 6 p S u u.%.=Xd.p.6.O.[.r.W p.f.f.a.v v v 4 5 2 2 2 2 2 : O O 2 2 2 2 2 : 5 2 4 5 ; o . O : : o o O 6 v c 5 6 6 6 D V b 5 a +.C , X O O o . X o . o o . X . o . X ; o % 4 x O : ; . . @ # $ : e t * , o o o o o o o o o o o o o O O o o o o o o o o o o o o o o o o o o o o o o o o o o o o . o o o o . . . o . . o o o o . o o . . . . . o o o o o . . o o o o o o . . o . . o . . . . . . . . . . . . . . . . . . . . . . . . . . . . . . . . . . . . . . . . . . . . . . . . . . . . . . . . . . . . . . . . . . . . . . . . . . . . . o . . . . . . . . . . . . . . . . . . . . . . . . . . . . . . . . . . . . . . . . . . . . . . . . . . . . . . . . . . . . . . . . . . . . . . . . . . . . . . . . . . . . . . . . . . . . . . . . . . . . . . . . ",
". . . . . . . . . . . . . . . . . . . . . . . . . . . . . . . . . . . . . . . . . . o . . . . . o o o o o o o o o o o o o o o o o o o o . o o o o o o o o o o o o o o o o o o o o o o o o o o o o o o o o o o o o o o o o o o o o o o O o o o o O o o o o o O O O o O O o o o O o O O O O o O O O O o o O o o O o o O O o o o o o O O O O O O O O O O O O O O O O o O O O O o o O O O O O O O O O O o o O O O O O O O O O O O O O O O O O O : O o O O O O O O O O O O O O O O O O O O O O O o o O O O O . . O O O O O O O O O O O : : : & O o O O O O O O O O < a y = @ . o O X . o o . o . o o O O X o ; O : O O O : & O l 5 4 3 2 & 2 2 c v 6 5 c p e.%X)...F r.x.X.U #.i 6 v u <.C.*.a S F G a p 6 6 6 6 4 2 6 v 6 6 v 6 6 S 6 v a v 7.g n p.p.{.L f.i 6 6 6 D 6 6 6 4 2 2 4 6 6 6 6 6 6 6 6 6 6 6 S 6 6 S W p.V.G 6 v v 6 6 F F p p 6 6 6 6 p S v p p p 6 p Y 2 s ^ ! ~ 5.Y P W F 6 6 6 6 v 6 6 p p S a W ;.&Xu.f.F h `.oXf.i.5.U 6 p H v 4 5 5 2 2 2 5 : O 2 2 2 2 2 2 : O # j T , O : : O . O 4 D V v g 3.c 6 6 S n c c < , o : o o O o . . o . o o O , ; . $ u x ; X O , o . . . . X X @ # + : . o o o o o o o o o o o o o o O o o o o o o o o o o o o o o o o o o o o . o o . . o . . o . . o o o o o . o o o o o o . . o o . . . . o o o o o o o o o o o o o . . . o . . o . . . . . . . . . . . . . . . . . . . . . . . . . . . . . . . . . . . . . . . . . . . . . . . . . . . . . . . . . . . . . . . . . . . . . . . . . . . . . o . . . . . . . . . . . . . . . . . . . . . . . . . . . . . . . . . . . . . . . . . . . . . . . . . . . . . . . . . . . . . . . . . . . . . . . . . . . . . . . . . . . . . . . . . . . . . . . . . . . . . . . . ",
". . . . . . . . . . . . . . . . . . . . . . . . . . . . . . . . . . . . . o . . . . . . . . . . . o o . . . o o o o o o o o o o o o o o . o o o o o o o o o + > o o o o o o o o o o o o o o o o o o o o o o o o o o o o o o o o o o o o o o o o o o o o o o O O O o o o o o O O o o o o o O o O O O O o O o o o : 3 O O o o o O o O o O o O O O o O O O O o O O O O O O O O O O O O O O O O O O O O o o o O O O O O O O O O O O O O O O O O O o o O O O O O O O O O O O O O O O O O . . : O 3 > O O O O h.` o O O O O O O O O O : : < 2 & O 3 + O O O O O O O 5 T ..t # . o o O X o O O O . . . : o o o O : : O O O O 2 : 3 3 : 2 & & 2 b v 6 v v j.B.n.-.X.n R r.p.f P f 6 v u ,.oX_.d u 5 U f u 6 H s 6 6 4 5 5 4 6 S p 6 6 v v 6 p p v W u F #.s.{.I C.i 5 S 6 F 6 6 2 2 5 6 6 6 6 6 v 6 6 p v G W S S p 6 u.C.].D 6 6 2 2 2 6 6 2 6 4 2 2 4 S G v S G S 6 D d.U w v.d.5.Y D P G 6 6 6 4 S Y 6 6 6 6 6 6 6 *.OXP 4.g 7.O.M.v P W S v 5 4 5 & 9 3 : 2 4 < O O 2 : 2 2 2 : O O # h B o X : : o : S P T b 6 g T c 5 5 v n v c , . . 3 O o O o . O o o o o & l ; . . X o . . o X . . @ $ , o r - 4 l o X o o o o o o o o o o o o o o O O o o o o o o o o o o o O . . . o o o o . . . . o o . o o . . o o o o o o o o o o o o . . o . . o 3 o o o o o o o o o o o o o o o . o o . . . + > . . . . . . . . . . . . . . . . . . . . . . . . . . . . . . . . . . . . . . . . . . . . . . . . . . . . . . . . . . . . . . . . . . . . . . . . . . o o . . . . . . . . . . . . . . . . . . . . . . . . . . . . . . . . . . . . . . . . . . . . . . + ) ) + . . . . . . . . . . . . . . . . . . . . . . . . . . . . . . . . . . . . . . . . . . . . . . . . . . . . . . ",
". . . . . . . . . . . . . . . . . . . . . . . . . . . . . o . . . . . . . . . . . . . . . . o o o . o o . o o o o . o o o o o o o . o o o o o o o o o o . . aXFX9 . o o o o o o o o o o o o o o o o o o o o o o o o o o o o o o o o o o o O O o o o o o o o o o o o o o o O O o o o o o o o O o o o o O O O o . tXKX` . o o o o O O O O O O O O O O O O O O O O O O O O O O O O o O O O O O O O O O o O O O O O O O O O O O O O O O O O O O O O O O O O O O O O O O O O O O O O o o ;X#X. M FXcX. O . T.LXLX` . O O O O O O O O O : : & . _ PX2X. O O O O O O < V .. .# . o ; : : o O O . ] wX` . o O O O : : & O O & < . cXDX+ < 5 v 5 2 2 v & E.LXLX}.X.S F 2.M.=.f p u p 4 ,.Z._.t c 2.G I g 2 K JXsXX 4 4 C +.4 v ! g 6 6 v v S S S p S Y a n d.V.[.L V.+.5 S 6 D ! u 6 6 6 v D p p D S D G G P Q P Q D S u.].&X~ P ~ f.z.z.z.p.z.].z.z.p.#.[.&Xz.'.&X[.C.'.=X].Q D P D p D S v p p S 6 p G 6 6 6 6 6 p 6 =.b.I T t ! ..C.,.D F v < : 5 . ;XPXT.. 2 2 : O 2 2 2 : 2 2 2 2 : O & 5 7 F , & 6 v D W V v c l 5 5 5 5 v v v 5 0.wXG.. : : ; o X O o . . . X X o . o o . . . X . . # - u Z b 1 O ; . X . o o o o o o o o o o o o o o O O o o o o o o o o o o o . J yXh.. o o o o o o o o o o o o o o o o o o o o o o o o o o o . o o . ^.LXP.. o . o o o o o . . . . o . o o . . . o mXFX9 . . . o . . . . . . . . . . . . . . . . . . . . . . . . . . . . . . . . . . . . . . . . . . . . . . . . . . . . . . . . . . . . . . . . . . . . . . o . . . . . . . . . . . . . . . . . . . . . . . . . . . . . . . . . . . . . . . . . . . . . ] PXLXLX^.. . . . . . . . . . . . . . . . . . . . . . . . . . . . . . . . . . . . . . . . . . . . . . . . . . . . . . ",
". . . . . . . . . . . . . . . . . . . . . . . . . . . o o o . . . . . . . . . . o . . o . o o o . . o o o o o o o . o o . . o o o . . o o o o o o o o o . . xXPX0 . o o o o o o o o o o o o o o o o o o o o o o o o o . . O o o o o o O o o O o o o o o o o o o o O o o O o o O O o o o o o O O o o o O O O O . pXLX` . O O O o O O O O O O O O O O O o O O O O O O O O . o O O o O O O O O O O O O O O O O O O O O O O O O O O O O O O O O O O O O O O O O O O O O O O O O O O . h.LXwX. J PXBX. O . Q.LXLX) . O O O O O O O O : : 2 & . ` LX7X. O O O O O O < D ..y . . o ; : O O O O . xXLXq . O O o O : O O O : b 6 . mXKXl F u > 2 5 n a O ~.LXLX_.g n U 6.XX).( D 6 a ,.s.X.G i 5 5 a u 2 4 K LXaX. 4 4 5 a 6 v 6 6 6 6 6 6 p S S S p D R a 2.C.A.{.d.A.L v S 4 s.F.O 6 6 6 S S v D D D D p p p S S D W f.A.C.i.D I $.k.k.k.#.k.z.#.#.I L $.k.I $.k.+.L +.$.W Y p 6 6 6 6 6 v 6 p 6 6 6 6 6 6 6 6 p P a {.b.L G % +.W ).r.6 6 L i.C.e.. 5XLXR.. 2 2 O O 2 6 2 O & 2 : 2 2 4 L V < & 2 6 v v v G n c 5 5 5 5 < 2 6 v m o uXLXh.o : : : o . o . o o . o o . . . . o . o o O @ } h ! 1.: o o . . X o o o o o o o O . . O o o o o O o o o o o o o o o o o o . rXLXq.. o o o o o o o o o o o o o . o o o o o o o o o o o o . . o o . <XLXK.. o . o o o o o . . . o o . o . . . . o GXPX0 . . . o . . . . . . . . . . . . . . . . . . . . . . . . . . . . . . . . o o . . . . . . . . . . . . . . . . . . . . . . . . . . . . . . . . . . . . o . . . . . . . . . . . . . . . . . . . . . . . . . . . . . . . . . . . . . . . . . . . . o FXPXF.0 > . . . . . . . . . . . . . . . . . . . . . . . . . . . . . . . . . . . . . . . . . . . . . . . . . . . . . . ",
". . . . . . . . . . . . . . . . . . . . . . . . . . . . . . . . . . . . . . . . o . o o . . . . . . o o o o o o o . o . 0 U.. o o o o . o o o o o o . . o . cXPX9 . o o o o o o o o o o o o o o o o o o o o o o o o . ` G.. o o o o o O o o o o o o o o O O o o o o o o o o o o o O O O O O O o o o o O O O O . iXLX` . O O o o o o o o O O O O O O O O o o O O O O o . U.9 o O O O O O O O O O O O O O O O O O O O O O o o O O O O O O O O O O O o O O O O o o O O O O O O O O . rXLXJ . J PXmX. O O : F.] o O O O O O O O O : : : 2 O . ` LX6X. O : : : : : : p i $ L.) . o o O O O . ) LX8X. O . . X : z * : O k < $ . mXFXO < c & O O 5 p v .X>X}.o.U s.#.9.Z.-.I G g V m.O.m P S / /.& 4 6 4 K PXuX. 6 2 5 6 4 p 4 v 6 6 6 6 6 v S S S p G i.u 5.z.V.=X#.C.+.6 D T Y.8 6 p 6 6 v D L D p S p 6 G u.C.'.#.~ z.k.Q & 4 p p p p S W P S S v O v.D.2 D D p 6 D D G v a D 2 2 2 2 5 6 6 6 4 6 S F 6 6 6 p G g [.6.P v 2 f ! -.oXu.f.n.d.G 4 o 4XLXR.. 2 : o * 5 : i V : : 2 2 2 a 5 h.&.O 6 v v 6 v F b 2 5 2 : : 2 2 6 v 5 K PXxX. 2 : : 2 < , o . . . . @ r s T A j +.1., X . P.| $ 5 k . . . . . X o o o o o o o . q.h.. o o . X O O o o o o o o o o o o . 3 KXcX. o o o o o o o o o o o o o o . . . o o . . . . o . . o o o o o . ,XLXP.. o o o o o . . . . o o o o o . . o . o DXPX0 . . . . o . . . . . . . . . . . . . . . . . . . . . . . . . . . . . . . o . . . . . . . . . 8 W.. . . . . . . . . . . . . . . . . . . . . . . . !.o . . . . . . . . . . . . . . . . . . . . . . . . . . . . . . . . . . . . . . . . . . . . . ) LXrX. . . . . . . . . . . . . . . . . . . . . . . . . . . . . . . . . . . . . . . . . . . . . . . . . . . . . . . . . ",
". . . . . . . . . . . . . . . . . . . . . . . o . . . . . . . . . . . . . . . . . . o . . . . . . o . . o o o o o o . . yXNX. . o o o . . . . . . . o o o . cXPX9 . . . . o o o o o . . . . . . o o o o o o o o o . . DX8X. . o o o o . . . . . o O O O O O o O o O o O . . . . . o O O O O . . . . . . O O O . iXLX` . O O O . . . . . . O O O O O . . . . . . O o . _ LX0 . . O O O O O O O O O . . . . . o O O : . . . . . . O O O O . . O . . . . o . . . . . O O O O O O o 8 PXpX. . J PXmX. O O o . . O O O O : . . . . . . ; & : . ` LX7X. . . . o : O l f y d LX] . . O O O O . 2XLXh.. : 2 O . o k X o V 3.f.@.$ mXJXu $ , Y ..f 6 S 3.M.*. .I T Y ~ m.A.-.+.i b r.X.n G 2.* uXGX. . 6 4 ( PXuX. . . . & v 6 6 6 6 6 . . O . . 6 D S p v p 4 c ~ V.+.5 S.@.6 Y / H D p 6 v S P D D S p S i.&X'.k.f p i.p.I W 2 4 6 S S p S G S 6 ^ 5.o JX:X. 2 D p 2 O S v o X #.G 2 X . . . . 2 6 6 6 U O O 2 X o y n.6 Q 6 2 f u.X.[.b.n 5 2 S v O 4XLXT.. 4 l * ..~ ; $ o . 2 2 2 2 . . FX;X. l n v v v ; . : . . : : : 2 6 v : ~.LXR.. 5 o . 2 : . . ; + 5 . r } g B N > X ; . . 3 LXH.. . . . % O . . . . . o o o o . . GX,X. . o o X o . . . . . o o o o o o . T.LXK.. o o . . . . . . o o o o . . . . . . o o . . . . . . . . o o . . ,XLXP.. o o o . . . . . . o o o o o o o o . + DXPX9 . o . . . o . . . . . . . . . . . . . . . . . o . . . . . . . . . . . . . . . . . . . . . . rXFX. . . . . o . . . . . . . . . . . . . . . . . T.LXo . . . . . . . . . . . . . . . . . . . . . . . . . . . . . . . . . . . . . . . . . . . . . ] LX;X. . . . . . . . . . . . . . . . . . . . . . . . . . . . . . . . . . . . . . . . . . . . . . . . . . . . . . . . . ",
". . . . . . . . . . . . . . . . . . . . H.W.+ . . . G.W.3 . . . . P.tXaX6XL.+ . . . . 8 #XyXpX0Xq.. o o o o o o o . J W.LXBXW.P.. o . 3 U.7XyXrX!.+ . o . . cXPXM W.4X2XF.. o o o . . !.yXiX2XG.+ o o o o o o o . ) <XLXaXW.F.. o . . W.rXpXtXT.. o O o O o O O O O o . K.tXiX6XP.> o O O . 3 ,XiXpX7Xh.. O O . iXLX` . O O . M 2XiXaX6X] . O O O . ) 1XiXaX3X` . 3 q.mXLX^.^.M o O O O O O O O . q.7XpXtX^.M o O o ] <XyXyX1X` . O O . _ G.. ^.iXaX^.o 0 7XaXyXK.. O O O O O . !.LXF.. . J PXmX. O O : Q.H.o O O O . F.tXpXtX<XY.m O : . ` LX<X> #X6X;Xq . : , ..;.zXLX2X!.` . o O O + FXBX. O < O m :XaXjXwXY.R f.x._.y mXGX^ :XdXdX(.2 a 1.M.). XE.S G Y ! r.].-./ 4.OX_.j V S g.~.LXAXE.E.2 2 ( PXwX+ ^.5X3X( O 6 6 6 4 O R.sXjXsX~.H 4 S 6 / E.5 ^.jXjXeXc.c C.I 5 D 4 S S 6 S D D 4 G u.].x.+.#.a p 6 Y W p G G 6 6 4 6 S S S p p 6 6 j.dXLXuX/.J.2 4 &.E.. / qX0X^ G 7 J.wXuXtX;XJ O 6 6 2 j.h.7 5XaXfX>Xf ! 2 4 f R /.lXgXwXE.E 5 2 . 4XLXT.. 4 5 X _ ;XtXiX4XG.. : O o _ 6XLXsX:XB.: c 2 S @XuXjXtXU.. O : 2 6 v o MXFX1 < o w.H.. / 5XtXm : . q.8XiXyX^.w . . . o ` aXLX8X!.) . t 4 0.#XrXiX6XF.. o o o _ 3XLXyXW.q.. o . o W.yXpX0XU.o . o o o o . mXFX+ . o . 0 4XpXtX!.) . o o . . H.rXpXrXW.o . . + F.6XyXtX,Xq . o . . ,XLXP.. o o . + ^.yXpX0XG.. o . . . . o o . + DXPX9 . . + W.T.. . . . F.7XpXyX^.3 . . J Q.] . . . . ] !.0 . . . F.rXaX8XP.8 . . . . . . . . M T.LXDXW.L.. . . . q.wXaXiX^.9 . . . . . . . . . 8 F.FXPX!.W.> . . L.8 . G.aXP.. . ) ^.rXiX6XF.. . . . + L.. F.rXaXrXF.. . . . . + ,XiXyX|._ . . . J 7XLXiXW.F.. . . q ,XiXpX6X` . . . . . L.+ . L.yXP.. ] _ + 6XaXyXW.. ) rXaXrX] . . . . . . . . . . . . . . . . . . . . . ",
". . . . . . . . . . . . . . . . . . . . DXLX0 . . . NXLX) . . . ,XLXPXKXLXLX6X. . . 9 GXLXFXDXLXLX,X. o o o . o . . aXPXLXPXPXzX. . 3 PXLXKXFXLXLXcX. o o . zXPXPXPXPXLXLX!.. o o . pXLXPXKXLXLXH.. o o o o o . 3 NXPXLXPXPXtX. o . zXLXFXDXFXLXiX. o o O O O O O O . 7XLXPXKXLXLX<X. O . M FXLXFXGXLXLXQ.. O . iXLX` . o . ` PXLXFXDXLXLXK.. O . ] PXLXFXGXPX6X. T.PXLXLXKXPXq.. O O O O O O . Q.LXPXGXGXLXh.. . 7XLXPXFXKXLXLX] . O . W.PXNXPXDXPXLXzXKXKXDXLXLX!.. O O O O . BXFX+ o . J PXmX. O O 9 LXNX. o O . 1XLXPXDXFXLXLXpX. : . ` LXxXPXPXPXLXJXJ . o j.PXLXLXPXPXT.. O O . U.LXW.o c 6 ( FXLXFXDXPXLX;XX * t . mXPXPXLXPXLXLX~.x XX`.-.LXGX6 Y ~ 4.m.'.-.G XX).o.7 T 6 fXPXLXLXKXNX3 2 ( PXBXJXPXPXLXPXh.2 6 6 X uXLXPXDXPXLXbX2 6 2 R.LXcXLXGXFXLXPXS.4 V.$.2 p 6 S S p 6 P p.].x.@.a 2 6 D D P v H H 2 S 6 4 6 p 6 6 p p 6 6 H GXPXLXPXLXuX. X ;XKX/.PXLXAX& O AXLXKXFXPXLXDX3 & 4 . uXGXDXKXDXPXLXnXU & 2 $ 8XLXLXPXLXLXwXL R G qXLXT.. : . W.LXPXFXJXLXLX!.. o w JXLXLXPXPX4X. 5 3 bXLXKXDXPXLXtX. O 2 6 : w.LX8X, n o 4XFX^.LXLXNX5 o Q.LXPXDXGXLXFXq . . ) KXLXLXPXPXW.. . T.LXPXFXFXLXLX^.. . 9 DXPXLXPXPX,X. . X xXLXKXDXLXLXrX. o o o . ) LX2X. o . _ PXLXKXPXLXPXo o o . 0XLXPXDXFXPX0 . . mXLXPXFXPXLXFX8 . . . ,XLXP.. . . 8 DXLXKXGXLXLX<X. . . . . o o . + DXPX9 . . 6XLX1X. . . <XLXPXDXKXLXDX+ . ) LXmX. . . . mXLX0 . . <XLXLXKXPXLX7X. . . . . . . . rXPXLXLXPXmX. . . ,XLXPXDXFXLXGX8 . . . . . . . . ^.PXLXLXKXFX0 . . PX^.iXLXLXW.. F.LXPXFXFXLXLX^.. . . ) LXcXLXFXGXLXLXG.. . . 9 GXLXPXPXLXLX0 . . xXPXLXPXPXtX. . ) KXLXGXDXLXLXW.. . . + PX,XpXLXLXL.. 8XFXGXKXAXLXLXtXPXFXDXLXLXF.. . . . . . . . . . . . . . . . . . . . ",
". . . . . . . . . . . . . . . . . . . . mXPX0 . . . xXLXJ . . M LXvX3 + 9 F.) . . . 8XLX!.. . ) PXJX+ . o o . o o o . ` LXpX. + o o . h.) + o 0 DXLX] . o . zXLXrX+ + ) PXKXo o . P.LXwX+ > 0 G.3 . o o o o o o o . U.LX1X. + o . F.LX<X. . . 7XLXP.. O o o O O O . ] LXbX9 > M h.J . O . rXLXW.. . ] PXFX. o . iXLX` . O . pXLXT.. . G.LXNX. o . cXLX` . . 7 : o O . vXPX) + O O O O O O O o 9 PXAXq . o 0 o O . ) h.9 + + 1XLXyX. o . K.LXDX> . 3 BXLXwX. . ` PXNX. o O O . ` LX1X. O . J PXmX. O o 9 PXbX. o . J LXbX> . . T.LXjX. O . ` LXLXP.> > <XLXwX. : 5 O sXLXh.+ O O O o ; cXLXM n Q y dXLXK.; l K NXLXJ : 6 . mXLX8X7 5 h.PXDXy.A.O.&.PXNXF 4.u.9.OX{.*.m.).h 6 p 6 F i K PXbXO 7 6 2 K PXLX~.7 3 ^.LXjXO 6 2 j.LXpX3 & 7 cXLXj.O 2 J.LXFX( W & 4XLXlXk.G &Xk.& S 2 6 #.z.x.$.a 4 S S G P P p 6 2 K FX' X S 4 4 p p 6 6 p 6 6 6 2 ~.LX;X3 g.a.: /.LXLX5X/ H D G h.&.H 6 K cXLX~.. O . 8XLXjX2 $ ).SXLXj.X & K LXZX%.V.0.D.v.i.7.< 4XLXT.. O X K h.0 : + T.LXNX*.8.1 = @XLX!.O 6 5 . !.LX6X. . 9 DXPXM X 2 v : 0XLXj.n V o !.LXLX<X( m 5 m PXNX8 . . H.LXtX. ; . . 2XLX(.: x t y %.J.m + . K.LXNX. o o . !.LX^.. O o . W.LX6X. . 0 GXLXM . o o . 8XLX_ . o . xXLXF.+ 8 _ ] . o . ` LXiX+ . o 8 . o . _ _ > o + iXLX^.. . . ,XLXP.. o . 2XLX!.. . ) PXKX+ . o o o o o . + DXPX0 . ) LXNX. . . q LXNX8 . . rXLXT.. X DXJX+ . . 8 PXmX. . q LXbX8 + 9 h.) . . . . . . . . . ) PXmX. + . . 9 LXcX+ . . L.LX6X. . . . . . . . . + NXKX8 + . . . NXLXDXF.8 . . + ] 8 . . F.LXGX. . . M PXLXF.. . F.LXpX. . . 7XLXW.+ 8 J F.. . . . L.LX2X. . . . iXLX] . . 9 GXPX+ . . + GXLXNX] 9 . . ^.LXcX. . q KXLX,X. . H.LXyX. . . . . . . . . . . . . . . . . . . . ",
". . . . . . . . . . . . . . . . . . . . mXPX0 . . . xXLX) . . U.LX^.. . . . . o . . mXPX+ . . . mXPX0 . o . . . o o . ) LXpX. . . . o . . . . . 3XLXH.. o . zXLXM . . . jXPXM . . 7XLX] . . . . o o o o o o o o o . K.LX<X. o o . 6XLX] . o . F.LX1X. o o o o o O . Q.LXU.. . o . . O o . NXFX+ . . . NXKX3 . . iXLX` . O o FXDX. . . + FXFX> o 3 HXmX. . o . o O o . xXPXM . o O o O O O O . ] LX6X. o o . O O O . . o o . J LXmX. o . K.LX8X. o . 7XLXG.. o o DXPX9 o O O . tXLXJ o O . J PXmX. O O 9 PXbX. o . G.LX<X. o . J.LXpX. : . ` LXjX. o . J PXcX. : 4 . sXLX] . , 5 4 < 0.LXfXy t X . BXJX+ N V X 3XLXJ.: 5 . mXPXq o O . cXLXc.g 6 / PXNXR ~ 7.5.M.l.OX}.:.I G P D u & K PXbX. 2 6 2 K PXNXO & X H PXDXO p . 1XLXR.. 5 . ;XLXE.O 2 J.LXwX. V L h.LXsXZ.l.G *Xl.v S.k.u.I & 2 6 6 p 4 2 2 4 4 2 6 X ;XLXh.O 6 6 6 6 p 6 S p 6 6 . /.LX:X. 2 D : ~.LX5X. 6 5.d.U 2 4 p 6 O R.LX;X. 2 . 8XLXJ.: t l.qXLXE.X . R.LXqX& z.n.x.Z.3.: . 4XLXR.. : & O O O 4 5 o GXJX3 : + X ~.LX!.. 2 5 . sXLX) . o . aXLXh.. 4 v m JXbXo n c o ^.LX|.. 5 c 2 j.LX5X. ; O 3 HXAXo ; . . 2XLXI.. , X X y y z o . . FXFX> . o . W.LX!.. o o . yXLX_ . . . tXLX] . o . 3 KXbX. o o + KXBX. . . . . o o . ^.LXK.. . . . . o o . . . . . F.LX8X. o . ,XLXP.. o . cXPX8 . . . xXLX) . o o o o o . o DXPX0 . mXLX` . o . P.LX^.. . . L.LX<X. . rXLX] . . ] LX6X. . H.LX^.. . . . . . . . . . . . . . 9 PXmX. . . . G.LX,X. . . 8 PXxX. . . . . . . . . . NXKX+ . . . . NXPX8 . . . . . . . . . . mXPX8 . . M PXNX. . . + PXNX. . . mXKX+ . . . . . . . . P.LX<X. . . . DXGX. . . . rXLX` . . + FXPX> . . . . ,XLXL.. . . cXLX0 . . 9 PXmX. . . . . . . . . . . . . . . . . . . . ",
". . . . . . . . . . . . . . . . . . . . mXPX0 . . . xXLXJ . . L.LX,X. . . . . . . . NXPX3 . . . NXPX8 . o o o o o o . _ LXpX. o o o o o . . . . <XLXH.. o . cXLXM . o . iXLX] . . rXLXF.. . . o o o o o o o o o o . L.LX<X. o o . tXLXq.. o . G.LXrX. o o o o o O . Q.LXQ.. . . o O O o > FXFX3 . . . DXKX8 . . iXLX` . o > KXBX. o . . FXFX> o 9 PXcX. o O O O O O . xXPXJ . O O O O O O O . H.LX4X. O O O O O O O o . . . q LXmXo O . K.LX2X. O . wXLXF.. o + DXKX9 o O . 8 PXxX. O O . J PXmX. O o 9 PXbX. o . U.LX1X. O . K.LXpX. O . ` LXaX. O . ) PXbX. : u < hXLXF.. : : : o 3XLX&.. o . . DXFXl 1.W X <XLXR.X 2 . mXPXJ O & O vXLX_.i n / PXNXV 2.9.#.r.].l.+.P Y L 4 p u 2 K PXbX. 4 6 2 K LXbXO & O 7 FXGXO S O 8XLXR.X 5 . ;XLXE.O 2 J.LX5XX 4 : j.LXaXY &X-.G ].z.I u 4 5 j.JXAXNXNXNXNXNXZXNXNXNXNXcXPXLXE.O 2 6 6 6 4 D a 4 6 O ~.LX|.. 6 6 O ~.LX3XO 2 5.W 5 6 6 2 O . J.LX;XX 6 . 8XLXG.2 g f.:XLX/.X . R.LXeXo ).M.Y T c 6 . 4XLXR.. 2 2 2 : . . . . DXFX: O > X @XLXQ.. O + . aXLX_ O 6 . sXLXq.. 4 . E.LXE.: n b o ^.LX~.. d U z R.LX3X. l ; + FXDX. . . . 2XLXP.. o X o . . . . . . FXFX+ . o . Q.LX^.. o o . pXLX` . . . rXLX] . o . U.LXT.. o o + KXNX. . . . o o o . ;XLXT.. o . o o o o o . . . . ] LX4X. o . ,XLXP.. . . BXPX+ . . . xXLXJ . o . o o o . + DXPX+ P.LX7X. . . . W.LXW.. . . G.LX<X. . T.LXL.. . !.LXL.. . P.LX6X. . . . . . . . . . . . . . 0 PXmX. . . . W.LX<X. . . 0 PXNX. . . . . . . . . X NXKX> . . . . NXFX+ . . . . . . . . . . bXPX8 . . J PXNX. . . 8 PXGX+ . . BXPX9 . . . . . . . . L.LX1X. . . > KXDX. . . . 7XLXF.. . + FXKX+ . . . . ,XLXL.. . . cXPXq . . 9 PXBX. . . . . . . . . . . . . . . . . . . . ",
". . . . . . . . . . . . . . . . . . . . mXPX0 . . . xXLXJ . . ] LXFXW.h._ . . . . + GXPX. . . P.LXDX. . o o o o o o . _ LXpX. o o o o . 9 q.H.G.pXLXH.. . . cXLXJ . o . iXLXh.. . W.LXNXK.h.) . . o o o o o o o o . L.LX<X. o o . rXLXh.. o . G.LXwX. o o o o o o . F.LXFXU.h._ . . O o 3 FXFX. . . T.LXmX. O . iXLX` . o 8 PXmX. . + !.LXzX. o 9 PXxX. o O O O O O . xXPXJ . O O O O O O O . G.LX6X. O O O O O : . + _ G.H.^.LXmX. o . K.LX3X. O . wXLXF.. o + DXKX9 o O . Q.LXK.. O O . J PXmX. O o 9 PXbX. o . W.LX2X. O . K.LXpX. O . ` LXpX. O . _ PXbX. < i O yXLX] . : 2 6 & GXNX. : k 5 + DXJX1 < c . 3XLXQ.. O . mXPXK O & l nXLXj.v v / PXNXF ! 9.n.OX`.%.#.i.*.y O & 2 & K PXbX. 4 2 2 K PXbXO X O 7 FXGXO v . wXLXj.. O ' NXLXw.: : J.LX5X. 6 2 B.LXsXn V.&X@.6.Z.V.$.& v H j.j.j.j.h.h.j.h.h.h.h.&.~.LX8XH 2 2 2 4 6 2 4 4 p p . ~.LX|.. 6 6 O /.LX4Xo 2 S v 4 4 ^ h.Y.Y.wXLX;XX 6 o 8XLXG.. X.s.;XLX/.X & ' LXIX!. X-Xn v S 5 . 4XLXT.. O 2 . . ) G.J.T.KXFX> O & X Q.LX|.k } o.6.vXLXM . . _ FXPX8 X 4 : bXKXm c v v ; @XLX^.. K Y N R.LX3X. c < > FXFX+ . . . 2XLXR.x # t p o X ) G.H.U.KXGX+ . o . Q.LX^.. o o . xXLXM . . ] FXPX8 . o . bXKX8 . o o . NXLX7XF.] 3 . o o . 2XLXW.. . . o o o . . + ` G.H.2XLX4X. . . ,XLXP.. . . NXPX. . . F.LXDX. . o . o o o . + DXKX) FXAX> . . . . !.LXL.. . 3 aXLXH.. . _ LXrX. . iXLXq . . _ LXFXW.h._ . . . . . . . . . . . 0 PXmX. . . . Q.LX1X. . . 0 PXGX. . . . . . . . . X NXKX> . . . . NXKX+ . . . . . . ) F.G.P.GXPX8 . . J PXNX. . . 8 PXGX+ . . tXLXiXF.] 9 . . . . . L.LX<X. . . + FXGX. . . . 8XLXF.. . + FXKX+ . . . . ,XLXL.. . . cXLXq . . 0 PXmX. . . . . . . . . . . . . . . . . . . . ",
". . . . . . . . . . . . . . . . . . . . mXPX0 . . . xXLXJ . . . 7XLXLXLXLXNX) . . + DXLXGXGXPXLXPXq.. o o o o o o o . _ LXpX. o o o . 6XPXLXLXPXLXLXH.. o . cXLXJ . o . iXLXF.. o o xXLXLXLXLXcX> o o o o o o o o . U.LX<X. o o . aXLXh.. O . G.LXaX. o O O O O O o . iXLXLXLXLXNX) . o 9 KXLXGXFXPXLXKX` . O . iXLX` . o 3 KXPXDXFXPXLXGX_ . o 9 PXxX. o O O O O O . xXPXJ . O O O O O O O . G.LX6X. O O O O O . q.FXLXLXLXPXLXvX. o . K.LX3X. O . wXLXF.. o + DXKX9 o O . mXFX> o O O . J PXmX. O o 9 PXmX. o . T.LX1X. : . K.LXpX. O . ` LXpX. O . ) PXbX. : % . tXLXq.o c C 5 G.LX!.. O : O . DXHX> X X . 1XLX@X: 4 . mXPXK X < >.nXLXv.F S 0.PXAX7.f.#.t.*X{.S.z.*.y O 4 2 * 2 K PXbX. n I & K LXbX: G 4 7 FXGX& 6 . tXLXFXGXKXLXLX:XO v O J.LX8X; U 5 j.LXuXo d.u.V.i.d.C.f.f.I O 6 p 6 6 2 2 2 2 2 2 O 2 JX;X. 2 6 4 6 6 6 2 4 2 S p & ~.LX;X. 6 6 O ~.LX4X. 2 p G O :XLXLXLXLXLXLX;X. 6 . 8XLXG.X =.3.;XLX/.X 2 O wXLXLXLXLXGXj.4 c . 4XLXK.. O . ) mXLXLXPXPXLXFX3 3 d L :XLX|.k 1 X o jXLXFXFXKXLXPXU.. & O w.LXwX. c D #.N @XLX^.. c v : R.LX3X. c 5 7 FXFX+ . o . 6XLXK.o o . . ) NXLXLXPXPXLXGX+ . o . Q.LX^.. o o . xXLXFXGXKXLXPXU.. o . _ LX0X. o o o . F.LXLXLXLXKX^.. o . 6XLXW.. o o o o o . W.PXLXLXPXPXLX4X. . . ,XLXP.. . . BXLXGXFXPXLXKX] . o . . o o o . + DXFXP.LXgX. . . . . !.LXKXDXJXLXLX8X. . . + FXDX. . GXGX. . . . rXLXLXLXLXDX_ . . . . . . . . . 0 PXmX. . . . Q.LX1X. . . 9 PXGXo . . . . . . . . . NXKX> . . . . NXKX+ . . . . q xXLXLXPXPXLXPX8 . . J PXNX. . . 8 PXGX+ . . ) FXLXLXLXPX2X. . . . L.LX<X. . . + HXGXo . . . 8XLXH.. . + FXKX+ . . . . ,XLXL.. . . cXLXq . . 0 PXmX. . . . . . . . . . . . . . . . . . . . ",
". . . . . . . . . . . . . . . . . . . . mXPX0 . . . xXLXJ . . . . ] T.^.NXLXxX. . + DXLX6X<X^.G.3 . o o o o o o o o . _ LXpX. o o . W.LXmX_ 8 . 3XLXH.. o . cXLXJ . o . iXLX] . o . . F.W.,XGXLX3X. o o o o o o o . U.LX1X. o o . tXLXh.. o . G.LXtX. o o O O O O O o . ] T.;XmXLXzX. o 3 FXPX6X,X!.H.> . O o . iXLX` . o 8 KXJX1X;X^.H.o . O o 9 PXxX. o O O O O O . xXPXJ . O O O O O O O . G.LX6X. O O O O o > FXLX!.0 + ) LXmX. O . K.LX3X. O . wXLXF.. o + DXKX9 o . ` LX4X. O O O . J PXmX. O O 9 PXmX. o . T.LX1X. : . K.LXpX. O . ` LXpX. O . ) LXbX. : n v fXLXh.. x c . aXPX0 . O O o . DXHX1 O & . 1XLX@XN Y X mXPXK 2 8.C.nXLXD.~ R g.PXAX! L F .X{.x.M.*X}.@.y $ 2 4 & K PXVX. 3.@.& K LXbXO S * 7 FXGXO p . tXLXaX1X;X/.' . 2 : o J.LXdX< F 2 j.LXuX& p ! 9.&X=.s.#.! ].#.p p D S 6 6 p 6 6 6 2 / R.O 5 2 6 6 6 6 6 2 6 5 4 2 O :XLX^.. 6 6 O /.LX4X. 2 6 6 h.LXFXJ.K 3 R.LX;XX 6 . 8XLXG.X `.3.;XLX/.. 4 4 O h.R.;XVXLXZX. 6 . 4XLXU.. . . xXLX2X( E 9 GXFX3 5 : . Q.LX!.. . . . zXLX7X1X^.K.9 . O 4 . wXLXj.: v c c ; @XLX^.. m v < R.LX3Xo c 5 m HXFX> . o . 2XLXP.. . . . cXLX2Xq > + FXFX+ . o . Q.LX^.. o o . xXLXrX,X^.U.0 . o o . 3XLX] . o o o o . J H.Q.tXLXLX) . . 6XLXW.. o o . o . ) LXJXG.9 + F.LX4X. o . ,XLXP.. . . NXLX2X<X!.P.+ . o . . . o o o . + DXPX+ iXLXF.. . . . !.LXpX;X^.W.) . . . . . pXPX8 J LXyX. . . . . ` L.^.cXLXmX. . . . . . . . . 0 PXmX. . . . Q.LX1X. . . 9 PXGXo . . . . . . . . . NXKX> . . . . NXKX+ . . . . zXLX6X0 + . mXPX8 . . J PXNX. . . 8 PXGX+ . . . 8 G.W.6XPXLXP.. . . L.LX<X. . . + HXGX. . . . 8XLXG.. . + FXKX+ . . . . ,XLXL.. . . cXLXq . . 0 PXmX. . . . . . . . . . . . . . . . . . . . ",
". . . . . . . . . . . . . . . . . . . . mXPX0 . . . xXLXJ . . . . . . . + GXPX+ . . NXPX+ . . . . o o o o o o o o . . _ LXpX. o o . rXLXh.. . . 2XLXH.. o . cXLXJ . o . iXLX` . o o . . . . ` LXbX. o o o o o o o . L.LX1X. o o . rXLXq.. o . G.LX7X. o o O O O O O O o . . . 3 PXFX+ o > FXFX. . . . . O O O . iXLX` . o 3 KXmX. . . . o O O o 9 PXcX. o O O O O O . xXPXJ . O O O O O O O . H.LX4X. O O o O . _ LXzX. . . ) LXmX. O . K.LX3X. O . wXLXF.. o + DXKX9 o . 7XLX) . O O O . J PXmX. O O 9 PXbX. o . K.LX1X. : . J.LXpX. O . ` LXpX. O . _ PXbX. : n B uXLXD. .h . q LXyX. < 2 O o o DXJX3 O O . <XLXT.o Z 5 BXPXN.A.A.A.nXLXv.Q Y g.PXCXY I ,.OX).7.#.L 8.b.p.@.y $ O J PXVXX & : & K PXbXO O & s JXGXO 6 . 5XLXJ.. X . X O : 5 : J.LX8XX 6 & h.LXsX5 Q v a.f.[.I Z.=.5 d.&X$.6 p p 4 p D 6 4 6 6 2 S 6 2 6 6 6 6 6 2 5 2 4 6 X :XLX^.. 5 6 . /.LX4X. 2 6 . @XLX;X. 2 . R.LX;X. 2 . 8XLXJ.$ `.N ;XLX/.X 6 p 6 ; i n  .IXKXH 2 . 4XLXU.. 2 3 KXGX> u b : GXFX+ O : X Q.LX!.. o . . pXLXJ . . . . O O O 7 FXBX: H R V v , @XLX^.. v v , R.LX5Xo c 5 1 FXGXo . . . 2XLXP.. . . + FXFX. . . + FXGX+ . o . Q.LX^.. o o . jXLX) . . . . o o o + FXBX. o o o o o o . . . . 6XLXT.. . ;XLXT.. . . o o . T.LX2X. . . F.LX4X. o . ,XLXP.. . . BXPX. . . . . o . . . o . . . . + DXPX8 0 PXDX. . . . Q.LXU.. . . . . . . . . ^.LX] ] LXW.. . . . . . . . . GXKX+ . . . . . . . . 0 PXmX. . . . W.LX<X. . . 0 PXNX. . . . . . . . . . NXKX> . . . . NXKX+ . . . . FXFX. . . . mXPX8 . . M PXNX. . . 8 PXGX+ . . . . . . . W.LX,X. . . L.LX<X. . . + KXDX. . . . 8XLXF.. . + FXKX+ . . . . ,XLXL.. . . cXPXq . . 0 PXmX. . . . . . . . . . . . . . . . . . . . ",
". . . . . . . . . . . . . . . . . . . . mXPX8 . . . cXLXJ . o . . . . . . mXPX> . . mXPX+ . . . . . o o o o o o o o . _ LXaX. o o . rXLXh.. . . 4XLXH.. o . cXLXM . o . aXLXJ . o . . . o . 3 KXmX. o o o o o o o . U.LX,X. o o . 4XLXq.. o . F.LX4X. O O O O O O O o . o o . . DXFX+ o + DXFX+ o o o . . O O . iXLX` . O + JXNX. . o o . . O o 3 PXmX. o o o o O O . vXPXJ . O O O O O O O . q.LX4X. O o . O . ) PXgX. O . J LXmX. O . K.LX3X. O . wXLXF.. o + DXKX9 . > FXvX. O O O O . J PXmX. O O 9 PXbX. O . h.LX2X. o . R.LXpX. O . ` LXpX. : . _ PXbX. < 6 o uXLXD.i.b.$.>XLXF.X . o O O . BXJX3 O 2 . <XLXH.z s.i.AXPXS.f.i.~ vXLXc.G U g.PXNXT f 8.d.f 2.i.d.@.6 <.Z.`.*.y J PXbX$ & 2 & K PXbXO 2 & 7 FXGXO 6 . 3XLXJ.. : O : : 6 6 O J.LX8Xo S 2 h.LXuXO W S S ! a.C.i.=X@.6 d.-X[.L 4 S p G W 6 6 p S S 6 2 4 6 4 6 4 4 6 2 4 4 X @XLX^.. 6 6 . /.LX4Xo 5 4 X ;XLX@X. 6 O R.LX;X. 2 . 8XLXY.% V.; ;XLX/.. 6 p 5 6 a 4.X CXPX' F < 5XLXE.O F 7 PXAXO o X + GXFX> O > X ~.LXQ.. O . . tXLXJ . o o . . O . R.LX~.@ [ 6.,.v , @XLX;Xu 0.G b j.LX3X. c , > FXNX. . . . 2XLXY.. . . > KXGX. . o . FXGX+ . o . !.LX!.. o o . yXLX) . o o . . o . H.LXT.. o o o o o . . o o . ^.LXW.. . ^.LXU.. . . . . . L.LX;X. o . F.LX4X. o . ,XLXP.. . . xXPX+ . . . . . o . . o o . . . + DXPX0 . 6XLXQ.. o . G.LX!.. . . . . . . . . ] LX!.Q.LX` . . . . . . . . . mXPX8 . . . . . . . . 0 PXmX. . . . P.LX^.. . . 9 PXxX. . . . . . . . . . NXKX> . . . . NXKX+ . . . . FXGX. . . . mXPX8 . . J PXNX. . . 8 PXGX+ . . . . . . . ` LX,X. . . L.LX<X. . . . GXGX. . . . rXLX] . . + FXKX+ . . . . ,XLXL.. . . cXPXq . . 0 PXmX. . . . . . . . . . . . . . . . . . . . ",
". . . . . . . . . . . . . . . . . . . . pXLX] . . q PXPXJ . . . 9 . . . ) PXNX. . . 0XLXh.. . . 0 M . o o o o o o o . _ LXxX. . o . 1XLX^.. . + AXLXG.. o . cXLXM . . + GXFX+ o . > 8 . . . P.LXiX. o o o o o o o . K.LX7X. . : . W.LX;X. . . #XLXT.. o o o O O O o : 0 . . . ] LXmX. o . iXLXq.. . . ) ) o O . iXLX` . O . cXLX] . . . _ J . o . BXPX` . . . > o O . xXLX) . . O O O O O O o M PXDX8 . . + : o 9 PXAX+ . . W.LXxX. O . K.LX3X. O . wXLXF.. o + DXKX9 . T.LXK.. O O O O . J PXmX. O o 9 PXbX. O . 3 PXFXq._ ] GXLXpX. : . ` LXpX. O . _ PXbX. : 2 . tXLXB.. ,.8.GXGXf.-.j = X X . 0XLXF.. . : vXLXc.7.n...CXPXE >.4.%.FXGX4.P F 0.PXZXa b 8. XAXeX7.$.f U Q f 8.*X}.v.PXMXX X 4 O K PXbXX & 2 7 FXGXO 2 : Y.LXwX. . O m h.5 6 O J.LX8X. 6 O h.LXuX. S D S F ! a.{.p.'.I Q W Z.=X$.2 S p p S 6 p p 6 4 2 2 4 a S 6 6 6 6 6 4 2 @XLX1X. O 6 O ~.LX4XF F 6 O E.LXsX. . . aXLX;X. 2 . dXLXJ.y m.$ dXLX/.X 6 6 ( 5 . X w.PXGX] B.j.uXLX$X; O + DXPXK . . h.LXFX& O O . !.LX^.. . : . ;XLX!.. . . 0 _ O . cXKXm c H U n v ; @XLX:X: [ i.8.0.PXcX; . . ] LXpX. o X . 6XLXY.. . . . AXPXq . . h.LXGX+ . o . !.LX#X. . O . #XLX!.. . . 0 _ . . jXPX8 . o o o o . 9 + . . . zXLX] . . ] LXpX. . . + o . q.LXpX. . . 7XLX2X. o . ,XLXP.. . . 7XLXK.. . . q ) . o . o o o o . + DXPX9 . + HXPX8 . . ) LXiX. . . o ` + . . . 3 PXyXzXFX+ . . . X 9 . . . ) PXGX. . . . . . . . . M PXNX. . . . ) LXpX. . . F.LXrX. . . . . . . . . . AXPXo . . . . NXKX+ . . . . mXLX) . . ) LXPX8 . . J PXNX. . . 8 PXGX+ . . 3 > . . . 6XLXT.. . . L.LX<X. . . . pXLX) . . o NXPX3 . . + FXKX+ . . . . ,XLXL.. . . cXLXq . . 0 PXmX. . . . . . . . . . . . . . . . . . . . ",
". . . . . . . . . . . . . . . . . . . . P.LXPXcXcXPXmXLX) . . P.LXDXxXcXPXLXH.. . . ) PXLXxXcXDXLXcX. o o o o o o o . > PXLXiX<X. . ) PXLXcXzXJXNXLXT.. o . cXLXFXxXpXFXLXQ.. o . 4XLXNXcXmXLXPX) . o o o o o o o . ] LXLXpX!.. o + NXLXBXgXBXLXNX> . o o o O O O . U.LXDXcXcXPXLXh.. O . ] LXLXcXcXDXLXpX. O . xXLX] . O . h.LXLXxXcXGXLXwX. O . K.LXLXcXzXFXwX. O . 7XLXNXiX_ . O O o O O o . wXLXKXzXcXPXW.. . iXLXGXzXBXLXDXGX. O . W.LX0X. O . iXLXH.. o + FXPX9 o DXPX3 o O O O O . J LXDX. O o 9 LXDX. o O . T.LXLXLXLXcXPXpX. : . ' LXxX. O . _ LXAX. O 2 . ;XLXGXjXg.E.LX:XZ 9.b.d.p.#. .&.PXLXvXgXFXLXhX$.#.6.n CXLXFXvXvXJXLX>XW Q G 0.PXCXi >.Y fXLXPX9.f.z.#.6.i.#.W b.V.PXLXjX5X& O K LXAX* & & 7 PXPXO D 4 B AXLXDXcXNXKXPXm 5 2 Y.LXtX. 6 X h.LXzX. v S D S F G Z.{.V.p.G Q S ! V.f.L * 6 6 6 D D 6 S 6 5 F R Y v 6 4 6 6 2 6 B.LXPXaX~.O X !.LXwX. O 2 4 E HXLXNXjXFXGXPXwX. 2 . tXLXY.I 6.X eXLX~.. O G.LXDXxXzXPXLX$X{ h.9.uXLXW.. 2 . <XLXPXzXbXLXxXPX7 Z O . F.LXKXiXW.. . 8 FXLXBXcXNXPXGX. ] LXsXo v v n v v o :XLX;X. d Y C ; 5XLXDXzXcXPXLX` . o . . W.LXGXiXF.. . <XLXKXzXxXLXmXPX+ . o . h.LXJXyXW.. . 9 FXLXBXcXAXPXDX. _ LXrX. o o o o o + FXJXmXpXGXLXzX. o o . vXLXGXpXmXPX_ . . DXLXNXgXGXFXPXyX. o . 6XLXT.. . . ) PXLXmXzXNXLXxX. . . o o o o . + FXLX0 . . W.LXaX. . . yXLXFXzXmXHXLX) . . . . mXLXLXpX. . . . H.LXDXcXzXPXLXP.. . . . . . . . . + KXLXpX2X. . . rXLXDXzXcXPXPX) . . . . . . . . . . pXLXcX0X9 . . FXPX> . . . . W.LXKXcXcXLXzXLX9 . . ) LXFX. . . 9 LXKX+ . . mXPXBXcXNXLXNX+ . . . W.LX8X. . . . ] LXLXcXpXFXLX2X. . . + PXPX> . . . . 6XLXW.. . . NXLX) . . q LXGX. . . . . . . . . . . . . . . . . . . . ",
". . . . . . . . . . . . . . . . . . . . . W.vXNXcX!.. 2X8 . . 9 !.aXmXNXpXq.. . . o . ) tXNXNXgX!.> . o o o o o o o o . G.mXDX6X. o . ] pXNXmX2X. Q.] . o . _ ^.yXmXNXcXK.. o o . ) 1XzXNXNXtX) . O o o o o o o o O . !.mXDX^.. o . 3 1XmXAXbX2X+ . O o o O O O O o 0 ^.aXBXNXpXq.. O O O . q.iXNXNXpXW.+ o O . T.7XM . O O . h.iXNXNXiXK.> o O O . G.aXNXBXyXF.. O o 3 tXDXmX_ . O O O O O O o . !.cXNXmXwX` . . 3 7XBXBXaX_ J ^.o O . ` 7XG.. O . K.7X) . O O ^.<X> 3 7XU.. O O O O O o 9 2X!.o O O > 8X!.. O O : . ) K.G.0 J LXpX. : o M 7XW.. : o M 6X!.. : c v g wXZXAXB.$XhXg.4.6.6.9.r.XX].k.D.uXAXAXnX>X7.9.9.s.d.D.>XaXMXAXvX:XP 6.u.7.c.PXCX4 t.*./.LXbXX c 2.7.b.x.+.Y W ,.+XSXIXkXt X m 8X@Xa $ 2 7 <X;XO 2 2 : 7 4XmXAXxX8X( 2 6 5 ' sXY.O 6 O ( 8XR.O 6 v 6 G p v i.f.i.d.+.6 P #.6 7.=Xx.* 6 G Y G S 6 6 2 2 2 2 6 4 4 4 6 6 v O ;XmXDX^.o O h.sXJ.O O 2 2 . ' jXNXBXwXH E.Y.O 2 & Y.sX' ).r.& Y.wXh.O & H !.iXBXNXaX(.`.N.j.,.J.wXw.o 2 2 . ^.mXNXzXJ.: 3X2 < : O . ^.NXDXW.. O . q 0XmXNXcX9Xd o I.uX( 5 v n v v v 5 B.wXj.l b 6 n c , Q.cXAXmXyXw.. o o o . . 2XBXAXF.. . . ^.bXNXzXG.> ^.+ o o o . !.NXAXQ.. O . M 7XmXNXcX,X3 . F.0XJ . o o o o o o H.7XxXAXvX<Xo . o o . + ,XbXNXcX8X9 . . M iXNXBXtX> F.L.. . . F.tX_ . o o . _ yXmXNXzX!.+ . o o o o o o . o ^.2X> . . . ^.4XO . . . ^.xXNXxX7X_ . . . . . F.pXLX^.. . . . 3 Q.aXmXAXpXF.. . . . . . . . . . . h.zXDXtX. . . . !.cXNXmX7XJ . . . . . . . . . . . ) yXNXcX9 . . ^.<X. . . . . . W.xXNXcXL.. 2X+ . . 8 2X^.. . . + 2X^.. . . F.8XcXNXmX6X8 . . . . _ 8XF.. . . . . _ yXmXNXzXW.. . . . . ^.2Xo . . . . F.7X` . . . W.6X3 . . + 2X!.. . . . . . . . . . . . . . . . . . . . ",
". . . . . . . . . . . . . . . . . . . . . . . . . . . . . . o . . . . . . . o . . . o . . . . . . . o o o o o o o . . o . . . . . o o . . . . . o . . O o o . . . . . . . o o o o . . . . . . . O o o O o o o o o o O . . . . O o O . . . . . . . O O O O O O O O O o . . . . . . O O O O O . . . . . . o O O : . . o O O O : . . o . . . o O O O O . . o . . . : O : . . o . . : O O O O O O O o . . . . . . : O . . o . . . . . : O : . . . : O : . . . : O O . . O O . . : O O O O O O o . . : O O O . . : O O : O . . . . _ PXjX. : : o . . : : : o . . : : 2 B p & V B 3.C z 2.7.7.9.a.u.4.E 3.C C 9.9.7.6.d.s.m.n.z.7.G S U R U Y ~ 4.9.a.g.PXUX{ m.X.~.LXR.$ u b r.Z.v.%.b.C.v.a.n.].C.`.X.X . X & 2 6 4 . . S p p 4 O . : 2 X . 2 6 5 6 O . O 6 6 4 : . . v 6 6 6 v a.i 6.p.Y n.].g v P Q a d.*X].#.& p S p 6 4 2 4 6 6 6 6 6 2 2 p F 5 . O O X 6 6 O . . 2 2 4 2 4 O o 2 & X 6 O O S 6 H a , X }.6.g., . & p 6 6 O . & ) #.k O.%XZ 2 O . O 5 2 4 2 . . O . . 2 . : 2 : O O . O o . + o O . . . o . . G Z X . < v v v v v v n < . & F b 5 c c c . . o . . . o o o . . X . X . . o . X . . . . . . . o o o o o . . . . O O : . . . . . . . + . . . o o o o o o o . . . . . . . o o o o . . . . . . . o o . . . . . . . . + . + . . . o o o o . . . . . . . o o o o o o o . . . . . o o . . . o o . . . . . . . . . . . . + . K.LX] . . . . . . . . . . . . . . . . . . . . . o . . . . . . . . . . X . . . o . . . . . . . . . . . . . . . . . . . . . . . . . . . . . . . . . . . . . . o . . . . . . . . . . . . . . . . . . . . . . . . . . . . . . . . . . . . . . . . . . . . . . . . . . . . . . . . . . . . . . . . . . . . . . . . . . . . . . . ",
". . . . . . . . . . . . . . . . . . . . . . . . . . . . . . . . . . . . . . . . . . . o . . . . o . o o o o o o o o . o o . . o o . o o o . . o o o o o o o o o o . o o o o o o o o o o o o o o o o o o o o o o o o o o o o o o o o o o o o o o O O O O o O O O O O O O o o o o O O O O O O O O o o o O O O O O O O O O O O O O o o o o O O O O O O O O o o O O O O O O O o O O O O O O O O O O O O O o o O O O O O O o o O O O O O O O : O O O O O O O O O O O O O O O O O O O O : O O O O O O O O O O O O O O O : : o . . . Q.LXtX. : : : : : : : : O O O : O O B L M Z U R 2.2.6.6.9.9.a.~ R 3.D v ,.e.n.m.M.V.f.a.u.7.9.b.p.~ ! 2.6.~ ~ 3.V g.LXUX,.$.f HXvX< I d 6 ,.7.[ ,.i.u.Q S 3.n.x.V.C.l.o.X 2 2 2 2 2 T #.Q D 4 2 2 6 4 5 6 5 2 2 2 6 5 6 6 2 . O 4 4 4 6 4 2 6 n G 2 R D T V.'.i D S S S ! n.&Xk.4 6 p 6 6 2 4 6 6 6 5 2 2 6 6 v v 5 2 2 4 6 6 2 2 2 : 2 4 2 2 6 6 6 6 S 6 p v 6 2 6 Q Y y Z.b W : D W 5.u.a.4.T v J u.<.& @.m.V O 6 6 5 2 2 5 5 : : : 2 2 : O : O O : O : o O O O & : o o . o o o O & 5 c c c 6 v v n b g W ,.5 { d V k . . O O o o o o . X o o X . . o o . X X o o o o o o o o o o o o o . o o O O o o o o o o o o o o o o o o o o o o o o o o o o o o o o o o o o o . o o o o o o o . o o o o . o . . . o . o o o o o . . . . o o o o o . . . o . . o o o o o . . . . . . . . . . . . . . . . . . . NXFX+ . . . . . . . . . . . . . . . . . . . . . . . . . . . . . . . . . . . . . . . . . . . . . . . . . . . . . . . . . . . . . . . . . . . . . . . . . . . . . . . . . . . . . . . . . . . . . . . . . . . . . . . . . . . . . . . . . . . . . . . . . . . . . . . . . . . . . . . . . . . . . . . . . . . . . . . . . . . ",
". . . . . . . . . . . . . . . . . . . . . . . . . . . . . o . . . . . . . . . . . . . . o o o . o . o o o o o o o o . o o o . o o o o o o o . o o o o o o o o o . o o o o o o o o o o o o o o o o o o o o o o o o o o o O O o o o o o o o o o o O O o O O O O O O O O O O O O O O O O O O O O O O O O O O O O O O O O O O O O O O O O O O O O O O O O O O O O O O O O O O O O O O O O O O O O O O O O O O O O O O O O : O O O O O O O O O O O O O O O O O O O O O O O O O O O O O O O O O O O O O O O O O O : O O . 7XGXaX8XyXLXLXT.. : : : : : : : : : : : : : X O . k Z R 2.2.6.6.6.4.R R 8.5.Q 8.a.9.r.b.d.d.a.a.a.a.a.a.9.d.f.i./ Y R T B.eXkXLXqX9.O.m ~.' & 6 4 6 4 & & O : T #.g F t.`.O.Z m.A.). .& 2 & 2 2 6 6 4 6 2 2 2 2 v 4 2 5 S ) 3 6 6 2 T j.[ 6 6 6 6 Y K 6 p v Q 4 n S 7.&X`.a D 6 S D G 5.V.C.+.% 6 6 2 6 p 6 6 6 2 6 U 6 4 5 4 2 2 2 6 6 4 2 2 & 2 6 6 6 4 6 S S 6 4 4 i +.+.-.[.].C.OXG W W u.d.s.u.a.T F S c & P 5 a +.A.s.F E Z & 2 5 5 2 2 2 : : 2 4 2 O : 5 : : O O : O o o X X O O O O : 2 5 6 v q j Q 3.V c i Y T f >.H C k o o O O : o o o O & e + & , o X X . . X o o o o o o o o o o o o o o o O o O o o o o o o o o o o o o o o o o o o o o o o o o o o o o o o o o o o o o o o o o o o o o o o . o . . . o . o o o o o o . . . o o o o o . . . . . . o o o o o o . . o . . . o o . . . . . . 8 rX6XDXLX^.. . . . . . . . . . . . . . . . . . . . . . . . . . . . . . . . . . . . . . . . . . . . . . . . . . o o . . . . . . . . . . . . . . . . . . . . . . . . . . . . . . . . . . . . . . . . . . . . . . . . . . . . . . . . . . . . . . . . . . . . . . . . . . . . . . . . . . . . . . . . . . . . . . . . . . . . . . . . ",
". . . . . . . . . . . . . . . . . . . . . . . . . . . . . . o o o . . . . . . . . . . . o o o o o o o o o o o . o o o o o o o o o o o o o o o o o o o o o o o o o o o o o o o o o o o o o o o o o o o o O o O o o o o o O o O O O O O o o o o O O O O o O O O O O O O O O O O O o o O O O O o o O O O O O O O O o O O O O O O O O O O O O O O O O O O O O O O O O O O O O O O O O O O O O O O O O O O O O O O O O O O O O O O O O O O O O O O O O O O O O O O O O O O O O O O O O O O O O O O O O O O O : O O O O . ] yXAXPXKXBX!.. : : : : : : : : : : : : O : : * 2 c Z 2.4.2.! R Y G v v n b v V C Y 6.9.d.d.s.a.9.s.d.9.s.n.n.p.p.W 2.F $XPXPXpXe.l. .l O * 6 6 6 4 v D % : n D Y R P 2.M.).g 6 8.M.].O.a a G ' [ 0 6 p 6 6 2.%.6 S S v 9.h.3 4 5 c 6.u.G 6 6 6 6 F D 6 6 6 U W & 9.p.d.=X*.p S G D 6 D P d.=Xz.* 4 6 4 p p 6 6 S F 6 2 2 4 2 2 2 4 6 p 6 4 4 4 4 6 5 2 6 a a g @.=.`.[.&XA.A.oXb.G V.7.p.d.7.u.! R Y Y G S v 2 +.8.% #.s.n.3.: 6 6 5 2 2 2 2 : p F 2 4 c O O 2 : : O O O o o X . X o O 2 : & 2 c 6 L C J G Z c 6 c i *.9.P z , O : O X & l , o o O X e = 4 x . X o X X O o o o o o O O O O O o o o o o o O O o o o o o o o o o o o o o o o o o o o o o o o o o o o o o o o o o o o o o o . o o o o o o o o o o o o o o o o . . o . o o o o o o o o o . . . o o o o . . . . o o o o o o . . o . . . . . _ FXPXNXW.. . . . . . . . . . . . . . . . . . . . . . . . . . . . . . . . . . . . . . . . . . . . . . . . . . o o . . . . . . . . . . . . . . . . . . . . . . . . . . . . . . . . . . . . . . . . . . . . . . . . . . . . . . . . . . . . . . . . . . . . . . . . . . . . . . . . . . . . . . . . . . . . . . . . . . . . . . . . . ",
". . . . . . . . . o . . . . . . . . . . . . . . . . . . . . o o o o . . . . . . . . o o o o o o o . o o o o . . o o o . o o o o o o o o o o o o o o o o o o o o o o o o o o o o o o o o o o o o o o o o O o o O o o o O O o O O O O O o o o o O O O o o O O O O O O O O O O O O O o O O O O o O O O O O O O O O o o O O O O O O O O O O O O O O O O O O O O O O O O O O O O O O O O O O O O O O O O O O O O O O O O O O O O O O O O O O O O O O O O O O O O O O O O O O O O O O O O O O O O O O O O O O O O O O O : . . O 7 3 . . O : : : : : : : : : : : : O O : 2 2 5 B C Y G v 6 5 5 c 5 c b v v <.d.n.M.z.g.s.a.a.a.a.s.d.n.f.g.i.u.r.d.u.9.#.m r._.M I u 4 4 6 4 2 c v * l 4.( 6 U 5.! b.V.=.f 6 6 t.=.S 4.5.^ K 3 6 6 2 2 n 4 2 6 5 2 5 O 2 2 2 4 5 2 2 5 6 6 4 4 6 6 6 6 6 R p.6 n.Q oX=X..6 G W p p G G p.f.5.L X 2 S u 4 U v 2 2 2 2 6 6 4 6 4 4 p 6 2 2 2 6 * t D I =.[.'.&XZ.i.! D 6 S R 2 I p.s.v D W 5.~ ! ! Y G v 5 : i 2.a ! l f '.7.: v 6 5 5 5 2 & 4 6 : : O 2 4 5 O O O O O X $ : o X $ : O : 2 5 c c 6 v 6 v c c 6 S v k + O.8.x O : : : , O O o o . . e = 5 k . X . . X o o o o o o o o O O O o o o o o o O O o o o o o o o o o o o o o o o o o o o o o o o o o o o o o o o o o o o o o o . o o o o o o o o o o o o . o o o . . o o o o . . . . o o o . . . o o o o . . o o o o o o . o o o o o . . . . . o + . . . . . . . . . . . . . . . . . . . . . . . . . . . . . . . . . . . . . . . . . . . . . . . . . . . . o o . . . . . . . . . . . . . . . . . . . . . . . . . . . . . . . . . . . . . . . . . . . . . . . . . . . . . . . . . . . . . . . . . . . . . . . . . . . . . . . . . . . . . . . . . . . . . . . . . . . . . . . . . ",
". . . . . . . . . . . . . . . . . . . . . . . . . o . . . . o o . . . . . . . . . . . . o . o o . . o o o o o o o o o o o o o o o o o o o o o o o o o o o o o o o o o o o o o o o o o o o o o o o o o o O O o o o o o o O o o o O O o o o o o O O O O O O O O O O O o o O O O O O O O O O O O O o O O O O O O O O O O O O O O O O O O O O O O O O O O O O O O O O O O O O O O O O O O O O O O O O O O O O O O O O O O O O O O O O O O O O O O O O O O O O O O O O O O O O O O O O O O : O O O O O O O O O O : O O : : : O O o o : O : : O O : : : : O O O O O : * * < < c c v n F P D v v v v c c c v b <.r.f.d.s.b.f.p.9.n.z.N.f.p.g.#.! 3.r.d.o.y.].;.3...4 4 6 6 6 4 & & O V ! G G Y T ! 7.M.l.g p T p.$.i * 2 & & 2 4 * 2 2 & 2 2 2 2 2 5 2 2 2 2 2 2 2 2 2 2 2 6 5 6 6 6 6 6 6 R D 5 W ! oX[.u D D G p 2 G W Q G Z.f.u $ 4 S S 2 2 4 4 4 G S 2 4 S 6 u * * f L f l.[.u.F W d.2.U 5 2 4 4 D v o h S.u ].3.S G ~ 4.4.R Y Y F 2 O * R o +.b i p.M.,.O 6 5 6 v 5 2 & 4 : : O # * l : o O O X X * b k . & < o O & 6 5 v c 6 b v D n 6 c , o # % n x O : 5 l , X O o o o . . % l ; X o . X X o o O O o o o o o o o o o o o o o O O o o o o o o o o o o o o o o o o o o o o o o o o o o o o o o o o o o o o o o . o o o o o o o o o o o o o . . o o o o o o o . . o o o o o o o . o o o o o o o o o o . . . . . . . . . . o . . . . . . . . . . . . . . . . . . . . . . . . . . . . . . . . . . . . . . . . . . . . . . . . . . . . . . . . o o . . . . . . . . . . . . . . . . . . . . . . . . . . . . . . . . . . . . . . . . . . . . . . . . . . . . . . . . . . . . . . . . . . . . . . . . . . . . . . . . . . . . . . . . . . . . . . . . . . . . . . . . . ",
"  . . . . . . . . . . . . . . . . . . . . . . . . . . . . . o o . . . . . . . . . . . . . o o o . o o o o o o o o o o . o o o o o o o o o o o o o o o o o o o o o o o o o o o o o o o o o o o o o o o o O o o o O o o O O o o o o o o o o o o O O O O O O O o o o o ; o o O O O O O O O O O O O O O O O O O O O O O o o O O O O O O O O O O O O O O O O O O O O O O O O O O O O O O O O O O O O O O O O O O O O O O O O O O O O O O O O O O O O O O O O O O O O O O O O O O O O O : : O O O O O O O O O O O O O : : : 2 O O O : O O O O O O O : : : O O O O O : % % ; < 2 : < < b v v v v v v v n n n U 3.r.d.d.s.s.d.s.n.V.D.B.f.c.g.~ R 4.r.M.c.B.l.Q Y i 6 6 6 6 6 2 & O c D S F Y F Y ! W R 6.i.Q W 9.oX).h 2 5 n F G f & 5 2 2 2 2 2 5 2 2 2 2 2 : & 2 2 2 2 2 2 6 5 6 4 4 6 4 4 v 6 6 Y 2.*X+.6 S p Y S S p 4 ! a.6.V.k.I S * * 4 4 4 6 v 2 & 4 a g `.{.C.p.p.P Q F c O & 6 2 2 4 6 4 a 6 O g ! ~ U x.9.p G ~ 4.R Y Y Y V 5 2 O 2 o g 3.. 2 F u.C < 2 2 2 5 : 2 2 : o O } o.1.o o o O o O : : : o . o O O & p v c S G Z 5 ..p.>.; O o # 4 S z o O O : < ; o o o . . . X o o X o . X X o o O o o o o o o o o o o o o o o O o o o o o o o o o o o o o o o o o o o o o o o o o o o o o o o o o o o o o o o o o . . . o o o o o o o o o o . o o o o o o o . . o o o o o o o o o o o o o o o o o o o . . . . . . . . . o . . . . . . . . . . . . . . . . . . . . . . . . . . . . . . . . . . . . . . . . . . . . . . . . . . . . . . . . o o . . . . . . . . . . . . . . . . . . . . . . . . . . . . . . . . . . . . . . . . . . . . . . . . . . . . . . . . . . . . . . . . . . . . . . . . . . . . . . . . . . . . . . . . . . . . . . . . . . . . . . . .   ",
"  . . . . . . . . . . . . . . . . . . . . . . . . . o . . . . . . . . . . . . . . . . . . o o o o o o o o o o o o o o o o o o o o o o o o o o o o o o o o o o o o o o o o o o o o o o o o o o o o o o o o o o o O O o O o o o o o o o o o O O O O O O O o O O o o o o ; o O O O O O O O O O O O O O O o O o O O O O O O O O O O O O O O O O O O O O O O O O O O O O O O O O O O O O O O O O O O O O O O O O O O O O O O O O O O O O O O O O O O O O O O O O O O O O O O O O O O O O O O O O O O O O : O O O O O : : : : O O : : : : : : O : O : : : : O : O : : 2 4 2 : : : : < 5 5 < ,.I a c 6 c v n V 3.r.n.d.b.z.f.s.M.V.D.V.V.c.%.^ R 6.r.M.n.c.h b D u 2 5 6 4 2 & & 2 v 6 v v v S p S G F T b.z.@.t y.[.O.4 p 6 n ! ..* & 2 2 2 2 2 2 2 2 2 2 2 2 2 2 2 2 2 2 2 2 2 6 2 2 4 6 5 6 S 6 5 Y V n.g 6 S S S p D p p ! Q S %X&Xi.g.W p 6 4 & I l.$.$.I #.C.f.F 6 F p a 4 6 2 * 6 2 2 & % p 6 2 & D F c O *.m.v D W 5.4.R Y R U c 2 2 2 : X a k X O 6 #.~ : 2 2 2 5 : 4 f P < = f ,.O O & : ; O O : o o . X O % 6 v b 5 v b c g W N O & : : : ; $ 6 x X O : , o o o . . . . . . . X O , O O o o O O o o o o o o o o o o o o O O ; o o o o o o o o o o o o o o o o o o o o o o o o o o o o o o o o o o o o o o o . o . o o o . . o o o o o o o o o o o o o o o . o o o o o o o o o o o o o o o o o o . . . . . . o . . . . . . . . . . . . . . . . . . . . . . . . . . . . . . . . . . . . . . . . . . . . . . . . . . . . . . . . . . . . o o . . . . . . . . . . . . . . . . . . . . . . . . . . . . . . . . . . . . . . . . . . . . . . . . . . . . . . . . . . . . . . . . . . . . . . . . . . . . . . . . . . . . . . . . . . . . . . . . . . . . . . . .   ",
"  . . . . . . . . . . . . . . . . . . . . . . . . . o . . . . . . . . . . . . . . . . . . . o o o o o o o o o o o o o o o o o o o o o o o . o o o o o o o o o o o o o o o o o o o o o o o o o o o o o o O o o o o O o O O o o o o o o o o O O O O O O O O O O O O O o o o O O O O O O O O O O O O O O O O o O O O O O O O O o O O O O O O O O O O O O O O O O O O O O O O O O O O O O O O O O O O O O O O O O O O O O O O O O O O O O O O O O O O O O O O O O O O : O O O O O O O O O O O O O O O O O O O O O O : : : : O : O : : : O O O : : O : : O O O : O : O O X : : 2 : < < 2 5 c v B F S v v n F ,.8.s.d.d.d.9.r.V.S.D.z.f.p.#.U R 6.m.A.A.=.^ 5.L p 7 2 6 6 4 $ o B +.[ a a p 6 6 6 V i 2 <.l.p.@.G r.).t 5 * : i.i v i X & 2 2 & 2 2 & & 2 2 2 2 & 2 2 2 2 2 2 2 4 2 2 4 4 6 6 S v S v #.! ].+.& u i u i t u u I #.$.z.p.+.p D $.x.p.z.A.4.S v 6 p p 4 6 S u $.G O J H 6 2 2 2 F : X 4 6 S D v : g b.F S Y 4.4.R R Y T c 2 2 2 : O O O 2 & O  .}.t.: 4 5 5 : 2 p n l O 2 p c : 2 : : O o O X O o . O 2 2 5 5 p A  .=.<., o & r s n , . X t N , X : o o o o o . . . . . X X X o X X o O O O o o o o o o O O O o o o O O ; o o o o o o o o o o o o o o o o o o o o o o o o o o o o o o o o o o o o o o o o o o o o o o o o o o o o o o o o o o o o o o . o o o o o o o o o o o o o o . . o o . . . . o o o o . . . . . . . . . . . . . . . . . . . . . . . . . . . . . . . . . . o . . . . . . . . . . . . . . . . . . . . . . . . o o . . . . . . . . . . . . . . . . . . . . . . . . . . . . . . . . . . . . . . . . . . . . . . . . . . . . . . . . . . . . . . . . . . . . . . . . . . . . . . . . . . . . . . . . . . . . . . . . . . . . . . . .   ",
"    . . . . . . . . . . . . . . . . . . . . . . . . o o . . . . . o . . o o o o . . o . o o o o o o o o o o o o o o o o o o o o o o o o . . o o o o o o o o o o o o o o o o o o o o o o o o o o o o o o O o O O o O O O O o O O O o o o o O O O o o O O O O O O O O O o O O O O o O O O O O o O O O O O O O O O O O O O O O O O O O O O O O O O O O O O O O O O O O O O O O O O O O O O O O O O O O O O O O O O O O O O O O O O O O O O O O O : O O O O O O O O O O : O O O : O O O O O : O O O : O O O : O O O : : 2 O O : O O O : O O O : : : : : : : : : : O < c u 6 4 : O : 2 5 5 5 2 5 5 c v v n D C 8.s.d.i.a.9.n.V.D.N.V.z.V.l.=.u.s.m.A.A._.] f c F a p 4 4 2 6 a 2.u.[ 6 D a p p u v D 6 V 9.V.'.X.8.].;.1 p 2 D i 4 n L $ O & & 2 2 2 2 2 2 6 p D a 6 S 6 p 6 6 p 6 6 6 6 4 4 4 6 Y +.$.p.Z.&Xx.'.[.'.{.x.].[.k.p.&X&X&X&XV.i.~ u.u.S 2 4 4 4 & u p 6 4 S p D S 5 O ] H O 4 5 * i p 4 p S v 6 5 y p.F S G ! ! ! R Y G v 2 2 & : : X K l O & & P 7.T 5 6 5 5 : o O O r h C < 4 n l O O X 2 2 O O . & * 2 3 a ( +.@.d.,.O O 1 r g 1., X . t V x X : , o o . . . @ + & : O o . X X o o o O o o o o O O o O o o o O O O O ; o o o o o o o o o o o o o o o o o o o o o o o o o o o o o o o o o o o o o o o o o o o o o o o o o o o o o . . . . o o o o o o . . o . o o . . o . o o o o . . o o o o o o . o . o o o o . . . o o . o o . . . . . . . . . . . . . . . . . . . . . . . . . . . . . . . . . . . . . . . . . . . . . . . . o o . . . . . . . . . . . . . . . . . . . . . . . . . . . . . . . . . . . . . . . . . . . . . . . . . . . . . . . . . . . . . . . . . . . . . . . . . . . . . . . . . . . . . . . . . . . . . . . . . . . . . . .     ",
"    . . . . . . . . . . . . . . . . . . . . . . . . . o . . . . . . o . . o o . o o o o o o o o o o o o o o o o o o o o o o o o o o o o . o o o o o o o o o o o o o o o o o o o o o o o o o o o o o o o o o o o o O O o o o o o O O O o o O O O o o O O O O o O O O O o o O O O O O O O O o o O O O O O O O O O O O O O O O O O O O O O O O O O O O O O O O O O O O O O O O O O O O O O O O O O O O O O O O O O O O O O O O O O O O O O O : O O O O O O O O O : O O : : : : O : : O O O O : : : : : O : : : O O : : & : : : : O O O O : O O O O : : : : : : : O & 2 < z U i 4 < 2 < 5 5 5 : 5 5 c n F F T 8.d.n.V.n.n.Z.].[.].A.x.V.p.+.S 6 v V XX_.:.t V G a 4 6 4 4 5 S G S 4 4 5 6 4 p u 4 v 6 5 G R Z.-.u.oX).h 5 7 6 W u 5 R +.4 2 O O O O O 4 4 2 5 5 2 2 2 v 4 . : 2 & 2 4 I I D P #.u.Z.].U R ! 4.4.f.! ! F F G c F Y ! Y 5 : : O X O O 2 : O H a p 4 2 2 2 6 6 5 6 5 j E.: 4 : & P F 6 S p P G G y {.8.S D W ~ ! Y Y G v 2 2 2 : O O & < . & : % P Y T , & 6 5 < 2 : r g ,.< < < O O O o 4 S < O o $ c : s #.f.k.n.C.t.x X & 2 k o . . . X t N o & < o o X + : 2 < : 2 4 2 $ X O o o o O o o o O O O O o o o o O o O O o o o o o o o o o o o o o o o o o o o o o o o o o o o o o o o o o o o o o o o o o o o o o o o . o o o o o . . . . . o o o o o o . . o . o o o . . . o o o . . . o o o o o o o o o o . . . o o o o o o o o . . . . . . . . . . . . . . . . . . . . . . . . . . . . . . . . . . . . . . . . . . . . . . . . . . . . . . . . . . . . . . . . . . . . . . . . . . . . . . . . . . . . . . . . . . . . . . . . . . . . . . . . . . . . . . . . . . . . . . . . . . . . . . . . . . . . . . . . . . . . . . . . . . . . . . . . .     ",
"      . . . . . . . . . . . . . . . . . . . . . . . . . . . . . . . . . . o . . . . o . . . . o o o o o o o o o o o o o . o o o o o o o . o o o o o o o o o o o o o o o o o o o o o o o o o o o o o o o o O o o o O o o O o O o O o o o o O O O O O O O O O o O O O O O O O O O O O O O O O O O O O O O O O O O O O O O O O O O o O O O O O O O O O O O O O O O O O O O O O O O O O O O O O O O O O O O O O O O O O O O O O O O O O O O O O O O O O O O O O O O O O O O O O O O O O O : O : : O O O O O O O O : : : O O O O O : O O O O : : : : : : : O : : O O O ; 2 n ,.a * l c 4 2 5 c u 1 < b F D v V 8.s.d.b.i.Q 4.u.Q S 6 2 2 : 2 2 2 4 C XX). .% c n i 4 4 2 2 2 5 5 6 p a 4 2 5 4 4 2 6 6 a D p B b.*X).V.X.z ^ +.S a 2 2 F L v 2 O . O 6 D & O O O O O 2 & u +.f D P P ~ f.P 6 n n 5 c 9.p 6 v 2 & & & 4 6 4 4 2 5 p u 4 S 7 X O O X O O O O 6 D 5 2 O O O O 2 2 : : X / 9.O O 2 5 6 5 6 6 G v #.v $.8.6 6 G ! ! Y T F 5 : O : : O O & 2 . X O & p n G 2., * V < O O e g E D , X O : . X u b , . @ j Q x h $.d.9.a.<.x o X * < o X o . o . % c , X : , ; o o o o o o . . X t 4 ; o O o o o o o o o o o o o o o O o O O o o o o o o o o o o o o o o o o o o o o o o o o o o o o o o o o o o o o o o o o o o o o o o o . o o o o o o o o o o o o o o o o . o o o o . . . o o o . . . o o o o o o o o o o o o o . . . o o . . . . . . . . . . . . . . . . . . . . . . . . . . . . . . . . . . . . . . . . . . . . . . . . . . . . . o . . . . . . . . . . . . . . . . . . . . . . . . . . . . . . . . . . . . . . . . . . . . . . . . . . . . . . . . . . . . . . . . . . . . . . . . . . . . . . . . . . . . . . . . . . . . . . . . . . . . . . .       ",
"      . . . . . . . . . . . . . . . . . . . . . . . . . . . . . . . . . o o . . . . o o o o o o o o o o o o . o o o o o . . . o o o o o . o o o o o o o o o o o o o o o o o o o o o o o o o o o o o o o o o o o O o o o O o o o O O o o o o o o O O O O O O o O O O O O O O O O O O O O O O O O O O O O O O O O O o O O O O O O O O O O O O O O O O O O O O O O O O O O O O O O O O O O O O O O O O O O O O O O O O O O O O O O O O O O O O O O O O O O O O O O O O : O O O O O O O O O O O O O O O O O O O O : : & O O O O O O : O : : O O O O : : : : : O O : 2 i c 6 5 & 2 l b 4 5 B B G +.i v p v n T 9.s.^ d + ; 2 & < 5 4 5 2 2 & : 4 5 v ,.@.y $ < n i 2 4 $ O < 2 2 2 2 6 S u 5 p 4 5 2 b b.-.h v 8.d.n.%X).- G i 5 a 2 2 5 6 p 5 2 & 6 2 o X * u a D I #.G i.p.p 5 2 2 : H 4 2 5 & & p v F 6 5 c G S 6 6 6 6 v 6 S D D F v Y 2 X & 5 6 2 4 p 2 2 6 2 2 2 2 2 2 2 2 2 * f T : 2 6 2 4 4 4 6 F 5 D V y s.5 6 p W R Y U n 5 O O O O O & & S : O O 2 o O 6 P R , : 5 2 < 1 h d.<.b 5 : @ % 6 , . X X $ - o.$.i.9.6.>.e q } h F , r j P N . X r t I >.; O ; o o o o o o o . . . . . O o O o o o o o o o o o O o o o o o O o o o o o o o o o o o o o o o o o o o o o o o o o o o o o o o o o o o o o o o o o o o o o o o o . o o o o o o o o o o o o o o . . o o o o . . o . . o o o . . o o o o o o o o o o o . . . . . o . . . . . . . . . . . . . . . . . . . . . . . . . . . . . . . . . . . o . . . . . . . . . . . . . . . . . . o . . . . . . . . . . . . . . . . . . . . . . . . . . . . . . . . . . . . . . . . . . . . . . . . . . . . . . . . . . . . . . . . . . . . . . . . . . . . . . . . . . . . . . . . . . . . . . . . . . . . . . .       ",
"        . . . . . . . . . . . . . . . . . . . . . . . . . . . . . . . . . . . o . . o o o o o o o o o o o o o o o o o o o o o o o o o o o o o o o o o o o o o o o o o o o o o o o o o o o o o o o o o o o O o o o O o o O O o o o o o o o o o O O O O O O O O O o O O O O O O O O o O O O O O o O O o O O O O O O O O O O O O O O O O O O O O O O O O O O O O O O O O O O O O O O O O O O O O O O O O O O O O O O O O O O O O O O O O O O O O O O O O O O O O O O O O O O O O O O O O O O O O O O O O O O O : < : & O O O O : : : O O O O O O : : : O O : O O l c  .y > l 5 2 : 5 5 2 O l 1.~ G D v b V R T 4 X o 2 4 : 5 v 6 4 2 5 6 v a 2 c 6 e.`.;.+ 2 c 4 2 2 & O 2 2 2 2 : 2 c 5 2 2 2 & & 5 ,.u.g 4 ,.$.D e.C. .2 & n g & 5 4 6 v 4 S P 5 O O S #.Q S v v : O O O 2 6 F 6 5 i.S O & 2 6 S 6 6 6 & 5 v D 6 p 4 & & & 6 G S 6 6 2 4 2 O 2 6 D S 2 2 F S S 6 2 2 2 2 2 2 2 2 6 : 2 4 5 4 6 6 6 6 F 6 6 b  .C.b 6 6 G ! R Y n 2 2 : O O O O : 2 2 : . = F : : v #.6.O 6 n 5 : $ : o $ S p  .$.,.2 & * u a ) ;.[..X2.A } o.P.(.C..XN - s 2.>., o o X t U x O o o o o o o o O * , . X X O O O o o o O O O O o o o o o o o O O o o o o o o o o o o o o o o o o o o o o o o o o o o o o o o o o o o o o o o o o o o o o o o o o o o o o o o o o o . . . . o o . . o o o o o o o o o o o o . o o o o . . . . . o o o . . . . o o . . . o o . . . . . . . . . . . . . . . . . . . . . . . . . . . . . . . . . . . . . . . . . . . . . . . . o o o . . . . . . . . . . . . . . . . . . . . . . . . . . . . . . . . . . . . . . . . . . . . . . . . . . . . . . . . . . . . . . . . . . . . . . . . . . . . . . . . . . . . . . . . . . . . . . . . . . . . .         ",
"          . . . . . . . . . . . . . . . . . o . . . . . . o . . . . . . . . . o . . o . . o o o o o o o o o o o o . o o o o o o o o o o o o o o o o o o o o o o o o o o o o o o o o o o o o o o o o o o O O o o O O o o o o O o o o o o o o o O O O O O O O O O o o O o O O O O O o o o O O O O O O o o o O O O O O O O O O O O o O O O O O O O O O O O O O O O O O O O O O O O O O O O O O O O O O O O O O O O O O O O O O O O O O O O O O O O O O O O O O O O O O O O O O O O O O O O O O O : O O O O O : : : 2 : O O O O O O O O O O O O O : : : O O : O O O l 6 t c c 2 O ; : : : : : : l c 6 c n p : X . O < 2 * 2 6 4 & : & 2 c v * 2 c U 8.k.y > t < * & & & 2 6 4 2 2 2 2 & & 2 5 v p 4 4 4 5 b S 6 3.+.2 e.*.f u b I 2 4 2 5 4 v p 4 2 6 5 6 2 p 4 p 2 2 2 6 6 5 5 5 2 4 O O 2 6 6 6 6 4 6 4 2 p I P G D p p 6 6 & 6 6 6 v 6 6 6 & X S v 6 R 6 5 6 6 2 2 2 2 4 2 2 2 2 2 & p 6 6 6 6 6 6 6 v v 6 c y {.3.p S G ! R Y n 2 2 O O & O O O O 2 O . X s C ; o y l.m.Z b & * S 6 w ..B 4 S Y ,.< O & 2 < * X.d.n.y.K T b B D ,.x o o o . . X . o . $ i >.: & : o o o o o . . o X X O o O o o o o O O O O o o O O o o o O O ; o o O o o o o o o o o o o o o o o o o o o o o o o o o o o o o o o o o o o o o o o o o o o o o o o o o o o o o o . o o . o o . . o o o o o o o o o o o o o o o o . . . . . . o o o o o . o o o o . . . . . . . . . . . . . . . . . . . . . . . . . . . . . . . . . . . . . . . . . . . . . . . . . . . . o o o . . . . . . . . . . . . . . . . . . . . . . . . . . . . . . . . . . . . . . . . . . . . . . . . . . . . . . . . . . . . . . . . . . . . . . . . . . . . . . . . . . . . . . . . . . . . . . . . . . . .           ",
"            . . . . . . . . . . . . . . . . . . . . . . . . . . . . . . . o o o . . o o o o o o o o . . . o o o o o o o o o o o . . . o o o . o o o o o o o o o o o o o o o o o o o o o o o o o o o o o o o o o O O o o o o o o o o o o o o o O O O O O O O O O O O O O O O O O O O o o o O O O O o o o O O O O O O O O O O O O O O O O O O O O O O O O O O O O O O O O O O O O O O O O O O O O O O O O O O O O O O O O O O O O O O O O O O O O O O O O O O O O O O O O O O O O O O O O O O O O O O O O O : : : & O O O O O O O O O O O O O O : : : : O : O : : $ @ ; l B G y 8 ; : : : : < c 5 c n u $ . o : 2 & l n i & 5 & X , U ..* 2 5 6 c ,.z.;.r % l i * O 2 c S 4 O : v 6 2 & 2 5 6 6 c S 4 2 & 5 5 n ! D 8.z.+.u 4 4 & 2 4 a p p v P 4 O 2 S 6 6 2 2 2 2 2 2 2 2 6 a 4 2 2 4 6 6 6 6 S S Y S 5 F P F ! F 6 6 6 5 6 S u u 2 6 6 6 6 2 O 5 2 v v 2 2 2 4 6 4 2 2 2 2 2 & 4 4 6 5 2 5 6 6 4 6 5 6 6 6 % `.r.6 p S ! ! Y c 2 2 a 5 O : : O O 2 : O . @ H C & u W f.r.z 2 5 : < + g 1.& l & V H c 5 5 r X.`.Z.e.>., , @ t c ; X . o . X X . X o . X * z , O % < , o . o . . . X X o o o o o o O O O O O O o O O O O o O O : o o O o o o o o o o o o o o o o o o o o o o o o o o o o o o o o o o o o o o o o o o o o o o o o o o o o o o o o o o o . . . . o o o o o o o o o o o o o o o . . o o . . . o o o . o o . o o . . . . . . . . . . . . . . . . . . . . . . . . . . . . . . . . . . . . . . . . . . . . . . . . . . . . . . o o . . . . . . . . . . . . . . . . . . . . . . . . . . . . . . . . . . . . . . . . . . . . . . . . . . . . . . . . . . . . . . . . . . . . . . . . . . . . . . . . . . . . . . . . . . . . . . . . . . . .             ",
"              . . . . . . . . . . . . . . . o . . . . o . . . . . . . . . . o o o . o o o o o o o o o o o o o o o o o o o o o o o o o o o o o o o o o o o o o o o o o o o o o o o o o o o o o o o o o o O O o o O O o o O O o o O O O o O O o o O O O O O O O O O O O O O O O O O O O O O O O O O O O O O O O O O O O O O O O O O O O O O O O O O O O O O O O O O O O O O O O O O O O O O O O O O O O O O O O O O O O O O O O O O O O O O O O O O O O O O O O O : O O O O O O O O O O O O O O : O O O O O : : 2 O O O O O : O O O O : : : : : : : O O O : O O : 2 t = 1 >.U t O : : O : : < 5 5 5 & X o O : : : O < 5 & 2 & < 2.X.- 2 n 6 v 6 2 y.]._.r 2 c a % : 5 v 6 : & 2 5 2 & 2 2 & & O 5 6 6 4 4 2 p G 2.Q 4 t.).f P +.g u ~ +.6 4 2 < L $ ; 2 2 5 5 2 2 2 4 4 6 6 G #.2 5 6 6 v 6 6 6 6 5 n 6 X 2 2 4 6 S p 6 6 4 4 6 6 Q D 4 2 5 v 6 O : 6 2 2 6 6 6 v v 6 6 2 2 2 2 4 p S c 5 2 5 2 6 6 v 5 4 6 6 4 _.Z.c a D W ! Y c & & S n : O O O O 2 2 5 o X t 5.,.2 : p i.z.V < 2 < O & 5 5 c < O 2 a B 2 s _.A.e.N ; . X X O : : o o . . . X O O O . % t k : o . o . . . . . . . X X o O o o o o o O O O O o o O O o o o O O o o o O o o o o o o o o o o o o o o o o o o o o o o o o o o o o o o o o o o o o o o o o o o o o o o o o o o o o o o o o . . . . o o o o o o o . o o . . . . . . . o . . . . o o o . o o . o . o . o . . . . . . . . . . . . . . . . . . . . . . . . . . . . . . . . . . . . . . . . . . . . . . . . . . . . o . . . . . . . . . . . . . . . . . . . . . . . . . . . . . . . . . . . . . . . . . . . . . . . . . . . . . . . . . . . . . . . . . . . . . . . . . . . . . . . . . . . . . . . . . . . . . . . . . . .               ",
"                  . . . . . . . . . . . . . . o . . . o . . . . . . . . . . . o . o o . . . o o o o o o o o . o o . o o o o o o o o o o o o o o o o o o o o o o o o o o o o o o o o o o o o o o o o o o O O o o o o o o O O o o O O O O o O O O O o O O O O o o O O O O O O O O O O O O O O O O O O O O O O O O O O O O O O O O O O O O O O O O O O O O O O O O O O O O O O O O O O O O O O O O O O O O O O O O O O : O O O O O O O O O O O O O O O O O O O O O O O O O O O O O O O O O O : O O O O : O : : : 2 O O : : : : O O O : : O : : : : : O O O : O O : l 4 * > < : O : : : O O : 2 B n t # o O : 2 O O O : < 4 & & z 8.L ,.I p b p 6 v C n.X.& : : 2 & : & 2 & : V g * 2 2 2 2 2 2 5 4 2 2 6 6 D p p Y d.*.b.[.O.U ! D a U Q a 6 F @.+.+.y & & u a p 6 p D 6 2 : U ^ & 6 2 6 6 6 5 4 4 6 6 6 X 2 6 6 6 S S 6 6 6 6 6 5 : 2 4 a f * 2 5 $ u v 5 6 v 6 5 2 2 2 2 2 O O 2 6 2 q 2 5 5 2 5 6 6 2 4 6 5 5 ..A.V p S G ! T < O & O O 2 O O O O : 2 : % ..n J 9.R < - D =.OXT u 3 % L B . X O o . O c v d ..9.B O r - 4 < O O o . . . . . . O O o @ y ..>.; o o . . . . . . . X X o O O o o o o o O O O O o o o o o o o O O o o o o o o o o o o o o o o o o o o o o o o o o o o o o o o o o o o o o o o o o o o o o o o o o o o o o o o o o o o o o o . o o o o o o o o . . . o . o . . . . o o o . . o o o o o o o o o . . o o . . . . . . . . . . . . . . . . . . . . . . . . . . . . . . . . . . . . . . . . . . . . . . . . . . . . . . . . . . . . . . . . . . . . . . . . . . . . . . . . . . . . . . . . . . . . . . . . . . . . . . . . . . . . . . . . . . . . . . . . . . . . . . . . . . . . . . . . . . . . . . . . . . . . . .                   ",
"                      . . . . . . . . . . . . . . . . o . . . . . o . . . o o o o o o . . . o o o o o o o o o o o . o o o o o o o o o o o o o o o o o o o o o o o o o o o o o o o o o o o o o o o o o o O O O o o o o o O O O o O O O o o O O O o o O O O o o o O O O O O O O o O O O O O O o O O O O O O O O O O O O O O O O O O O O O O O O O O O O O O O O O O O O O O O O O O O O O O O O O O O O O O O O O O O O O O O O O O O O O O O O O O O O O O O O O O : O O O O O O O O O O O O O O O O O O : : : : O O : : : O : : : O O O : : : : : : O O : O O O O O o < < 5 & O o O : O ; . z b $ . o O : : O : O O < & & : 2 2 5 b 2 < C i 5 V F 7. .& O : 5 6 G d - + O l 2 & : 2 & O O : 5 6 2 2 4 5 4 2 c R r.f.d.M.).+.u X : D 6 4 2 c i.D 2.#.a ~ k.+.P D D 4 P f o F 5 2 2 2 2 2 4 5 6 6 6 2 2 O 2 6 6 6 6 6 p S 6 6 6 p p 4 & O S G 6 2 u x.5 6 5 6 6 2 4 6 2 2 : O 2 2 6 + :.U 2 2 2 2 6 6 2 2 6 2 6 u p.9.v D G R T < O O O O O 7 2 : 2 O 2 5 4 l ; @ +.9.,.* H Y i.M.R +.=.b.l.V.G +.F 4 6 t i _ *.e.< ; r y C l O o . . . . O O X O o o . t D >.; ; . . o o . . . . X & o O O o o o o o o o o o o o o o o o O O o o o o o o o o o o o o o o o o o o o o o o o o o o o o o o o o o o o o o o o o o o o o o o o o o o o o o o o o o o o o o o o o o o . . o o o . . . o o o o o o o o o o o o o o o o o o o o o o o o o o . . . . . . . . . . . . . . . . . . . . . . . . . . . . . . . . . . . . . . . . . . . . . . . . . . . . . . . . . . . . . . . . . . . . . . . . . . . . . . . . . . . . . . . . . . . . . . . . . . . . . . . . . . . . . . . . . . . . . . . . . . . . . . . . . . . . . . . . . . . . . . . . . . .                       ",
"                            . . . . . . . . . . . o o o o o o o o . . . . . . o o o o . o o o o o o o o o o o . . . o o o o o o o o o o o o o o o o o o o o o o o o o o o o o o o o o o o o o o o O o O O O O O o o o o o o o o o o o o o O O O o o O O O O O O O O O O O O O o O O O O O O O O O O O O O O O O O O O O O O O O O O O O O O O O O O O O O O O O O O O O O O O O O O O O O O O O O O O O O O O O O O O O O O O O O O O O O O O O O O O O O O O O : O O O O O O O O O O O O O O O O O O O : : 2 O O : O : : : O : : O O : : : : : : : : O : O : O $ 2 < c v b 4 & o O o o 2 6 u = . O O O O O : : O O : 2 u 2 : 5 5 2 & < v 4 5 6 n 6. .% O O l V 6.#.} + & O O : : 2 2 2 O O 2 4 2 6 4 5 n D S F v 8.C.u.oX_.s * 6 p 6 6 2 2 o : : c S c c 5 2 2 5 : v a 2 2 & 4 2 2 2 2 2 2 2 2 2 2 2 O 2 6 6 6 6 6 #.W v F S F Y Y 6 & O o : 5 D U : 2 6 5 5 5 2 n 5 O O 2 2 2 a 2 I.9.& 2 2 2 6 v 2 2 2 2 4 4 *.m.F G F Y n : O : O : O 4 c o O & 4 6 < o X . = / i.9.3.Z l a Q U b C D 3.c a V v L +.=.k.f.y.1 X & 5 < O o . . . o o o o O O O O @ y c k o o o . . . X X X . X X O O O O O o o o o o o o o o o o o O O O O o o o o O o o o o o o o o o o o o o o o o o o o o o o o o o o o o o o o o o o o o o o o o o o o o o o o o o o o o o o o o o o o o . . . . o o o o o o o o o o o o o o o o o o o o o . . . . . . o o . o . . o . . . . . . . . . . . . . . . . . . . . . . . . . . . . . . . . . . . . . . . . . . . . . . . . . . . . . . . . . . . . . . . . . . . . . . . . . . . . . . . . . . . . . . . . . . . . . . . . . . . . . . . . . . . . . . . . . . . . . . . . . . . . . . . . . . . . . . . . . . . .                             "
};
