/* XPM */
static char *ad9d46f0a611452ff050c8e6a6d241c5NAmYGLCwSAKv8Lt6[] = {
/* columns rows colors chars-per-pixel */
"400 29 256 2 ",
"   c None",
".  c #000204",
"X  c #010B05",
"o  c #00050A",
"O  c #00090D",
"+  c #090B0C",
"@  c #0A0605",
"#  c #160506",
"$  c #021205",
"%  c #01130C",
"&  c #021B0C",
"*  c #071807",
"=  c #111606",
"-  c #000413",
";  c #010C12",
":  c #0B0E11",
">  c #01051B",
",  c #010C1A",
"<  c #0B0B1B",
"1  c #011314",
"2  c #0D1213",
"3  c #001A15",
"4  c #01141B",
"5  c #011B1B",
"6  c #0C1919",
"7  c #121415",
"8  c #131619",
"9  c #16191C",
"0  c #191B1C",
"q  c #111E12",
"w  c #110014",
"e  c #261507",
"r  c #05260A",
"t  c #073709",
"y  c #012214",
"u  c #01221C",
"i  c #012C1D",
"p  c #092717",
"a  c #02331C",
"s  c #053818",
"d  c #192A14",
"f  c #312A16",
"g  c #000522",
"h  c #010C23",
"j  c #000B2C",
"k  c #02052D",
"l  c #011424",
"z  c #011C22",
"x  c #01132A",
"c  c #021B2B",
"v  c #0B1B24",
"b  c #1B1E21",
"n  c #171C26",
"m  c #020A32",
"M  c #021433",
"N  c #011C33",
"B  c #00193D",
"V  c #111F38",
"C  c #012323",
"Z  c #022B23",
"A  c #02242A",
"S  c #022B2B",
"D  c #0B2828",
"F  c #142323",
"G  c #1E2224",
"H  c #1E282B",
"J  c #033324",
"K  c #03322C",
"L  c #053A28",
"P  c #022C33",
"I  c #02243B",
"U  c #012B3A",
"Y  c #052433",
"T  c #172C33",
"R  c #023433",
"E  c #03343C",
"W  c #023B3B",
"Q  c #063936",
"!  c #183435",
"~  c #103225",
"^  c #222325",
"/  c #232629",
"(  c #252A2C",
")  c #292B2D",
"_  c #242D27",
"`  c #2C2E31",
"'  c #242A37",
"]  c #2A3437",
"[  c #323336",
"{  c #33373A",
"}  c #393A3C",
"|  c #353A3C",
" . c #26362C",
".. c #200F2B",
"X. c #054719",
"o. c #0C4D10",
"O. c #09691B",
"+. c #0A6812",
"@. c #247112",
"#. c #034729",
"$. c #04483A",
"%. c #045637",
"&. c #10512C",
"*. c #2B4C33",
"=. c #046439",
"-. c #097639",
";. c #126E2A",
":. c #246117",
">. c #504430",
",. c #001848",
"<. c #01134C",
"1. c #012B42",
"2. c #012948",
"3. c #023443",
"4. c #033B44",
"5. c #013C4A",
"6. c #073748",
"7. c #163545",
"8. c #023D53",
"9. c #023758",
"0. c #052D5A",
"q. c #3C3E41",
"w. c #303741",
"e. c #2B3C4A",
"r. c #003A66",
"t. c #032B6B",
"y. c #024C44",
"u. c #034847",
"i. c #1A4748",
"p. c #055847",
"a. c #034453",
"s. c #034958",
"d. c #194C54",
"f. c #035558",
"g. c #135851",
"h. c #3D4244",
"j. c #394949",
"k. c #2C5153",
"l. c #066648",
"z. c #066759",
"x. c #05765B",
"c. c #0D764F",
"v. c #2D6C54",
"b. c #014567",
"n. c #035965",
"m. c #025A78",
"M. c #024575",
"N. c #056D6B",
"B. c #036768",
"V. c #057768",
"C. c #036774",
"Z. c #047877",
"A. c #186168",
"S. c #2B696D",
"D. c #424345",
"F. c #46494B",
"G. c #4A4C4E",
"H. c #444649",
"J. c #4B4D51",
"K. c #484D58",
"L. c #4D5154",
"P. c #4A5A5C",
"I. c #525356",
"U. c #535659",
"Y. c #565A5D",
"T. c #5A5B5D",
"R. c #5C544E",
"E. c #4E614D",
"W. c #5C5E61",
"Q. c #545C62",
"!. c #4D5E64",
"~. c #5A6466",
"^. c #536E6E",
"/. c #666869",
"(. c #6D7275",
"). c #647677",
"_. c #727475",
"`. c #747679",
"'. c #7A7C7D",
"]. c #757A7C",
"[. c #6B7070",
"{. c #2E8633",
"}. c #09824B",
"|. c #058158",
" X c #198C55",
".X c #04876B",
"XX c #068877",
"oX c #0A9371",
"OX c #6C8779",
"+X c #4E9D71",
"@X c #036D8B",
"#X c #697B88",
"$X c #737781",
"%X c #6671A1",
"&X c #069987",
"*X c #058A8A",
"=X c #06A68D",
"-X c #788688",
";X c #719786",
":X c #77A99E",
">X c #828486",
",X c #848688",
"<X c #8B8C8E",
"1X c #858B8C",
"2X c #8A8E91",
"3X c #8A9696",
"4X c #929496",
"5X c #9A9B9C",
"6X c #95999B",
"7X c #90A794",
"8X c #9C9EA1",
"9X c #879EA0",
"0X c #9CA3A3",
"qX c #99A8A8",
"wX c #8FABAC",
"eX c #A3A4A6",
"rX c #A4A6A9",
"tX c #A5AAAB",
"yX c #ABACAD",
"uX c #A2ABA2",
"iX c #AEB1B2",
"pX c #AEB7B8",
"aX c #B2B3B4",
"sX c #BBBBBD",
"dX c #B4B8BA",
"fX c #ADB4AF",
"gX c #BCBEC4",
"hX c #AEB4C1",
"jX c #8CBBCD",
"kX c #C7BFC3",
"lX c #BDC1C2",
"zX c #B8C1C9",
"xX c #C3C4C5",
"cX c #C6CACB",
"vX c #CACCCC",
"bX c #C5C7C8",
"nX c #C6CDD2",
"mX c #CDD2D3",
"MX c #CAD9DD",
"NX c #D3D3D4",
"BX c #DBDCDC",
"VX c #D6D8D9",
"CX c #CFCECC",
"ZX c #DAE5DC",
"AX c #DFDFE0",
"SX c #DCE3E3",
"DX c #D8ECF4",
"FX c #E3E3E4",
"GX c #ECECED",
"HX c #E5E8E7",
"JX c #ECEEF2",
"KX c #EBF4F3",
"LX c #F4F4F4",
"PX c #FEFEFE",
"IX c #F8F8F7",
"UX c #EFF2EC",
/* pixels */
"        . . . . . . . . . . o o . . . . o . . . o o o o o o o o o o o o o o o o o o o o o o o o o o o o o o o o o o o O o o O o O O O O o o o o O O O O O O O O O O O o o o O O O O O O O O O O o o O O O O O O o o O O O O O O O O O O O O O O O O O O O O O O O O ; ; O g X.e % ; 1 O z $ o ; ; ; ; 4 X X o O o % O & 1 % 2.Z.{.& 5 3 5 5 3 5 u S y P C.XXoXx.V.#.P 5.f.$.W y C 5 5 z z 4 P R Q 3.P n.5.K y C u 5 C z u 5 z 5 3 5 5 5 3 %.U s  X6.X & X.B.z C 1 1 1 3 P O ; O O O O % O O # v . ; % l 4 ; 0 l @ c . . o # p - Z m . o . . . % - o X % o o o o o o o o o o o o o o o o o o o o o o o o o o o . . . o o o o o o o o . . o o . . . . . . . . . . . . . . . . . . . . . . . . . . . . . . . . . . . . . . . o . . . . . . . . . . . . . . . . . . . . . . . . . . . . . . . . . . . . . . . . . . . . . .         ",
"    . . . . . . . . . . . . . . . . o o . . . o o o . o o o o o o o o o o o o o o o o o o o o o o o o o o o o o O O o O o o o o o o O O o o o O O O O O O O O o O O O O o o O O O O O O O O O O O O O O O O O O o o O O O O O O O O O O O O O O O O O O O O O O O O ; % O ; Z r . > & ; O - O o . o ,.& o o o , 1 1 % 4 z N c @X-.% 3 3 C 3 C C A U 2.@X=X|.n.Z.p.f.%.J 3 l Q 1 5 3 5 3 3 z 3 % % 3 4 N.u.5 1 R 5 5 5 U 5 5 4 3 5 5 5 5 5 1 a u.J x.n.> X.Z.U U 4 1 1 1 * 1 ; ; ; o X > o o >.0.A > $ 1 o o o o # % C - o o ; o 3 o o . . . . . O - & o . o o o o o o o o o o o o o o o o o o o . o o o o o o o . . o o o o . o o o o . . . . . . . . . . . . . . . . . . . . . . . . . . . . . . . . . . . . . . . . . . o . . . . . . . . . . . . . . . . . . . . . . . . . . . . . . . . . . . . . . . . . . . . . . . .     ",
". . . . . . . . . . o . . . o . . . o . o . o o o o o o o o o o o o o o o o o o o o o o o o o o o o o o o o o o o o o O o O o o o o o o O o o O O O o O O O o O O O O O O O O O O O O o O o O O O O o O O O O O O O O O O O O O O O O O O O O O O O O O O O O O O ; ; O O o S t o , % > % . o o . . m u X o O X X , c 3 N p h b.|.% 3 z a z z A 9.Z.x.XXg.*Xx.#.L u C C z C 5 5 5 3 1 5 5 z 6.d.d.k.D N.V.S P C % 3.C 5 S A 5 1 C C z 3 5 u 4 r R S %.V.P V.5.3.Y o O 1 1 % A 4 1 o e P ; + f g . o - o o o o 3 - . & . o . o o o o % ; . . . . X O o X o o o o o o o o o o o o o o o o o o o o o . o o o o o o . o o o o o . . o o . o . . . . . . . . . . . . . . . . . . . . . . . . . . . . . . . . . . . . . . . . . o . . . . . . . . . . . . . . . . . . . . . . . . . . . . . . . . . . . . . . . . . . . . . . . . . . ",
". . . . . . . . . . . . . . . o . . o . o . o o o o o o o o o o o o o o o o o o o o o o o o o o o o o o o o o o o o O o o o o o o o O o o o O O o o o O O O o O O O O O O O O O O o O o o o O O O O O O O O O O O O O o O O O O O O O O O O O O O O O O O O O O O ; ; O O o j X.@ ; X . o ; X o . o o ; ; O O h A % % x u % 4 r. XY $ C r 1 1.Z. X%.C.x.z.y *X%.z S 5 5 5 5 5 z z 5 C S D C _ D q 6 1 f.p.C 5 z T 6 3 5 3 3 I % 3 3 5 P C p z D z u W Q %.*XQ K 8.w.8.; 1 u : . o O . o O O + O O o y ; X o O o - o % > X ; O o . X - . . . . . X - . . o o o o o o o o o o o o o o o . o o o o . . . o o o o o . . o o o o . . o o . . . . . . . . . . . . . . . . . . . . . . . . . . . . . . . . . . . . . . . . . . . o . . . . . . . . . . . . . . . . . . . . . . . . . . . . . . . . . . . . . . . . . . . . . . . . . . ",
". . . . . . . . . . . . . . . . . o o . . . . . . o o o o o o o o o o o o o o o o o o o o o o o o o o o o o o o O O o o O O o O o O o o o o O O O o O o O O o O O O O O O O o O O o O O O O O O O O O O O O o o O O O O O O O O O O O O O O O O O O O O O O O O O ; 1 O O O > X.# . o O - X . o . X g % o x 1 1 $ o 4 5 3 1 1 9.oXf s. .b.N.z.#.I V.#.L P z.5.=X$.D S u 5 C 5 Y Z 1 1 1 4 1 5 C P u 5 s.N.C 5 5 P ; C 1 5 u 3.% 5 5 1 & i., 5 5 5 5 R s.f.&Xl i.i.U F ; o O ; O ; % l o ; o z - X ; . ; , o O . 4 o $ - . o - . o . . X : s g . X % O o o o o o o o o o o o o o o o o o o o o o o o o o o o . o o o o o o o o o o o . . . . . . . . . . . . . . . . . . . . . . . . . . . . . . . . . . . . . . . . . . . o . . . . . . . . . . . . . . . . . . . . . . . . . . . . . . . . . . . . . . . . . . . . . . . . . . ",
". . . . . . . . . . . . . . . . o . o . . . . o o . o o o o o o o o o o o o o o o o o o o o o o o o o o o o o o O O O o O O O O O O o o o o O O O O O O O o O O O O O O O O O O O O O O O O O O O O O o O O o O O O O O O O O O O O O O O O O O O O O O O O O O O ; 1 O O O g O.e O O , % . o o o . g l l 4 1 O X ; % 1 5 & 1 r.}.+ 9..X}.#.~ I XX#.4.i P $.u.u.*Xc.1 C 3 5 5 3 5 3 5 5 5 Z A C $.5 5 u.B.5 z C 5 5 z O 3 C A 4 C 5 5 4 f 7.5 A P A 5 i =.XX5.i Y D e.> 1 ; ; ; ; O O O O + 2 & N $ l & c o o X ; o o . # v 4 g . % h - . . . . . r h . o o o o o o X o o o o o o o o o o o o . . . o o o o . . o o o o o o o o o o o . . . . . . . . . . . . . . . . . . . . . . . . . . . . . . . . . . . . . . . . . . o . . . . . . . . . . . . . . . . . . . . . . . . . . . . . . . . . . . . . . . . . . . . . . . . . . ",
". . . . . . . . . . . . . . . o . o o . . . . o o o o . o o o o o o o o o o o o o o o o o o o o o o o o o o o o O O o o o o o o o o O o o o O O O O O O O o o o O O O O o O O O O O O O O o O O O O O o O O O O O O O O O O O O O O O O O O O O ; O O O O O O O O ; O ; O O > $.e o ; , & o o o . > l 1 X ; 1 % j u % 1 3 3 5 m.&X}.l.#.R J 4 n.&.u.s 5 C u A $.E N.p.1 z 5 5 3 5 1 5 5 5 5 C 5 5 5 4 y.V.5 u 5 E 3 z 5 1 1 3 Y & Z 1 4 6 A 5 5 3 5 5 5 &.z.B.J f.Y 1 1 1 1 ; O ; ; O O 1 ; ; & 5 o X - . X z - X o o o X ; . . . O , o . ; o O O ; . o o o o o o o o o o o o o o o o o o o o . . o . o o o o o o o . o . . o o o o o . . . . . . . . . . . . . . . . . . . . . . . . . . . . . . . . . . . . . . . . . . o . . . . . . . . . . . . . . . . . . . . . . . . . . . . . . . . . . . . . . . . . . . . . . . . . . ",
". . . . . . . . . . . . . . . o . . . . . . o o o o o . o o o o o o o o o o o o o o o o o o o o o o o o o o o o o O o o o o o o o o o O o o O O O O O o O O o o O O O O o o O O o o O o O O O O O O o o O O O O O O O O O O O O O O O O O O O O O O O O O O O O ; ; O ; O O O $.o.. . o o . o o o ; , % ; ; X g 5 X 4 A 5 u t..XV.#.W y u l B.r x y 5 5 R C Z C C a.=Xl.y C 5 3 5 3 1 5 3 z 5 u 5 C C C z.1 5 1 i.5 5 5 C I X P 1 y 5 1 3 5 5 5 5 5 Z l l.s.z.Y P z 4 4 1 ; 3 4 y l O O X o ; o % c , X 1 z A g o . o X z l u > $ y > o . . $ - X ; . o o o o o o o o o o o o o o o o o o o o o . o o o o o . o o o . . . . o o o o . . o . . . . . . . . . . . . . . . . . . . . . . . . . . . . . . . . . . . . . . . . o . . . . . . . . . . . . . . . . . . . . . . . . . . . . . . . . . . . . . . . . . . . . . . . . . . ",
". . . . . . . . . . . . . . . . . . . . . . o o o o . o o o o o o o o o o o o o o o o o o o o o o o o o o o o o o o o O O o o o o o o O o o O O O O O o o o o o o o o O O O O O O O o O O O O O O O O O O O O O O O o O O O O O O O O O O O O O O O O O O O O O ; 1 O O O O - a = o o . o O o o M $ > O ; X j p X m U u 3 j N.y.c.v i 5 z f.r 1.#.y 5 3 Z 5 u C C S 3.oX%.1 C 3 5 5 z 5 1 Q u 5 5 u 1 P f.5 5 5 C 5 5 5 5 4.5 3 z i 3 % C C 5 5 5 5 5 S V.a.-.9.K u.d.I % 1 ; O o % 1 1 1 4 r 3.o O o 4 4 5 A h p N ; * S o . . . . o X - + % w o.m $ o o o o o o o o o o o o o o o o o o . o o . . o o o o . . o o o o o o o o o o . . . . o . . . . . . . . . . . . . . . . . . . . . . . . . . . . . . . . . . . . . . o . . . . . . . . . . . . . . . . . . . . . . . . . . . . . . . . . . . . . . . . . . . . . . . . . . ",
". . . . . . . . . . . . . . . . . . . . . . o o . . o o o o o o o o o o + . + o o o o o o o o o o o o o o o o o o o o o o o o o o o o o o O O O O ; . . ; o o o o O O O O O O O O O O O O O O O O O O O O O O O O O o o O O O O O O O O . : . 2 o . o O O O O O ; 1 . : O O - a = . ; . o o . ; X o ; O O O . p O 1 z 1 O @X+.<.=.S y 4 m.O.x K X O u 1 5 5 5 z u A S 4.V.$.3 5 C 1 1 3 5 1 5 5 z C 1 S N.5 1 ; 4 1 1 1 1 ; 1 % z F 5.E K C 1 C 5 5 u s .XW o.Z.y.E 1 z . 2 1 ; O 1 1 1 @ F o . o & A Z I 3 C c o o o o . o o ; - $ , $ > . . . # : O o o o o o o o o o o o o o ; . . o o . o o . o o o o . . . . o o . + o o o o . . . o o . . o . . . . . . . . . . . . . . . . . . . . . . . . . . . . . . . . . . . . o . . . . . . . . . . . . . . . . . . . . . . o . . o . . . . . . . . . . . . . . . . . . . . . . . . ",
". . . . . . . . . . . . . . . . . . . . . o o o o o o o . o o o o o o o . BXo o o o o o o o o o o o o . . O o o o o o o o o o O o O o o o O o o O . (.4X. o o O o O O O O O O O . o O O O O O O O O O o O O O O O O O O O O O O O O O o 0Xo BX. ( PX7 O O O O ; 1 o BX. O O o P t . ; ; O . rX. o o ; X ; : BX. 1 4 5 *.PX;.> b.&.5 1 b.+.- K & -X-XX S y S 5 5 C u C 5 8.oXp.u 5 Q 1 5 C 5 C Z K S 5 W &XS $.z.p.x.p.$.V.z.XXl.&XK S u C u 5 C z 5 5 a f.u i p., 5 P o BX2 1 O 1 O 1 ; O 1 1 ; z K N 4 4 4 z ; #Xj.o o . o . . . . . . . # J m + o . o o o . . o o o o o o o o . -X( . o o o o o o o o o o . . . . o FX. o . . o o o o o . 6X(.. o . . . . . . . . . . . . . . . . . . . . . . . . . . . . . . . . . o . o . . . . . . . . . . . . . . . . . . . . . . . GXNX. . . . . . . . . . . . . . . . . . . . . . . . . ",
". . . . . . . . . o . . o o . . . o o . . . . o o o o . L.. + . . . . o o PX. . . o O . . . o o o O . 2 { . ; . . . o O o o O O . . . ; O . . . . . 1XiX. ; . . . ; O o . . o . { 7 o O o O O . . . : o . . . : ; . . . o . . o O O . '.aX2 PX. : G.o ; o . . o 1 o PX. . . ; y d / . ; . Q.vX. . . . o N * PX. . % y t.+Xp 4.m.;.& 0.X.; !.X o 6X6X. . u 5 C O . O C P u u.V.$.a 7. .5 5 S Z 1 z f.x.W x.u y i u K C . ^.X Z X u . C o . . 1 5 z O O X.f.5 C =.9.W u.o PX6 ; & o o o 5 % e.0 4 z 4 . . ; 1 z . PX2 o ; . . o @ $ k Z > 2 >.; o . . . . O . { 2 o o . . . o o o . PX. o . . . o O . . . + . . . . o o PX. o . . . . o o o . aX,X. . . o . . . . . . o o . . o . . . o . . . . q.2 . o . . . . . . . . . U.. o . . . . . . . . . . . . . . . . . . . . . `.eX. + . . . . . . . . . . . . . . . . o . . . . . . . ",
". . . . . . . ) T.. G /.. . 2XVX<X. . } VXxX: . o o . 8XPX/.. h.sXNX| . . IX(.cX) . . J.BXaX: o o . b AXGXh.. ` NXvX9 o O O ; . (.BX0X. . ^ NXvX0 . >XyX. . ,XBX2X. o 9 vXNX0 { PXxXb o O O . `.BX4X. { sXNXJ.. . q.1XBX( 8XVXG o O . IX8 7 IX. o (.. . ` VXlXQ.. o LXU.vX) . *.UXAX| . . GX) o ] VXmX7.c.o.IX;XMX*.<.|.OXl P C.&.m.:.g OXPX6XO 3X0XtX0X. C . 3XSX2Xo 3 k.1XDX^.$.u 5 C 5 5 W V.$.$.3 S & D 1 5 C u 1 9XPX-X. P.F VXp ~.nXvX) O D j.tXSXk.4 % ;XDXrX2 O PX2 o ^.nXcX( . [ IXMX7.. !.SXdXo % 1 !.cX. L.F MXn 7 CXBX[ . 7 BXGX} . #XxXxX0 . q.PXsX8 . ~.BXrX. o . `.rX. : vXbXh.. . 4XBX_.. F.lXvX` . o PX. . ^ NXvX0 . o o . iX>X. [.` . { VXxX+ + '.. . _.8 . <XVX,X. . . . q.PXaX7 . /.BXyX. . . . . [.PX,X. D.7 CX7 D.sXvX) . + } 4XBX{ . . G.BXaX+ + AXBXJ.. D.BXxX+ . 0 ^ <X[.0 H.BX<X` BX,X. . . . . . . . ",
". . . . . . . [.NX. L.FX. '.vX) _.. 7 PX^ `.GX. o . . '.FXG . Y.H.q.PX+ . PX(.D.PX. / PX) `.9 o o o : NX6X8 o PX) D.IX. O O . U.GX) ].+ . PX| U.IX. >XyX. (.BX7 BX`.. IXG.h.8 0 IXT.: o O . Q.FXG h.. L.L.{ PX7 . PX/.} PXJ.L.IX. o [ FX. 7 IX. + PX. o PX` h.PX. . PX_.F.PX. v HX>X8 X n IX. r PX] K.IX. : PXW.P.IX9.&.PX4 5.V.z.;.3 5 *.PXj.o ].LX] mX0X. 3XvXF GX^.. PX).| PXl.z.J z $.%.y O . O . + 3X. 5 u 5 5 1 ~.IXj.; lXGX!.5 ).j.^.IX. 6 PXj.+XIX. j.LXv.:Xg., PX2 . ).| ~.IXO 0 IX/.v ` PX9 eXxX. . FXe.o dXGXQ.. LXI.) PX: o xXfXn $ ;X{ `.LX. ^ IXY.o q.IX7 sXrX. . IX0 . LXT.L.F.. 6XlX/ | . ~.D.H.PX. o PX. . PX{ U.IX. o o . iX'.b PX. 7 PX^ '.FX. PX+ . PXo 1XxX) _.. . . . ^ IXU.o q.GX8 5XsX. . . . D.PX[ . 5XIXT.. T.D.H.PXo + PXJ.{ PX. ) PX( _.7 o sXyX7 7 PX0 W.GX. / PX,X7 [.LX7 NXVX7 LXD.. . . . . . . ",
". . . . . . . ~.xX. F.BX. gX_.. . . } BX. b IX. o o . } BX. : . . . IX7 . PXo . IX8 I.BX. . o o o o . aX(.. ^ LX. . PX+ o o . 6X8X. . O G GX. . PX. >XyX. xXJ.. 4XeXo PX. . O . IXb o O O . rX,X. o : . . . GX` . IX2 . PXo 2 PX. . vXL.. 7 PX. + PX. ^ IX. 7 PX. o PX. . PX2 . MXR.. . hXOX. ^ LX> . PX2 + PX. . PXt V PXh 5.B.-.! a y O PXX . 2X0X. ~.mX. mXj.. pX3X. PXO . LXA.c.B.p.& T sXqX0X0X0X-XLXtX. 5 5 u 3 H LX. . mX~.1 4.. . o PXo 6 IX. $.PXo -XzXt 2.c . PX6 5 . . o PX. . JX( @ #XdX. q.FX. F IX. o xXY.1 h PXo . GX) . 5X1X. + . . 2 PX. . IX9 . <X2X. I.NX. ) HX. . PXo . . . NXF.. . : . . . PX+ o PX. b GX. . PX. . . . iXY.BX[ . h.NX. 0 IX. BX} ^ GX. xX/.. . o . . . . IX8 . <X8X. ) GX. . . . + IX. . yX[.. + . . . PX+ o PX. . PX+ U.BX. . . . 4X<X. H.BX. o PX. ^ GX. . ].rX. 6X'.. sX/.. . . . . . . ",
". . . . . . . ~.xX. F.BX. G PXPXyX. { PXaXPXI.. o o . h.BX. . /.IXvXPX2 . PXo . IX0 . BXPXVXo o o o . dX_.. ^ IX. . PX: o o o 7 LXPXxX. G PXdXPX(.. >XyX. 0XFXvXLX2 + PX. o O . IXG o O O . 8X2X. O . L.IXvXPX^ . IX8 o PXo 7 IX. . PX. O 7 PX. + PX. / IX. 6 PX. o PXo . PX2 . mXI.g . PX. - G IX. o PXv + PX. M PXc T PXS r.&XZ.O.. 1 O PXo y 1XtX. ~.cX. lXSXmXGX1 . PXv . IXT f.f.N.y.y O % o X X O zX. 5 5 5 1 u  .LX. . cX).o o wXJXmXIX. v PX. 4.PXO 6 GXPXMX; . PX2 . 4XUXmXLX. X JXe.@ ^.IXsXPX[ . iX-XO 4 gX).; , PXo . JX[ . uX2X. . yXGXVXFX. . IX0 . '.IXlXIX^ . xXY.. . 4XPXIX} . VXI.. o . '.LXvXPXo o PX. 0 PXaXIX/.. o o . yXeXLX. . { PXdXPXG.. ,X<XT.aX. ( PXPXrX. . . . . IX0 . <XrX. [ GX. . . . 2 IX. . rX>X. . `.IXvXPX+ o PX. . PX+ . FXPXVXo . 6X<X. D.BX. + PX. ^ IX. . _.aX. 8X<X. xXW.. . . . . . . ",
". . . . . . . /.sX. D.BX. . . . IX/ } FXo . . + o o . D.BX. . PXo . IX7 . PXo . IX7 o . . gX2X. o o . dX(.. G IX. . PX+ o O O . . . HXL.b IX+ o . o >XyX. lX/.+ . o + PX. o o . IXb o O O . rX,X. o . PX0 . GX) . IX8 o PXo 7 PX. (.iX. o 7 IX. + PX. G IX. + PX. o PXo . PX2 - MX+X& E.kX. o H LX. . PX< Y PXu.N.PX$.7.IX& r.X.s.f.p.t . PXo O 1XtX. ^.cX. mX~.6 . O . PX6 . IX! 5 N.p.f.u.V.3 5 C 5 C o 3 5 3 3 1 1 ] LX. . cX).X n PX. . PXX 6 PX* E PXo 5 . % ZX^.. PX2 F PX. . PX. . GX) . /.cXo . . . PX2 I o zX[.; 1 PXo . JX` . eX,X. ) IX. + IX. . IX0 . 1XrX+ . . . PX. o ; . . h.LX. VXF.. . o PX. . PXo o PX. b LXo o . + . . . iXI.xXW.. } BXo . . o ` xXeXG.. . . . IX^ . . . . IX0 . <X0X. ) GX. . . . 2 IX. . rX>X. o PX. . IX+ o PX. . PX+ . . . xX,X. 6X<X. D.VX. @ PX. ^ IX. . _.aX. 5X<X. xX~.. . . . . . . ",
". . . . . . . J.GX. 6XBX. ( ) 7 PX0 7 PX2 ( D.. o o . D.GX. . PX) / PX: o PXG 9 PX. 8 | + mX_.. o o . sX<X. + PX9 / PX. o O o H [ + IX[ + PX0 b U.. 2XaX. ,XxX+ L.H . PX{ b b . IX[ . O o . [.BXo ] . IX} 9 PX/ . PX9 o PXo 8 PX. IX0 O o 8 PX. + PX. o PXU.8XIX. o PXo . PX2 . NX#Xk KXv.s % @ PX0 ) PXc p.PXV k.PX3 T PXo S.gXf.s U C.;.PX6 . 3XpX. ).mX. qXdX+ P.! . PX6 . PXT C 5 s.oX#.s.XXJ % C 5 u 1 3 Z 5 5 % ] IXo . mX-X; 6 PXF j.PX. 6 PX3 c PXo ! j.2 GX/.7.PXv 2 PX8 F.PX. . LXh.. { LX+ { ] L.mX. I . nX-X~ k IX{ 2 PX7 . yX8X. 0 PX+ W.IX. . IX) . I.FX+ h.G `.aX. o . D.7 Q.FX. eXaX+ ) . PX^ ) PXo o PX. + PX0 0 L.. o o . sX<X+ PXo 7 PX: ) H.. o LXGX2 . ) ) 7 PX7 . . . . PX/ . I.AXo $XvX. . . . + PX. . aX<X. . PX^ ) PX+ o PX. . PX+ 7 } + VX/.. rX6X. 0 PX+ D.LX. / IX. . '.sX. yX4X. vX/.. . . . . . . ",
". . . . . . . . iXLX_.Y.. J.BXGXU.. . Y.GXBXF.. o o o . vXrX. } GXlXU.8 . `.BXGX{ . 9 NXGX8X. O o o . ^ GXY.. D.GXGX( . o O . { BXLX`.. . H.GXSX~.. L./.. . iXLXxX8 . ) FXGX{ . U.IXb o O O . eXLXdX. ] GXvXY.^ . 0X2 o eX. : 0X+ 5X. O O : 0X. + rX. . G dXH.PX. o eXo . rX+ > j.JXS.wXM 9.M.l.^.KXKXS.5.8.wXFXJXv.1.i.IXm v.PXO a.B.L 1.jXKX& J.).X j.].X o lXUXlX6 O tX1 . 0XF 5 A z N.n.y C s..X% A S 5 4 C 5 3 5 ; dXmX. OXj.. . ).LXqX^.1 6 8X%.x rX.  .VXLX7Xf.N 0X1 . /.LX8XY., . J.IX( . '.LXVX' -X' z z ; #Xj.> 4 ' FXGXK.. . 0 FX/.. '.IX1XL.. . Q.IX0 . 4XLXNX7 2X8 o o . rXFXBX2 o . gXJX4X. J.UXyXT.+ o eX. . H.GXAXT.. o o . /.J.. _.J.. W.UXBXD.. . '.LX. . L.BXGXG.. . . . . ~.LX7 . <XLXbXo . . . . . 5XBX. /.G.. . D.GXaXU.+ o tX. . rXo 0 VXGX5X. . T.I.. . T.GXBX0 . 7 6X. . D./.. T.L.. _.{ . . . . . . . ",
". . . . . . . o . . . . + . . . . o o . . . . o o o . o . . : . . . . . + . . . . + o . . . ; o o o O . . . : . . . . O O O O . . . . : O . . . . : . . ; ; . . . O O . . . . : . . o O O O : . . . : . . . . o : . O ; . ; O . : . : O O O . : + . : o ^ . G PX. : . ; : . ; , 5 - N x 9.8.u.Y l <.6.f.s.a.1.u g R 2.7.PX4 7X-X$ M i.6.g.l z.x.#.X ; X ; L 3 . . . 1 1 . 5 2 . 3 5 z S A I .X1 u 5.XXL O 5 1 5 4 1 5 z . . D . . 1 3 o . o . % i y z.c X 4.E - X j %.1.. z 3 o . . . 1 1 . . . 1 . . . 4 . , 6 C M & g b N o . . . o - . . . + . . . . + + . . . : . . . + . . o o + . . . o o o . . . : . . . . o o . + o . . . . o o o + . . + . . + . . . . o . /.xX. o . . . . o . . . o . . . o . . . . . . . . X . . o . . . . . . . . . o . o o . . . . . . o . . . . o . . . . . . . o . . . + . . o . . . . . . . . . ",
". . . . . . . . . . . o . o . . . . . . o o o o o o o o o o o o o o o o o o o o o o o o o o o o o o o o o o O O o o O O O O O O O O O O O O O O O O O O o O O O O O O O O O O O O O O O O O O O O O O O O O O O O O O O O O O O O O O O O O O O O O O . 2XIXIXQ.. ; ; ; ; ; ; % O ,.3.1.U z N A 2.a.s.a.9.a.8.n.%.I k.PX%Xo.< $ 5 4 & ; P S b.O.2.V.X.z ! 6 5 l K 5 c ] 1 4 d.5 5 A u 5 K P Z.|.1 C 5 f.x.O 1 C 5 C 5 1 1 1 5 3 1 1 O y #.%.l.V..XC.f.Q a.5.U S , J 5 B.8.4 4 1 1 5 5 4 O 1 O O o . X O ; 4 u n U l 5 $.E g o X , o X # 1 - . . O o o o o O o o o o o o o o o o o o o o o o o o o o o o o o o o o . o o o o o o o o o o o o o o o o o o o o . . o IXVX. . . . . . . . . . . . . . . . . . . . . . . . . . . . . . . . . . . . . . . . . . . . . . . . . . . . . . . . . . . . . . . . . . . . . . . . . . . . . ",
". . o . . . . . . . o . . o o . . . . . o o o o o o o o o o o o o o o o o o o o o o o o o o o o o o o o O o O O o o O O O O O o O O O O O O O O O O O O O O O O O O O O O O O O O O O O O O O O O O O O O O O O O O O O O O O O O O O O O O O O O O O : . . . . : ; ; ; ; ; ; & ; x c A u 4 l z x 0.n.s.f.8.n.A.g.5.9.y s.&.a 3 5 1 o I D U 3.B.t ,.=.z 5 1 3 1 1 4 1 O 1 1 o 1 1 3 5 3 A S A *X%.A u 5 R s.R $ z 1 1 C 4 3 3 a J L z.Z B.a.z & ; s z.1.S 4.U Y 4 3 C l =.9.; 5 4 & ; o q > o . $ h X ; O 5 l z 4 A l @ t k % h o o o X , . . X o o o o O O o o o O o o o o o o o o o o o o o o o o o o o o o o o o o o o o o o o . o o . . o o o o o o . . . . . . . o . . . . . . . . . . . . . . . . . . . . . . . . o . . . . . . . . . . . . . . . . . . . . . . . . . . . . . . . . . . . . . . . . . . . . . . . . . . . ",
". . . . . . . . . . . . o . . . . . . . . o o o o o o o o o o o o o o o o o o o o o o o o o o o o o O o o o o O o O O O O O o o o O O o O O O O O O O O O o O O O O O O O O O O O O O O O O O O O O O O O O O O O O O O O O O O O O O O O O O O O O O ; ; O ; ; ; O ; ; ; O ; & O ; ; , h P z z z 2.b.s.f.n.S.A.i.Y r.C.&.A 3 5 3 X 4 u z C S c f.s m.o.4 I a O 1 1 1 1 1 O ; 1 1 1 1 1 1 4 5 l n.y 5 3 % C E XXD 3 y i l.J p.N.R J 4 % O O 3 5 & U y f.u 4.U U l O o C . C $.o 1 ; y l d m X ; ; o . . & z l v a N O O O l . ; o o . . . X ; X o o o o O O o o o o o o o o o o o o o o o o o o o o o o o . . . . o o o o o o o . . o . o o o . o o o . . . . . . . . . . . . . . . . . . . . o . . . . . . . . . . . . o . . . . . . . . . . . . . . . . . . . . . . . . . . . . . . . . . . . . . . . . . . . . . . . . . . . ",
". . . . . . . . . . . . . . . o o o . . . . o o o o o o o o o o . o o o o o o o o o o o o o o o o O O O o O o O o O O O O O O O o O O o o O O O O O O O O O O O O O O O O O O O O O O O O O O O O O O O O O O O O O O O O O O ; ; ; O O O O O ; O O O ; 1 ; O O O O ; ; ; ; O ; 3 1 O , 4 4 l z z B r.f.9.C.S.V.x.$.b.XX:.A u 5 3 1 4.d i u z 3 I V.L }.= 5 Z C % O 1 1 O 1 u 5 5 5 3 1 % 3 u $.y.XXp.x.l.z.$..XXX4.p.u.P 1 % 3 5 J C b F 1 u 3 5 C $ y.5 E E U z % 1 X 5 . %.2.1 4 ; , q x l ; o O o X 1 1 ~ -.<.. f ,.. r g O o . o o 1 o . o o o o o O O o o O o o o o o o o o o o o o o o o o o o o o o o o o o o . . o o o o o o o o o . . o o o o o o o . . . . . . . . . . . . . . . . . . . . . . . . . . . . . o . . . . . . . . . . . . . . . . . . . . . . . . . . . . . . . . . . . . . . . . . . . . . . . . . . . ",
". . . . . . . . . . . . . . . . o o o . . o o o o o o o . o o o o o o o o o o o o o o o o o o o o o O o O O o o o O O O O o O O o o O O O O o O O O O O O O O O O O O O O O O O O O O O O O O O O O O O O O O O O O O O O O O O ; O O O O O ; O O ; O ; O O O O O ; O ; ; ; O o h I & l 4 5 % l C N b.n.u.f.y.Q S & X r.@.> Z 3 1 4 u u 1 5 3 4 i c B.oXt S i 1 K 5 . o u X O % 5 L u u $.Z P 4.4.l z z 5 1 4 5 4 O . . X 1 C O O 1 1 X d.O 1 z 3 C S p.l S E U z ; ; o 1 . X C I % l o d 2.- o . C - = x t n.r.k X > . . $ x o - o O - . % & o O O o o o o O O O o o o o o o o o o o o o o o o o o o o o o o o o o o o . . . . o o o o o o o o o o . . o o . . . . o . . . . . . . . . . . . . . . . . . . . . . . . . . . . . . . . . . . . . . . . . . . . . . . . . . . . . . . . . . . . . . . . . . . . . . . . . . . . . ",
". . . . . . . . . . . . . . . . o o . o o o o o o . o o o o o o o o o o o o o o o o o o o o o o o o o o o O o o o o O O O O O O O o O O O O o o O O O O O O O O O O O O O O O O O O O O O O O O O O O O O O O O O O O O O O O O O O O O O O O O O O ; ; O O O O O O O ; ; ; ; C t > ; l 1 m Q Z l 1.S @ . o 1 % ; 5 1 ,.O.o 5 1 X 1 1 ; 5 4 1 O a.t 1.8.l.O u 3 4 5 5 5 o K Z S 5 S 4 4 A O O 3 4 1 z u 5 1 5 S z 5 X 5 C 1 z 5 1 1 1 1 5 4 5 1 3 C l #.I u E U 4 O O O 3 - % ; 5 4.; l * Y 1 r W o & 6 ;.M...f E.t.e 1.- @ J k o . o o O . . O O O o o o O O O O o o o o o o o o o o o o o o o o o o o o o o o o o o o o o . . o o o o o o o o o o . . o o . . . . o o . . . . . . . . . . . . . . . o . . . . . . . . o . . . . . . . . . . . . . . . . . . . . . . . . . . . . . . . . . . . . . . . . . . . . . . . . . . . ",
". . . . . . . . o . . . . . . . . . . . . o o o o o o o o o . o o o o o o o o o o o o o o o o o O O O o o o o o o o O O O O O O O O O O O O O O O O O O O O O O O O O O O O O O O O O O O O O O O O O O O O O O O O O O O O O O O O O O O O ; O O O ; O O O O O O O O ; O O O O ; M r - ; O > l u X . ; z 3 % o Z 1 4 ,.;.# 5 $ 4 u o 5 % 1 z 5 % 4 l Z 0.X.5 & 3 5 C 3 4 5 3 1 1 1 5 3 O 1 5 5 C 1 K P C u 1 u u 5 5 % 4 A 1 1 5 3 1 1 1 5 4 5 5 5 5 o.f.3 R U 1 3 ; ; O 1 . D - #.M.o 5 + P 4 c l , r x.t.h ; l o o . . o X j % , o . . . o o O O o o o o O O O o o o o o o o o o o o o o o o o o o o o o o o o o o o o o o o . o o o o o o o o o o . o o . . . . . . . . . . . . . . . . . . . . . . . . . . . . . . o . . . . . . . . . . . . . . . . . . . . . . . . . . . . . . . . . . . . . . . . . . . . . . . . . . . ",
"    . . . . . . . o o o . . . . . . . o o o o o o o o o o o o o o o o o o o o o o o o o o o o o o o O o o o o O O O O O O O O O O O O O O O O O O O O O O O O O O O O O O O O O O O O O O O O O O O O O O O O O O O O O O O O O O O O O O O O O O ; ; O O ; ; O O ; ; ; O ; O 4 * j & ; O ; j & . ; 1 O 4 % h $.c z 5 <.-.o 5 $ 1 O C & % 1 ; 1 5 5 u 5.4.}.A a W y C #.r & i 5 u 1 P u 5 5 5 3 z % 1 3 C 5 5 3 u 3 Z 1 & 4 5 z 5 1 1 O u 6 1 1 5 4 3 & z.1 P I o 1 ; O O 1 & r 6.> p V.l * C 1 . O h o.b.@ = ; O . . . o o t M o . . . . X O o o O o o o o o O o o o o o o o o o o o o o o o o o o o o o o o o o o o o o o o o . o o o o o . . . o o o o . . o . o o . . . . . . . . . . . . . . . . . . . . . . . . . . . . . . . . . . . . . . . . . . . . . . . . . . . . . . . . . . . . . . . . . . . . . . . . . . .     ",
"        . . . . . . o o o . . . . o o o o o o o o o . o o o o o o o o o o o o o o o o o o o o O o o o O o o o o o o o o O O O O O O O O O O O O O O O O O O O O O O O O O O O O O O O O O O O O O O O O O O O O O O O O O O O O O O O O O ; O O O ; 1 O ; ; ; ; O ; ; ; O O O $ > l 1 o o ; 5 X o O ; O - 3 1 1 1 l 3 M #.X ; 1.f @ ; O 1 O 1 5 3 5 z A s.B.;.. C 1 4 z A S S C 4 i ; 1 1 1 1 1 1 O 1 5 5 R 5 C S % 1 1 Q 4 4 4 5 4 O 1 % h.; 1 5 1 1 O p.1.S N o O O 4 O 3 4 o = a.I N 4.R u.E Z 5 X.g.<.@ z ; . . . o o o r k o . . . . X o o o o o o o o o O o o o o o o o o o o o o o o o o o o o o o o o o o o o o o o o o . . . . . . o o o o o o o o o o o o o . . . . . . . . . . . . . . . . . . . . . . . . . o . . . . . . . . . . . . . . . . . . . . . . . . . . . . . . . . . . . . . . . . . . . . . . .         "
};
