/* XPM */
static char *_7406957374144c2af5218a1b5d2f8f7EHBnuRcaF8i6VjzV[] = {
/* columns rows colors chars-per-pixel */
"1800 129 256 2 ",
"   c None",
".  c #000204",
"X  c #010A05",
"o  c #00050A",
"O  c #00090D",
"+  c #0A0B0D",
"@  c #0A0506",
"#  c #160606",
"$  c #011304",
"%  c #021B03",
"&  c #00120D",
"*  c #011B0C",
"=  c #0B1607",
"-  c #000512",
";  c #000C12",
":  c #0B0E12",
">  c #00051B",
",  c #000C1B",
"<  c #0B0818",
"1  c #001314",
"2  c #0C1215",
"3  c #001A15",
"4  c #00141B",
"5  c #0D151A",
"6  c #001B1B",
"7  c #0C1B19",
"8  c #14161A",
"9  c #14191C",
"0  c #161718",
"q  c #16100D",
"w  c #2B0C0B",
"e  c #02230C",
"r  c #042806",
"t  c #033607",
"y  c #012314",
"u  c #012B14",
"i  c #01221C",
"p  c #012B1C",
"a  c #0B2619",
"s  c #02331C",
"d  c #043817",
"f  c #162B12",
"g  c #2A2D11",
"h  c #000423",
"j  c #000C23",
"k  c #000C2B",
"l  c #02052A",
"z  c #001423",
"x  c #001C23",
"c  c #01142B",
"v  c #001C2B",
"b  c #0B1925",
"n  c #1B1E22",
"m  c #151B23",
"M  c #010936",
"N  c #011433",
"B  c #011C33",
"V  c #01193B",
"C  c #151030",
"Z  c #012323",
"A  c #012B24",
"S  c #01242B",
"D  c #012B2B",
"F  c #0B2726",
"G  c #1C2125",
"H  c #172828",
"J  c #023324",
"K  c #02332B",
"L  c #023B2B",
"P  c #053925",
"I  c #012433",
"U  c #012B33",
"Y  c #01243B",
"T  c #012C3B",
"R  c #0B2937",
"E  c #023334",
"W  c #023B34",
"Q  c #01333C",
"!  c #023B3B",
"~  c #0A3737",
"^  c #183637",
"/  c #162F2F",
"(  c #232529",
")  c #24292D",
"_  c #272829",
"`  c #282D32",
"'  c #2A3437",
"]  c #35383B",
"[  c #2C342A",
"{  c #2A1A28",
"}  c #4F2316",
"|  c #034707",
" . c #044619",
".. c #045718",
"X. c #0D540B",
"o. c #2C5012",
"O. c #096D10",
"+. c #044628",
"@. c #045628",
"#. c #044638",
"$. c #045738",
"%. c #174D31",
"&. c #2D4A33",
"*. c #046639",
"=. c #07702E",
"-. c #2B6E20",
";. c #565328",
":. c #011946",
">. c #011A56",
",. c #020B49",
"<. c #012C44",
"1. c #012748",
"2. c #013343",
"3. c #023C43",
"4. c #01334B",
"5. c #013B4B",
"6. c #0B3947",
"7. c #012956",
"8. c #023857",
"9. c #173347",
"0. c #393D42",
"q. c #283847",
"w. c #012866",
"e. c #013866",
"r. c #023375",
"t. c #061966",
"y. c #034748",
"u. c #055748",
"i. c #024353",
"p. c #034958",
"a. c #045758",
"s. c #16504F",
"d. c #394547",
"f. c #314D4E",
"g. c #056848",
"h. c #067748",
"j. c #056658",
"k. c #057757",
"l. c #146E52",
"z. c #024866",
"x. c #035866",
"c. c #024876",
"v. c #035777",
"b. c #165469",
"n. c #305568",
"m. c #056767",
"M. c #067768",
"N. c #056877",
"B. c #057877",
"V. c #156E6A",
"C. c #2F686B",
"Z. c #306C55",
"A. c #444A4D",
"S. c #444649",
"D. c #494D52",
"F. c #4D5255",
"G. c #485758",
"H. c #525659",
"J. c #56585A",
"K. c #4F544A",
"L. c #4E6659",
"P. c #5A5E61",
"I. c #495A68",
"U. c #5A6566",
"Y. c #4F6C6F",
"T. c #65686A",
"R. c #696D72",
"E. c #6A7576",
"W. c #75787A",
"Q. c #667669",
"!. c #69604F",
"~. c #483C4D",
"^. c #098913",
"/. c #098B31",
"(. c #2B8A25",
"). c #058748",
"_. c #068658",
"`. c #0A9453",
"'. c #078768",
"]. c #069668",
"[. c #078778",
"{. c #079578",
"}. c #138D6E",
"|. c #209862",
" X c #728479",
".X c #508E6D",
"XX c #518F2F",
"oX c #035386",
"OX c #046786",
"+X c #057786",
"@X c #087393",
"#X c #346889",
"$X c #7A7D82",
"%X c #6A7986",
"&X c #517287",
"*X c #013783",
"=X c #068887",
"-X c #079688",
";X c #099292",
":X c #12A28B",
">X c #7A8486",
",X c #718C92",
"<X c #5E9997",
"1X c #76C1B1",
"2X c #818385",
"3X c #858A8B",
"4X c #87898B",
"5X c #8B8E91",
"6X c #8B9495",
"7X c #929395",
"8X c #9A9B9D",
"9X c #95999A",
"0X c #8B928F",
"qX c #9A9EA1",
"wX c #8C9BA6",
"eX c #9BA4A5",
"rX c #91ADB2",
"tX c #A2A3A5",
"yX c #AAABAC",
"uX c #A5A9AA",
"iX c #AAAEB1",
"pX c #ACB3B4",
"aX c #B2B3B5",
"sX c #BBBCBD",
"dX c #B5B9BA",
"fX c #A9B3AD",
"gX c #94A59A",
"hX c #ADC9B7",
"jX c #B7BDC2",
"kX c #9AB2CA",
"lX c #BCC4C5",
"zX c #B5CFD0",
"xX c #A0D3D3",
"cX c #C3C4C5",
"vX c #CBCCCD",
"bX c #C5C9C9",
"nX c #CCCED1",
"mX c #CCD3D4",
"MX c #D3D4D5",
"NX c #DBDCDC",
"BX c #D6D9D9",
"VX c #CAD3CC",
"CX c #DBDEE1",
"ZX c #DEE2E2",
"AX c #D0EBE8",
"SX c #E3E4E4",
"DX c #EBECEC",
"FX c #E6E9E9",
"GX c #EFF1F1",
"HX c #F3F4F4",
"JX c #FEFEFE",
"KX c #F7F8F8",
"LX c #EEEFF0",
"PX c #DBE3DD",
"IX c #C2C8BE",
"UX c #89473B",
/* pixels */
"                                                                  . . . . . . . . . . . . . . . . . . . . . . . . . . . . . . . . . . . . . . . . . . . . . . . . . . . . . . . . . . . . . . . . . . . . . . . . . . . . . . . . . . . . . . o o . . . . . . . . o o o . o o o o o . o o o . . o o o o o o o o o o o o o o o o o o o o o o o o o o o o o o o o o o o o o o o o o o o o o o o o o o o o o o o o o o o o o o o o o o o o o o o o o o o o o o o o o o o o o o o o o o o o o o o o o o o o o o o o o o o o o o o o o o o o o o o O O o o o o o o o o o O O O o o O o O O O O O o o o O O O o o o o o o o o o o o o o o o o o o O o o o o o o o O O O O o o o o o O o o O O O O O O O O O O O O O O O O O O O O O O O o o o O O O O o O O O O o o O O O o o o O O O O O O O O O O O O O O O O O o o o o o O O O O O o o o o O O O O O O O O O O O O O O O O O O O O O O O O O O O O O O O O O o o o o o O O O O O O O O o o O O O O o o O O O O O O O O O O O O O O O O O O O o O O O O O O O O O o O o O O O O O O O O O O O O O O O O O O O O O O O O O O O O O O O O O O O O O O O O O O O O O O O O O O O O O O O O O O O O O O O O O O O O O O O O - - O O O O O O O O O O O O O O O O O O O O O O O O O - - , ; , ; O & O O ; O O - ; 4 N V K | X.| q # : 1 1 & O O - , , 3 6 6 4 1 1 * & 1 O ; z c v Z u e * & O O O O O O O O O O - , > > , 1 & & - , , , 4 z z 1 & & O O O O X X O O O O X O O O O X O O O . @ X O & & O O O & & 1 1 1 & 1 1 1 1 $ = w q 2 3 3 v >.w.a.k.N.@X=X].(.!.-.| u y y 6 6 6 6 6 6 6 6 6 3 3 6 6 x 6 6 6 6 6 6 6 3 3 6 6 6 6 6 i i i p y Z S J d y 6 v v U 2.i.#.P 2.r.+X`./.u.a.x.N.+X;X].`./.=.u.p.v.+XB.M.k._.)./.-.&.P P J A A A Z Z S V 1.1.8.z.m.N.m.j.g.$.$.+.d y i Z x v S Z 6 6 x x i i 6 6 4 4 i S I I Z x 6 4 1 1 3 & 1 Z W s.u.#.E T 1.1.Q 3.3.4.<.Q Q <.I v A A K K W m.m.W x B B I D Q #.y.y.L p p K E S Z i 6 6 i i i 6 x 6 6 6 6 6 6 y y 6 6 Z F F 3 y Z 6 3 1 R 6.v 6 3 6 6 6 6 6 6 6 6 6 3 3 6 6 6 6 6 6 6 6 6 6 6 3 3 y s  .$.y.7.1.v y i A D P %.O.^.`.-XoXe.V Z i 6 3 3 3 * 3 3 3 3 3 3 y  .=.h.k.k.m.3.U U E U U S x 6 3 y 6 6 4 1 1 1 1 1 1 1 1 O 3 6 z , 1 1 ; 1 O O O & ; ; , , ; ; ; ; ; 1 1 ; ; ; O O 1 2 1 O O O O O O O & * % & O O X O - O O O O X @ w w a U ,.l . . . . o o - - O O X o o X X O o - o o . X o o o - > ; O & i Y V N j , O O - O O O - - o o . . . . . . . o o . . X X @ # } } g t U >.,.- . o - o . . . . . . . . . . . o O o o o . . . . . . . . . . . . . . . X X O O O - - - O O O . . o o o o . . . . . . o o o o o o o o o o o o o o o o o o o o o o o o o o o o . X O O o o o o o o o o o o o o o o o o o o o o o o o o o o o o o o o o o o o o o o o o o o o o o o o o o o o . . . o o o . . . o o o o o o . . . o o o o o o o o o o o o . . o . . o o o . . o o o o . . . . o o o o o . o o o o o o . o o o o o . . . o o o o o o o . . . . . . . . . . . o o . . . . . . . . . . . . . . . . . . . . . . . . . . . . . . . . . . . . . . . . . . . . . . . . . . . . . . . . . . . . . . . . . . . . . . . . . . . . . . . . . . . . . . . . . . . . . . . . . . . . . . . . . . . . . . . . . . . . . . . . . . . . . . . . . . . . . . . . . . . . . . . . . . . . . . . . . . . . . . . . . . . . . . . . . . . . . . . . . . . . . . . . . . . . . . . . . . . . . . . . . . . . . . . . . . . . . . . . . . . . . . . . . . . . . . . . . . . . . . . . . . . . . . . . . . . . . . . . . . . . . . . . . . . . . . . . . . . . . . . . . . . . . . . . . . . . . . . . . . . . . . . . . . . . . . . . . . . . . . . . . . . . . . . . . . . . . . . . . . . . . . . . . . . . . . . . . . . . . . . . . . . . . . . . . . . . . . . . . . . . . . . . . . . . . .                                                                   ",
"                                                          . . . . . . . . . . . . . . . . . . . . . . . . . . . . . . . . . . . . . . . . . . . . . . . . . . . . . . . . . . . . . . . . . . . . . . . . . . . . . . . . . . . . . . . . . . . o o . . . . . . . o o o . . o o o o o o o . . . o o o o o o o o o o o o o o . o o o o o o o o o o o o o o o o o o o o o o o o o o o o o o o o o o o o o o o o o o o o o o o o o o o o o o o o o o o o o o o o o o o o o o o o o o o o o o o o o o o o o o o o o o o o o o o o o o o o o o o o o o o o o o o o o o o O o O O O O o o O O o O o o o O O O o o o o o o o O o o o o o O o o o O O O o o o o o o O O o O o o o o O O o o o o O O o o o O O O O O O O O O O O O O O O O O o o O O O O o O O O O O O O O O o O O O O O o o O O O O O o O O O O O O o o o o O O O O O O o o o o O O O O O O O O O o O O O O O o O O O O O O O O O O O O O O O o O O o o o o O - o O O O O O O O O O O O o o O O O O O O O O O O O O O O O O O O O o O O O O o o O O O O O o O O O O o O O O o O O O O O O O O O O O O O O O O O O O O O O O O O O O O O O O O O O O O O O O O O O O O O O O O O O O O O O O O O O O O O O O O - O O O O O O O O O O O O O O O O O O O O O O O O O - ; , ; ; ; O & O O ; O O - , , c :.U ..X.X.g w < ; & 1 1 1 ; - , 1 i 6 4 1 1 & & 1 & ; j c z 3 e * $ O O O . o o o o o - - ; , , , , 1 & O - - , , , j z 1 * $ O o O O X X O O O O O O O O O O O O O O O O & & & O O O & & 1 1 1 & 1 1 1 1 1 1 2 2 1 3 6 B >.r.a.k.N.@X=X`.(.!.o.| u y 3 6 6 6 6 y y 6 6 3 3 3 6 x v Z p 3 3 3 6 6 3 3 6 6 6 6 i i p p p i Z S P d u 6 v Z D <.8.y.+.4.c.+X`.h.a.v.+X=X=X{.|.|._.k.m.M.B.[.'.k.g.g.*.@.@.+.P s p Z v B V 1.1.8.e.p.a.j.g.u.u.$.+.W W J i i Z Z Z Z S Z 6 6 6 6 Z Z 6 6 6 6 6 x S S S Z 6 6 1 1 1 1 1 4 i A K E U 2.p.a.y.! E T Q Q Q 6.6.T S S S S Q m.m.5.Y <.T U U E W W K p y i A D A i i 6 6 6 6 6 6 6 6 6 6 6 i i i i 6 6 Z Z i y p i 6 4 1 S U v 6 3 y 6 6 6 6 3 6 3 3 3 3 6 6 6 6 6 6 6 6 6 6 3 3 6 y p s +.$.u.p.1.c 6 i A J L +...^.`.[.OXe.V v 6 3 3 3 3 3 3 3 3 * 3 3 d ..*.g.k.N.8.I U U U U S v x p p 6 4 4 1 1 1 1 1 1 1 1 & 7 i z , 1 1 ; > h j 1 & O ; ; ; ; ; O O O ; ; ; ; ; O O & & O O O O O ; O O O $ $ O O O O O O O O O O . # w w d U M h . o o o O O O O O X O o - o . . X O O o ; , ; O O 1 z C { g P U V k > - O O o . O ; > h > o . . . . . . . o o . X X X @ w w w f t S M M - . o o . . . . . o - o . . . o O O o o . . . . . . . . . . . . . . . . X X ; , - O O O - - O O O O O O X X X . . o o o . . o o o o o o o o o o o o o o o o o o o o o o o o o X O O O o o o o o o o o o o o o o o o o o o o o o o o o o o o o o o o o o o o o o o o o o o o o o o o o o o o . . o o o o . o . . o o o o o o . . o o o o . . o . o o o o . . o . . . . . . . o o o o . . o . o o o o . . o o o o o o . . o o o o . . . o o o o o o . . . . . . . . . . . . . . . . . . . . . . . . . . . . . . . . . . . . . . . . . . . . . . . . . . . . . . . . . . . . . . . . . . . . . . . . . . . . . . . . . . . . . . . . . . . . . . . . . . . . . . . . . . . . . . . . . . . . . . . . . . . . . . . . . . . . . . . . . . . . . . . . . . . . . . . . . . . . . . . . . . . . . . . . . . . . . . . . . . . . . . . . . . . . . . . . . . . . . . . . . . . . . . . . . . . . . . . . . . . . . . . . . . . . . . . . . . . . . . . . . . . . . . . . . . . . . . . . . . . . . . . . . . . . . . . . . . . . . . . . . . . . . . . . . . . . . . . . . . . . . . . . . . . . . . . . . . . . . . . . . . . . . . . . . . . . . . . . . . . . . . . . . . . . . . . . . . . . . . . . . . . . . . . . . . . . . . . . . . . . . . . . . . . . . . . . . . . . . . . . . . . . . . . .                                                           ",
"                                                    . . . . . . . . . . . . . . . . . . . . . . . . . . . . . . . . . . . . . . . . . . . . . . . . . . . . . . . . . . . . . . . . . . . . . . . . . . . . . . . . . . . . . . . . . . . . . . o o . . . . . . . . o o . . o o o o o o o . . . o o o o o o o o . o o o o o o o o o o o o o o o o o o o o o o o o o o o o o o o o o o o o o o o o o o o o o o o o o o o o o o o o o o o o o o o o o o o o o o o o o o o o o o o o o o o o o o o o o o o o o o o o o o o o o o o o o o o o o o o o o o o o o O O o o O o O O o o o o o o o o o o o o O o o o O O o O O O O O o o O O o O O o o O O o o o o o o o o o o o o o O O o o o o o o o o o O O O O O O O o o O O O O o o O O O O O O O O O O O O O O O O O O O O O O O O o o O O O O O o o o O O o O O O O O O O O O O O O O O O O O O O O O O O o o O O O O O o o o O O o O O O O o o O O O O o O O o o o - - - o o O O O o O O O O O O O O O O O O O O O o o O O O O O O O O O o O O O O O o O O O O O O O O O O O O O O o o o O O O O O O O O O O O O O O O O O O O O O O O O O O O O O O O O O O O O O O O O O O O O O O O O O O O O O O O O O O O O O O O O O O O O O O O O O O O O O O O O O O O O O O O O O ; ; ; - ; 1 & & O O ; O O O , , z V T  .X.O.g w w + O & & & & O O ; 4 4 1 1 1 & & & & O > j 4 * e % X X O O o o o o o - - ; ; , ; ; & O O - ; ; - - , k c 1 * $ O O O O X X O O O O O O O O O O O O O O O O O & & & O O & & 1 1 1 1 1 1 1 1 4 1 1 3 3 4 c V t.r.a.g.m.OX=X`.(.;.o.| u y 3 6 6 6 6 6 6 6 3 3 3 3 6 x 6 i p 3 3 3 6 6 3 3 3 6 6 6 i i p p i Z S U L P p Z Z A D T 4.y.i.z.v.B.[.M.N.;X;X-X].`.|.|.k.M.B.M.'._.k.j.u.$.+.s p A S I I <.4.8.e.c.v.N.j.g.@.+.d J K U Y T K Z 6 6 6 6 i i Z i 6 6 6 6 6 6 6 6 6 6 4 4 6 Z Z Z x 6 6 4 4 v B B v 6 x v S D #.$.$.K D D E Q Q 3.y.Q U Q 2.<.8.N.B.x.i.p.3.3.6.K A p 3 3 6 6 i Z Z 6 i Z 6 x 6 6 6 6 6 6 6 x Z Z S v x Z 6 1 3 i i i 6 6 3 6 v 4 3 y y 6 6 3 6 6 3 3 3 3 3 6 Z Z 6 6 6 6 6 3 3 6 6 6 6 i y u  .=.h.x.7.B x y p K 2.Q o.-.(.].=Xc.7.I x y 3 6 3 3 3 3 3 3 * u +.@.*.].+Xe.V S U D U U I S A Z 6 4 1 1 1 1 1 1 1 1 & & 3 6 4 1 1 e P s.7.,., & O , ; & O ; O O O O ; ; ; O O O O O O O O O O O O O O O O o O O O O O O X X o . # w w r S M - . O O O - ; O X O O O O o > h k > & 3 F V N , O 1 3 4 { } g a 6 j > - o o o + @ % i N ,.M - . . . . . . . o o X X O O @ # w w = e , h > o X X X 1 6 v V :.M M > . X O O O O o o . . . . . . . . . . . . . @ @ X $ 1 , > - O O O - - - - O o X X X & * 2 - - - o . . o o o o o o o o o o o o o o o o o o o o o o o o o O O O O o o o o o o o o o o o o o o o o o o o o o o o o o o o o o o o o o o o o o o o o o o o o o o o . . o o . . o o o o o o o o o o o o o o . o o o o o . . . . o o o o o . o o . o . . . . o o o o o o o o o o o o . . o o o . . . . . o o o o o . o o o o o o . . . . o o o . . . . . . . . . . . . . . . . . . . . . . . . . . o . . . . . . . . . . . . . . . . . . . . . . . . . . . . . . . . . . . . . . . . . . . . . . . . . . . . . . . . . . . . . . . . . . . . . . . . . . . . . . . . . . . . . . . . . . . . . . . . . . . . . . . . . . . . . . . . . . . . . . . . . . . . . . . . . . . . . . . . . . . . . . . . . . . . . . . . . . . . . . . . . . . . . . . . . . . . . . . . . . . . . . . . . . . . . . . . . . . . . . . . . . . . . . . . . . . . . . . . . . . . . . . . . . . . . . . . . . . . . . . . . . . . . . . . . . . . . . . . . . . . . . . . . . . . . . . . . . . . . . . . . . . . . . . . . . . . . . . . . . . . . . . . . . . . . . . . . . . . . . . . . . . . . . . . . . . . . . . . . . . . . . . . . . . . . . . . . . . . . . . . . . . . . . . . . . . . . . . . . .                                                     ",
"                                                . . . . . . . . . . . . . . . . . . . . . . . . . . . . . . . . . . . . . . . . . . . . . . . . . . . . . . . . . . . . . . . . . . . . . . . . . . . . . . . . . . . . . . . . . . . . . . . o o o . . . . . . . . . o . . o o o o o o o o . . o o o o o o o o . . o o o o o o o o o o o o o o o o o o o o o o o o o o o o o o o o o o o o o o o o o o o o o o o o o o o o o o o o o o o o o o o o o o o o o o o o o o o o o o o o o o o o o o o o o o o o o o o o o o o o o o o o o o o o o o o o o o o o O O o o O O O o o o o o o o o o o o o o o o O O O O O O O O O O o o O o o O O o O O O o o o o o o o o o o o o o o o o o o o o O O O O O O O O O o O o o O O O O O o O O O O O O O O O O O O O O O O O O O O O O O O O O O O O O O o o O O O o o O O O O O O O O O O O O O O O O O O o O O O O O O O O O o o o O O O o o O O O O o o O O o O O O O o o o o o o O O O O O O O O O O O O O O O O O O O O o o o O o o O O O O O o O O O O O O O O O O O O O O O O O o O O o O o O O O O O O O O O O O O O O O O O O O O O O O O O O O O O O O O O O O O O O O O O O O O O O O O O O O O O O O O O O O O O O O O O O O O O O O O O O O O O O O O O O O O O O O O - - , ; - ; & & & O O - ; O O ; & 4 B I d X.O.t w w # O X X O O O o > > > , 1 1 & & X O ; > , 1 * % = & + o o O o o O O - - - ; O O O O O O ; , , ; O > k c 3 * & O O O O X X X X X O O O O O O O O O O O O O O ; & & & O O ; 1 & & & 1 1 1 1 1 1 4 4 x v B V 7.r.a.*.a.v.+X]./.-.X.t y y 3 3 3 3 6 3 3 3 3 3 3 3 6 6 3 y y 3 1 3 3 6 3 3 6 6 6 6 i i i i i Z S U K J A Z A A U 2.5.p.x.v.OX=X=X+X=X-X{.]._.k.k.j.g.k.m.M.M.j.g.u.u.#.K A I <.1.4.5.i.a.x.m.V.M.k.*.+.u 3 v v B 1.1.Q J u 3 3 6 6 6 6 6 6 6 6 6 6 6 6 6 6 6 6 4 1 4 6 6 6 x 6 x x v v <.8.T S Z i 6 3 y u u p A D D E Q 3.! E U 6.p.p.x.B.=XB.a.u.#.y.#.A 6 3 3 3 3 6 6 x Z Z x Z Z Z x x x 6 6 6 6 i A I Y Y S v 6 6 6 y i Z i 6 3 4 z 4 3 3 y 6 6 6 6 6 3 3 3 3 6 6 Z A 6 6 6 6 6 6 6 6 6 6 6 i y y y t X.h.x.4.I 6 p P #.5.9.&.-.^.`.=Xv.8.1.v y y y y 3 3 y y y u P #.h.].=Xr.V D U U E E U U Z 6 4 4 1 1 1 1 1 1 1 1 1 3 3 1 4 3 3 t =.V.e.,., & & 1 , & & & O O O ; ; ; ; O O O O O O O O O O O O O O O O O o O O O O . X o . @ # w = y V k - . O O O - , ; O - - & e r A 1.>.M 4 u / Y N , & 1 & & < # @ X X o o o O o # w w t J Y ,.M o . . . o o o o o o o O O O o # # # $ & , h > X X % r P u.p.z.r.,.M > X X O O O o o . . . . . . . . . . . . . @ # @ $ * 1 , > - o O O O O O o o X $ $ * 3 6 4 ; O o o o o o o o o o o o o o o o o o o o o o o o o o o o o o X O O O o o o o o o o o o o o o o o o o o o o o o o o o o o o o o o o o o o o o o o o o o o o o o o o . . o o o o o o o o o o o o o o o o o o . o o o o o . . . . . o o o . . o o o o o o o o o o o o o o o o o o o . . . o o o . . . . o o o o o o o o o o o o o o . . . o o o . . . . . . . . . . . . . . . . . . . . . . . . . . o . . . . . . . . . . . . . . . . . . . . . . . . . . . . . . . . . . . . . . . . . . . . . . . . . . . . . . . . . . . . . . . . . . . . . . . . . . . . . . . . . . . . . . . . . . . . . . . . . . . . . . . . . . . . . . . . . . . . . . . . . . . . . . . . . . . . . . . . . . . . . . . . . . . . . . . . . . . . . . . . . . . . . . . . . . . . . . . . . . . . . . . . . . . . . . . . . . . . . . . . . . . . . . . . . . . . . . . . . . . . . . . . . . . . . . . . . . . . . . . . . . . . . . . . . . . . . . . . . . . . . . . . . . . . . . . . . . . . . . . . . . . . . . . . . . . . . . . . . . . . . . . . . . . . . . . . . . . . . . . . . . . . . . . . . . . . . . . . . . . . . . . . . . . . . . . . . . . . . . . . . . . . . . . . . . . . . . . . . . . .                                                 ",
"                                            . . . . . . . . . . . . . . . . . . . . . . . . . . . . . . . . . . . . . . . . . . . . . . . . . . . . . . . . . . . . . . . . . . . . . . . . . . . . . . . . . . . . . . . . . . . . . . . . . o o o . . . . . . . . . o . . . o o o o o o o . . o o o o . o o o o o o o o o o o o o o o o o o o o o o o o o o o o o o o o o o o o o o o o o o o o o o o o o o o o o o o o o o o o o o o o o o o o o o o o o o o o o o o o o o o o o o o o o o o o o o o o o o o o o o o o o o o o o o o o O o o o O o o o o O O o o O O O o o o O O o o o o o O o o O O o o o O o o O O O o o o o o o O O o o o O O o o o o o o o o O O O O O O O O O O O O O O O O O o o o O O O O O O O O O O o O O O O O O O O O O O O O O O O O O o O o O O O O O O O O O O O O O O o o O O O O o o O o o O O O O O O O O o o o O O O O O O O O O O O O O O O O O O O O O O O O o O O O O o o o o O O O O O O O O O O O O O O O O O O O O O O O O O O O O O O O O O O o O O O O O O O O o O O O O O O O o o O O O o O O O O O O O O O O O O O O O O O O O O O O O O O O O O O O O O O O O O O O O O O O O O O O O O O O O O O O O O O O O O O O O O O O O O O O O O O O O O O O O O O O O O O O O - - ; ; ; ; ; & & & O O O O O O O O 1 c v p | X.t w # @ O O X O O O ; h h j 4 1 * & X X O , > , 1 * $ X + o o o - O O O - O O O O O O O O o - > j z 4 , , k z * & $ X O O O O X X X X O O O O O O O O O O O O O ; , 1 & O O O O & & & & & 1 4 1 1 4 c c B V S S 1.w.z.g.g.x.OX].).=...t e 3 3 3 3 3 3 3 3 3 3 3 3 6 6 6 p y 3 3 1 4 6 6 6 6 6 6 6 6 6 i i i i Z D U J A D S D E 2.8.p.x.v.OX+X=X=X=X{.]._.).h.j.j.j.a.j.m.M.M.j.g.*.$.L U <.7.e.x.x.j.g.u.$.$.#.@.+.L A i x I Y Y <.4.W p 3 6 6 6 6 6 6 6 6 6 3 3 1 6 6 6 6 3 6 6 1 4 6 6 6 6 6 6 x v v D W D i 3 3 6 6 6 6 6 6 Z Z A A E ! ! E S S Q i.x.B.=XM.y.! ! W Z 3 6 3 3 3 3 6 6 x Z Z Z Z Z x x x 6 6 6 6 6 6 Z U 6.4.Y v x 6 i i i i i 6 6 4 z 4 3 3 3 6 6 6 6 6 6 1 3 3 6 6 6 i 6 6 6 6 6 6 6 6 6 6 6 6 6 6 6 y r ..$.y.2.I A s  .$.i.1.H o.O.).{.OXr.1.A p p i 6 6 6 3 y u +.u.k.].=Xz.<.U E E E E U U S v 4 1 1 1 1 1 1 1 1 1 1 3 3 1 4 4 2 g -. .v , ; & 1 1 1 ; ; ; O O ; ; ; ; ; O O O O O O O O O O O O O O O O o o o O . . . . o . @ # q a Y >.M > - , , 1 ; , z z , - 2 r X.=.i.,.M 2 % * 1 - O O O O O O o o o o O X O O o # w w f s v M h . . . . o o o . . o o O O o o @ # = * 3 j h - @ = t  .@.u.g.y.1.M l - . X O o - o o . . . . . . . . . . . . @ # # # $ $ O ; - o . X O O O o . X r t d p z > > o X X . o o o o o o o o o o o o o o o o o o o o o o o o o o o O O O o o - o o o o o o o o o o o o o o o o o o o o o o o o o o o o o o o o o o o o o o o o o o o o o . . o o o o o o o o o o o o o o o o . . o o o o o o o o o o o o o o o o o o . . . o o o o o o o o o o o o . . . . . . . o o . . . . o o . . . o o . . . o o o . . . o o o . . . . . . . . . . . . . . . . . . . . . . . . . . . . . . . . . . . . . . . . . . . . . . . . . . . . . . . . . . . . . . . . . . . . . . . . . . . . . . . . . . . . . . . . . . . . . . . . . . . . . . . . . . . . . . . . . . . . . . . . . . . . . . . . . . . . . . . . . . . . . . . . . . . . . . . . . . . . . . . . . . . . . . . . . . . . . . . . . . . . . . . . . . . . . . . . . . . . . . . . . . . . . . . . . . . . . . . . . . . . . . . . . . . . . . . . . . . . . . . . . . . . . . . . . . . . . . . . . . . . . . . . . . . . . . . . . . . . . . . . . . . . . . . . . . . . . . . . . . . . . . . . . . . . . . . . . . . . . . . . . . . . . . . . . . . . . . . . . . . . . . . . . . . . . . . . . . . . . . . . . . . . . . . . . . . . . . . . . . . . . . . . . . . . . . . . . . . . . . . . . . . . . . . . . .                                           ",
"                                        . . . . . . . . . . . . . . . . . . . . . . . . . . . . . . . . . . . . . . . . . . . . . . . . . . . . . . . . . . . . . . . . . . . . . . . . . . . . . . . . . . . . . . . . . . . . . . . . . . . o o o . . . . . o o o o o o o o o o o o o o o . . o o o o o o o o o o o o o o o o o o o o o o o o o o o o o o o o o o o o o o o o o o o o o o o o o o o o o o o o o o o o o o o o o o o o o o o o o o o o o o o o o o o o o o o o o o o o o o o o o o o o o o o o o o o o o o o o o o o o o O O o O O o o o o O O o O O O o o O O O O o o o o o O o o O O o o o o o o O O O O o o o o o O O o o o O O o o o o o o O O o O O O O O O O O O O O O O O O O O O o O O O O O O O O O O O O O O O O O O o o O O O O o O O O O o o o O O O O O O O O O O O O O O o o O O O O o O o o O O O o O O O O O o O O O O o O O O O O O O O O O O O O O O O O O O O O o o O O O O O O O O O O O O O O O O O O O O O O O O O O O O O O O O O O O O O O O O o o O O O O O O O O o o O O O O O O O O O O O O O O O O O O O O O O O O O O O O O O O O O O O O O O O O O O O O O O O O O O O O O O O O O O O O O O O O O O O O O O O O O O O O O O O O O O O O O O O O O O O O O O O O O O O - ; ; ; ; , 1 & & & O O O O O O O O 1 z c 6 t | t = # @ O O . O o o - h l z 3 3 * & $ X - , > , & $ X O o - - - - O O O O O o O X . X o o o - > j k c z c z 4 * & $ X O O O O O O X X O O O - - ; ; ; & O O O O , , 1 & O O O O & & & & 1 4 z 4 6 x N V :.<.K p S >.r.j.k.x.N.[.).=...t * 3 1 1 3 3 3 4 3 3 3 3 3 4 6 i p u 3 3 4 3 6 6 6 6 6 6 6 6 6 i i i Z S U U K D D D U 2.8.z.v.N.+X+X;X;X{.]._._.=.*.u.a.a.m.m.j.j.a.u.$.#.W Q 1.e.c.v.M.k.g.$. .d J A A A A p i i v S S D T 2.E Z 6 6 6 6 6 6 6 6 6 6 3 1 1 6 6 3 6 3 3 3 1 4 6 6 3 6 6 6 6 z 4 3 y 6 3 3 6 Z 6 4 4 6 6 i Z Z Z Z A A A A v S Q u.m.B.j.W E K A Z i i 6 3 3 1 4 6 A A A Z x x x x x x x 6 6 6 6 6 S Q 6.6.Y v 6 6 i i i i 6 6 6 x 4 1 3 3 6 6 6 6 6 3 4 4 6 6 3 6 6 6 6 6 6 6 6 6 6 6 6 6 i x 6 6 3 6 e t d #.y.1.v u  .#.3.4.R d O./.}.+Xc.7.B i i i i i 6 3 u @.k.'.].=Xz.4.Q E E E E Q U I v z 4 1 1 1 1 1 1 1 1 1 1 3 1 4 1 + = e % & O ; , ; & & & & ; ; ; ; ; ; ; ; O O O O O O O O O O O O O O O O o . . . . . o o O X @ w g %.5.>.,.N I 1.:.B b b c k , - : = t | p > o @ O O O O - o o o . X o o O O O o O o o # w w = 3 , > - o . . . . . . X O o o O o o o @ q = * 6 k h - @ @ % r e y y 3 ; - o o o X X o - o o . . . . . . . . . . . . . # # @ X . . o o . . X o O O o + = t | d 6 j - o o o o o o o o o o o o o o o o o o o o o o o o o o o o o o o o O O O o o - o o o o o o o o o o o o o o o o o o o o o o o o o o o o o o o o o o o o o o o o o o o o o . . o o o o o o o o o o . o o o o o . . o o o o o o o o o o o o o o o o o o . . o o o o o o o o o o . o o o . . o . . . o o o o . . o o . . o o o . . . o o o . . . o o o . . . . . . . . . . . . . . . . . . . . . . . . . . . . . . . . . . . . . . . . . . . . . . . . . . . . . . . . . . . . . . . . . . . . . . . . . . . . . . . . . . . . . . . . . . . . . . . . . . . . . . . . . . . . . . . . . . . . . . . . . . . . . . . . . . . . . . . . . . . . . . . . . . . . . . . . . . . . . . . . . . . . . . . . . . . . . . . . . . . . . . . . . . . . . . . . . . . . . . . . . . . . . . . . . . . . . . . . . . . . . . . . . . . . . . . . . . . . . . . . . . . . . . . . . . . . . . . . . . . . . . . . . . . . . . . . . . . . . . . . . . . . . . . . . . . . . . . . . . . . . . . . . . . . . . . . . . . . . . . . . . . . . . . . . . . . . . . . . . . . . . . . . . . . . . . . . . . . . . . . . . . . . . . . . . . . . . . . . . . . . . . . . . . . . . . . . . . . . . . . . . . . . . . . . . .                                         ",
"                                    . . . . . . . . . . . . . . . . . . . . . . . . . . . . . . . . . . . . . . . . . . . . . . . . . . . . . . . . . . . . . . . . . . . . . . . . . . . . . . . . . . . . . . . . . . . . . . . . . . . . . o o o o . . . . o . o o o o o o o o o o o o o . . o o o o . o o o o o o o o o o o o o o o o o o o o o o o o o o o o o o o o o o o o o o o o o o o o o o o o o o o o o o o o o o o o o o o o o o o o o o o o o o o o o o o o o o o o o o o o o o o o o o o o o o o o o o o o o o o o o o o o O o o O o O o o o o O O O O O o o o o O O o o o o O O o o O O o o o o o o O O o o o o o o o O O o O o O o o o o O O O O O o o o o o o o O o O O O O O O O O O O O O O O O O O O o O O o O O O O O O o o o o o o o o O O O O O O O O O O O O O O O o O O O O O O O O O O O O O O O O O o o O O O O o o O O O O o O O O O O o O O O O O O O o o O O O O O O O O O O O o O O o O O O O O o O o o O O O O o o o o o o o O O O O O o o O O O O O O O O O O O O O o O O O O O o O O O O O O O O O O O O O O O O O O O O O O O O O O O O O O O O O O O O O O O O O O O O O O O O O O O O O O O O O O O O O O O O O O O O O O O O O O O O O O O O O O O O O O O O O O O O O O O O O - ; ; ; ; , 1 & & O O O O O O O - O ; j c v r t t % + + O O . o o - > h j 4 3 e * & O O , > ; O & & O o o - - - O O X O o o o . X . o o . O o o > k M N B x 3 * * & O O O O O O O X X O O O O ; ; , , 4 1 O O O , , 1 & & O O O & & & 1 , k c v i 6 z c B I A u 6 >.r.m.M.v.OXB.).=...d * 3 1 1 3 3 3 6 6 3 3 3 6 x v i p y 3 6 4 6 6 v S S A i i i i Z A D S U T Q Q Q Q Q 4.8.c.OX+X=X;X;X-X;X-X].h.*.u.y.p.x.x.m.m.j.a.p.y.y.i.i.z.v.N.M._.h.*.+.P y 3 6 6 x v Z i y x v A A x Y 8.#.p 6 6 6 6 6 6 6 6 6 6 3 1 6 6 3 3 6 6 3 6 3 6 6 6 3 6 6 4 6 6 6 1 1 1 4 6 x Z 6 3 4 6 i i i Z Z x 6 6 6 Z x S T y.a.B.j.W U D Z A A Z 6 6 3 1 1 Z ! #.D Z 6 x x x x x x x 6 6 6 6 6 A E 6.U v x 6 i i 6 6 6 y Z v c 4 1 1 1 4 6 x x 6 6 4 6 4 1 3 6 6 6 6 6 6 6 6 6 6 6 6 i Z x Z 6 x 6 3 y d $.a.p.:.c t +.u.z.7.F o.=.`.=XoXe.<.Z i Z Z i 6 u @.k.'._.[.z.4.4.Q E E E Q U U I v z 4 1 1 1 1 1 1 1 1 1 & 1 4 1 , - o O O & O ; ; & O O ; ; ; ; - - - O ; ; ; O O O O O O O O o O o . . . . . . o o o O o X $ 0 ] &.u.z.t.q.&.y.8.1.B x 4 , > O X + + X X X . . . o O o - o o o o o . o o O O o o o X X @ @ @ X o o o X . - > h > o . X O o o O O o o q q = * 1 > > o @ @ . . . . . . . . . . . O O o o o . . . . . . . . . . . . . . @ @ . . . . . . . X O - - o o + = % e * O o o . . o o o . . o o o o o o o o o o o o o o o o o o o o o o o o o O O O o o - o o o o o o o o o o o o o o o o o o o o o o o o o o o o o o o o o o o o o o o o o o o o o o o o o o o . o o o o o . . . o o o o . o o . o . . o o o o . . . . o o o o o o o o o o o . o o o o . . o o o o o o o o o o o o . o o o . . o o o o o o o o o . . . o o o . . . . . . . . . . . . . . . . . . . . . . . . . . o . . . . . . . . . . . . . . . . . . . . . . . . . . . . . . . . . . . . . . . . . . . . . . . . . . . . . . . . . . . . . . . . . . . . . . . . . . . . . . . . . . . . . . . . . . . . . . . . . . . . . . . . . . . . . . . . . . . . . . . . . . . . . . . . . . . . . . . . . . . . . . . . . . . . . . . . . . . . . . . . . . . . . . . . . . . . . . . . . . . . . . . . . . . . . . . . . . . . . . . . . . . . . . . . . . . . . . . . . . . . . . . . . . . . . . . . . . . . . . . . . . . . . . . . . . . . . . . . . . . . . . . . . . . . . . . . . . . . . . . . . . . . . . . . . . . . . . . . . . . . . . . . . . . . . . . . . . . . . . . . . . . . . . . . . . . . . . . . . . . . . . . . . . . . . . . . . . . . . . . . . . . . . . . . . . . . . . . . . . . . . . . . . .                                     ",
"                                  . . . . . . . . . . . . . . . . . . . . . . . . . . . . . . . . . . . . . . . . . . . . . . . . . . . . . . . . . . . . . . . . . . . . . . . . . . . . . . . . . . . . . . . . . . . . . . . . . . . . . . . . . . . . . . o . o o o o o o o o o o o o o . . o o o o . o o o o o o o o o o o o o o o o o o o o o o o o o o o o o o o o o o o o o o o o o o o o o o o o o o o o o o o o o o o o o o o o o o o o o o o o o o o o o o o o o o o o o o o o o o o o o o o o o o o o o o o o o o o o o o o o O o o o o O O o o o o o O O O O o o o O o o o o o O O o o O O o o o o o o o o o o O o o O O o o o O O O o o o O O O O o o o o o o o O o o o O O O o o O O O O O O O o o o O O O o o O O O O O O O O o o o o o o o o O O O O O O O O O o o o O O O o O O O O O O O O O O O O O O O O O O O O O O O O O O O O O o O O O O O o o O O O O O O o O O O O o O O O O O O O o O O o o O O O O o o o O O O O o o o o o o o o O O O O o o O O O O O O O O O O O O O o o O O O O o o O O O o O O O O O O O O O O O O O O O O O O O O O O O O O O O O O O O O O O O O O O O O O O O O O O O O O O O O O O O O O O O O O O O O O O O O O O O O O O O O O O O O O O O O O O O O O O O O - - - , , , 1 1 ; & O O O O O O - - O ; j N B d | | r q + O O O O O - - > , 1 3 * * & O O ; > - O & & O o o - o O O X X . . o o O X o o o . X X X - M ,.:.Y A y * & & O O O O O O O O X O O O O O ; , , 4 3 1 & O , 4 1 * & 1 1 1 1 1 4 z c N B S A i v c v 6 6 y x :.e.m.M.OXOX[.).=...t 3 3 3 3 3 3 3 6 6 6 3 3 x v S A p y 3 6 6 6 6 S U E K J A A S U U U T 2.5.5.i.i.5.5.e.c.OX=X=X;X;X{.].[.-X{._.g.a.x.x.v.N.N.M.m.m.m.m.x.a.x.x.j.h.=.@. .s A I T U A i Z Z A Z 6 6 x S D v Y y.#.p 3 i 6 3 3 6 6 6 6 6 3 3 6 6 3 3 6 6 6 6 6 6 6 6 6 6 6 6 6 6 6 6 4 6 6 6 i Z Z 6 3 y Z Z i p i Z Z x 6 Z 6 E i.i.x.=XB.y.! D Z A A Z Z 6 6 6 1 A y.s.K 6 6 x x x x x x x 6 6 6 6 6 y i A D Z x x x x 6 6 6 3 Z S c 4 1 1 1 6 6 6 x Z x x 6 6 6 6 6 6 i Z Z Z Z 6 6 6 6 6 i Z Z Z x i Z Z 6 y  .=.j.z.7.z d @.h.x.e.6.%.=.).{.+Xv.4.S Z S Z 6 u  .*.h.h.M.x.8.8.2.Q E E U U U Y v c 4 4 1 1 1 1 1 1 1 1 & 1 1 4 1 ; O O , , & & 1 4 4 4 , , , ; ; , ; ; ; ; ; ; O O O O O O O . . o o - o o o o O - ; + q w g ;.!.L.a.e.~.~.[ J I c 4 O O O o O O O o o . . o o - O X - - . . o O o o o o O O o o . X X o . O O X o O r t P 7.>.M > o . O o o O O . . + @ $ & O - o . . . . . o . . . o o . . . o - o . . . . . . . . . . . . . . . . . . . . . . . X $ & 1 4 , - o . . . . . . . . . . o o o o o o o o o o o o o o o o o o o o o o o o o o o o o . X O O O o o o o o o o o o o o o o o o o o o o o o o o o o o o o o o o o o o o o o o o o o o o o o o o o o o o . . . o . . . . . . . o o o o . o o . . . . o o o o o . . . o o o o o o o o o o . . o o o . . . o o o o o o o o o o o o o o o o o o o o o o o o o o o . . . o o o . . . . . . . . . . . . . . . . . . . . . . . . . . . . . . . . . . . . . . . . . . . . . . . . . . . . . . . . . . . . . . . . . . . . . . . . . . . . . . . . . . . . . . . . . . . . . . . . . . . . . . . . . . . . . . . . . . . . . . . . . . . . . . . . . . . . . . . . . . . . . . . . . . . . . . . . . . . . . . . . . . . . . . . . . . . . . . . . . . . . . . . . . . . . . . . . . . . . . . . . . . . . . . . . . . . . . . . . . . . . . . . . . . . . . . . . . . . . . . . . . . . . . . . . . . . . . . . . . . . . . . . . . . . . . . . . . . . . . . . . . . . . . . . . . . . . . . . . . . . . . . . . . . . . . . . . . . . . . . . . . . . . . . . . . . . . . . . . . . . . . . . . . . . . . . . . . . . . . . . . . . . . . . . . . . . . . . . . . . . . . . . . . . . . . . . . . . . . . . . . . . . . . . . . . . . . . .                                   ",
"                              . . . . . . . . . . . . . . . . . . . . . . . . . . . . . . . . . . . . . . . . . . . . . . . . . . . . . . . . . . . . . . . . . . . . . . . . . . . . . . . . . . . . . . . . . . . . . . . . . . . . . . . . . . . . . . . . o . . o o o o o o o o o o o o . . o o o o o . o o o o . . . o o o o o o . . . o o o o . o o o o o o o o o o o o o o o o o o o o o o o o o o o o o o o o o o o o o o o o o o o o o o o o o o o o o o o o o o o o o o o o o o o o o o o o o o o o o o o o o o o O O o o o o O O o o o o O O o o o o o o O O O O O o O o o o o o o O o o O O o o o o o o O o o o o o O O O o o o O O o o o O O O O O o o o o o O O o o O O O O O O O O O O O O O o o o o O O O O o o O O O O O o O O o o o o o o o O O O O O O O O O O O O O O O O O O O O o O O O O O O O O O O O O O O O o o o O O O O O O O O O O O o o o O O O O O o o O O O O o O O O O O O O O O O O O O o O O O o o O O O o o O O O O O O O O O o O O O o o O O O O O O O O O O O O O O O O O O O O O O O O O O O O O O O O O O O O O O O O O O O O O O O O O O O O O O O O O O O O O O O O O O O O O O O O O O O O O O O O O O O O O O O O O O O O O O O O O O O O O O O O O O O O O O O O O O O - - ; , , , ; 1 1 ; O O O O O - - - O 1 z N Y +.X.X.| 0 q X & & O O - - - - 1 & & & O O O - , ; ; ; ; O O O O X X O O o o . . . . O O O O X X O X O l ,.:.Y J p = = X X O O O O O O O O O O O O O ; ; , 4 3 3 * & O 1 1 1 1 1 1 2 4 z c N B v Z Z A I 1.I i y 3 6 x :.7.a.j.v.@X=X`.^.X.t 6 6 3 3 3 3 3 6 6 6 3 6 v I J s u 6 6 3 3 6 6 i A D K D D Y <.<.Q 2.5.8.i.p.p.p.z.x.v.OX=X-X-X;X{.`.`.k.[.;X-X[.m.m.m.B.B.B.M.M.B.[.'.h.*.$.+.+.d d s A D U U 3.#.K A i Z Z i 6 6 6 v I U U K ~ p 3 y 6 6 6 6 6 6 6 6 6 3 6 6 6 6 6 6 6 6 6 6 6 6 6 6 x x i i 6 6 6 6 6 6 Z A Z x 6 6 Z Z i p i Z S S v S v E a.a.m.-X=Xm.y.W D S S S S Z x 6 4 A W #.i 3 6 x x x x 6 6 v v x Z 6 y i i i Z Z Z Z x x 6 6 6 6 Z S z 1 1 1 1 6 6 6 6 6 x Z A Z Z x 6 6 6 i i 6 i i 6 6 6 6 i i i i y Z Z y y 6 * t ..h.x.1.v d ..=.m.x.i.~ ../.].=Xv.4.T I Z y u d #.$.h.'.x.i.4.4.! 3.2.E E E T I v c 4 1 1 1 4 4 1 & 1 1 1 1 1 1 & & & , , 1 & 1 x x 4 1 1 , , ; , 1 , ; - - ; O O O O O O O X 1 c B V N , - O ; , , 2 w } } ;.;.o.#.7.,.< X X O o O O O O O O - O O O O o O O O O X O O . o O O O o O O O O O o o - - o O O O O O $ t ..@.s.>.l > - o X X X O O o o . . O O o o o o o o . X . . o o o o o X X O o - . . . . . . . . . . . . . . . . . . . . . . . X $ * 1 , , - o . . . . . . X X . o o o . o o o o o o o o o o o o o o o o o o o o o o o o o o . X O O O o o o o o o o o o o o o o o o o o o o o o o o o o o o o o o o o o o o o o o o . . o o o o o o o o o o o o o . . . . . . . o o o o o o o o o o o o o o o o o o o o o o o o o o o o o o . . o o o o o o o . . . o o o o . . o o o o . . o o . . . . o o o o o o . o o o o . . . . . . . . . . . . . . . . . . . . . . . . . . . . . . . . . . . . . . . . . . . . . . . . . . . . . . . . . . . . . . . . . . . . . . . . . . . . . . . . . . . . . . . . . . . . . . . . . . . . . . . . . . . . . . . . . . . . . . . . . . . . . . . . . . . . . . . . . . . . . . . . . . . . . . . . . . . . . . . . . . . . . . . . . . . . . . . . . . . . . . . . . . . . . . . . . . . . . . . . . . . . . . . . . . . . . . . . . . . . . . . . . . . . . . . . . . . . . . . . . . . . . . . . . . . . . . . . . . . . . . . . . . . . . . . . . . . . . . . . . . . . . . . . . . . . . . . . . . . . . . . . . . . . . . . . . . . . . . . . . . . . . . . . . . . . . . . . . . . . . . . . . . . . . . . . . . . . . . . . . . . . . . . . . . . . . . . . . . . . . . . . . . . . . . . . . . . . . . . . . . . . . . . . . . . . . . . .                               ",
"                            . . . . . . . . . . . . . . . . . . . . . . . . . . . . . . . . . . . . . . . . . . . . . . . . . o . . . . . . . . . . . . . . . . . . . . o o o . . . . . . . . . . . . . . . . . . . . . . . . . . . . . o o o . . . . . . . . o o o o o o o o o o o o o o o . o o o o o o . o o o o . o . . o o o o o o o . o o o o . o o o o o o o o o o o o o o o o o o o o o o o o o o o o o o o o o o o o o o o o o o o o o o o o o o o o o o o o o o o o o o o o o o o o o o o o o o o o o o o o o o o o o o o O O O O o o o O O O o o - o o O O O O O O O o o o o o o o O o o O O o o o o o o O O o o o o O O o o o o O O o o O O O O O O o o o o O O o o O O O O O O O O O O O O O O o o o O O O O O O O O O O O o o O O O O O O O o o O O O o O O O O O o O O O O O O O O O O o O O O O O O O O O O O O O O O O O O O O O O O o O O O O O O O o O O o O O O O O O O o o O O O O O O O O O O O O o o O O O O o O O O O O O O O O O O O O o o O O O O o O O O O O O O O O O O O O O O O O O O O O O O O O O O O O O O O O O O O O O O O O O O O O O O O O O O O O O O O O O O O O O O O O O O O O O O O O O O O O O O O O O O O O O O O O O O O O O O O O O O O O O O O O O O O O O O ; O O O ; - ; , ; , 1 & 1 ; ; O O O O - - O O & 4 B I J X.X.| f q X & & O - - ; - ; 1 & & & & ; - , , , ; ; O O O O X X o o O o o o O X . . X . O O o O O O h ,.,.Y K p = q + X O O O O O O O O O O O O O O O O ; 1 & & & O ; 1 1 & & ; 4 z N B B A p y 3 B >.1.K s a 7 4 x :.7.y.u.v.OX=X`.^.O.f 3 6 3 3 3 6 6 6 6 6 y x B U L +.s y 6 6 6 6 x x v S Y 1.4.4.5.3.! ! 3.5.i.p.z.c.N.B.B.'.[.=X;X-X].XX.Xl.m.=X;X-X'.m.N.B.[._.h.g.g.j.h.=.+.P J D D D D D D D U W W K A i i 6 6 6 6 6 x S U D i A 6 3 6 6 6 6 6 6 x 6 6 6 6 6 6 6 6 3 3 6 6 6 6 6 6 6 6 6 6 6 6 x z 6 y x v S Z 6 6 6 x v v Z Z S I I I I D Z E y.j.M.-X-XB.m.y.Q Q T T T U S v v S U D Z 6 6 Z x x i v v B I S Z i i i 6 6 x x Z Z v v x 6 6 6 x v z 1 1 3 1 4 6 6 6 6 6 Z D D Z x 6 6 6 3 6 6 6 6 3 3 6 y 6 6 6 6 i v v 6 6 x 6 * r ..*.a.8.Y u  .*.j.a.5.L ..O.`.[.OXe.1.Z p A s #.g._.[.x.p.4.<.W ! 2.Q E Q T T I v z 4 1 1 1 1 1 1 1 1 4 1 1 1 1 1 1 O & & & 1 3 4 1 1 & 1 ; ; , , , , ; - - ; ; ; O O + q 9 #.a.b.w.>.k , ; ; ; , - + # w } } g P V M > O X O O o o O O O O O O X X O O O X O o O O o o o o O o O O O O O & 1 z M M > - o o o . $ r t t x l , - o o X X O O O o o o O O O o o o o o o . X . o o o o o o . X X o o . . . . . . . . . . . . . . . . . . . . . . . X X X O - - - o o o . . . X $ & O o o o o o o o o o o o o o o o o o o o o o o o o o o o o o o X X X o O o o o o o o o o o o o o o o o o o o o o o o o o o o o o o o o o o o o o o o o o . . o o o o o o o o o o o o . . o o o . o o o o o o o . o o o o o o o o o o o o o o o o o o o o o o o . . o o o o o o . . o . o o o o . . o o o o . . o o o o . . o o o o o o o o o o o . . . . . . . . . . . . . . . . . . . . . . . . . . . . . . . . . . . . . . . . . . . . . . . . . . . . . . . . . . . . . . . . . . . . . . . . . . . . . . . . . . . . . . . . . . . . . . . . . . . . . . . . . . . . . . . . . . . . . . . . . . . . . . . . . . . . . . . . . . . . . . . . . . . . . . . . . . . . . . . . . . . . . . . . . . . . . . . . . . . . . . . . . . . . . . . . . . . . . . . . . . . . . . . . . . . . . . . . . . . . . . . . . . . . . . . . . . . . . . . . . . . . . . . . . . . . . . . . . . . . . . . . . . . . . . . . . . . . . . . . . . . . . . . . . . . . . . . . . . . . . . . . . . . . . . . . . . . . . . . . . . . . . . . . . . . . . . . . . . . . . . . . . . . . . . . . . . . . . . . . . . . . . . . . . . . . . . . . . . . . . . . . . . . . . . . . . . . . . . . . . . . . . . . . . . . . . . . . .                             ",
"                          . . . . . . . . . . . . . . . . . . . . . . . . . . . . . . . . . . . . . . . . . . . . . . . . . . . . . . . . . . . . . . . . . . . . . . . . . . . . . . . . . . . . . . . . . . . . . . . . . . . . . . o o o o . . . . . . . . o o o o o . . o o o o . o o o o o . . o o o o o . o o o . o o o o o o o o . o o o o o o o o o o o o o o o o o o o o o o o o o o o o o o o o o o o o o o o o o o o o o o o o o o o o o o o o o o o o o o o o o o o o o o o o o o o o o o o o O O o o o o o o o o o o o o o O o o o o o O O o o o o O O O O O O O O o o o o o o o o o o O O o o o o o O O O O o o o O O o o o o o o o o O O O O O O O o o o O O O O O O O O O O O O O O O O O o o o O O O O O O O O O O O O o O O O O O O O O O O O O O o o O O O O O O O O O O O O O O o o O O O O O O o O O O O O O O O O O O O O O O o o O O O O O O O O O O O O O O O O O O O O O O O O O O O O O O O O O O O O O O O O O O O O O O O O O o O O O O O O O O O O o O O O o o O O O O O O O O O O O O O O O O O O O O O O O O O O O O O O O O O O O O O O O O O O O O O O O O O O O O O O O O O O O O O O O O O O O O O O O O O O O O O O O O O O O O O O O O O O O O O O O O O O O O O O O O ; ; O O ; ; ; , , , 1 & 1 ; ; O O O O - - O O & 4 v S A d | | r q @ O O O - ; , , 1 1 & & & & , j > , 1 1 & O O O O . o o o o o O O O X . . . . . O o O O O > M ,.V D A 7 = X X X O O O O O O O O O O O O O O O O O O O O O ; ; 1 1 4 j z c x x i y e 3 4 :.>.T d t f 2 1 6 V 1.3.$.p.v.B.'.=.O.f 7 3 3 3 6 6 6 6 6 6 6 v B U P d u 6 x x 6 x v B B S T 2.3.3.#.+.L D T 4.z.v.OX+X[.`._.k.m.+X-X{.`.(.Z.x.v.+X=X-X-X[.M.k.k.g.$.+.+.#.#.L L A S S S D D D D D A A A A i 6 6 6 x x 6 6 6 Z S Z 6 6 6 6 6 6 6 6 6 x x i 6 6 3 6 6 6 6 3 3 6 6 6 6 6 x x 6 6 6 6 6 6 6 4 v B Y Y Y B B V 1.4.7.8.8.8.8.p.8.Q E A E y.a.B.-X-X[.M.u.#.! E ! #.! U U U E ! E Z 4 6 i i i i S 2.p.3.D Z Z x Z v x x Z S S S S S S v x v v z 1 1 4 1 4 6 6 6 x 6 i A A Z 6 6 6 6 6 3 3 3 6 3 3 6 6 6 6 Z Z y i 6 6 6 6 x 6 3 e  .$.u.4.I p d  .#.y.T K X.=.`.{.+Xr.:.v A +.u.k.'.[.m.z.8.T J E 2.2.E Q Q T Y v v z 4 1 1 1 1 1 1 4 4 1 1 1 1 1 1 & & O O & & & ; O ; , , ; - 1 4 4 , , ; ; ; 1 : q { } ;.&.$.y.:.N , , ; O O O O O o # w w = Z M l ; O O O O O O O O O O O O O O O O X X X o O O O o o o o o O O O O O * p S N l > o . . o o X X $ X . o O . . . X X O O o o o o O O O O o o O o o . X X O o o o o . o . X X X O - - - - o . . . . . . . . . . . . . . . . . . X X X O - - o O O O O O & & & O o o o o o o o o o o o o o o o o o o o o o o o o o o o o o o . O O o O o o o o o o o o o o o o o o o o o o o o o o o o o o o o o o o o o o o o o o o o o . o o o o o o o o o o o o . o o o o o o . o o . o o . . . o . . o . o o . . o . . . o o o o . . o o o o o o o o o o o o o o o o . . . . o o o o . . o o o o o o o o . o . . o . . o o . . . . o . . . . . . . . . . . . . . . . . . . . . . . . . . . . . . . . . . . . . . . . . . . . . . . . . . . . . . . . . . . . . . . . . . . . . . . . . . . . . . . . . . . . . . . . . . . . . . . . . . . . . . . . . . . . . . . . . . . . . . . . . . . . . . . . . . . . . . . . . . . . . . . . . . . . . . . . . . . . . . . . . . . . . . . . . . . . . . . . . . . . . . . . . . . . . . . . . . . . . . . . . . . . . . . . . . . . . . . . . . . . . . . . . . . . . . . . . . . . . . . . . . . . . . . . . . . . . . . . . . . . . . . . . . . . . . . . . . . . . . . . . . . . . . . . . . . . . . . . . . . . . . . . . . . . . . . . . . . . . . . . . . . . . . . . . . . . . . . . . . . . . . . . . . . . . . . . . . . . . . . . . . . . . . . . . . . . . . . . . . . . . . . . . . . . . . . . . . . . . . . . . . . . . . . . . . . . .                           ",
"                        . . . . . . . . . . . . . . . . . . . . . . . . . . . . . . . . . . . . . . . . . . . . . . . . . . . . . . . . . . . . . . . . . . . . . . . . . . . . . . . . . . . . . . . . . . . . . . . . . . . . . . . o o o o . . . . . . . . o o o o o . o o o o o o o o o o o . . o o o o o o o o o . o o o o o o o o o o o o o o o o o o o o o o o o o o o o o o o o o o o o o o o o o o o o o o o o o o o o o o o o o o o o o o o o o o o o o o o o o o o o o o o o o o o o o o o o o o o o o o o o o o o o o o o o O o o o o o O O o o o o O O O O O O O O o o o o o o o o o o O O o o o O o o O O O o o o O o o o o o o o o o o o O O o o O o o o O O O O O O O O O O O O O O O O O o O O O O O O O O O O O O O o o o o o o o O O O O O O O O O o O O O o O O O O O O O O O O o O O O O O O O o O O O O O O O O O O O O O O O o O O O O o o O O O O O O O O O O O O O O O O O o o o o O O O O O O O O O O O O O O O O O O O O O o o o O O O O O O O O O O o O O O o O O O O O O O O O o o O O O O O O O O O O O O O O O O O O O O O O O O O O O O O O O O O O O O O O O O O O O O O O O O O O O O O O O O O O O O O O O O O O O O O O O O O O O O O O O O O O O O O O O O O O O O O O O O O - ; ; - , , 1 1 & 1 O O O O O O O O O O O 1 x v v u t t r = @ O O - - , , 4 4 1 1 & & O , > , , 1 * & O X X . . o o o o o O O o O o . . . . . o O O O - l M N v S 6 3 & X X O O O O O O O O O O ; ; O X X O O O O X O , , , c N v v 6 3 * * 1 4 j c B S y e e = : 1 6 v 1.2.#.y.z.OX[.h.=.d * 3 3 3 6 6 6 6 3 6 6 v S A s u e 6 v v v v v I S S A D K J J K U 1.e.c.OX+X{.{.`.=.g.x.N.'._._.k.j.a.v.OX+XB.B.=X-X'.*.$.$.$.L K A S S D D D A A A A A A A Z i y 6 6 6 6 Z Z Z Z Z Z Z 6 6 6 6 6 6 6 6 6 6 6 6 Z i 6 6 3 6 6 6 6 3 3 6 6 6 6 x x x 6 3 6 6 6 x S Y 1.5.5.p.v.v.x.b.b.b.N.V.C.C.C.C.Z.%.D D U 3.a.m.-X-X'.k.$.+.L K L W W K D D E W A 3 1 1 3 3 6 4 S y.s.y.D Z Z Z Z v x v S D D S S D I I S S S v 4 3 6 1 6 6 6 x Z Z 6 3 6 6 6 6 6 x 6 3 3 6 6 6 3 6 6 6 6 6 i y y 6 6 6 3 6 6 x 4 * u P W <.I y u u P y.i.5.#.O./.].+XoX7.D +.u.k.'.[.m.a.4.B A 3.8.<.E ! Q U U I v c 4 1 1 1 1 1 3 3 4 4 1 1 1 1 1 & O , , O $ & 6 v B B c j 8 a i z 4 , ; O O O + q w } } f e $ O O O O O ; O O O O o @ q 0 y S M l ; X O O O O O O O O O O - - o X X o o O O O O O o o o o o o O O o O * a y 1 - o . . . o o . . . . . . X . X X o o . o o . o . X O O O O o O o o O X O O o o O o O O O O & * 7 4 , > - o . . . . . . . . . . o . . . . . . . . . X O O O O O O ; ; O O O X o o o o o o o o o o o o o o o o o o o o o o o o o o o o o o o O O O o O o o o o o o o o o o o o o o o o o o o o o o o o o o o o o o o o o o o o o o o o o . o o o o o o o o o o o o o o o o o o o . . . . o o . . o o . . . . . . . . o . . . o o . . . . o o o o o o o o o . o o o o o o . . o o o o o o . o o o o o o o o o . . . . o o . o o . . . . . . . . . . . . . . . . . . . . . . . . . . . . . . . . . . . . . . . . . . . . . . . . . . . . . . . . . . . . . . . . . . . . . . . . . . . . . . . . . . . . . . . . . . . . . . . . . . . . . . . . . . . . . . . . . . . . . . . . . . . . . . . . . . . . . . . . . . . . . . . . . . . . . . . . . . . . . . . . . . . . . . . . . . . . . . . . . . . . . . . . . . . . . . . . . . . . . . . . . . . . . . . . . . . . . . . . . . . . . . . . . . . . . . . . . . . . . . . . . . . . . . . . . . . . . . . . . . . . . . . . . . . . . . . . . . . . . . . . . . . . . . . . . . . . . . . . . . . . . . . . . . . . . . . . . . . . . . . . . . . . . . . . . . . . . . . . . . . . . . . . . . . . . . . . . . . . . . . . . . . . . . . . . . . . . . . . . . . . . . . . . . . . . . . . . . . . . . . . . . . . . . . . . . . . . . . . . . .                         ",
"                      . . . . . . . . . . . . . . . . . . . . . . . . . . . . . . . . . . . . . . . . . . . . . . . . . . . . . . . . . . . . . . . . . . . . . . . . . . . . . . . . . . . . . . . . . . . . . . . . . . . . . . . . o o o o . . . . . . . . o o o o o o o o o o o o o o o o o . o o o o o o o o o o o o o o o o o o o o o o o o o o o o o o o o o o o o o o o o o o o o o o o o o o o o o o o o o o o o o o o o o o o o o o o o o o o o o o o o o o o o o o o o o o o o o o o o o o o o o O o o o o o o o o O O O o o o o o o o o o o o o O O O O O O O o o o o O o o o o O o o o o o O O O O O O O O O O O o o o o o o o o o o o o o O o o o O O o o O O O O O O o o o o O O O O O O O O O O o O O O O O O O O O O o O O o o o o o O O O O O O O O O O O o o O O O O O O o O O O O O O O O O O O o o o O O O o O O O O O O O O O O o O O O o o O O O O O O O O O O O O O O O O o o O O o o O o o O O O O o o o O O O O O o o O o O O o o o O O O O O O O O O o O O O O o O O O O O O O O O O o O O O O O O O O O O O O O O O O O O O O O O O O O O O O O O O O O O O O O O O O O O O O O O O O O O O O O O O O O O O O O O O O O O - O O O O O O O O O O O O O O O O O O O O O O O O O O O O O - - ; - ; ; ; 1 1 O O O O O O O O O O O O & 6 v v i r t r = X X O - - ; , 1 1 1 & & O O - - - O & & O O X X . o o o o o o O O o O O O . . . . . o o O O > h j c v x 3 3 & O O O O O O O O O O - ; ; O O X O O O O O - , , , c N v i 3 * & ; , c V v y e * & & ; 1 1 4 c :.4.#.i.c.OX[._.h.$.p y 3 3 3 6 6 3 3 6 x v S s u u 3 6 v S S Z Z p i A Z Z A S T 8.e.c.OX+X{.].`.).=.u.p.v.[._.k.a.x.m.m.m.N.M.k.g.m.=X{.k.$.#.#.! E J A A D E E K A A A A Z Z i i y i i i Z Z A A A Z Z i 6 6 6 6 6 6 6 6 6 6 6 6 6 6 6 6 6 6 6 6 6 3 3 6 6 6 6 x x x 6 6 v B B Y 8.z.b.b.s.a.+X=X.XY.Z.Z.Z.Z.L.K.K.!.K.[ y Z U ! y.a.[.{.k.u.L A D D D D A Z A Z Z i 3 1 1 1 & 1 4 c Y D K A i 6 x Z Z x 6 Z A D A Z Z A S I S S Y S 6 6 6 6 6 6 6 x Z Z 6 3 1 4 6 Z S S x 6 6 6 6 x x x x x 6 6 6 6 6 6 6 6 6 3 6 6 6 6 6 e u A U I v 3 u +.u.x.8.W ..=.`.B.c.4.+.u.j.k.M.j.p.5.<.y.z.8.<.E E E U U I v c z 4 1 1 ; 1 6 y 6 4 1 1 1 1 1 1 4 z 4 & = 0 F R Q T c m n 9 3 1 - O O X . . . o . . . . . . O O O O O O O O O O o # w f s Y N j - O O - O O O O O O O ; , ; , O O - - o X O O O O o o o o O O O o o O X X X o . o o o o o . . . o o O X X X . o o . O o . o . O O O - O O O o o o O O o o O O O O O - ; 1 * 7 4 - - - . . . . . . . . . . . . . . . . . . . . X X X O o O O O O O X X X . o o o o o o o o o o o o o o o o o o o o o o o o o o o o o o o O O O O o o o o o o o o o o o o o o o o o o o o o o o o o o o o o o o o o . . o o o o o o o o o o o o o o o o o o o o o o o o o o o o o . . . o o o o . o o o o o o o . . . o o o . . . . . o o o o o o o o . . o o o o o o . . o o o o o o o o o o o o o o . . o o o . o o o o . . . . . . . . . . . . . . . . . . . . . . . . . . . . . . . . . . . . . . . . . . . . . . . . . . . . . . . . . . . . . . . . . . . . . . . . . . . . . . . . . . . . . . . . . . . . . . . . . . . . . . . . . . . . . . . . . . . . . . . . . . . . . . . . . . . . . . . . . . . . . . . . . . . . . . . . . . . . . . . . . . . . . . . . . . . . . . . . . . . . . . . . . . . . . . . . . . . . . . . . . . . . . . . . . . . . . . . . . . . . . . . . . . . . . . . . . . . . . . . . . . . . . . . . . . . . . . . . . . . . . . . . . . . . . . . . . . . . . . . . . . . . . . . . . . . . . . . . . . . . . . . . . . . . . . . . . . . . . . . . . . . . . . . . . . . . . . . . . . . . . . . . . . . . . . . . . . . . . . . . . . . . . . . . . . . . . . . . . . . . . . . . . . . . . . . . . . . . . . . . . . . . . . . . . . . . . . . . . . . . .                       ",
"                    . . . . . . . . . . . . . . . . . . . . . . . . . . . . . . . . . . . . . . . . . . . . . . . . . . . . . . . . . . . . . . . . . . . . . . . . . . . . . . . . . . . . . . . . . . . . . . . . . . . . . . . . . o o o o . . . . . . . . o o o o o o o o o o o o o o o o o o o o o o o o o o o o o o o o o o o o o o o o o o o o o o o o o o o o o o o o o o o o o o o o o o o o o o o o o o o o o o o o o o o o o o o o o o o o o o o o o o o o o o o o o o o o o o o o o o o o o o O o o o o o o o o O O O O o o o o o o o o o o o o O O O O O o o o o o O O o o o o O O o o O o o o O O o O O O O O o o o o o o o o o o o o o o o o o o O O o o O O O O O O o O O O O O O o o o O O O O o O O O O O o o O O O O o O O o o o o O O O O O O O o o O O O O O O O O O O o O O O O O O O O O O O o o O O O O o O O O O O O O O O o o O O O o O o o o o O O O O O O O O O O o O o O O O O o O O o O O O O o o o o O O O O O o o o O O O O O O O O O O O O O O O O O O o o O O O O O O O O O O O O O O O O O O O O O O O O O O O O O O O O O O o O O O O O O O O O O O O O O O O O O O O O O O O O O O O O O O O O O O O O O O O O O O O O O O O O O O O O O O O O O O O O O O O O O O O O O O O O - ; ; - ; ; 1 & O O ; O O O O O O O - O & 1 v c v u t r % = X O - - ; ; 1 1 & & & O O O O O O X X o o . . O O o . . X X O o O O o O O . . . . o o o O - > > , 4 4 1 1 1 O O O O O O O O O O ; , ; O O O O O O O ; > , , 4 4 4 4 1 & & & ; j V V i u y & & , 4 6 1 4 z :.4.y.i.c.@X].).*.y.Q A y 3 3 3 3 3 3 6 x v D P s p 6 6 6 x A A p p i Z S U <.8.e.v.+X[.].`.).h.g.*.u.x.N.M._.M.x.v.B.M.h.u.u.u.g.$.#.m.=X{.'.g.#.W L K J A D E ! W K A A A Z i i i y y 6 6 i i i Z i i y 6 6 6 6 6 6 6 6 6 6 6 6 6 6 6 3 3 6 6 6 6 6 4 4 6 x x x v S S Z Z I T 2.<.p.C.Y.L.&.P $.L.!.;.[ [ [ [ _ n 0 0 7 6 6 6 Z ! y.y.M.[.j.u.E A S S D S Z x Z Z v x x 4 4 1 1 1 v 4.2.v 3 3 6 6 6 i i 6 6 6 6 y 6 6 6 6 Z Z Z S T Y x 1 3 6 3 3 6 6 6 x 6 3 6 4 6 / / S Z x x x x S U T U I S v x v x v v v 6 3 6 6 y i 6 6 6 p Z S S Z 6 s +.#.y.2.U P ..=.m.p.y.a.j.j.k.a.y.a.x.m.x.4.T E E U U D I S v z z 4 , 4 c v v z 4 4 ; ; 1 1 4 v v 1 2 n [ _ H Z 6 , O + O X . . . . X X O X X o o o O O O - - O O O O O - ; ; + # w g a v j ; - O O O O O O o o o O & * 4 c c > ; O o . O O O O O O O O O O O o o O . o - - o o o o o o . X X X o o o o o o . . . O O o o O O O o - O O O o o o . . . o O O X O O ; ; O X X o o o o . . . . . . . . . . . . . . . . . . . . . . o o O o . . . . . . X . . o o o o o o o o o o o o o o o o o o o o o o o o o o o o o o O O O O o o o o o o o o o o o o o o o o o o o o o o o o o o o o o o o o o . . . o o o o o o o o o o o o o o o o o o o . o o o o o o o o . . o o o o o . o o o o o o o o . o o o o . . . . . o o o o o o o o . . o o . . o o o o o o o o o o o o . o o o o o . . o o o o o o o o . . . . . . . . . . . . . . . . . . . . . . . . . . . . . . . . . . . . . . . . . . . . . . . . . . . . . . . . . . . . . . . . . . . . . . . . . . . . . . . . . . . . . . . . . . . . . . . . . . . . . . . . . . . . . . . . . . . . . . . . . . . . . . . . . . . . . . . . . . . . . . . . . . . . . . . . . . . . . . . . . . . . . . . . . . . . . . . . . . . . . . . . . . . . . . . . . . . . . . . . . . . . . . . . . . . . . . . . . . . . . . . . . . . . . . . . . . . . . . . . . . . . . . . . . . . . . . . . . . . . . . . . . . . . . . . . . . . . . . . . . . . . . . . . . . . . . . . . . . . . . . . . . . . . . . . . . . . . . . . . . . . . . . . . . . . . . . . . . . . . . . . . . . . . . . . . . . . . . . . . . . . . . . . . . . . . . . . . . . . . . . . . . . . . . . . . . . . . . . . . . . . . . . . . . . . . . . . . . . . . . .                     ",
"                  . . . . . . . . . . . . . . . . . . . . . . . . . . . . . . . . . . . . . . . . . . . . . . . . . . . . . . . . . . . . . . . . . . . . . . . . . . . . . . . . . . . . . . . . . . . . . . . . . . . . . . . . . . o o o o . . . . . . . . o o o o o . o o o o o o o o o o . o o o o o o o o o o o o o o o o o o o o o o o o o o o o o o o o o o o o o o o o o o o o o o o o o o o o o o o o o o o o o o o o o o o o o o o o o o o o o o o o o o o o o o o o o o o o o o o o o o o o o O o o o o o o o o o o o o o o o o o o O O O o o o O O o o o o o o o o O O O o o o O O o O O O o o o o o o o o o o o o o o O O o o o o O O O O o o O O O o o o O O O O O O O O O O O O O o O O O O O O o O O O O O o o O O O O o - - - - o o o O O O O O O O o O O O O O O O O O O O O O O O O O O O O O O O O O O O O O O O O O O O O O O O O O O O O o o - o o O O O O o o O O O O O O O O O O O O O O O O O O O O O O o O O O O O O O O O O O O O O o O O O O o o O O O O O o O O O O o o o O O O O o o O O O O O O O O O O O O O O O O O O O o o O o O O O O O O O O O O O O O O O O O O O O O O O O O O O O O O O O O O O O O - - O O O O O O O O O O O O O O O O O O O O O O O O O O O O O O O O O - - ; , , , 1 1 O O O O O O O O O O - ; ; & 1 x c v u t t r = X O - - - , & & & & X X . . . o o o o o o o o O o o o X X X . o o o o . O O o . . o o o o o O ; ; ; , ; ; 1 & O O O O O O O O ; , , 1 & O O O - > > , 4 4 1 1 & & & & & & 1 4 k V B i y * 1 & 1 4 4 3 6 6 :.7.y.p.v.@X{./.-.%.2.E A y 3 3 6 6 6 6 x S J d u i i 6 6 i Z Z i i i S <.7.e.oX@X=X`.`.`.h.g.*.*.$.i.c.N.'.'.B.B.B.[.[.k.@.P #.y.y.#.p.B.;X-X'.g.+.L K A A D U W W W K Z Z i Z Z i 6 6 6 y 6 6 6 6 6 3 3 6 6 6 6 3 3 6 6 6 6 6 6 3 3 1 1 1 1 1 4 6 6 z z z c v I T Q ~ K Z x S ^ ~ ^ &.;.} 0 6 A H g 9 0 7 7 7 7 6 6 6 6 6 6 6 v U E E j.M.u.#.K Z Z A D A Z 6 x x x x x x 6 6 4 , f.Y.' & 1 1 6 6 6 6 6 6 6 6 6 6 6 6 3 3 3 6 6 S T Y v 1 1 3 3 1 1 1 3 6 3 3 6 3 3 a F Z x x z 6 Z F ^ ^ ~ D D D S F F ~ 1.Y x 4 6 6 v v x x 6 6 6 i Z S v v i s d u.z.8.D d @.*.j.N.m.M.M.a.j.m.p.#.! Q E E U U D D D I v j j c Y 8.z.8.1.B z 4 1 ; 2 6 2 3 3 1 2 8 8 2 : O O O . . . . . . X O O O O O O O o o O O O O O O O O O O O - - O # w q 3 , - O O O O O O O o o o O O e t J I N , - O X X O O O O O O O O O O O O o o X O - - o o o o o o . . o . o . . . o o . X O O o o O O ; O - - O O O o o . . . . . . X X & ; , > - . . . . . . . . . . . . . . . . . . . . . . . . . X X . o o o o . . o . . . . X . o o o . o o o o o o o o o o o o o o o o o o o o o o o o o o O O O O o o o o o o o o o o o o o o o o o o . o o o o o o o o o o o o o . . . . o o o o o o o o o o o o o . o o o o o . . . . . . . o o . . o o o o . . o o o o o o o o . . o o o o . o . . o o . . . o o o o . o . . . o o o o . o o o o o o o . . o o o o . . o o o o o . . . . . . . . . . . . . . . . . . . . . . . . . . . . . . . . . . . . . . . . . . . . . . . . . . . . . . . . . . . . . . . . . . . . . . . . . . . . . . . . . . . . . . . . . . . . . . . . . . . . . . . . . . . . . . . . . . . . . . . . . . . . . . . . . . . . . . . . . . . . . . . . . . . . . . . . . . . . . . . . . . . . . . . . . . . . . . . . . . . . . . . . . . . . . . . . . . . . . . . . . . . . . . . . . . . . . . . . . . . . . . . . . . . . . . . . . . . . . . . . . . . . . . . . . . . . . . . . . . . . . . . . . . . . . . . . . . . . . . . . . . . . . . . . . . . . . . . . . . . . . . . . . . . . . . . . . . . . . . . . . . . . . . . . . . . . . . . . . . . . . . . . . . . . . . . . . . . . . . . . . . . . . . . . . . . . . . . . . . . . . . . . . . . . . . . . . . . . . . . . . . . . . . . . . . . . . . . . . . . . . . . . . .                   ",
"                . . . . . . . . . . . . . . . . . . . . . . . . . . . . . . . . . . . . . . . . . . . . . . . . . . . . . . . . . . . . . . . . . . . . . . . . . . . . . . . . . . . . . . . . . . . . . . . . . . . . . . . . . . . . . . . . . . . . . . . o o o o o o o o o o o . . o o o o o o o o o o o o o o o o o o o o o o o o o o o o o o o o o o o o o o o o o o o o o o o o o o o o o o o o o o o o o o o o o o o o o o o o o o o o o o o o o o o o o o o o o o o o o o o o o o o o o o o o o o o o o o o o o o o o o o o o o o o o O O O o o o O O o o o o o o o o O O o o o o O O o O O O o o o o o o O o o o o o O O O O O o o o O O O O o o o O O o o o O O O O O O O O O o o o o o o o o o o o o o O O O O O O O O O o o o o O O o o o o o o O O O O O O O O O O O o o O O O O O O O O O O O O O O O O O O O O O O O O O O O O o o o O O O O O o o o o O O O O o o o O O O O o O O O O O O O O O O O O O O O O O O O O O O O O O O O O O O O O o o O O O O o o O O O O O O O O O o O o O O O O o o O O O O O O O O O O O O O o O O O O O O O O O O O O O O O O O O O O O O O O O O O O O O O O O O O O O O O O O O O O O O O O O O O O O O O O O O O O O O O O O O O O O O O O O O O O O O O O O - - , ; ; 1 1 1 O O O O O O O O O O - ; - O & 6 N N p t t r = X O - - - - & & & $ X . . . . o o o o O o - ; - - o O X X . . o o o . . . . o . . o o o o O O ; - O O - - O O & 1 O O X O O ; ; , , ; & , l M V v 6 3 * 1 & & & O $ O ; , z c V B Z p y * 1 1 3 4 1 3 6 Z 1.7.y.a.c.@X{./.(.;.R ! L u y 6 6 6 6 6 x Z A u p p p p y i Z Z Z S Y 7.r.oX+X=X{.`.(.(.*.u.u.*.$.y.e.v.B.'.M.M.'.).g.m.M.g.+.A E 3.y.y.a.B.-X-X_.@.+.K D D D K K K K A i i i i i i 6 6 y 6 6 6 6 6 6 6 6 6 6 6 6 6 3 6 6 6 6 6 3 6 6 x x 4 1 1 6 6 x S ~ ~ E S S R ^ / a 3 3 6 a a a 0 q q , z x 4 4 4 6 6 4 6 x x x x i 6 6 x v U Q Q M.[.a.! K A Z A A A Z Z x x x x x Z Z 6 x b P.K.q O 1 1 4 6 6 6 6 3 6 6 6 6 6 6 6 3 3 3 1 S <.1.v 1 & 3 3 3 3 3 1 3 3 3 6 6 3 3 3 3 3 6 v v v Z F H F A i A Z F ) ' R v 6 6 6 D T <.Y B v 6 6 6 y A ! 5.:.c u @.k.x.8.M e ..=._.[.[.=Xv.m.a.T i A E E E U U Y I Y I U 6.f.D.Y.C.x.e.1.c 4 4 1 ; 1 2 & & * 3 Z v j > . o o o X . . o O O O O O O O o o O o X O O O O O O O O O O O O O o o + O O - o X O O O O O O O o o O O * r y 6 , ; O O o . X O O O O O O X O O O O O O O O O ; - ; o . . o o o o . o . o o o X X O O O O ; , , , - O - O o . . o o . . . . . X X X - > > - o . . . . . . . . . . . . . . . . . . . . . . . . . . . o o o o o o . . . . X X . o o o o o o o o o o o o o o o o o o o o o o o o o o o o o o O O O O o o o o o o o o o o o o o o o o o o o o o o o o o o o o o o o o o . o o o o o o o o o o o o o o o o o o o o o . . . . . . . o o o o o o o o . . o o o o o o o o o . o o o o o o . o o o . . . o o o o . o o . . o o o o . o o o o o o . . . o o o o o . o o o o o . . . . . . . . . . . . . . . . . . . . . . . . . . . . . . . . . . . . . . . . . . . . . . . . . . . . . . . . . . . . . . . . . . . . . . . . . . . . . . . . . . . . . . . . . . . . . . . . . . . . . . . . . . . . . . . . . . . . . . . . . . . . . . . . . . . . . . . . . . . . . . . . . . . . . . . . . . . . . . . . . . . . . . . . . . . . . . . . . . . . . . . . . . . . . . . . . . . . . . . . . . . . . . . . . . . . . . . . . . . . . . . . . . . . . . . . . . . . . . . . . . . . . . . . . . . . . . . . . . . . . . . . . . . . . . . . . . . . . . . . . . . . . . . . . . . . . . . . . . . . . . . . . . . . . . . . . . . . . . . . . . . . . . . . . . . . . . . . . . . . . . . . . . . . . . . . . . . . . . . . . . . . . . . . . . . . . . . . . . . . . . . . . . . . . . . . . . . . . . . . . . . . . . . . . . . . . . . . . . . . . . . . . . .                 ",
"              . . . . . . . . . . . . . . . . . . . . . . . . . . . . . . . . . . . . . . . . . . . . . . . . . . . . . . . . . . . . . . . . . . . . . . . . . . . . . . . . . . . . . . . . . . . . . . . . . . . . . . . . . . . . . . . . . . . . . . . o o o o o o o o o o o o o o o o . o o . . o o o o o o o o o o o o o o o o o o o o o o o o o o o o o o o o o o o o o o o o o o o o o o o o o o o o o o o o o o o o o o o o o o o o o o o o o o o o o o o o o o o o o o o o o o o o o o o o o o o o o o o o o o o o o o o o o o o O o o o o o o o O O o o o o O O o o O o o o O O O O o o O O O O O O O O O o o O O o o o O O O O o o o o O o o o O O O O O O O O O O O O O O O o o o o o o o o o o o o o O O O O O O o O O O O o o o O O O O O O O O O O O O O O O O O O o o O O O O O O O O O O O O O O O O O O o o o O O O O o O O o o o o O O O O O o O O o o O O O O O O O O O O O O O o O O O o o o O O O o o o O O O O O O O O O O O O O O O O O O O O O O O O O O o o O O O O O O o O O O O O O O O O O O O O O O O O O O o o o O O O O O O O O O O O O O O O O O O O O O O O O O O O O O O O O O O O O O O O O O O O O O O O O O O O O O O O O O O O O O O O O O O O O O O O O O O O O O - - - - ; ; ; , ; 1 & O O O O O O ; O - ; O O O O & 4 N :.A | | t r # + O - - - & $ X X . . . o o o o o o o o - > ; - O X X . . o o O O O O O O . . o o o o o O ; , - O O - - O - ; 1 1 ; O O O ; ; , , , , k ,.>.1.K d r = $ O O ; , & 1 1 4 c V B A u y 3 3 1 1 1 1 3 3 6 v Y 4.i.a.c.@X{./.(.;.{ Y E K p 3 6 3 6 Z A p s p i i i Z Z Z Z S T 1.e.oXOX[.].`.).=.-.f.y.y.u.u.i.z.m.k.M.M.k.h.h.@.+.i.x.B.g.+.p D 5.a.u.u.m.[.].).@.J D D U K A A A A Z Z i i y y 6 6 6 6 6 6 6 6 6 6 6 6 6 6 6 6 6 x v v v 6 6 x v T ~ F i 3 3 6 x D #.%.P Z 6 a a a & & 3 1 & & 1 6 4 x v Z S S S x 6 x 6 6 Z Z Z Z i i 6 x Z Q i.p.=X;XM.y.E K K D A A Z Z Z Z Z x Z Z Z Z x F ] 0 . 1 ; 1 4 6 6 6 6 6 6 6 6 6 6 6 6 6 6 3 1 S 4.4.v 1 & 3 3 3 3 3 6 3 6 6 6 6 6 6 3 3 3 3 F R Y I Z 6 6 6 3 3 3 2 n n 7 3 6 i p / %.6.T I Z y y 6 x p +.g.z.7.R P @.g.x.7.Y d @.=.'.;X;X+Xx.3.v A A K E D E #.i.8.8.q.f.f.I.!.!.f.W T B 4 1 & 1 1 , ; ; & * y A S c , O O o O O O O ; ; ; ; O O O ; O O O O O O O O O O O ; O O O O O O O X X O ; ; O X O O O O O O O O O O O O O X X O O O O O o . . o O O X X X O O O O O O O O O - ; - o o . o o o X $ $ 4 l l - O X O O & & 1 , , ; o O o o o . o o o o . . . . X X X O - - o . . . . o . . . . . . . . . . . . . . . . . . . X X X O - o o o o . . . . . X X . o o o o o o o o o o o o o o o o o o o o o o o o o o o o o o O O O O o o o o o o o o o o o o o o o o o o o o o o o o o o o o o o o o o o o o o o o o o o o o o o o o o o o o o . o o o o . . . . . o o o o o o . o o o o o o o . . . . . o o o . . . o o o o o o . . o o o o o o o o o o o o . . o o o o o . o o o o o o o o o o . . . o o . . . . . . . . . . . . . . . . . . . . . . . . . . . . . . . . . . . . . . . . . . . . . . . . . . . . . . . . . . . . . . . . . . . . . . . . . . . . . . . . . . . . . . . . . . . . . . . . . . . . . . . . . . . . . . . . . . . . . . . . . . . . . . . . . . . . . . . . . . . . . . . . . . . . . . . . . . . . . . . . . . . . . . . . . . . . . . . . . . . . . . . . . . . . . . . . . . . . . . . . . . . . . . . . . . . . . . . . . . . . . . . . . . . . . . . . . . . . . . . . . . . . . . . . . . . . . . . . . . . . . . . . . . . . . . . . . . . . . . . . . . . . . . . . . . . . . . . . . . . . . . . . . . . . . . . . . . . . . . . . . . . . . . . . . . . . . . . . . . . . . . . . . . . . . . . . . . . . . . . . . . . . . . . . . . . . . . . . . . . . . . . . . . . . . . . . . . . . . . . . . . . . . . . . . . . . . . . . . . . . . . . . . .               ",
"              . . . . . . . . . . . . . . . . . . . . . . . . . . . . . . . . . . . . . . . . . . . . . . . . . . . . . . . . . . . . . . . . . . . . . . . . . . . . . . . . . . . . . . . . . . . . . . . . . . . . . . . . . . . . . . . . o . . o o o o o o o o o o o o o o o . o o o o . o . . o o o o o o o o o o o o o o o o o o o o o o o o o o o o o o o o o o o o o o o o o o o o o o o o o o o o o o o o o o o o o o o o o o o o o o o o o o o o o o o o o o o o o o o o o o o o o o o o o o o o o o o o o o o o o o o o o o o o O o O o o o o O O O o O O O O O O o O o o o o O O O o o O o O O o o o o o o o O O o o o o o O O o o o o O o o o o o o o O O O O O O O O O O O o o o o o o o o o o O O o O O O O O O o o O O O O o o O O O O O O O O O O O O O O O O O O o O O O O o o O O O O O o O O O O O O O o O O O O O o o O O o o o o O O O O O O O O o O O O O O O O O O O O O O O O O O O O O O O O O o O O O O O O O O O O O O O O o o O O O O O O O O O O O o o O O O O O O O O O O O O O O O O O O O O O O O O O O O O O O O O O O O O O O O O O O O O O O O O O O O O O O O O O O O O O O O O O O O O O O O O O O O O O O O O O O O O O O O O O O O O O O O O O O O O O O O O O O O - - - - ; ; , ; ; 1 & O O O O O O ; O O - O O O O & 1 N :.D | X.| r # # o O O O X X X . . . o o o O O O O O - - > - O O X . . . o o O X X O o O . . o o o o o o ; > ; O O O O O ; , , , z j 1 & & , , 1 1 z N V V D d r q q O O ; 4 4 4 3 3 x v v Z Z y 3 3 3 1 1 1 1 3 3 6 v I 1.5.z.v.OX{.).(.o._ v Y Q J p y 3 x S D P d u i S I U D D U <.7.e.v.B.].).).*.$.$.u.y.y.u.u.p.c.B.).*.a.m.h.=.$.! 4.y.i.x.'.*.s A T i.a.u.#.m.=X'.h.+.A D K K A A A D D A Z i 6 6 6 6 6 6 6 6 6 6 6 6 v v x 6 6 6 6 v Y 6.R S v S T Q ^ ^ F 3 1 6 6 6 i y 3 3 6 1 1 1 1 3 3 3 3 3 3 i Z Z Z Z Z Z x 6 6 6 6 x Z Z Z Z Z i Z x S 3.x.a.[.;X[.a.! W ~ D D A Z Z 6 Z Z Z Z A A Z Z U 6 O & 1 ; 1 1 6 6 6 6 6 6 6 6 6 6 6 6 6 6 3 1 U 8.4.I 4 1 1 3 3 6 6 6 6 6 6 6 6 6 6 6 6 4 2 a / ~ ! Q D Z Z 6 4 1 1 1 & 3 6 6 x 7 G [ H i Z i i y x S v u @.g.a.4.B y d $.a.z.8.! $._.-X;X=Xz.Y S D A J K U %.l.B.OXv.n.H.&.) n m 2 3 S B c 1 1 1 4 1 1 ; 1 & 3 6 4 , ; O O O O O O O ; ; ; ; ; O O O - ; O O ; ; O O O O ; ; O O O O O O O O O O ; ; O O O O O O O O O O O O O O O O O O O O O O o O X X O O X O O O O O O O o + o o O O - > o o o o . X % t J V M h o O O O O O O O - o o O o o o o o o o o o o . . X X X O O o o . . . . . . . . . . . . . . . . . . . . . . . X $ % 1 , > , - o . . . . . . X X . o o o o o o o o o o o o o o o o o o o o o o o o o o o o o O O O O O - o o o o o o o o o o o o o o o o o o o o o o o o o o o o o o o o o o o o o o o o o o o o o o o o o o o o . o o o o . . . . o o o o o o . . o o o o . o o o . . o o o o o . . . o o o o o o o . o o o o o o o o o o o o . . o o o o . . o o o o o o o o o o . . . . . . o . . . . . . . . . . . . . . . . . . . . . . . . . . . . . . . . . . . . . . . . . . . . . . . . . . . . . . . . . . . . . . . . . . . . . . . . . . . . . . . . . . . . . . . . . . . . . . . . . . . . . . . . . . . . . . . . . . . . . . . . . . . . . . . . . . . . . . . . . . . . . . . . . . . . . . . . . . . . . . . . . . . . . . . . . . . . . . . . . . . . . . . . . . . . . . . . . . . . . . . . . . . . . . . . . . . . . . . . . . . . . . . . . . . . . . . . . . . . . . . . . . . . . . . . . . . . . . . . . . . . . . . . . . . . . . . . . . . . . . . . . . . . . . . . . . . . . . . . . . . . . . . . . . . . . . . . . . . . . . . . . . . . . . . . . . . . . . . . . . . . . . . . . . . . . . . . . . . . . . . . . . . . . . . . . . . . . . . . . . . . . . . . . . . . . . . . . . . . . . . . . . . . . . . . . . . . . . . . . . . . . . . .               ",
"            . . . . . . . . . . . . . . . . . . . . . . . . . . . . . . . . . . . . . . . . . . . . . . . . . . . . . . . . . . . . . . . . . . . . . . . . . . . . . . . . . . . . . . . . . . . . . . . . . . . . . . . . . . . . . . . . . o . . o o o o o o o o o o o . o o o o o o o o o o o o o o . . o o o o o o o o o o o o o o o o o o o o o o o o o o o o o o o o o o o o o o o o o o o o o o o o o o o o o o o o o o o o o o o o o o o o o o o o o o o o o o o o o o o o o o o o o o o o o o o o O o o o o o o o o o o o o o o o O o o o o o o o o o O O o o O O o o O O o o o o o o o o o o o o o o O o o O o O O o o o o o o o o o O O O o o o O o o o O O O O O O O O O O O o o o o o o o o O O o o o O O O O O O O O O O O o o o O O O O O O o o O O O O O O O O O O O O O O o o o O O O O O O o O O O O O O O O O O O O O O O O o o o o O O O O O o O O o O O O O O o O O O O O O O O O O O O O O O O O O O O O O O O o O O O O O O O O O o O O O O o o O O O O O O O O O O O O O O O O O O O O O O O O O O O O O O O O O O O O O O O O O O O O O O O O O O O O O O O O O O O O O O O O O O O O - O O O O O O O O O O O O O O O O O O O O O O O O O O O O O O O O O O O O O O O O O O O O O - O O - , ; , , 1 1 & O O O O O O ; O O O O O ; O O 1 c V D | X.| r w # o O O O X X . o . . o o o O O O O - - ; - O O X X O o . o o o . . o O . X X o o o o o - , j , & & O O O ; - ; , c c 3 e 3 , , 4 4 c v 6 3 * % % @ @ + + ; , j z Z a S v y 3 3 3 3 3 3 1 1 1 1 1 3 6 6 I <.4.p.c.OX[.`.).Z.f.W U 1.8.5.Q U I v D d d p S Y T Q 6.4.4.p.x.m.M.k.k.g.u.#.$.u.#.#.+.y.z.v.N.).=.u.a.g./.-.P T y.#.W 3.x.M.g.d y Y p.m.u.y.N.;X].g.L s J K A p A S S A Z Z i 6 6 6 6 6 6 x Z Z Z x S R ~ S 6 6 x x S ^ q.R D E p y i a 3 1 1 1 1 4 1 & 1 4 4 4 1 1 6 6 6 4 4 3 3 6 x x Z Z Z Z x i i y 6 6 Z Z Z A Z i Z Z S 5.x.u.B.-X[.m.y.W E D D A Z Z 6 x x Z Z Z Z x S U S 1 & 1 1 O & & 3 6 6 3 3 6 6 6 6 6 6 6 6 3 1 Q p.4.Y z 1 1 3 6 6 6 6 6 6 6 6 3 3 3 6 6 3 3 3 a F W Q U S Z 6 1 4 4 4 1 6 6 6 6 v v x 6 6 6 6 i 6 x A A i u  .$.a.8.Y S u $.M.v.x.a.V.|.{.=Xr.V A D i s W 9.K.Q..XV.z.6.R I I B c 3 p Q 1.c , 1 ; 1 1 ; O O & & & ; - O O O O O O O O ; ; O ; ; O O O o o o O O O O ; - O - - O O O O O O O O & O , , - O O O O O O O O O O O O O O O O O O O O O O O X X O O X O O O O O - o o . X $ * 1 k l - o O . X = = r u c l > o o o X O O O O O O O O o o o o o o o o o o . . X X . . . . . . . . . . . . . . . X $ % 6 k M h o o . . . . X % r & , , ; o . . o o . . . . . o o o o o o o o o o o o o o o o o o o o o o o o o o o o o o o O O O O - - o o o o o o o o o o o o o o o o o o o o o o o o o o o o o o o o o o o o o o o o o o o o o o o o o o o . o o o o . . o o o o o o o o . o o o o . . . o o o o o o o o o o o o o o . . o o . . o o o o o o . . o . o o . o o o o o . . o o . . o . . o o o o . o . . . o . . . . . . . . . . . . . . . . . . . . . . . . . . . . . . . . . . . . . . . . . . . . . . . . . . . . . . . . . . . . . . . . . . . . . . . . . . . . . . . . . . . . . . . . . . . . . . . . . . . . . . . . . . . . . . . . . . . . . . . . . . . . . . . . . . . . . . . . . . . . . . . . . . . . . . . . . . . . . . . . . . . . . . . . . . . . . . . . . . . . . . . . . . . . . . . . . . . . . . . . . . . . . . . . . . . . . . . . . . . . . . . . . . . . . . . . . . . . . . . . . . . . . . . . . . . . . . . . . . . . . . . . . . . . . . . . . . . . . . . . . . . . . . . . . . . . . . . . . . . . . . . . . . . . . . . . . . . . . . . . . . . . . . . . . . . . . . . . . . . . . . . . . . . . . . . . . . . . . . . . . . . . . . . . . . . . . . . . . . . . . . . . . . . . . . . . . . . . . . . . . . . . . . . . . . . . . . . . . . . . . . . . .             ",
"          . . . . . . . . . . . . . . . . . . . . . . . . . . . . . . . . . . . . . . . . . . . . . . . . . . . . . . . . . . . . . . . . . . . . . . . . . . . . . . . . . . . . . . . . . . . . . . . . . . . . . . . . . . . . . . . . . . o o o o o o o o o . . o o o o o o o o o o o o o o o o o o o o o o o o o o o o o o o o o o o o o o o o o o o o o o o o o o o o o o o o o o o o o o o o o o o o o o o o o o o o o o o o o o o o o o o o o o o o o o o o o o o o o o o o o o o o o o o o o o o o o o o o o o o o o o o o o o o o O O O O o o O o o o O O o o o O o o O O o o o o o o o o o o o o o o O O O O O o o o o o O O o o o o O o o o o o O o o o o o o O O O O O O O O O o o O o o o o O O O o o O O O O O O O O O O O o o o O O O O O O O o O O o o o O O O O O O O O O o O o o O O O O O O O O O O O O O O O O O O O O O O - o o O O O O O O o O O O O O O O O o o o O O O O O O O O O O O O O O O O O O O O O O o o O O O O O O O O O O O O O o O O O O o O O O O O O O O O O O O o O O O O O o O O O O O O O O O O O O O O O O O O O O O O O O O O O O O O O O O O O O O O O O O O O O - - - O O O O O O O O O O O O O O O O O O O O O O O O O O O O O O O O O O O O O O O O O O O O O O O ; , , , , 1 & O O O O O O O O O O O O O ; ; O O , c 6 t | | f w # . X X . . . . . o o o O O O O o - - - - O O X X . o o o o o o . . o O X X X . o O o o - > l , & & O O O O - - , z 4 3 3 4 j , 4 6 3 * & & & O X X O O O O ; , 4 6 i 6 6 3 3 1 1 & * 1 1 1 1 1 1 3 6 6 S 1.4.i.c.OX=X].`.h.l.%.&.q.r.v.N.m.b.f.&.&.P I 1.4.8.p.z.z.x.j.g.u.$.u.u.$.#.+.+.#.#.#.Q e.oX+Xh.O.$.5.$.=.../ U Q W K K K 5.x.B.k. .y 2.x.B.m.m.=X;X{.g.P J D U T U I U U K D A Z i 6 6 i x x Z Z i 6 v D K Z 6 6 6 6 y F R R E J u * 3 1 1 1 1 1 1 1 1 1 1 4 4 4 6 6 6 6 4 4 4 1 3 6 6 x v Z x x 6 6 i 6 6 6 Z i Z Z Z Z Z i v 2.a.y.M.-X[.m.y.W K D S A Z 6 6 6 x Z Z Z i 6 S Q T 6 1 3 1 ; O O 1 3 1 3 3 6 6 6 6 6 6 6 6 1 6 3.p.<.I z 1 1 3 3 6 6 6 6 6 6 6 6 3 3 1 3 3 3 3 3 e a ^ #.4.1.B 1 1 4 6 6 6 6 6 6 6 Z 6 6 6 x 6 6 6 y p y x 6 y d #.p.p.8.2.#.g.M.B.N.V.}.{.;Xc.V S Z p +.y.9.S.K.f.y.Q D Q 5.1.V b _ %.y.7.N , ; O ; O O O O O X O O O O ; ; O O O O O ; ; O O ; O O O X 1 k k , O O ; ; ; - - O O O O O - o X & 4 , , ; O O ; ; O O O O O O O O O O O O O - - - O X . . . . X O O O O O O O O o X X r f p M M - o o o . X X $ $ O o o . . o O o o O O & O ; - - o o o o . o o o o o . . . . . . . . . . . . X $ * 1 > j a | | +.1.,.M - o o . . . . X X X O o o X X o - > - . . . . o o o o o o o o o o o o o o o o o o o o o o o o o o o o o o o O O O O - o o o o o o o o o o o o o o o o o o o o o o o o o o o o o o o o o o o o o o o o o o o o o o o o o o o o . o o o o o o o o o o o o o . . . o o o . . . o o o o o o o o o o o o o . . . o o . o o o o . o o . . . . o o o o o o o o o . o . . . . . . . o o o o o o o o o . . . . . . . . . . . . . . . . . . . . . . . . . . . . . . . . . . . . . . . . . . . . . . . . . . . . . . . . . . . . . . . . . . . . . . . . . . . . . . . . . . . . . . . . . . . . . . . . . . . . . . . . . . . . . . . . . . . . . . . . . . . . . . . . . . . . . . . . . . . . . . . . . . . . . . . . . . . . . . . . . . . . . . . . . . . . . . . . . . . . . . . . . . . . . . . . . . . . . . . . . . . . . . . . . . . . . . . . . . . . . . . . . . . . . . . . . . . . . . . . . . . . . . . . . . . . . . . . . . . . . . . . . . . . . . . . . . . . . . . . . . . . . . . . . . . . . . . . . . . . . . . . . . . . . . . . . . . . . . . . . . . . . . . . . . . . . . . . . . . . . . . . . . . . . . . . . . . . . . . . . . . . . . . . . . . . . . . . . . . . . . . . . . . . . . . . . . . . . . . . . . . . . . . . . . . . . . . . . . . . . . . . . .           ",
"          . . . . . . . . . . . . . . . . . . . . . . . . . . . . . . . . . . . . . . . . . . . . . . . . . . . . . . . . . . . . . . . . . . . . . . . . . . . . . . . . . . . . . . . . . . . . . . . . . . . . . . . . . . . . . . . . . . o o o o o o o o o o o o o o . . o o o o o o o o o o o o o o o o o o o o o o o o o o o o o o o o o o o o o o o o o o o o o o o o o o o o o o o o o o o o o o o o o o o o o o o o o o o o o o o o o o o o o o o o o o o o o o o o o o o o o o o o o o o o o o o O O o o o o o o o o o o o o o o o o O O O O O o o o o o o o o o o o O o o o o o o o o o o o o o o O o o o O O o O O O O o o o O O O O O o o o O o o o O O O O O o O O O O O O o o o O O o o o O O O o o O O O O O o O O O O O o o o O O o o O O O O O o o O O o o O O O O O O O O O O O O O O O O O O O O O O o O O o O O O O O o o O o o O O O O O O O O O O O O O O o o o O O O O O O O O O O o O o o O O O O O O O O O o O O O O o o O O O O O O O O O O O O O o O O O O O O O O O O O O O O O O O O O O O O O O O O O O O O O O O O O O O O O O O O O O O O O O O O O O O O O O O O O O O O O O O O O O O O O O O O O O O O O O O O O O O O O O O O O O O O O O O O O O O O O O O O O O O O O O O - ; , , ; 1 O O O O O O O O O O O O O O O - ; O ; j 4 r t t r # @ . . . . . . o o o o O O O O O - - O O O O O X . . o o o o o o . X O o . X X . O O O o - j k z 3 * O O O O O - ; , , z z 4 4 1 1 1 & $ $ O ; - O O O O O X O ; ; 1 1 & 1 4 4 4 3 3 * * 1 1 1 1 3 3 6 6 S 1.8.i.c.OX=X]./.-.-.o.[ ` 7.z.m.V.Z.L.;.&./ 7.e.c.N.B.M.M.M.k.g.$.W E +.+.#.3.! +.#.! w.oX+X`.^.%.1.Q +.+.T <.#.+.J D D K K 4.c.+XM.+.p 2.N.+XM.M.=X:X].$.! Q 5.i.s.%.~ E ~ W D A Z i i i x 6 6 6 6 6 6 6 y 6 3 3 6 3 3 4 c S A p y 3 3 1 1 4 1 1 3 3 3 6 1 4 4 6 6 6 6 6 4 4 4 6 6 4 4 x v S Z x x x z z 4 4 6 i Z Z Z Z Z i 6 U i.#.a.[.B.a.! E D D A Z x 6 x 6 6 Z Z 6 6 6 S y.! Z 3 6 1 z T 6.6 & 1 4 3 3 6 6 6 6 6 6 6 3 6 3.5.S S v 4 1 & 3 y y 6 6 6 6 6 6 6 3 3 3 3 4 1 3 3 & g S.n.c.w.V 4 6 6 6 6 6 6 6 y y i 6 x x x 6 3 3 3 6 6 v S S D #.u.m.v.e.! @.g.M.'.'.-X=Xc.1.T A J #.y.1.<.U S S S / %.a.8.1.C [ &.6.:.k , O O O O X X O O O O O O ; 1 ; ; O O O ; ; O O O O ; O & r d 1.,.j O O X O ; O O O O O O - - + * 3 v c > - O O O ; O O O O O O O - O O O O O - - o o . . o - o . X X X O O O O O O . X % e 3 j > - O o o . . . . . . . . o o X O o + O & & 1 > > - o o o . X o o o o o . . . . . . . . . . . . $ r u 6 j j a | | d S M l - o . . . . . . . . X X $ * & , > > - O X O o o o o o o o o o o o o o o o o o o o o o o o o o o o o o o o O O O O O - - o o o o o o o o o o o o o o o o o o o o o o o o o o o o o o o o o o o o o o o o o o o o o o o o o o o o o o o o o o o o o o o o . . o o o o o o o o . o o o o o . . o o . o o o o . o o o o . . . . o o . . . . . o o o o o o o o o o o o . o o . . o o o o o o o o o . . . . . . . . . . . . . . . . . . . . . . . . . . . . . . . . . . . . . . . . . . . . . . . . . . . . . . . . . . . . . . . . . . . . . . . . . . . . . . . . . . . . . . . . . . . . . . . . . . . . . . . . . . . . . . . . . . . . . . . . . . . . . . . . . . . . . . . . . . . . . . . . . . . . . . . . . . . . . . . . . . . . . . . . . . . . . . . . . . . . . . . . . . . . . . . . . . . . . . . . . . . . . . . . . . . . . . . . . . . . . . . . . . . . . . . . . . . . . . . . . . . . . . . . . . . . . . . . . . . . . . . . . . . . . . . . . . . . . . . . . . . . . . . . . . . . . . . . . . . . . . . . . . . . . . . . . . . . . . . . . . . . . . . . . . . . . . . . . . . . . . . . . . . . . . . . . . . . . . . . . . . . . . . . . . . . . . . . . . . . . . . . . . . . . . . . . . . . . . . . . . . . . . . . . . . . . . . . . . . . . . . . . . .         ",
"        . . . . . . . . . . . . . . . . . . . . . . . . . . . . . . . . . . . . . . . . . . . . . . . . . . . . . . . . . . . . . . . . . . . . . . . . . . . . . . . . . . . . . . . . . . . . . . . . . . . . . . . . . . . . . . . . . . . o o o o o o o o o o o o o o o o o o o o o o o o o o o o o o o o o o o o o o o o o o o o o o o o o o o o o o o o o o o o o o o o o o o o o o o o o o o o o o o o o o o o o o o o o o o o o o o o o o o o o o o o o o o o o o o o o o o o o o o o o o o o o o o o o o O O o o O o o o o o o o o o o O O O O O o o o o o o o o o o o O o o o o o o o o o o o o o O O o o O O O o O O O O O o o o O O o o o o o O o o o O O O O O o o O O O O O O O o O O o o O O O O o o O O O O o o O O O O O o o o O O o o O O O O O o O O O O o o O O O O O O O O O O O O O O O O O O O O O o o O O O O O O O O o o o o O O O O O O O O O O o O O O O O O O O o o O O O O O O O o o O O O O O o o O O O O o O O O O o O O o O O O O O O O O O O o O O O O O O O O O O O O O O O O O O O O O O O o O O O O O O O O O O O O O O O O O O O O O O O O O O O O O O O O O O O O O O O O O O O O O O O O O O O O O O O O O O O O O O O O O O O O O O O O O O O O O O O O O O O O O O O O O - ; , , ; 1 O O O O O O O O O O O O O O O ; ; O ; l c u | | t # # . . . . . . o o o o O O O - - - - O O O O X X . . . . o o o o X X X o . . . . O O O O - j k z 3 * & O O O - ; , > j c c 6 & & & ; ; O & & O O O O O O O $ & 1 1 , 1 & & 4 c v 6 y 3 * 3 3 1 1 3 6 6 6 I 1.8.y.x.OX=X].^.-.o.q & 1 x I Q ! %.&.&.' 4.z.v.+X=X].).h.g.a.a.s.f.%.J K T 4.y.$.#.4.r.N.`.^.-.q.Y +.K 1.8.y.@.d A U D E E Q 8.c.+Xk.+.E 4.N.=X[.M.[.}.M.x.m.a.u.s.&.H p K K K A A A Z i i 6 6 6 6 6 6 3 3 3 3 6 6 6 6 6 x i y y 6 6 4 1 1 1 3 1 1 3 6 6 6 3 1 6 6 6 6 6 6 6 6 6 6 6 6 z v S Z x Z U 2.2.U i 3 i Z Z Z i i Z 6 S T E a.B.M.y.E D A A A Z 6 6 x 6 x x x 6 6 6 S y.! i 3 6 1 v b.b.Z X 1 4 1 1 3 6 6 6 6 6 6 3 6 U U i S v z 1 1 3 y i 6 6 6 6 6 6 6 3 3 6 6 4 1 3 6 & q } !.C.v.8.B x 6 6 6 Z x 6 6 6 6 6 x x v x i Z v v x A Q <.Y A @.g.B.c.1.K @.h.].;X-XB.x.8.1.U K W U T T E Q T I ' %.+.3.<.C _ [ E V l ; O X X O O X O O O O O O ; 1 ; ; O O ; ; ; O O ; ; O O 1 t  .R N , O O X O O O O O O O O O + q f p I N h ; O O O O O O O O O O - - O O O O O - ; & 1 z c z j h - . X O O O O O o o . . X X X . o o O . o o o o o o . . o - o X o . + + $ 1 , > > o o o o o X o o o o . . . X X O O o o - o . X $ r e 1 - o X X X X . . . o . . . . . . . . . X $ % e 3 1 1 & O ; , - o o o o o o o o o o o o o o o o o o o o o o o o o o o o o o o O O O O o - o o o o o o o o o o o o o o o o o o o o o o o o o o o o o o o o o o o o o o o o o o o o o o o o o o o o o o o o o o o o o o o o o . . o o o . o o o o . . o o o o . . o o . . o o o o o o . o o o . . o o . . . . o o o o o o o o o o o o o . o . . . o o o o o o o o o . . . . . . . . . . . . . . . . . . . . . . . . . . . . . . . . . . . . . . . . . . . . . . . . . . . . . . . . . . . . . . . . . . . . . . . . . . . . . . . . . . . . . . . . . . . . . . . . . . . . . . . . . . . . . . . . . . . . . . . . . . . . . . . . . . . . . . . . . . . . . . . . . . . . . . . . . . . . . . . . . . . . . . . . . . . . . . . . . . . . . . . . . . . . . . . . . . . . . . . . . . . . . . . . . . . . . . . . . . . . . . . . . . . . . . . . . . . . . . . . . . . . . . . . . . . . . . . . . . . . . . . . . . . . . . . . . . . . . . . . . . . . . . . . . . . . . . . . . . . . . . . . . . . . . . . . . . . . . . . . . . . . . . . . . . . . . . . . . . . . . . . . . . . . . . . . . . . . . . . . . . . . . . . . . . . . . . . . . . . . . . . . . . . . . . . . . . . . . . . . . . . . . . . . . . . . . . . . . . . . . . . . . . .         ",
"      . . . . . . . . . . . . . . . . . . . . . . . . . . . . . . . . . . . . . . . . . . . . . . . . . . . . . . . . . . . . . . . . . . . . . . . . . . . . . . . . . . . . . . . . . . . . . . . . . . . . . . . . . . . . . . . . . . . . o o o o o o o o o o o o o o o o o o o o . o o o o o o o o . o o o o o o o o o o o o o o o o o o o o o o o o o o o o o o o o o o o o o o o o o o o o o o o o o o o o o o o o o o o o o o o o o o o o o o o o o o o o o o o o o o o o o o o o o o o o o o o o o o o O o o O o o o o O O o o o o o o O O o O O O O O o o o o O O O O o o o o o o O O O O o o o o O O o o o o O o O O O O o o o o O O o o O o o o o o o O O o O O O O O O o o O O O O O O O O O O O O o o O O O O o o o O O O O o o o O O O O O O O O O O O O O O O O O O o o O O O O O O O O O O O O O O O O O O O O O O O O O O O o o o O O o o O O O O O O o o O O O O O O O O O O O O O O O O O o O O O O O O o O O O O O o o O O O O O O o O O O O O O O O O O O O O O O O O o O O O O O O O O O O O O O O O O o O O O O O O O O O O O O O O O O O O O O O O O O O O O O O O O O O O O O O O O O O O O O O O O O O O O O O O O O O O O O O O O O O O O O O O O O O O O O O O O O O - O O O O ; ; ; - , , , 1 ; O O O O O O O O O O O O ; - O - ; O 4 M N s X.O.| q # @ . o o o o o o o O O O - - ; ; - O O X X . o o . . . o o o o X X X O O . . X O O O O - j k z 3 * & X O - ; > j k c c x 3 & & O O O ; - O X O O O O & & O O , , , 1 & & 4 c v i y * * 3 3 1 1 3 6 6 6 S 7.8.i.x.N.B.).^.o.g e y 6 6 Z I T 2.5.i.i.z.N.=X{.`./.-.%.#.#.#.%.d.S.' Q T 2.#.#.4.e.c.k./.O.^ R P s 1.7.u.@.P s A D E 4.e.z.p.i.a.B.M.a.p.c.+X[._.g.m.[.B.=X'.@.d f a Z A A A A Z A Z i y 6 6 6 6 6 6 6 6 6 6 6 6 6 6 3 y i 6 6 3 1 4 1 1 3 3 3 1 1 4 4 6 6 3 3 6 3 6 6 6 6 6 6 6 6 x x S S Z Z S p.+X=XV.W 3 i i Z Z Z i Z Z Z I E a.B.B.y.E D A A Z Z i 6 x x x Z Z x 6 6 Z #.D 4 6 6 4 Z ~ #.6 ; O & & 1 1 3 6 6 6 6 6 3 Z S v 3 S Y v 1 1 3 6 Z i 6 6 6 6 6 6 6 6 6 6 3 3 3 3 y 1 q } !.C.z.1.v 6 6 Z Z Z x 6 6 6 i x v v B I T <.U S D D S S i s +.*.g.8.4.+.=.].;X=XB.N.z.1.D D D D U E E E T I F F E E T V ( f 3.1.k ; O X X O O O O O ; ; O O ; 1 ; ; O ; ; ; ; O ; ; O O O & * % & O O - - O O O O O O O O O O + w g p I N h ; - O O O O O O O O O - O o O O ; 1 1 3 s ~ 8.8.<.V M h . X O O O O - - o o . . O O o o o o . o . . o . . . . . . o O o o @ @ $ 1 , > - o o o - o o o o o o . . X X & 1 , , ; - - - o . . . . . . . . . . . . . . . . . . . . . . . X $ * & & & * * * 1 , - o o o o o o o o o o o o o o o o o o o o o o o o o o o o o o o O O O O o o o o o o o o o o o o o o o o o o o o o o o o o o o o o o o o o o o o o o o o o o o o o o o o o o o o o o o o o o o o . o . . o o o o . o o . . . o o o o o o o o o . . o o . . o o o o o . . . o o o o o o . . o . o o o o o o . . o o o o o o . . o o o o o o . o o o o . . . . . . . . . . . . . . . . . . . . . . . . . . . . . . . . . . . . . . . . . . . . . . . . . . . . . . . . . . . . . . . . . . . . . . . . . . . . . . . . . . . . . . . . . . . . . . . . . . . . . . . . . . . . . . . . . . . . . . . . . . . . . . . . . . . . . . . . . . . . . . . . . . . . . . . . . . . . . . . . . . . . . . . . . . . . . . . . . . . . . . . . . . . . . . . . . . . . . . . . . . . . . . . . . . . . . . . . . . . . . . . . . . . . . . . . . . . . . . . . . . . . . . . . . . . . . . . . . . . . . . . . . . . . . . . . . . . . . . . . . . . . . . . . . . . . . . . . . . . . . . . . . . . . . . . . . . . . . . . . . . . . . . . . . . . . . . . . . . . . . . . . . . . . . . . . . . . . . . . . . . . . . . . . . . . . . . . . . . . . . . . . . . . . . . . . . . . . . . . . . . . . . . . . . . . . . . . . . . . . . . . . . . .         ",
"      . . . . . . . . . . . . . . . . . . . . . . . . . . . . . . . . . . . . . . . . . . . . . . . . . . . . . . . . . . . . . . . . . . . . . . . . . . . . . . . . . . . . . . . . . . . . . . . . . . . . . . . . . . . . . . . . . . . . . . . . . . . . o o o o o o o o o o o o . . . o o o o o o . o o o o . . o o o o o o o o o o o o o o o o o o . . . o o o o o o o o o o o o o o o o o o o o o o o o o o o o o o o o o o o o o o o o o o o o o o o o o o o o o o o o o o o o o o o o o o o o o o o o o o o o o o o o O O o o O o o o O O o O O O o o O o o o O O O o o o o o o O O O O O O o o o O O o o o o o o o o o O o o o o O O o O O o o O O O O O O o O O O O O O o o O O O O O O O O O O O O O o O O O O O O O O O O O O O O O O O O O O O O O O O O O O O O O O O o O O O o O O O O O O O O O O O O O O O O O O O O O O O O o o O O O O O O o O O O O O O O O O O O O O O O O o o o O O O O O O O O O O O O O O O O O o O O O O O O o o O O O O O o O O O O O O o o O O O O O o o o O O O O O O O O O O O O O O O O O O O O O O O O O O O O O O O O O O O O O O O O O O O O O O O O O O O O O O O O O O O O O O O O O O O O O O O O O O O O O O O O O O O O O O O O O O O O O O O O O O - ; - - ; , , 1 1 O ; O O O O O O O O O O O O O O O ; , M :.P O.O.X.g w # . o o o o o O O O O - - , > , ; O X X . . . . . . o o o o o O X X . . o o X O O O - - > l j 1 * & - > h j j z x z z z 4 & & O X X O - O O O O O O O ; ; ; ; O O & & 1 1 z x 6 3 3 & 1 1 1 1 1 3 6 6 v 7.e.y.a.v.m.).O.X.a y 3 6 i 6 v 1.8.c.OXB.'.)._.).=.=.@.+.L K L K ^ / / T 2.L L 8.r.N._.=.@.J A A A 1.7.y.@.d p p Z D U 4.p.m.Z.K.d.p.m.j.$.#.x.B.].g.#.x.-X-X{._.@.u 6 D A p A Z i Z Z Z 6 6 3 3 6 6 6 6 6 6 6 6 6 6 6 3 6 6 6 6 6 3 6 6 3 1 1 3 1 2 1 6 6 6 3 3 6 6 6 6 , , 6 6 i Z S S S S A S S #.k._.g.s 3 Z Z Z Z Z i Z 6 U y.y.a.[.[.y.E A i A A A Z x x 6 x Z Z x x 6 Z D Z 6 6 6 6 6 i 6 6 1 ; & & & 1 3 6 6 6 6 3 6 S I x y Z T Y z 1 1 6 6 Z Z 6 6 6 6 6 6 6 6 6 3 3 3 3 6 3 & q ;.L.b.1.v 6 x Z Z x x x v v v U 6.4.1.T T U S v v x 6 6 i A D J +.#.a.u.h.].-X+Xm.j.z.7.Y A A A K E E E T D S S D D U Y _ [ s.7.,.; O O O 1 & & 1 1 ; ; ; ; 1 ; ; ; O ; ; ; ; O ; O O O O O O O X O O ; ; O X O O ; - O O O O + q q 3 z , ; ; ; O - o . X O - ; 1 & & 4 k k , & & y d +.R I v z h - o o O O & & , > > o X X O ; - - o o o o o o . o o . . . . o o o o @ X & 1 k l , & 1 N M l - . . . o . . X X $ & 1 , , , ; - - o . . . . . . . . . . . . . . . . . . . . @ . . X . . . X $ 1 1 O o - o o o o o o o o o o o o o o o o o o o o o o o o o o o o o o . X X O O o o o o o o o o o o o o o o o o o o o o o o o o o o o o o o o o o o o o o o . . o o o o o o o o o o o o o . o o o o o o . . . . o o o . . o o o o o o o o o . . o o o . o o o . . o o o o o . . . o o o o o o o o o o o o o o . . . . . o o o o o o o o o o o . . . o . o o . . . . . . . . . . . . . . . . . . . . . . . . . . . . . . . . . . . . . . . . . . . . . . . . . . . . . . . . . . . . . . . . . . . . . . . . . . . . . . . . . . . . . . . . . . . . . . . . . . . . . . . . . . . . . . . . . . . . . . . . . . . . . . . . . . . . . . . . . . . . . . . . . . . . . . . . . . . . . . . . . . . . . . . . . . . . . . . . . . . . . . . . . . . . . . . . . . . . . . . . . . . . . . . . . . . . . . . . . . . . . . . . . . . . . . . . . . . . . . . . . . . . . . . . . . . . . . . . . . . . . . . . . . . . . . . . . . . . . . . . . . . . . . . . . . . . . . . . . . . . . . . . . . . . . . . . . . . . . . . . . . . . . . . . . . . . . . . . . . . . . . . . . . . . . . . . . . . . . . . . . . . . . . . . . . . . . . . . . . . . . . . . . . . . . . . . . . . . . . . . . . . . . . . . . . . . . . . . . . . . . . . . . . . .       ",
"      . . . . . . . . . . . . . . . . . . . . . . . . . . . . . . . . . . . . . . . . . . . . . . . . . . . . . . . . . . . . . . . . . . . . . . . . . . . . . . . . . . . . . . . . . . . . . . . . . . . . . . . . . . . . . . . . . . . . . . . . . . . . o . . o o o o o o o o o o o o o o o o o o o o o o o . . . o o o o o o o o o o o o o o o o o o . . o o o o o o o o o o o o o o o o o o o o o o o o o o o o o o o o o o o o o o o o o o o o o o o o o o o o o o o o o o o o o o o o o o o o o o o o o o o o o O O O o o o o o o O O o o O O O O o o O O o o o o o o O O O o o o O O o O O O o O O O o o o o o o O o o o o o o O O O O o o o o o o o o o o o O O O O O O O O O O O O O O O O O O O O O O O o O O O O O O O O O O O O o o O O O O O O O O O O O O O O O o o O O O o o O o O O O O O O O O O O O O O O O O O O O o O O O O O O o o O O o o O O O o o o O O O O O O O O O O O O o o O O O O o o O O O O O O O O O O O O O O O O o o O O O O O O O O O O O O O O O O O O O o o O O O O O O O O O O O O O O O O O O O O O O O O O O O O O O O O O O O O O O O O O O O O O O O O O O O O O O O O O O O O O O O O O O O O O O O O O O O O O O O O O O O O O O O O O O O O O O O O O O O O - - ; , , 1 1 1 O ; ; O - - - O O O O O O O O O O 1 4 V :.+.O.O.O.g w # o . . O O O O O O - ; ; , , 1 & $ X . o O X . . o o o o o o O O X X . o o . . O O O - > j , 1 1 , l k c c 6 3 * 1 4 j 4 1 & O O O O O O O O O O & O ; ; ; & & & & & 1 1 4 6 3 3 3 1 1 1 1 1 1 3 6 6 v 7.r.a.a.x.N.h.=. .y y i S I Y 4.e.v.B.[.]./.=.*.$.*.*.+.J D D D D D A D U W W 4.c.OX]./.*.Q K J A 1.7.#.+.s p p Z Z D D E 3.y.%.&._ U i.u.$.P D i.N.'.u.i.+X-X{.[.'.*.s i D A Z Z x Z Z Z i 6 3 3 6 6 6 6 6 6 6 6 3 6 6 3 3 6 x 6 6 3 6 6 6 3 1 1 6 4 1 1 6 3 1 3 6 4 6 v D D 6 6 6 Z I U D Z Z A Z Z J d d y 6 Z i Z A A i Z 6 E a.j.j.[.-Xj.! A Z A A A Z x x x i Z Z x x 6 Z Z Z 6 6 6 6 6 4 1 6 4 1 ; & O & 1 1 6 6 6 6 6 I Y Z y p U <.c 1 & 3 3 i A i 6 6 6 6 6 6 6 3 3 6 3 3 6 6 * + } K.b.1.S 6 i i i 6 Z T <.Y v E y.Q U S Z Z x 6 6 6 6 6 p A A 6 y  .*.k.k.{.;X+Xy.u.m.e.1.A p A K Q ! 2.2.U D I D / E R ] K.f.8.,., ; 1 1 1 1 1 ; ; ; ; 1 1 ; ; O O ; ; ; ; ; ; ; O O O O O O - - O O ; O O O O O O O O O O O + + + O , ; O ; - O X ; h l , O O & % u F B c , O & 3 e 3 ; O - - o . o X O & O ; , ; - o X $ ; ; , - O o o o o o . o o o o o o o o . # w = y A M M 4 r a V ,.M > . . . . . . X O $ * 4 j , , , - - - o . . . . . . . . . . . . . o . . . . . . . . . X % e x k l > . . . o o o o o o o o o o o o o o o o o o o o o o o o o o o o o o . X X O O o o o o o o o o o o o o o o o o o o o o o o o o o o o o o o o o o o . o o o . . o o o o o o o o o o o o o . . o o o o . . o o . . o o o o o o o o o o o o o o . . . o o o . . o o o o . . o o . . . . o o o o o o . . o o o . . . o o o o o o o . o . o o o . . . . . o o o . . . . . . . . . . . . . . . . . . . . . . . . . . . . . . . . . . . . . . . . . . . . . . . . . . . . . . . . . . . . . . . . . . . . . . . . . . . . . . . . . . . . . . . . . . . . . . . . . . . . . . . . . . . . . . . . . . . . . . . . . . . . . . . . . . . . . . . . . . . . . . . . . . . . . . . . . . . . . . . . . . . . . . . . . . . . . . . . . . . . . . . . . . . . . . . . . . . o . . . . . . . . . . . . . . . . . . . . . . . . . . . . . . . . . . . . . . . . . . . . . . . . . . . . . . . . . . . . . . . . . . . . . . . . . . . . . . . . . . . . . . . . . . . . . . . . . . . . . . . . . . . . . . . . . . . . . . . . . . . . . . . . . . . . . . . . . . . . . . . . . . . . . . . . . . . . . . . . . . . . . . . . . . . . . . . . . . . . . . . . . . . . . . . . . . . . . . . . . . . . . . . . . . . . . . . . . . . . . . . . . . . . . . . .       ",
"    . . . . . . . . . . . . . . . . . . . . . . . . . . . . . . . . . . . . . . . . . . . . . . . . . . . . . . . . . . . . . . . . . . . . . . . . . . . . . . . . . . . . . . . . . . . . . . . . . . . . . . . . . . . . . . . . . . . . . . . . . . . . . o o o o o o . o o o o o o . o o o o o o o o o o o o o o o o o o o o o o o o o o o o o o o o o o o o o o o o o o o o o o o o o o o o o o o o o o o o o o o o o o o o o o o o o o o o o o o o o o o o o o o o o o o o o o o o o o o o o o o o o o o o o o o O O o o O O o o o o O O o o o O O O O O O O o o o o O o O O O o o o O o o O O O o o O O o o o o o o O o o o o o o o O O O O o o o o o o o o o O O O O O o o O O O O O O O O O O o O O O O O O O O O O O O O O O O o O O o O O O O O O O O O O O O O o O O O o O O O O O o o O O O O O O O O O O O O O O O O O O O O O O O O O O o o O O O O O O O o O O o o O O O O O o O O O O o O O O O O o o O O O O O O O O O O O O o O O O O o O O o O O o O O O O O O O O O O O O O O O O O O O o O O O O O O O O O O O O O O O O O O O O O O O O O O O O O O O O O O O O O O O O O O O O O O O O O O O O O O O O O O O O O O O O O O O O O O O O O O O O O O O O O O O O O O O O O O O O O O - ; ; , , , 1 1 & O O ; O - - O O O O O O O ; O O O 1 6 V 1.W ..O.O.g w # o X X O O O O O - , ; ; , , 1 & $ $ X + . . . o o o o o O O O O O O o o o . . O O ; , j k z 4 z N N v 6 y % $ O O , , 1 1 1 1 ; ; ; ; O O O O & & 1 ; & 1 1 1 & & & 1 1 4 6 3 3 3 3 3 3 3 3 3 6 x Z I 7.e.x.N.OX+X_.=...P A T 1.8.c.N.B.'.`.)./.=.@.#.#.$.$.+.E U E K K J K U K L 7.oX+X`./.=.s.y.+.W 1.8.$...d i A A A Z A D K K D A i i A U 3.y.W A D 4.N.M.u.p.B.[.[.{.].=.u A D A Z A Z i i i i 6 6 6 y 6 6 6 6 6 6 6 6 6 3 3 6 6 6 3 6 6 6 6 3 1 3 6 4 4 6 3 3 4 4 4 4 4 A y.y.Z 6 6 6 S S S Z Z Z Z x 4 & & 6 Z i i Z Z Z Z Z 6 D u.a.j.[.-XM.y.D A A A A Z i Z Z Z Z Z 6 6 6 6 Z Z 6 6 6 6 6 6 6 6 6 4 1 1 1 ; 1 1 1 6 6 6 i U T Z 3 y D I v 1 1 1 3 6 Z A i 6 6 6 6 6 6 6 3 3 6 6 6 3 & 2 } S.s.I Z 6 6 i i 6 A Q 6.Y Z A A i y 3 6 6 6 6 6 i i i i A Z Z Z P @.*.).{.;Xv.W *.M.c.4.D A A K W 3.4.2.U U D H [ ~ T ` ~.&.2.N , 1 1 1 , ; ; ; ; 1 ; 1 ; ; 1 ; O O ; ; ; ; ; ; ; ; O O O O ; ; ; ; O O O O O O O O O O O O O o O ; , ; ; & * y  .%.8.t.M O X & & a a x 4 - O O o . . o o o o O O O X O O ; - o . @ + X & 1 ; - O o O o o o o o o o o o o o o o # w w f s U :.M 4 e r 1 h > - . . X X O o O & & & 4 j > , - - - o o . . . . . . . . . . . . . . . . . . . . @ @ % r | +.1.,.M > . . . o o o o o o o o o o o o o o o o o o o o o o o o o o o o o o . X X O O o o o o o o o o o o o o o o o o o o o o o o o o o o o o o o o o o o o o o o o o o o o o o o o o o o o o . . . o o o o . . o . . . o o o o o o o o o o o o o o . . o o o o . . o o o o . . o o o o . . o o o o o o . . o o o . . . o o o o o o . . o o o o . . . . . . o o o . . . . . . . . . . . . . . . . . . . . . . . . . . . . . . . . . . . . . . . . . . . . . . . . . . . . . . . . . . . . . . . . . . . . . . . . . . . . . . . . . . . . . . . . . . . . . . . . . . . . . . . . . . . . . . . . . . . . . . . . . . . . . . . . . . . . . . . . . . . . . . . . . . . . . . . . . . . . . . . . . . . . . . . . . . . . . . . . . . . . . . . . . . . . . . . . . . . . . . . . . . . . . . . . . . . . . . . . . . . . . . . . . . . . . . . . . . . . . . . . . . . . . . . . . . . . . . . . . . . . . . . . . . . . . . . . . . . . . . . . . . . . . . . . . . . . . . . . . . . . . . . . . . . . . . . . . . . . . . . . . . . . . . . . . . . . . . . . . . . . . . . . . . . . . . . . . . . . . . . . . . . . . . . . . . . . . . . . . . . . . . . . . . . . . . . . . . . . . . . . . . . . . . . . . . . . . . . . . . . . . . . . . . . . .     ",
"    . . . . . . . . . . . . . . . . . . . . . . . . . . . . . . . . . . . . . . . . . . . . . . . . . . . . . . . . . . . . . . . . . . . . . . . . . . . . . . . . . . . . . . . . . . . . . . . . . . . . . . . . . . . . . . . . . . . . . . . . . . . . . o o o o o o o o o o o . . o o o o o o o o o o o o o o o o o o o o o o o o o o o o o o o o o o o o o o o o o o o o o o o o o o o o o o o o o o o o o o o o o o o o o o o o o o o o o o o o o o o o o o o o o o o o o o o o o o o o o o o o o o o o o o o o o o o o O O O o o o o O o o o O O O o o O O o o o O O O o O o o o o o o o O O O O o o o o o o o o o O O O o o o o o o o o o O o O O O O o o O O O O O O o o O O O O O o O O O O o o O O O O O O O O O O o o o o o o o O o O O O O O O O O O O O O O o o O O O O O O O O O O O O O O O O o O O O o O O O o o O O O O O O o o O O O o O O O O O O O O O O o o O O O O O o o o O O O O O O O O O O O O O O o o O O O O o O o o O O O O O O O O O o o O O O O O O O O O O O O O O O O O O O O O O O O O O O O O O O O O O O O O O O O O O O O O O O O O O O O O O O O O O O O O O O O O O O O O O O O O O O O O O O O O O O O O O O O O O O O O O O O O O O O O O O O O O O O O O O O - ; ; , , , 1 1 & & O O ; O - - O O O ; ; O O ; O O O 1 6 V 1.E | O.X.f w # @ O O O O O ; - - , ; , , 4 1 * $ $ X + X X o O o o o o O O O O X O O o o X o o , j j c N B v N v v 6 * % $ O - ; , , ; 1 1 1 1 ; , ; O O & & 1 4 4 1 1 1 1 1 & & 1 1 1 4 6 6 3 3 3 3 3 3 3 3 6 v S I 4.e.v.OX@X;X]./.-.&.T 8.e.c.@X[.`././.*.*.*.$.#.+.#.y.y.y.#.+.P A A D D E 2.r.@X].^.(.s.y.@.@.2.e.g.O.X.p Z A A A Z A D K D A D D K A D Q i.i.y.E D 5.N.M.#.u.[.{.M.'._.@.u D D A i Z i i i i y y y y y 6 6 6 x 6 6 6 6 3 3 6 6 6 6 6 6 6 3 1 1 1 6 x Z i 3 6 6 4 4 6 4 6 ~ #.i 6 6 6 x v Z Z 6 6 i A A Z i 6 6 i i Z Z i Z Z Z D ! y.j.=X-XM.u.U A D A A Z i Z Z Z Z Z Z 6 6 6 x x 6 6 i 6 6 6 6 6 6 6 6 1 1 1 1 1 1 3 6 6 i U U 6 3 6 Z v z 4 1 1 1 3 i Z Z 6 6 6 6 6 6 6 6 6 6 3 6 3 1 & g ] 9.S x 6 6 i i i Z A Z 6 6 3 y i 6 i i i i i i 6 i i p p A Z A K K  ./.].=Xc.J =.'.OX8.U Z A J L ! Q T U I F ) [ ~ T m { a x c 4 1 1 1 1 1 ; 1 1 1 1 ; O ; 1 1 ; ; ; ; ; ; ; ; ; O O O O O ; ; O ; ; O O O O O O O O O O ; O O 1 1 , ; 1 3 u +.=.`.m.w.,.> O - ; O O O O O O O O O O O O O O X X O o . . o - o . @ + X $ ; - - o O o o o o o o o o O o O O O O # w w f u v M h - O X X . - - . . X X O O O & & & 4 j > > - o o o o . . . . . . . . . . . . . . . . . . . . O % t d s S k h > . . . . . o o o o o o o o o o o o o o o o o o o o o o o o o o o o o o O O O O o o o o o o o o o o o o o o o o o o o o o o o o o o o o o o o o o o o o o o . o o o o o o o o o o o o . . o . o o o o o . o o o . o o . o . o o o o o o o o o o o o o o o . . o o o o . . o o o o o o o o o o o o . o o o o o o o o o . . o o . . o o . o o o . . . . . o o . . . . . . . . . . . . . . . . . . . . . . . . . . . . . . . . . . . . . . . . . . . . . . . . . . . . . . . . . . . . . . . . . . . . . . . . . . . . . . . . . . . . . . . . . . . . . . . . . . . . . . . . . . . . . . . . . . . . . . . . . . . . . . . . . . . . . . . . . . . . . . . . . . . . . . . . . . . . . . . . . . . . . . . . . . . . . . . . . . . . . . . . . . . . . . . . . . . o o . . . . . . . . . . . . . . . . . . . . . . . . . . . . . . . . . . . . . . . . . . . . . . . . . . . . . . . . . . . . . . . . . . . . . . . . . . . . . . . . . . . . . . . . . . . . . . . . . . . . . . . . . . . . . . . . . . . . . . . . . . . . . . . . . . . . . . . . . . . . . . . . . . . . . . . . . . . . . . . . . . . . . . . . . . . . . . . . . . . . . . . . . . . . . . . . . . . . . . . . . . . . . . . . . . . . . . . . . . . . . . . . . . . . . . . .     ",
"  . . . . . . . . . . . . . . . . . . . . . . . . . . . . . . . . . . . . . . . . . . . . . . . . . . . . . . . . . . . . . . . . . . . . . . . . . . . . . . . . . . . . . . . . . . . . . . . . . . . . . . . . . . . . . . . . . . . . . . . . . . . . . . o o o o o o o o o o o o o o o o o . o o o o o o o o o o . o o o o o o o o o o o o o o o o o o o o o o o o o o o o o o o o o o o o o o o o o o o o o o o o o o o o o o o o o o o o o o o o o o o o o o o o o o o o o o o o o o o o o o o o o o o o o o o o o o o o O O O o o o O O o o O O O O o o O O o o o O O O o o o o o o o o o o o o O o o o O O o o o o o O O o O o o o o o o o o o o O O O O O O O O O O O O O O O O O O o o o O O O O O O O O O O O O O O o o o o o o o O O O O O O O O O o o O O O O O o O O O O O O O O O O O O O O O O o O O O o o O O o O o O O O O O o o O O O O O O O O O O O O O O O O O O O O O o o o O O O O O O O O O O O O O O o O O O O O o o O o O O O O O O O O O O o O O O O O O O O O O O O O O O O O O O O O O O O O O O O O O O O O O O O O O O O O O O O O O O O O O O O O O O O O O O O O O O O O O O O O O O O O O O O O O O O O O O O O O O O O O O O O O O O O O O O O O O O O O O O O O O O O - ; , , , ; 1 & & O O O O - - O O O ; ; ; ; O O ; ; & 4 V :.E  .O.| f w # @ . O O O O ; , , , ; , , 4 1 & & $ X + O O O O o O O O O O O O O O O o . o O - j N z z B B v v y * & O O O O ; ; ; ; ; 1 1 1 1 1 1 & & & & 1 j z 4 4 3 1 1 1 1 1 1 1 1 4 6 3 3 3 3 3 3 6 6 6 i Z S U 4.z.v.OX=X;X{.`.l.s.p.x.m.B.'._.=.=.$.$.$.$.#.W E Q y.u.$.@.d A A A A S 4.r.OX'./.(.s.p.$...! 7.u.=.X.s Z A p p i i Z D D D A A A A D D D Q i.a.#.P A 2.x.j.#.y.+X[.k.k.g.P y Z A Z i i i i 6 6 6 6 6 y 6 6 6 x 6 6 6 6 3 3 6 6 6 6 6 6 6 3 1 1 1 6 S ~ / 3 3 6 4 6 6 6 6 6 6 6 6 6 6 x x Z 6 6 i Z S Z Z 6 3 y y i Z i i Z Z Z D 3.y.a.[.-X[.a.E A D S A Z Z x x Z Z Z Z 6 6 6 Z x 6 6 6 6 6 6 6 x x 6 6 6 4 1 1 1 1 1 1 6 i S S 6 3 6 6 6 v z 4 1 1 3 6 Z Z i 6 6 6 6 6 6 6 6 6 1 1 3 1 & n ` ~ S 6 6 6 6 Z 6 6 6 6 6 6 6 y y 6 6 6 6 i i 6 6 6 y p A A Z D D J  .=.{.+X8.u ..].@Xz.T A S A L K U T T Y v G G U Y v 2 3 4 4 1 & 1 1 & 1 1 1 1 1 1 ; ; ; ; ; ; ; ; ; ; ; O O O O O O O O ; ; O ; ; O O O O O O 1 , , , O O & 3 4 ; O 1 3 r d  . .K N l - O O O X O O O O O O O O O O O O O O O O O X o o - - . . X X X O - o o o o o o o o o o o . . o o O O @ # # * * 1 , - o . . . . . . . X X X O O O & * * 1 , , , ; o o o o o . . . . . . . . . . X X O O - - O O O & * r % O - - . . . . . o o o o o o o o o o o o o o o o o o o o o o o o o o o o o o o . X O O O o - o o o o o o o o o o o o o o o o o o o o o o o o o o o o o o o o o o o o o o o o o o o o o o o o o o o . . o o o o o o o o o o o o . . . o o o o o o o o o o o o o o o o o o o o o . o o o o o o o o o o o o o . . o o o o o o o . . . o o . . o o . o o o o . . . . . o . . . . . . . . . . . . . . . . . . . . . . . . . . . . . . . . . . . . . . . . . . . . . . . . . . . . . . . . . . . . . . . . . . . . . . . . . . . . . . . . . . . . . . . . . . . . . . . . . . . . . . . . . . . . . . . . . . . . . . . . . . . . . . . . . . . . . . . . . . . . . . . . . . . . . . . . . . . . . . . . . . . . . . . . . . . . . . . . . . . . . . . . . . . . . . . . . . . . . . . . . . . . . . . . . . . . . . . . . . . . . . . . . . . . . . . . . . . . . . . . . . . . . . . . . . . . . . . . . . . . . . . . . . . . . . . . . . . . . . . . . . . . . . . . . . . . . . . . . . . . . . . . . . . . . . . . . . . . . . . . . . . . . . . . . . . . . . . . . . . . . . . . . . . . . . . . . . . . . . . . . . . . . . . . . . . . . . . . . . . . . . . . . . . . . . . . . . . . . . . . . . . . . . . . . . . . . . . . . . . . . . . . . . . . . .   ",
"  . . . . . . . . . . . . . . . . . . . . . . . . . . . . . . . . . . . . . . . . . . . . . . . . . . . . . . . . . . . . . . . . . . . . . . . . . . . . . . . . . . . . . . . . . . . . . . . . . . . . . . . . . . . . . . . . . . . . . . . . . . . . . . o o o o o o . . o o o o o o o o o . o o o o o . . o o o . o o o o o o o o o . o o o o o o o o o o o o o o o o o o o o o o o o o o o o o o o o o o o o o o o o o o o o o o o o o o o o o o o o o o o o o o o o o o o o o o o o o o o o o o o o o o o o o o o o o O o o o o o o o o o o o O O O o o o o o o o o o o o o o o o o o o o o O O O O o o O O o o o o O O O O o o o o o o o o o o o o O O o O O O O O O O O O O O O O O O o O O O o O O O O O o o o o o O O o o o o O O O o o o o o o O O O O O O O O O O o O O O O O o o O O O O O O O O o O O O O o O O O O O O O O O O o O O O O O O O o o O O O O O O O O O O O O O O O O O O O O O O O O O o o O O O O O O O O O O O O O O O O O O O O O O O o O O O O O O O O O O O O O O O O O O O O O o o o O O O O O O O O O O O O O O O O O O O O O O O O O O O O O O O O O O O O O O O O O O O O O O O O O O O O - - O O O O O O O O O O O O O O O O O O O O O O O O O O O O O O O O O O O - ; ; ; , ; & & O O O O O - - ; O O ; O O O O O ; ; O 4 N :.T  .X.| r w # @ . o o O O - , , ; ; 1 , j 4 1 * & X @ @ o o o o o o o o O O O X O o o . o - > l j 1 3 z z & % % $ O O O O O 1 ; ; ; 1 1 1 1 1 1 1 & & ; , j N c 6 y 3 1 O & 1 1 1 1 1 1 3 3 3 6 6 i i 6 6 i Z S S U 8.c.OXB.[.=X[.[.[.M.M._.h.g.g.*.$.$.#.#.#.! Q W W W W +. .d i v S Z Z Y w.oXB./.O.%.4.y.$.$.8.y.@. .u y A i y p y 6 Z A D D A i i A D A A i T z.j.$.s x <.a.j.! 8.N.M.u.u.u.+.u 4 x i y i i 6 6 6 6 6 6 6 6 6 6 6 3 3 3 3 3 6 6 6 6 6 6 3 3 3 1 1 1 6 F Z 6 3 3 6 6 6 6 6 1 1 4 6 6 x x Z i 6 6 6 Z A A Z i 3 3 y i 6 6 i Z A Z U y.j.j.[.-X[.a.E A D A A Z 6 6 i Z Z 6 i 6 6 Z U S 6 6 6 6 6 6 6 x x 6 6 6 6 6 1 1 1 1 1 1 6 Z v 6 3 6 3 6 S v 6 1 3 3 3 6 A A i 3 3 6 6 6 6 6 6 4 1 3 1 & 9 / Q v 6 6 6 6 6 6 6 6 6 6 6 6 6 y i 6 6 6 6 6 6 6 6 y Z A i i A D A o./.-X@X8.J @._.+Xc.4.D D D L #.u.p.8.4.Y B v S v z 4 4 1 1 1 & 1 1 & & 1 1 1 1 1 ; ; ; ; ; 1 1 ; ; ; ; O O O O O O O O ; O O O ; ; O O O & 6 6 z j ; O 2 * 6 4 ; ; 1 O $ & & X X - O O ; O O O - - O O ; O O o O O O O O o X X X & 4 , - - > > o X X O O o o . o o o o o o o o . . . o o o o . o O O o o o o . . o o . . . . X . o o O O $ $ 1 , , , - o o o o o o o o X O ; > > - . X = * ; ; ; - O O o O X . . . . . . . . X o o o o o o o o o o o o o o o o o o o o o o o o o o o o o o o . X O O O o - o o o o o o o o o o o o o o o o o o o o o o o o o o o o o o o o o o o o o o o o o o o o o o o o o o . . . o o o o o o o o o o o o . . . o o . o o o o o . . o o o o o o o o o o o o o o o o o o o . . . . . . o . . . o o . o o o o . o o . . . . o o o o . . . . . . o . . . . o o . . . . . . . . . . . . . . . . . . . . . . . . . . . . . . . . . . . . . . . . . . . . . . . . . . . . . . . . . . . . . . . . . . . . . . . . . . . . . . . . . . . . . . . . . . . . . . . . . . . . . . . . . . . . . . . . . . . . . . . . . . . . . . . . . . . . . . . . . . . . . . . . . . . . . . . . . . . . . . . . . . . . . . . . . . . . . . . . . . . . . . . . . . . . . . . . . . . . . . . . . . . . . . . . . . . . . . . . . . . . . . . . . . . . . . . . . . . . . . . . . . . . . . . . . . . . . . . . . . . . . . . . . . . . . . . . . . . . . . . . . . . . . . . . . . . . . . . . . . . . . . . . . . . . . . . . . . . . . . . . . . . . . . . . . . . . . . . . . . . . . . . . . . . . . . . . . . . . . . . . . . . . . . . . . . . . . . . . . . . . . . . . . . . . . . . . . . . . . . . . . . . . . . . . . . . . . . . . . . . . . . . .   ",
"  . . . . . . . . . . . . . . . . . . . . . . . . . . . . . . . . . . . . . . . . . . . . . . . . . . . . . . . . . . . . . . . . . . . . . . . . . . . . . . . . . . . . . . . . . . . . . . . . . . . . . . . . . . . . . . . . . . . . . . . . . . . . . . o o o o o o o o o o o o o o o o o o o o o o o . . . . . o o o o o o o o o o o o o o o o o o o o o o o o o o o o o o o o o o o o o o o o o o o o o o o o o o o o o o o o o o o o o o o o o o o o o o O o o o o o o o o o o o o o o o o o o o o o o o o o o o o O O o o o o o o o o o o O O O O o o o o o O o o o o o o o o o o o o o o o o O O o o O O O o o o o o O O o o o o o O O o o o o o O O o o O O O O O O O O O O O O O O O O O O o o O O O O O O o o O O O O O O O O O O o o o o o o o O O O O O O O O O o o O O O O O o O O O O O O O o O O O O o o O O O O O O o O O O O O O O O O O O o O O O O O o o O O O O O O O O O O O O O o O O O O O o o o O O O O O O O O O O O O O O O O O O O O O O O O O O O O o o o O O O O O O O O O O o O O O o O O O O O O O O O O O O O O O O O O O O O O O O O O O O O O O O O O O O O O O O O O O O O O O O O O O O - - - O O O O O O O O O O O O O O O O O O O O O O O O O O O O O O O O O O O ; ; - - ; 1 & & O O O O O - - - O O O O O O ; O ; ; ; 4 N :.<.+.O.O.t w # @ . . o o o - - - O O O , > , 1 * * = @ @ o o o o o o o o O O O O O O o o o - h j 1 & & 1 - X $ X O O O O O O ; , ; O O ; 1 & ; ; ; ; ; , c M V S u e 3 1 & & 1 1 1 1 1 1 3 3 3 6 6 i i 6 6 6 Z S I 2.e.oX+X].'.+X+X;X-X`././.=.#.! #.#.#.! K K E ! #.+.P u y 3 6 v S D A I 7.r.a.=.O. .D U ! y.5.y.+. .y 6 i i y i i 6 x Z Z Z A Z Z Z A A A A i v 4.a.u.+.i S 1.x.a.W 5.N.m.j.j.k.g.s 3 6 Z i i x 6 6 6 i 6 6 6 6 6 6 3 3 6 6 3 4 6 6 6 6 6 1 1 1 1 1 1 1 & 1 6 6 1 3 6 6 4 6 6 6 6 4 6 Z Z Z 6 6 6 6 6 i Z Z i 6 3 6 6 6 6 6 i Z Z D y.V.a.M.-XM.u.E Z A A A Z 6 6 6 i Z i i 6 6 U b.6.i 3 6 6 i 6 6 x 6 6 6 6 6 6 3 1 1 1 1 1 3 6 z 4 3 4 1 Z 2.<.v 1 3 3 3 6 A K A y 3 6 6 6 6 6 4 4 1 1 1 & 9 ~ T v x 6 x 6 6 6 6 6 6 3 6 6 6 6 6 6 6 6 6 6 6 3 3 6 i Z i p A A J o./.-X@Xe.L @.k.B.v.8.U U E #.g.M.B.z.5.2.1.V v x 6 4 4 1 1 1 1 1 1 & 1 1 1 1 1 1 ; ; ; ; ; ; ; O ; ; ; - o o o O O O O O O O ; ; ; ; O O & 3 6 4 > ; + = * 3 4 , , - o o . . . o O O O - - O - - O X O - O O O O O O O o . X X & 6 Z Z Z R V l > o X X o O X . . o o o o o o o o . . o o o o o X o o o o o o . . o o . . . . . . . . . X X $ , > ; - O o o o o o o o O & & 1 k M > . X = & O - - . . . . X o o o o o o o . X . o o o o o o o o o o o o o o o o o o o o o o o o o o o o o o o o X O O O o o o o o o o o o o o o o o o o o o o o o o o o o o o o o o o o o o o o o o o o o o o o o o o o o o o o o . . o o o o o o o o o o o o . . . o . o o o o o o . o o o o o . o o o o o o o o . o o o o o . . o o . . o . . . o o . . o o o o o o . . o o o o o o . . . . . o o . . . . . . . . . . . . . . . . . . . . . . . . . . . . . . . . . . . . . . . . . . . . . . . . . . . . . . . . . . . . . . . . . . . . . . . . . . . . . . . . . . . . . . . . . . . . . . . . . . . . . . . . . . . . . . . . . . . . . . . . . . . . . . . . . . . . . . . . . . . . . . . . . . . . . . . . . . . . . . . . . . . . . . . . . . . . . . . . . . . . . . . . . . . . . . . . . . . . . . . . . . . . . . . . . . . . . . . . . . . . . . . . . . . . . . . . . . . . . . . . . . . . . . . . . . . . . . . . . . . . . . . . . . . . . . . . . . . . . . . . . . . . . . . . . . . . . . . . . . . . . . . . . . . . . . . . . . . . . . . . . . . . . . . . . . . . . . . . . . . . . . . . . . . . . . . . . . . . . . . . . . . . . . . . . . . . . . . . . . . . . . . . . . . . . . . . . . . . . . . . . . . . . . . . . . . . . . . . . . . . . . . . . . . . . .   ",
". . . . . . . . . . . . . . . . . . . . . . . . . . . . . . . . . . . . . . . . . . . . . . . . . . . . . . . . . . . . . . . . . . . . . . . . . . . . . . . . . . . . . . . . . . . . . . . . . . . . . . . . . . . . . . . . . . . . . . . . . . . . . . . o o . o o o o o o o o o o o o o o o o o o o o o o o . . o o o o o o o o o . . o o o o o o o o o o o o o o o o o o o o o o o o o o o o o o o o o o o o o o o o o o o o o o o o o o o o o o o o o o o o O O o o o o o o o o o o o o o o o o o o o o o o o o o O O O o o O O O O o o o o O O O O o o o o O O O O o o O O O O o o o o o o o O O o o o O O O o o o o O O O o O O O o o O o o o o o o O o O O O o o O O O O O O O O o O O O O O O o O O O O O O O O O O O O O O O O O O o o o o o o o O O O O O O o O O O o O O O O O O O O O O O O O o O O O O O O O O O O O O o o O O O O o O O O O O O O O O O O o O O O O O O O o O O O O O o o O O O O O o O O O O O O o o O O O O O O O O o o O O O O o o O O O O O O O O o O O O O O O O O O O o O O O O O O O O O O O O O O O O O O O O O O O O O O O O O O O O O O O O O O O O O O O O O O O O O O O O O O O O O O O O O O O O O O O O O O O O O O O O O O O O O O O O O O O O O O O O O O ; , - - ; & & & O O O O O - ; O O O O O O O ; O ; ; ; 4 c :.4.$.O.O.| g w # . . . o o o o o O O O - , ; O & = = @ . . o o O o o o o O X X O O O O o - > h , & & 1 , , O O O O O ; ; ; ; ; , 1 & & O O O O ; ; ; , j N V B i e % & 1 1 1 1 1 1 1 1 3 3 3 6 6 6 6 6 6 6 6 v S T 8.c.OX=X].'.+X+X=X]./.^.=.#.Q 3.#.+.K U E K P L L K A i i x v S A A T 7.w.p.@...u x Z A T 4.! +.d p i i i 6 i Z Z Z Z Z Z Z i Z A D A A A D S Z Z E u.#.K K D <.m.j.E 8.+X[.M.M.}.*.d i Z Z i 6 x x 6 6 i 6 6 6 6 6 3 3 3 6 4 4 6 6 6 6 6 6 4 1 1 1 1 1 1 1 6 6 4 1 1 4 4 6 6 6 6 4 6 Z Z Z 6 6 6 6 6 6 6 i 6 6 6 6 6 x x 6 6 6 Z A ! a.u.j.'.j.y.D Z A A Z 6 6 6 6 x x 6 i 6 4 ^ &Xb.6 1 6 Z S A 6 6 6 6 6 6 6 6 6 x 6 1 1 1 4 4 4 4 1 4 1 A y.8.I 4 3 3 3 3 i A A y 3 1 6 6 6 4 4 4 1 1 & & H ~ U v x x 6 6 6 6 6 6 6 3 6 6 6 6 6 6 6 6 6 6 6 3 6 6 6 6 i y i A d O.`.-X@Xz.K +.g.M.v.z.2.U W y.g.j.x.8.Q E <.1.B x x z 4 1 1 1 1 4 1 1 1 ; 1 1 1 1 1 ; O ; ; ; O O ; 1 O O ; , j j , , , O ; O ; ; ; O O O X $ & O - - + X & 1 ; ; ; ; O o O X $ & , ; O O - - - O O X O - - O - - O O o o X X & 3 x Z A ~ 6.:.M > - X . o o . X . . o o o o o o o . . . O o o X X O ; > > o . . . . . . . . . . . . . o O O 1 4 > , - o o o o o o . o O X X ; h h - X X X o o o . . . . X $ & 4 , - o . X X X . . . o o o o o o o o o o o o o o o o o o o o o o o o o o o o o o O O O o o o o o o o o o o o o o o o o o o o o o o o o o o o o o o o o o o o o o o o o o o o o o o o o o o o o o o . o . . o o o o . . o . o o o o o o o o o o o o o . o o o o . . . o o o o o o o . . o o o o . . o o o o o o o . o o . . o o o o o o o o o o o o o o o . . . . o o . . . . . . . . . . . . . . . . . . . . . . . . . . . . . . . . . . . . . . . . . . . . . . . . . . . . . . . . . . . . . . . . . . . . . . . . . . . . . . . . . . . . . . . . . . . . . . . . . . . . . . . . . . . . . . . . . . . . . . . . . . . . . . . . . . . . . . . . . . . . . . . . . . . . . . . . . . . . . . . . . . . . . . . . . . . . . . . . . . . . . . . . . . . . . . . . . . . . . . . . . . . . . . . . . . . . . . . . . . . . . . . . . . . . . . . . . . . . . . . . . . . . . . . . . . . . . . . . . . . . . . . . . . . . . . . . . . . . . . . . . . . . . . . . . . . . . . . . . . . . . . . . . . . . . . . . . . . . . . . . . . . . . . . . . . . . . . . . . . . . . . . . . . . . . . . . . . . . . . . . . . . . . . . . . . . . . . . . . . . . . . . . . . . . . . . . . . . . . . . . . . . . . . . . . . . . . . . . . . . . . . . . . . . . . . . ",
". . . . . . . . . . . . . . . . . . . . . . . . . . . . . . . . . . . . . . . . . . . . . . . . . . . . . . . . . . . . . . . . . . . . . . . . . . . . . . . . . . . . . . . . . . . . . . . . . . . . . . . . . . . . . . . . . . . . . . . . o o . o o o . o o o o o o . . o o o o . . . o o o o o o o o o o o o o o o o o o o o o . . . o o o o o o o o o o o o o o . o o o . . o o o o o o o o o o o o o o o o o o o o o o o o o o o o o o o o o o o o o o o o o o o o o o o o o o o o o o o o o o o o o O O O o o o O O o o o o O O O o o o O O O O O o o o o O O O o o o O O O O o o o O o o o O o o O O O O o o o o O O o o o O O O O O O O O O o o o O o O O O o o O o o o o O O O o o o O O O O O O O O O O O O O O O O O O O O O O O o o o o O O O o o o O O O o o O O O O O O O O O O O o o o o O O O O O O O O O O O o o O o o o o o o o o O O O O O O O O O O O O o o o O O O o o O O O O O O O O O O O O O O O O O o o O O O O o o O O O O o O O O O o O O O O O O O O O O O O O O O O O O O O O O O O O O O O O O O O O O O O O O O O O O O O O O O O O O O O O O O O O O O O O O O O O O O O O O O O O O O O O O O O O O O O O O O O O O O O O O O O O O O O O O O O O O O O O O - - O O ; ; ; - , ; & & & O - ; O - - O O O ; O O O O ; ; ; ; ; 1 c :.8.$.O.O.X.g w # . o o o o o o o o o o O O O O O X X o . . o X X o o o O O X . o O O O - > > , 1 & & , j , & $ O O O O O O ; , ; & & O O O O ; ; O , j k c v 6 3 * & & 1 4 4 1 3 3 1 1 3 3 3 6 x i 6 6 6 x v Z I 1.r.oX=X{.].[.B.B.[._./.=.@.W E E ! 3.! W K J s p Z Z A A i x B I A D 7.w.y... .u 6 Z Z v Y K s s p Z Z 6 i i i y Z Z i p Z A A Z Z A A A A A A A A A D E E D K U 8.m.a.! v.;X-X_._._.*.d i A A Z Z S Z y i i 6 6 6 6 6 6 6 6 6 6 6 6 6 6 6 6 4 4 1 1 1 1 1 4 6 6 6 3 1 4 6 6 6 6 6 4 6 Z Z x 6 6 6 6 6 6 6 6 6 6 6 6 6 x x 6 6 6 Z Z S 3.! u.j.u.#.D x Z Z x 6 6 6 6 x x x 6 6 4 ^ %Xf.6 6 6 D ~ U 6 6 6 6 6 6 6 6 D Q S 1 & 4 v z 1 4 4 1 & i 3.p.1.4 1 3 3 3 y i i i 6 3 6 6 6 4 4 4 1 & O & F / I v 6 6 6 6 6 6 6 6 6 6 6 6 6 6 6 6 6 6 6 6 6 6 6 y y y i 6 i p d O.`.=XOXi.Q #.g.k.B.v.8.U K L +.! E U U D D I S v v z 4 1 1 1 1 1 1 1 1 ; ; ; 1 1 ; ; 1 O O O ; , ; ; O * s ~ 8.:.V N , O ; O ; ; O O O O O O O O O O O $ ; ; O O ; - O o O O & & 1 1 , ; - - O O O O O ; ; ; O ; ; ; o O & 3 6 x S S D K U N h > o o O o o o . . . o o o . . . O . . X O o + + * 1 , h h - . . . . . . o . . . . $ % p v v v z j h > - o o o . . . . . . . . . @ @ X X O - > o . . . X $ $ & , ; O X X O . X X o o o o o o o o o o o o o o o o o o o o o o o o o o o o o o o o O O o o o o o o o o o o o o o o o o o o o o o o o o o o o o o o o o o o o o o o o o o o o o o o o o o o o o o o o o o o . o o o o . . . . o o o o o o o o o o o o . o o o o o . . . o o o o o o . . . o o o o o . o o o o o o o o o o . . o o o o o o o o o o . . o o o o o o o o o . . . . . . . . . . . . . . . . . . . . . . . . . . . . . . . . . . . . . . . . . . . . . . . . . . . . . . . . . . . . . . . . . . . . . . . . . . . . . . . . . . . . . . . . . . . . . . . . . . . . . . . . . . . . . . . . . . . . . . . . . . . . . . . . . . . . . . . . . . . . . . . . . . . . . . . . . . . . . . . . . . . . . . . . . . . . . . . . . . . . . . . . . . . . . . . . . . . . . . . . . . . . . . . . . . . . . . . . . . . . . . . . . . . . . . . . . . . . . . . . . . . . . . . . . . . . . . . . . . . . . . . . . . . . . . . . . . . . . . . . . . . . . . . . . . . . . . . . . . . . . . . . . . . . . . . . . . . . . . . . . . . . . . . . . . . . . . . . . . . . . . . . . . . . . . . . . . . . . . . . . . . . . . . . . . . . . . . . . . . . . . . . . . . . . . . . . . . . . . . . . . . . . . . . . . . . . . . . . . . . . . . . . . . . . . . ",
". . . . . . . . . . . . . . . . . . . . . . . . . . . . . . . . . . . . . . . . . . . . . . . . . . . . . . . . . . . . . . . . . . . . . . . . . . . . . . . . . . . . . . . . . . . . . . . . . . . . . . . . . . . . . . . . . . . . . . . o . . . o o o o o o o o . o o . o o o o . . . o o o o o o o o o o o o o o o o o o o o o o o o . . o o o o o o o o o o o o . o o o o o o o o o o o o o o o o o o o o o o o o o o o o o o o o o o o o o o o o o o o o o o o o o o o o o o o o o o o o o o o o o o o O O o o o O o o o o O O O O o o o O O O o o o o o o o o o o o o O o o o o o O O O O o o O o O O O O O O o o o o o o o O O O O o o o o o O O O O o o O O o O O O O o o O O O O o o O O O O O O O O O O O O O O O O O O O O O O o o o o o O O O O O O O O O O O O O O O O O O O O O O o o o o o O O O O O O O O O O o o O O o o o o o o o O O O O O O O O o O O O O O O O O O O O O O O O O O O O O O O O O O O O O O O O O O O O O O O O O O O O O O O O O O O O O O O O O O O O O O O O O O O O O O O O O O O O O O O O O O O O O O O O O O O O O O O O O O O O O O O O O O O O O O O O O O O O O O O O O O O O O O O O O O O O O O O O O O O O O O O O O O O O O O O O O O O O O O O O O - - ; ; , ; & & & O ; - - - - O O O ; ; ; O O O O O O O & c :.8.$.O.O.X.g w # . . o o . . o o o o O O O O O O X X o o o o o O O o o O X X X X X . o - ; ; - O O O > j 1 & & O O O O O O - , , 1 & O O O O O O O , j k c 6 * % & ; , , 4 4 6 3 3 4 4 4 1 3 6 v v Z i Z S Z p Y >.r.OX[.'._.M.B.M.M.).=.=.+.U 2.y.y.y.#.L s u y y x Z Z Z S I S Z I >.r.z.@.| e 1 3 p v B S s u Z i i i i i i y y y 3 6 y y Z Z A A A A A A A A A A A Z S U D A A U i.m.j.a.+X;X{._.h.g.$.u 3 x A y Z A i 3 y y 6 6 6 6 6 6 3 6 6 6 6 6 6 3 6 3 1 1 1 1 1 1 1 6 6 6 4 3 6 3 1 1 6 3 3 6 6 Z x 6 6 6 6 6 6 6 6 6 6 6 Z Z D D Z 6 3 6 Z Z U E u.m.a.! Z x Z Z 6 6 6 6 6 6 x x 6 6 4 / Y.q.4 6 6 D E D 6 6 6 6 6 6 6 3 D 6.D 6 & v <.v 1 1 1 & & 6 E 6.1.z 1 1 1 3 y y y i 6 6 6 6 6 4 4 1 1 1 1 3 a / S x 6 6 6 6 6 6 6 6 6 6 3 3 6 6 6 6 6 6 6 6 6 6 6 6 i Z 6 x A A  .=.].=Xx.y.4.2.$.h.'.v.7.S i s K U U U U D A Z S v c z 4 1 1 1 1 1 1 1 1 1 ; 1 1 ; ; ; ; 1 e d Q N ; O & y P ~ 4.V c z , O ; ; ; 1 & O O O O O O O O O + X O - O ; , ; O O O O 1 1 1 1 z j ; o o ; 1 1 1 ; ; ; 1 3 1 , , 1 3 i v v x Z Z Z v k j ; O O o o o o o o . O o o . . X O o . O O + = = % 3 4 , - . . o O ; : , ; - o @ % t X. .F v c j j h h - o o o o . . . . . . . . @ @ X $ O - - o . . . . . . . . X X X X X . X X o o o o o o o o o o o o o o o o o o o o o o o o o o o o o o o X X O o o o o o o o o o o o o o o o o o o o o o o o o o o o o o o o o o o o o o o o o o o o o o o o o o o o o o o o o o o o o o o o . . . o o o . . . . o o o o o o o . . . o o o o o o o o o o o o . . . . o o o o . . . . o o o o o o o o o o o o o o o o . o o . o . . o . . . . o . . . . . . . . . . . . o . . . . . . . . . . . . . . . . . . . . . . . . . . . . . . . . . . . . . . . . . . . . . . . . . . . . . . . . . . . . . . . . . . . . . . . . . . . . . . . . . . . . . . . . . . . . . . . . . . . . . . . . . . . . . . . . . . . . . . . . . . . . . . . . . . . . . . . . . . . . . . . . . . . . . . . . . . . . . . . . . . . . . . . . . . . . . . . . . . . . . . o . . . . . . . . . . . . . . . . . . . . . . . . . . . . . . . . . . . . . . . . . . . . . . . . . . . . . . . . . . . . . . . . . . . . . . . . . . . . . . . . . . . . . . . . . . . . . . . . . . . . . . . . . . . . . . . . . . . . . . . . . . . . . . . . . . . . . . . . . . . . . . . . . . . . . . . . . . . . . . . . . . . . . . . . . . . . . . . . . . . . . . . . . . . . . . . . . . . . . . . . . . . . . . . . . . . . . . . . . . . . . . . . . . . . . . . . . . . ",
". . . . . . . . . . . . . . . . . . . . . . . . . . . . . . . . . . . . . . . . . . . . . . . . . . . . . . . . . . . . . . . . . . . . . . . . . . . . . . . . . . . . . . . . . . . . . . . . . . . . . . . . . . . . . . . . . . . . . . . o . . . o o o o o o o o . o o o o o o o . . . o o o o o o o o o o o o o o o o o o o o o o o . . . o o o o o o o o o o o o o o o o o o o o o o o o o o o o o o o o o o o o o o o o o o o o o o o o o o o o o o o o o o o o o o o o o o o o o o o o o o o o o o o o o o o o o O o o o o O O o O o o o O O O o o o o o o o O o o o o O O o o o o O O O O o o o o O O O O O O o o o o o o o O O O O o o o o O O O O O o O O O o o O O O o o O O O O o o O O O O O o o o o o o O O O O O O O O O O O o o o o o O O O O O O O O O O O O O O O O O O O O O O o o o o o O O O O O O O O O O o o o o o o o o o o o O O O O O O O O O O O O O O O O O O O O O O O O O O O O o O O O O O O O O O O O O O O O O O O O O O O O o o O O O O o o O O O O O O O O O O O O o O O O O O O O O O O O O O O O O O O O O O O O O O O O O O O O O O O O O O O O O O O O O O O O O O O O O O O O O O O O O O O O O O O O O O O O O O O O O O O O O O O O O O O O O O O O O O O O O - ; ; ; , 1 & & O O O - - - O O O O O ; O O O O ; O O O & v 1.4.#.O.O.X.g w # @ . . o o o o o o o O o o O O O X X o o o o o o o O O O O X X X . o - > - O O O O ; j j 1 * & O O O O O ; - ; , 1 & O O O O O O ; j c c 6 3 & $ O ; , , , 4 6 6 x c v v Z i 6 v B I D S S A I 7.r.v.M.k.k.h.m.N.M._.=.=.@.E 4.i.u.$.+.d u p y i Z Z i i Z I I p v w.c.M./.X.f 1 3 y y v v A p p i i i i 6 y i y 3 * 4 B T D i i Z A Z A A A Z Z Z A A A Z S D A A A U p.N.m.k.=X-X].*.u.m.j.+.e y i i D D y y y 6 6 6 6 6 6 6 6 6 6 6 6 6 6 6 3 1 1 3 1 1 1 3 6 6 6 6 3 3 3 1 6 6 1 1 3 6 x x x x 6 6 y y 6 6 6 x x Z A A D D Z 6 6 A A U U a.[.M.! 6 x Z Z 6 6 6 6 6 6 x x 6 6 6 R n.^ 4 6 6 i Z i 6 6 6 6 6 6 6 6 Z D A 6 1 T z.Y , & 1 1 1 3 Z Q U x 1 1 1 3 3 y y i i 6 6 6 6 4 1 1 1 1 1 3 y A Z 6 4 4 6 6 6 6 6 6 6 6 6 6 6 6 6 6 6 6 6 6 6 3 y P <.B 6 i D D +.=.].B.y.#.p.8.L O.`.N.w.v i A K E T U U S S S Z x v v z 4 4 4 4 1 1 1 1 , 1 1 1 ; ; ; ; 1 t  .3.V - X & * * 3 6 4 1 ; ; ; O ; ; & & O O O O O O O O O O O O ; - - ; - O O O ; 1 1 & 1 4 4 6 6 k l 4 1 ; O O O O * * 1 4 6 6 x x x x x x x c k j , - O o o o o o o o . . . o o o O o o o . . @ + 2 4 j , * r p I I S F z , - - o = t t r 3 2 , ; > - > o o o o . . . . . . . . . @ @ X X O - > - . . . . . . . . . X . . . . . o o o o o o o o o o o o o o o o o o o o o o o o o o o o o o o o . O O o o o o o o o o o o o o o o o o o o o o o o o o o o o o o o o o o o o o o o o o o o o o o o o o o o o o o o o o o o o o o . . . . . o o o o o . . o o o o o o . . . . o o o o o o o o o o o o . o . . o o o o . . o o o o o o o o o o o o o o o o o o . o o o . . . o o . . . o . . . . . . . . . . . . o . . . . . . . . . . . . . . . . . . . . . . . . . . . . . . . . . . . . . . . . . . . . . . . . . . . . . . . . . . . . . . . . . . . . . . . . . . . . . . . . . . . . . . . . . . . . . . . . . . . . . . . . . . . . . . . . . . . . . . . . . . . . . . . . . . . . . . . . . . . . . . . . . . . . . . . . . . . . . . . . . . . . . . . . . . . . . . . . . . . . . . o . . . . . . . . . . . . . . . . . . . . . . . . . . . . . . . . . . . . . . . . . . . . . . . . . . . . . . . . . . . . . . . . . . . . . . . . . . . . . . . . . . . . . . . . . . . . . . . . . . . . . . . . . . . . . . . . . . . . . . . . . . . . . . . . . . . . . . . . . . . . . . . . . . . . . . . . . . . . . . . . . . . . . . . . . . . . . . . . . . . . . . . . . . . . . . . . . . . . . . . . . . . . . . . . . . . . . . . . . . . . . . . . . . . . . . . . . . . ",
". . . . . . . . . . . . . . . . . . . . . . . . . . . . . . . . . . . . . . . . . . . . . . . . . . . . . . . . . . . . . . . . . . . . . . . . . . . . . . . . . . . . . . . . . . . . . . . . . . . . . . . . . . . . . . . . . . . . . . . o . . . o o o o o o o o o o o o o o o o . . . o o o o o o o o o o o o o o o o o o o o o o o . . o o o o o o o o o o o o o o o o o o o o o o o o o o o o o o o o o o o o o o o o o o o o o o o o o o o o o o o o o o o o o o o o o o o o o o o o o o o o o o o o o o o o o o O o o o o o o o o o o o o O o o o O O o O O O O O o o O O o o o o o O O O o o o o O O o o o O o o O O o o O O O O O o o o O O O O O O O O O O O O O O O o o O O O O o o O O O O O O o o o o o o O O O O O O O O O O O O o o o O O O O o o O O O O o O O o O O O O o O O O O O O o O O O O O O O O o o O O o o o o o o o o o O O O O O O O O O O O O O O O o O O o o O O O O o O O o o o O O O O O O O O O O O O o o O O O O O O O O o o O O O O O o O o o O O O O o O O O O O o o O O O O O O O O O O O O O O O O O O O O O O O O O O O O O O O O O O O O O O O O O O O O O O O O O O O O O O O O O O O O O O O O O O O O O O O O O O O O O O O O O O O O O O O O O O O O O O - - ; , , ; 1 & & O O - O - O O ; ; O O O O O O O ; O O O 1 z V 1.L ..O.X.f w # @ . . o O O . . . . . o o O O O O X . O O o o o o X O O O O . . o - > > O O O O O , j j & $ & O O O - ; ; ; ; ; & & O O O O O , k k c 6 3 & O O O ; , , 1 4 6 v B :.Y D p i 6 v S I S A p U 7.*XOX]._.h.g.g.x.v.M.).=.@.E <.5.u.@. .u y y i Z Z Z Z i A S D A D >.*XB./.O.[ m i y 6 x v Z A A p y y i i 6 y y y 3 3 c :.8.y.L p Z Z Z Z Z Z Z Z Z Z A Z A Z D K D A p T z.M.k.j.B.{.'.g.x.=X_...r i Z S D A p y i 6 6 6 3 3 6 6 6 6 6 6 6 6 6 3 3 3 3 3 1 3 6 6 6 6 6 6 3 3 6 x v v x 6 6 6 x Z A Z Z y y 6 x x x x 6 i i i A D Z 6 Z A D U a.=X[.#.6 Z Z Z Z 6 6 6 6 6 x Z x 6 6 R n.~ 1 6 6 6 3 6 6 6 6 6 6 6 6 6 6 6 6 3 6 4.v.4.4 1 3 1 1 1 3 Z S v 6 6 4 1 3 y y A Z 6 6 6 6 1 1 1 1 4 4 3 y y 6 4 4 4 6 6 6 6 6 6 6 6 6 6 6 6 6 6 6 6 6 6 6 3 u %.6.B y s D K @./.{.v.W @.m.r.D X./.[.r.B Z A K E U U U D S I v x v v b i D V c 4 1 1 1 1 ; 1 1 ; 1 & 1 1 e e 6 j ; O O . . . X + ; O & 1 ; & 1 1 & & O O O O O O O O O & & ; ; ; ; O o O O O & & & & & e s ~ :.M , - O O . . . X & 3 6 v c 6 6 x x Z v v B N k , ; - - - - O X . . . . . o o o o . X % % 3 c ,.M j h h y | +.2.1.S 6 2 ; - o . . . . . . X X O o o o . o o o o . . . . . . . @ # @ X $ O h h > . . . . X $ O > > > . . . . . . o o o o o o o o o o o o o o o o o o o o o o o o o o o o o o o X X O O o o o o o o o o o o o o o o o o o o o o o o o o o o o o o o o o o o o o o o o o o o o o o o o o o o o o o o o o o o o . . . o . o o o o o o o o o o o o o o o o o o o o . . o . . o . . o o o o o o o o o o o o o o o o . . o o . . o . o o o o o o . . o o . o o o o o o . o . . . . . . . . . . . . o . . . . . . . . . . . . . . . . . . . . . . . . . . . . . . . . . . . . . . . . . . . . . . . . . . . . . . . . . . . . . . . . . . . . . . . . . . . . . . . . . . . . . . . . . . . . . . . . . . . . . . . . . . . . . . . . . . . . . . . . . . . . . . . . . . . . . . . . . . . . . . . . . . . . . . . . . . . . . . . . . . . . . . . . . . . . . . . . . . . . . . . . . . . . . . . . . . . . . . . . . . . . . . . . . . . . . . . . . . . . . . . . . . . . . . . . . . . . . . . . . . . . . . . . . . . . . . . . . . . . . . . . . . . . . . . . . . . . . . . . . . . . . . . . . . . . . . . . . . . . . . . . . . . . . . . . . . . . . . . . . . . . . . . . . . . . . . . . . . . . . . . . . . . . . . . . . . . . . . . . . . . . . . . . . . . . . . . . . . . . . . . . . . . . . . . . . . . . . . . . . . . . . . . . . . . . . . . . . . ",
". . . . . . . . . . . . . . . . . . . . . . . . . . . . . . . . . . . . . . . . . . . . . . . . . . . . . . . . . . . . . . . . . . . . . . . . . . . . . . . . . . . . . . . . . . . . . . . . . . . . . . . . . . . . . . . . . . . . . . . o . . . o o o o o o o o o o o o o o o o . . . o o o o o o o o o o o o o o o o o o o o o o o o o . o o o o o o o o o o o o o o o o o o o o o o o o o o o o o o o o o o o o o o o o o o o o o o o o o o o o o o o o o o o o o o o o o o o o o o o o o o o o o o o o o o o o o O o o o o o o o o o o o o o o O O O O O O O O O O o o O O O o o o o O O O o o o o O O o o o o o o O O o O O O O O O o o o o o O o o o o o O O O O O O O o o O O O O o o O O O O O O O o o o o o O O O o O O O O O O O O o o o o O O O o o O O O O o o O o o O O O O O O O O O O O O O O O O O O O o o O O O O O O O O O O O O O O O O O O O O O O O O O o o O o o O O O O o o O O O o O O O O O O O O o o o O O o o O O o o o O O O o o O O O O O O O o O O O O O o o o o O O O O O O O O O O O O O O O O O O O O O O O O O O O O O O O O O O O O O O O O O O O O O O O O O O O O O O O O O O O O O O O O O O O O O O O O O O O O O O O O O O O O O O O O O O O O O O O O O - - ; ; ; , ; 1 & & O O - - O ; ; ; ; O O ; ; O O O O O O - ; 4 N Y K ..X.| f # # @ . . . O O O O . . . o o O O O O X X X X O O X O O O O O o o - > h j , & & O O O , j , & $ & O O O O ; ; ; ; & & O O O - - , j N c 6 * * & O O & ; , z c c v V 1.<.T s u y 6 i i Z S i p <.r.oX=X].).h.g.a.c.x.g.=.$.#.K E U K d u y 6 v v Z Z p p Z S A s A 1.w.x./.O.X.F Z s y 6 v S D J p y y y i i i 6 y y 6 3 x I 3.u.$.P i Z Z Z Z Z Z Z Z Z Z Z A Z A D D A A D U y.j.u.u.B.;X'.g.M.-X). .y i Z Z A A i 6 x Z i 6 3 3 6 6 6 6 6 6 6 6 3 3 3 3 3 4 4 6 6 6 6 6 6 6 6 6 c I 2.y.K 3 6 6 A D S i 6 6 6 6 6 x Z 6 6 6 6 Z D D Z i A D D a.[.[.#.Z Z A A Z Z i 6 6 x Z Z i 6 6 D s.~ 4 6 6 6 6 6 6 6 6 6 6 6 6 6 6 6 6 1 Z 8.v.<.x 6 3 1 1 1 1 6 A S x 4 4 3 3 3 y P K i 6 6 1 1 1 1 1 4 4 3 y i 6 6 6 4 4 6 6 6 6 6 6 6 6 6 6 6 6 6 6 6 6 y 3 y P ~ U v p W Q P ..`.;Xv.D ..k.e.I X./.{.oX1.A A K K D U U U S S 6 6 Z S ( [ y.8.V z 1 1 & 1 1 1 1 1 1 1 1 1 O O O O O - O O O O & 1 , ; 1 1 1 ; ; ; 1 1 O O O O O O O O ; 1 1 ; ; 3 e 6 v c j , ; 1 ; o O e d J V M , - O . . O O & 3 6 6 x x x x x 6 Z Z v B c k j , ; - - - o . X X X o o o o o . X % t ..*.z.r.t.N h h 1 % * 1 , - . o o o o o o . . o X X X O o o o o o o . . . . . . . . . # # # $ % 1 k M > . @ X r | d S ,.M h . . . . . . O o o o o o o o o o o o o o o o o o o o o o o o o o o o o o o X O O O o o o o o o o o o o o o o o o o o o o o o o o o o o o o o o o o o o o o o o o o o o . o o o o . o o o o o o o o o o o . . . o o o o o o o o o o o o o o o . o o o o o . . . . . . . . . . o o o o o o o o o o o o o o o o . o o . . . . o o . o o o o . o o o o o o o o o o o . . . . . . . . . . . . o . . . . . . . . . . . . . . . . . . . . . . . . . . . . . . . . . . . . . . . . . . . . . . . . . . . . . . . . . . . . . . . . . . . . . . . . . . . . . . . . . . . . . . . . . . . . . . . . . . . . . . . . . . . . . . . . . . . . . . . . . . . . . . . . . . . . . . . . . . . . . . . . . . . . . . . . . . . . . . . . . . . . . . . . . . . . . . . . . . . . . . . . . . . . . . . . . . . . . . . . . . . . . . . . . . . . . . . . . . . . . . . . . . . . . . . . . . . . . . . . . . . . . . . . . . . . . . . . . . . . . . . . . . . . . . . . . . . . . . . . . . . . . . . . . . . . . . . . . . . . . . . . . . . . . . . . . . . . . . . . . . . . . . . . . . . . . . . . . . . . . . . . . . . . . . . . . . . . . . . . . . . . . . . . . . . . . . . . . . . . . . . . . . . . . . . . . . . . . . . . . . . . . . . . . . . . . . . . . . ",
". . . . . . . . . . . . . . . . . . . . . . . . . . . . . . . . . . . . . . . . . . . . . . . . . . . . . . . . . . . . . . . . . . . . . . . . . . . . . . . . . . . . . . . . . . . . . . . . . . . . . . . . . . . . . . . . . . . . . . . o . . . o o o o o o o o o o o o o . o o . . . o o o o o o o o o o o o o o o o o o o o o o o o o o o o o o o o o o o o o o o o o o o o o o o o o o o o o o o o o o o o o o o o o o o o o o o o o o o o o o o o o o o o o o o o o o o o o o o o o o o o o o o o o o o o o o o o o o o o o o o o o o o o O O o o o O o o O O O o o o o o o o o o o o o o o o o o o o o o o o O O O O O o o O O O O o o o o O o o o o o o O O O O O O O o o O O O O o o O O O O O O O o o O o o o o o o o o o o o O O O o o o o O O O O O O O O O O O O O o o o o O O O O O O O O O O o o O O O O O o O O O O o o o O O O O O O O O O O O O O O o o o O O O O O O O O O O o O O O O o O O O O O O O O O O O O o O O o O O o o O O O O O O O O O O O O O O O O O O O O o O O O o O O O O O O O O O O O O O O O O o o o O O O O O O O O O O O O O O O O O O O O O O O O O O O O O O O O O O O O O O O O O O O O O O O O O O O O O O O O O O O O O O O O O O O O O O O O O O O - - - ; ; , 1 1 1 & O O - O O O O O O O O O O O O O O O O - ; , z v i t | t = # # . . o o . X X X X . . o o o o O O O O O O O O O X o O X . . o > l k , & & & O o O - , , ; $ O O O O O ; ; O O O O O O - ; , j z z x 3 * & O O ; , k N N B v B Y Y S A u e 3 6 y 6 v S A A :.w.v.[.]./.*.a.z.z.a.*...P U P J A S A p i x v x Z i i Z S D J A B >.8.$.O.t 3 x A A 4 6 S T ! +.d y 6 6 6 6 6 6 6 3 3 1 6 Z A A p i i Z i i i i i Z Z Z i Z Z Z Z Z S E K p i E i.a.u.i.N.-X_.g.j.'.h.d y i i i A A x x Z Z 6 6 3 3 6 6 6 6 6 6 6 3 3 6 1 1 4 1 1 6 6 3 6 6 6 6 4 4 U a.V.s.3 6 6 6 Z Z 6 6 6 6 6 6 6 Z Z 6 6 6 6 Z D A 6 A U U u.[.}.#.Z Z Z A Z x Z i Z Z Z Z i 6 6 D y.D 6 6 6 6 6 6 6 6 6 6 6 6 6 6 6 6 6 1 S p.z.Q S D 6 3 1 1 1 3 S I v 6 6 1 3 3 y P L Z 6 1 1 1 1 1 3 6 6 6 6 Z v 6 6 4 4 6 6 6 6 6 6 6 6 6 6 6 6 y 6 i 6 6 y y p A Z i J y.Q d =.`.;Xc.A ..k.e.B X.^.].OX7.S A A K D U U U S v 3 i E 6.~.K.s.e.:.j 1 1 1 1 1 1 1 1 1 1 O 1 , ; O X O ; O O ; O & & ; O O ; 1 ; ; ; 1 1 ; ; ; O O & O O , 4 4 4 2 a | =.V.r.>.M ; $ O - ; & & & 1 , ; O . X O O 1 3 6 x x 6 6 x x x x Z Z v v c k z 4 4 ; ; o . . o O ; 1 2 ; j h - q g X.O.=.y.w.:.> o > o . . . . o o . . . . . o . . . X O O o - - o o o o o . . . . . . . . # w q % r 3 k l > # w g X.O.O.y.>.,.l o . . . . o X o o o o o o o o o o o o o o o o o o o o o o o o o o o o o o X O O o o o o o o o o o o o o o o o o o o o o o o o o o o o o o o o o o o o o o o o o o o o . . . o o . o o o o o o o o o o o o o o o o o o o o o o o o o o o o . . o o o o o o . . o o . . . o o o o o o o o o o o o o o o o o . . o o . . . . . o . . . . o o o o o o o o o o o o o . . . . . . . . . . . . o . . . . . o . . . . . . . . . . . . . . . . . . . . . . . . . . . . . . . . . . . . . . . . . . . . . . . . . . . . . . . . . . . . . . . . . . . . . . . . . . . . . . . . . . . . . . . . . . . . . . . . . . . . . . . . . . . . . . . . . . . . . . . . . . . . . . . . . . . . . . . . . . . . . . . . . . . . . . . . . . . . . . . . . . . . . . . . . . . . . . . . . . . . . . . . . . . . . . . . . . . . . . . . . . . . . . . . . . . . . . . . . . . . . . . . . . . . . . . . . . . . . . . . . . . . . . . . . . . . . . . . . . . . . . . . . . . . . . . . . . . . . . . . . . . . . . . . . . . . . . . . . . . . . . . . . . . . . . . . . . . . . . . . . . . . . . . . . . . . . . . . . . . . . . . . . . . . . . . . . . . . . . . . . . . . . . . . . . . . . . . . . . . . . . . . . . . . . . . . . . . . . . . . . . . . . . . . . . . . ",
". . . . . . . . . . . . . . . . . . . . . . . . . . . . . . . . . . . . . . . . . . . . . . . . . . . . . . . . . . . . . . . . . . . . . . . . . . . . . . . . . . . . . . . . . . . . . . . . . . . . . . . . . . . . . . . . . . . . . . . o . . . o . . . . . o o . . . o o o o o . . . . o o . o o o o o o o o o o o o o o o o o o o o o o o o o o o o o o o o o o o o o o o o o o o o o o o o o o o o o o o o o o o o o o o o o o o o o o o o o o o o o o o o o o o o o o o o o o o o o o o o o o o o o o o o o o o o o o o O o o o o o o o o O O o o o o o O O O O O o o o o o o o o o o o o o o o o o o o o o o o o o O O o o O O O O o o o O O o o o o o o o O O O O O O o o O O O O o o O O O o O O O O O O O o o o o o o o o o o o O O o o o o o O O O O O O O O O O O O O O O O O O O O O O O O O O o o O O O O O o O O O O O O o o O O O O O O O O O o o O o o O O O O O O O O O O O O o o O O O O O O O O O O O O O O O O o O O o O O o O O O O O O O O O O O O O O O O O O O O O O O O O o o O O O O O O O O O O O O O O O O o o O O O O O O O O O O O O O O O O O O O O O O O O O O O O O O O O O O O O O O O O O O O O O O O O O O O O O O O O O O O O O O O O O O O O O O O O O O O - - ; ; , ; 1 & & O O O O O O O O O O O O O O O O O O O O - ; , z v e t t r = # @ . . . o o X . X X . . o o o o O O O O o o O O O O o o . . o - h M N 4 * % & O O O O ; ; - O O O O O O O O O O O O O - > j c v x 3 * & O O ; ; j M ,.:.1.U D S S i y * 3 4 6 y y x v Z S B 1.8.x.j.h.=.$.i.c.v.M.=.O.d b D K U U A p p 6 6 6 y i Z S S A Z :.w.8.@.| r 1 1 4 B :.4.#.W Q #.+.d 6 6 6 6 6 6 6 6 3 3 3 6 6 3 6 6 6 i i 6 i i i i Z Z Z Z Z Z Z Z Z v U ! #.p y U i.a.y.y.B.;X_.@.#.j.u.J 3 y i i A S Z v 6 i 6 6 1 1 6 6 6 6 x 6 1 3 1 1 4 x x 6 6 6 3 3 6 6 6 3 6 A W s.#.6 6 6 6 6 6 6 6 6 6 6 6 6 Z A 6 6 6 6 6 x Z x S 5.2.y.m.M.#.6 Z Z Z i 6 i i Z Z Z Z Z 6 6 A E A 6 6 6 6 6 6 6 6 6 6 6 6 6 6 i i 6 6 D i.8.U D U i 6 3 1 1 3 D T S 6 6 6 3 3 y P L A 6 1 1 1 1 1 3 6 6 6 Z D S x 6 6 6 6 6 6 6 6 6 6 6 6 6 6 6 6 y i 6 6 i i y i 6 u +.y.T +.=.].=Xz.K @.k.z.1...O.`.+Xe.I A J K K E U S v x K u.x.p.~.S.s.4.V z 1 1 1 4 1 1 1 1 1 1 & & 1 1 1 & ; ; O O ; ; & & , 1 O 1 1 ; ; ; 1 1 1 ; ; ; 1 1 3 i Z v z , : 0 X.=.l.e.>.l ; O ; ; O O O o X O O O X O 1 1 6 x v 6 6 z x 6 6 x 6 i Z v v c z z 4 1 O 1 3 a ^ :.M z * y z c j > : q r t d 3 j , o o o . . . . . . . . . . . . . o o . X X X O o - o o o . . . . . . . . . . # # # $ $ & > > - # w g | | ..L V M h . . . . . o o o o o o o o o o o o o o o o o o o o o o o o o o o o o o o o O O O o o o o o o o o o o o o o o o o o o o o o o o o o o o o o o o o o o o o o o o o o o o . . . . o . o o o o o o o o o o o o o o o o o o o o o o o o o o o o . . o o . . o o o o o o . . . o o o o . o o o o o o o o o . o o . o o o . . . . o o . . o . . . o o o o o o o o o o o . . . . . . . . . . . . o . . . . . . . . . . . . . . . . . . . . . . . . . . . . . . . . . . . . . . . . . . . . . . . . . . . . . . . . . . . . . . . . . . . . . . . . . . . . . . . . . . . . . . . . . . . . . . . . . . . . . . . . . . . . . . . . . . . . . . . . . . . . . . . . . . . . . . . . . . . . . . . . . . . . . . . . . . . . . . . . . . . . . . . . . . . . . . . . . . . . . . . . . . . . . . . . . . . . . . . . . . . . . . . . . . . . . . . . . . . . . . . . . . . . . . . . . . . . . . . . . . . . . . . . . . . . . . . . . . . . . . . . . . . . . . . . . . . . . . . . . . . . . . . . . . . . . . . . . . . . . . . . . . . . . . . . . . . . . . . . . . . . . . . . . . . . . . . . . . . . . . . . . . . . . . . . . . . . . . . . . . . . . . . . . . . . . . . . . . . . . . . . . . . . . . . . . . . . . . . . . . . . . . . . . . . . . . . . . . ",
". . . . . . . . . . . . . . . . . . . . . . . . . . . . . . . . . . . . . . . . . . . . . . . . . . . . . . . . . . . . . . . . . . . . . . . . . . . . . . . . . . . . . . . . . . . . . . . . . . . . . . . . . . . . . . . . . . . . . . . . . . . . . . . . . . . . . . . o o o o o o o . . . . . . . o o o o o o o o o o o o o o o o o o o o o o o o o o o o o o o o o o o o o o o o o o o o o o o o o o o o o o o o o o o o o o o o o o o o o o o o o o o o o o o o o o o o o o o o o o o o o o o o o o o o o o o o o o o o O o o o o O O o o O O o o o o o o O O o o o o o o O O o O o o o o o o o o o O O O o o o o o o o o o o O O o o o O O O o o O o o o o O O O O O O o o O O O O o o O O O o o O O O O O O O o o o o o o o o O o O O O o o o o o O O O o O O O O O O O O O O O O O O O O O O O O O O O O O O O O O O O O O O O O O O O O O O O O O O O O O O O O O O O O o O O O O O O O O O O O O O O o o O O O O O O O O O O o o O O O O O O O O o o O O O O O o O O o o O O O O O O O O O o O O O O O O O O O O O O O O O O O O O O O O O O O O O O O O O O O O O O O O O O O O O O O O O O O O O O O O O O O O O O O O O O O O O O O O O O O O O O O O O O O O O O O O O O O O O - O - ; ; ; , O & & ; ; O O O O O O O O O O O O O O O O O O O - , z v K d | t % # # @ . . . . o o o X . . . o o o o X X o o o o O O O O o o . X - > l M c 3 e % O O O - ; , , 1 & & O O O O ; ; O O & - O ; M ,.:.D d f = X O ; , 4 k N N V Y U D A p y * * 4 c Z p i i 6 v :.>.i.j.g.$.@.@.+.4.r.OX'./.^.o.n v U 3.! P d u 6 6 y y i v S A D 1.r.v.=.O.t 1 4 6 c :.4.a.$.+.K L J p y 6 6 6 6 6 6 6 3 3 3 6 6 6 x Z Z 6 6 6 i i i i 6 i Z Z Z Z i i Z v v Q y.+.u 3 U i.a.u.a.+X{.).+.E a.y.A y i i i A S Z 6 6 i 6 3 3 3 6 6 6 v x 6 3 1 1 4 B Q E 6 3 3 6 6 6 6 3 6 6 1 1 6 A Z 6 6 6 6 6 6 6 6 6 6 6 Z S x 6 6 4 4 4 6 x I s.p.y.y.a.! S A Z Z 6 6 6 6 6 6 6 6 x 6 6 Z A Z 6 6 6 6 6 6 6 6 6 6 6 6 6 6 i Z Z 6 D Q U A A S Z i 6 1 1 1 Z U I x 6 6 6 3 y J K A 6 1 1 1 3 3 6 6 6 6 K E S v 6 6 Z Z i 6 6 6 6 6 6 6 6 6 6 6 6 6 6 i i i i Z y s #.i.T @.).{.+Xz.W *.j.z.<.+.O.`.=XoX1.S A J K K Q Q ! y.a.V.m.5.R / F S c 4 1 1 1 4 1 1 1 1 1 1 1 & 1 1 1 1 1 O O O O O 1 1 1 1 1 1 1 1 ; , ; ; 1 ; 1 4 4 1 i s A c , O + : r r p v j ; - ; , ; O O O O o O O X & 1 6 6 x v x 6 6 z c x 6 4 6 i A S v c z z 4 1 3 u P %.s.7.,.k * * 4 , , ; O . . . . . . . . o . o X X o o . . . . . o o . o o . X X X O o o o . o . . . - - - o X O o - < @ X . X o o @ # w q % r e 3 , > @ @ % % & ; - - o o o o o o o o o o o o o o o o o o o o o o o o o o o o o O O O O O o o o o o o o o o o o o o o o o o o o o o o o o o o o o o o o o o o o o o o o o o o o . o o o o o o . . . o o o . . . o o o . o . . o o o o . . . o o o o . o o . . o o o o o o . . o o o o . . o o o o . o o . . . o o o o o o . . o . o o o o o o . . o o . . o o o o o o o . . . . . . . . . . . . . . . . . . . . . . . . . . . . . . . . . . . . . . . . . . . . . . . . . . . . . . . . . . . . . . . . . . . . . . . . . . . . . . . . . . . . . . . . . . . . . . . . . . . . . . . . . . . . . . . . . . . . . . . . . . . . . . . . . . . . . . . . . . . . . . . . . . . . . . . . . . . . . . . . . . . . . . . . . . . . . . . . . . . . . . . . . . . . . . . . . . . . . . . . . . . . . . . . . . . . . . . . . . . . . . . . . . . . . . . . . . . . . . . . . . . . . . . . . . . . . . . . . . . . . . . . . . . . . . . . . . . . . . . . . . . . . . . . . . . . . . . . . . . . . . . . . . . . . . . . . . . . . . . . . . . . . . . . . . . . . . . . . . . . . . . . . . . . . . . . . . . . . . . . . . . . . . . . . . . . . . . . . . . . . . . . . . . . . . . . . . . . . . . . . . . . . . . . . . . . . . . . . . . . . . . . . . . . . . . ",
". . . . . . . . . . . . . . . . . . . . . . . . . . . . . . . . . . . . . . . . . . . . . . . . . . . . . . . . . . . . . . . . . . . . . . . . . . . . . . . . . . . . . . . . . . . . . . . . . . . . . . . . . . . . . . . . . . . . . . . . . . . . . . . . . . . . . . o o o o o o o o o o . . . . . o o . . o o o o o o o o o o o o o o o o o o o o o o o o o o o o o o o o o o o o o o o o o o o o o o o o o o o o o o o o o o o o o o o o o o o o o o o o o o o o o o o o o o o o o o o o o o o o o o o o o o o o o o o o O O O O O O o o o O O o o o o o o o O o o o o o o O O O O o o O o o o o O o O O O O o o o o o o o o o O O o o o O O O o O O o o o o O O O O O O o o O O O O o o O O O o o O O O O O O O O o o O O O o o - - O O O O O o o o O O O o O O O O O O O O O O O O O O O O O o o O O O O O O O O O O O O O O O O O O O O O O o o o O O O O O O O O O O O O o o O O O O O O O O O O O O O o o o O O O O O O O O O O O O O O O O O O O O O O O O O o o O o o O O O O o O O O O O O O O O O O O O O O O O O O O O O O O O O O O O O O O O O O O O O O O O O O O O O O O O O O O O O O O O O O O O O O O O O O O O O O O O O O O O O O O O O O O O O O O O O O O O O O O - - O - ; ; ; ; O & 1 ; ; - O O O O O O O O O O O O O O O ; O O O , k I L @.X.| f w # @ . . . o o - O O O o o o o o o . . o o o O X X O o o . X O ; j l j 4 * % X + O O - > j 4 1 & 1 O O O ; ; ; & & $ O O , ,.>.1.d t g w @ O < 1 4 4 4 4 4 v N v A p y 3 4 4 x x i p y x V >.r.m.h.=... .J U 4.e.oX'.^.^.o.{ B U W #.P d u 6 6 i Z x Z A D 1.r.N.`.^.o.n z x v 1.4.y.$.+.s p i i i y 6 6 6 6 6 6 6 3 3 1 6 i i i i 6 6 6 6 6 6 i i 6 i i Z Z Z i i Z Z v S E #.K u i I p.m.u.y.m.{._.+.E p.y.D y y 3 i A Z x 6 6 i y 3 3 6 6 6 Z Z 6 3 3 1 4 v 6.~ y 3 3 6 6 6 6 6 6 6 6 4 6 Z Z 6 6 6 6 6 6 6 6 6 6 Z A S Z x 6 6 4 4 6 Z I p.i.y.y.a.i.Q U Z Z Z 6 6 6 6 6 6 6 6 6 6 Z A Z i 6 6 6 6 6 6 i i i 6 6 6 6 i Z Z Z S S 6 6 i Z Z 6 6 6 1 1 3 A I v 6 3 y y y p J Z 6 1 1 3 6 6 x x 6 6 K E S S Z Z Z 6 6 6 6 6 6 i 6 6 6 6 6 6 6 6 6 i i i i Z y s #.i.E @.`.-X@X8.+.$.a.i.Q P -./.{.@X8.T K E W #.y.a.j.m.x.p.3.U v 6 x v v 4 3 1 4 4 1 1 1 1 1 1 1 1 1 1 1 1 1 & O O O & 1 1 1 1 1 1 1 1 1 1 1 , ; O 1 4 4 ; * y 3 4 , - O - o . o X O - ; O - - O O O O O O & & 3 x x x c c x z z x z z 4 6 i i A S v c c z 4 6 A J P +.~ B M h - X O O O O O O o o o o o o o . . o o . o o o o o . . . . . . . . . X O O o - o . X $ % * , l l - O & , > > o . . . . . @ # # # $ $ & ; > < q = r e 3 2 - - o o o o o o o o o o o o o o o o o o o o o o o o o o o o O O O O O O o o o o o o o o o o o o o o o o o o o o o o o o o o o o o o o o o o o o o o o o o o o o o o o o o o . . . o o o . . . o o o . . . o o o o . . . . . o o o o o o . . o o o o o o o o o o o o . . . o o o . . o . . . o o o o o o o o o o o o o o o o . . o o . o o o o o o o o o o o o o o o . . . . . . . . . . . . . . . . . . . . . . . . . . . . . . . . . . . . . . . . . . . . . . . . . . . . . . . . . . . . . . . . . . . . . . . . . . . . . . . . . . . . . . . . . . . . . . . . . . . . . . . . . . . . . . . . . . . . . . . . . . . . . . . . . . . . . . . . . . . . . . . . . . . . . . . . . . . . . . . . . . . . . . . . . . . . . . . . . . . . . . . . . . . . . . . . . . . . . . . . . . . . . . . . . . . . . . . . . . . . . . . . . . . . . . . . . . . . . . . . . . . . . . . . . . . . . . . . . . . . . . . . . . . . . . . . . . . . . . . . . . . . . . . . . . . . . . . . . . . . . . . . . . . . . . . . . . . . . . . . . . . . . . . . . . . . . . . . . . . . . . . . . . . . . . . . . . . . . . . . . . . . . . . . . . . . . . . . . . . . . . . . . . . . . . . . . . . . . . . . . . . . . . . . . . . . . . . . . . . . . . . . ",
". . . . . . . . . . . . . . . . . . . . . . . . . . . . . . . . . . . . . . . . . . . . . . . . . . . . . . . . . . . . . . . . . . . . . . . . . . . . . . . . . . . . . . . . . . . . . . . . . . . . . . . . . . . . . . . . . . . . . . . . o o . . . . . . . o o . . . o o o o o o o o o . . . . . o o o o . o o o o o o o o o o o o o o o o o o o o o o o o o o o o o o o o o o o o o o o o o o o o o o o o o o o o o o o o o o o o o o o o o o o o o o o o o o o o o o o o o o o o o o o o o o o o o o o o o o o o o o o o o O O O O O o o o o o O O O O o o o o O o o o o o o o O O O o O O o o o O o O O O O o o o O o o o o o o O O O o o o o O O O O o o O O O O O O O O O O O O O o O O O O O O O O O O O O O O o o o o o O o o o o o O O O O O o O O O O O O O O O O O O O O O O O O O O O O O O O o O O O O O O O O O O O O O O O O O O o o o O O O O O O O O O o o O O O O o o O O O O O O O O O O O O O o o o O O O O o o O O O o o O O O O O O O O O O O O O O O O O O O O O o O O O O O O O O O O O O O O O O O O O O O O O O O O O O O O O O O O O O O O O O O O O O O O O O O O O O O O O O O O O O O O O O O O O O O O O O O O O O O O O O O O O O O O O O O O O O O O O O O - - ; , , ; ; & & 1 ; ; O O O O O O O O O O O O O O O O O O O O , z v J  .| | r q # @ . . . o o o O O O O o . o o o o . o O o o X X O O O o O O - , > ; 1 $ X O - - O O ; , , & & ; ; O O ; ; ; & O O O O k ,.:.Y d t f q + - , 1 1 1 1 1 1 z N v Z y y 6 z 6 6 v x y p V 7.r.N.'.h.O... .A U 4.r.oX_.^.O.g C Y E L P s p i 6 6 v v i p A Y w.v._.^.O.g C v U T T E L K s u p i i i i 6 6 6 6 6 6 3 3 3 3 6 6 x 6 6 6 6 6 6 6 6 6 i i 6 i Z Z i i i i i Z Z S U 3.L u Z V p.j.$.W m.-Xk.+.Q p.y.A e 3 i i i Z x 6 6 Z i 6 6 3 6 Z Z 6 3 3 3 4 4 6 y 3 3 6 6 6 6 6 6 6 6 6 6 x x 6 6 6 6 6 6 6 6 6 6 6 i A S S x 6 6 6 6 6 Z U Q ! ! u.m.a.3.E Z Z Z x x 6 6 6 x x 6 6 6 x Z Z 6 6 6 i 6 6 6 6 i y 6 6 6 6 i i i Z x x i i Z A Z 6 i 6 6 6 3 D U v 4 1 6 Z x i Z Z 6 6 6 6 Z Z A S Z 6 D D S D D A 6 6 6 6 6 6 6 i i 6 6 6 6 6 6 6 i i i i Z Z y s y.4.^ -.|.;XOX5.+.g.p.4.A d -.(.].@Xz.8.y.a.a.V.V.a.y.3.T I S Z x i A S v 6 3 6 6 6 4 1 1 1 1 1 1 1 1 1 1 1 1 O O O O 1 1 1 1 1 1 ; 1 1 1 1 1 1 ; O 1 1 1 & $ & 1 4 z > - O O O ; O O O ; - - O o o O O X 1 4 6 6 x v v c z z z z 6 6 6 x 6 6 i Z v v v c c z 4 4 4 3 3 1 , ; > - o . o O O O O o o o o . o o o . . . . o o o o o . . . . . . . o O X $ O > > - o & % r u x N M > X O O o - o . . . . . @ @ # # = X ; < q q q * * * & O o o o o o o o o o o o o o o o o o o o o o o o o o o o o o o O O O o O O o o o o o o o o o o o o o o o o o o o o o o o o o o o o o o o o o o o o o o o o o o . . o o o o o o . o o o o o o o o o o o o o o o o o . . o o o o o o o o o o . . o o o o o o . o o o o o . . o o o o . . o o . . o o o o o o . . o o o o o o o . . . o o . . o o o . . . o o o o o o . . . . . . . . . . o . . . . . . . . . . . . . . . . . . . . . . . . . . . . . . . . . . . . . . . . . . . . . . . . . . . . . . . . . . . . . . . . . . . . . . . . . . . . . . . . . . . . . . . . . . . . . . . . . . . . . . . . . . . . . . . . . . . . . . . . . . . . . . . . . . . . . . . . . . . . . . . . . . . . . . . . . . . . . . . . . . . . . . . . . . . . . . . . . . . . . . . . . . . . . . . . . . . . . . . . . . . . . . . . . . . . . . . . . . . . . . . . . . . . . . . . . . . . . . . . . . . . . . . . . . . . . . . . . . . . . . . . . . . . . . . . . . . . . . . . . . . . . . . . . . . . . . . . . . . . . . . . . . . . . . . . . . . . . . . . . . . . . . . . . . . . . . . . . . . . . . . . . . . . . . . . . . . . . . . . . . . . . . . . . . . . . . . . . . . . . . . . . . . . . . . . . . . . . . . . . . . . . . . . . . . . . . . ",
". . . . . . . . . . . . . . . . . . . . . . . . . . . . . . . . . . . . . . . . . . . . . . . . . . . . . . . . . . . . . . . . . . . . . . . . . . . . . . . . . . . . . . . . . . . . . . . . . . . . . . . . . . . . . . . . . . . . . . . o o . o o . . o o o o o o . . o o o o o o o o . o o o o o o o o o o o o o o o o o o o o o o o o o o o o o o o o o o o o o o o o o o o o . . . . . . . o o o o o o o o o o o o o o o o o o o o o o o o o o o o o o o o o o o o o o o o o o o o o o o o o o o o o o o o o o o o o o o o O O o o O o O o o o O O O O o o o o O O o o o o o o O O O o O O o o o o O O O O O o o o o o o O O O O O O o o O O O o o o O O O O O O O O O O o O O O O O O O O O O O O O O O O O O O O o o o o o O o o o - o o O O O O O O O O O O O O O O O O O O O O O O O O O O O O O O o o O O O O o o O O O O O O O O O O O O O o O O O O O O O O o o O O O O O O o o O O O O O O O O O O O O o o O O O O O O O O O O o O O O O O O O O O O O O O O O O O o o O O O O o - O O O O O O O O O O O O O O O O O O O O O O O O O O O O O O O O O O O O O O O O O O O O O O O O O O O O O O O O O O O O O O O O O O O O O O O O O O O O O O O O O O O O O O O O O O O O O O O - - ; , , , ; & & 1 O - O O O O O O O O O O O O ; O O O O ; ; O ; , x p t | t r = # @ . . . o o o O O O O o . o o o o O X . o . . . O O O O O o O - O O X X O o - O O O - - O O O - O O - ; ; & & ; , ; , k N v i u e = + : ; ; 1 ; 1 1 1 1 4 z c x 6 3 6 6 6 v I D u D 7.r.OX'.).=.O.| s S <.8.r.v.h.O.X.f v Q W L s u y y y x v Z y Z 1.w.x.h.=...d F Z A U I D U D D p u y 6 i i i 6 6 6 6 6 6 3 3 3 3 6 x x 6 6 6 6 6 6 x x 6 6 6 6 6 Z Z i i 6 i i i i v S 4.y.+.u x Y p.j.$.! N.-Xh. .D p.a.+.* 1 x i i 6 6 3 6 A Z 6 3 3 6 x 6 3 3 3 4 1 1 1 3 3 6 6 6 6 6 6 6 6 6 6 6 6 6 6 6 6 6 6 6 6 6 6 6 6 Z Z S x 6 6 6 6 6 Z U E D Q a.B.a.y.Q x Z Z x x 6 6 6 6 6 6 6 6 Z S Z 6 6 i i i 6 6 6 6 6 6 6 6 6 i i Z Z Z x 6 i Z Z i y i 6 6 3 3 D Q I 6 1 6 Z Z Z v v S S D U E E U S Z Z D D U D A i 6 6 6 6 6 6 6 6 6 6 6 6 3 6 y y i i i i Z Z y P #.T %.(.].;XoX! @.j.8.Y i s o.-.`.;X+XB.m.m.x.a.u.y.2.T S v Z Z 6 F F S v 6 3 6 6 6 4 4 1 1 1 ; ; 1 1 1 1 , ; O O & & 1 1 1 1 1 1 , 1 1 1 1 1 1 ; & O O O + q = p S N l - O O O ; O O O O O O o o o O & 3 i Z v v v v 4 3 i B N c 6 6 x 6 6 6 i Z v v v v c z , , , , - - - - ; - - - o o O O O o o o . . o o o . . . . O o o . . . o - o o . . X $ e r 6 j l > - O $ % % 1 j h > . . . o . . . . . . . @ @ @ . X o + < # # O O & X X o o o o o o o o o o o o o o o o o o o o o o o o o o o o o o o O O O O o o o o o o o o o o o o o o o o o o o o o o o o o o o o o o o o o o o o o o o o o o o o o o o o o o o o . o o o o o o o o o . o . . o o o o . . o o o . o o o o o . . . o o o o o o . . o o o o . . o o o o . . o o . . o o o o o o . . o o o o o o . . . . o o o . o o o o . . . . o o o o . . . . . . . . . . . . . . . . . . . . . . . . . . . . . . . . . . . . . . . . . . . . . . . . . . . . . . . . . . . . . . . . . . . . . . . . . . . . . . . . . . . . . . . . . . . . . . . . . . . . . . . . . . . . . . . . . . . . . . . . . . . . . . . . . . . . . . . . . . . . . . . . . . . . . . . . . . . . . . . . . . . . . . . . . . . . . . . . . . . . . . . . . . . . . . . . . . . . . . . . . . . . . . . . . . . . . . . . . . . . . . . . . . . . . . . . . . . . . . . . . . . . . . . . . . . . . . . . . . . . . . . . . . . . . . . . . . . . . . . . . . . . . . . . . . . . . . . . . . . . . . . . . . . . . . . . . . . . . . . . . . . . . . . . . . . . . . . . . . . . . . . . . . . . . . . . . . . . . . . . . . . . . . . . . . . . . . . . . . . . . . . . . . . . . . . . . . . . . . . . . . . . . . . . . . . . . . . . . . . . . . . . . . ",
". . . . . . . . . . . . . . . . . . . . . . . . . . . . . . . . . . . . . . . . . . . . . . . . . . . . . . . . . . . . . . . . . . . . . . . . . . . . . . . . . . . . . . . . . . . . . . . . . . . . . . . . . . . . . . . . . . . . . . . o o o o o o o o . o o o o . . o o o o o o o o . . o o . . o o o o o o o o o o o o o o o o o o o o o o o o o o o o o o o o o o o o o o o . . . . . . . o o o o o o o o o o o o o o o o o o o o o o o o o o o o o o o o o o o o o o o o o o o o o o o o o o o o o o o o o o o o o o o o o o o o O o O O o o o o o o O O O O O O O o O O o o O O o o O o o o o o O O O O o o o o o o o O O O O O O o O O O O o o o o o O O O O O O O O o o O O O O O o O o o O O O O O O O O O O o o o o O O o O o o o o o O O O O O O O O O O O O O O O O O o o O O O o O O O O o o O o O O O O O o O o o O O o O O O O O O O O O O O O O o O O O O O O O O O O O O O O o o O O O O O O O O O O O O O O O O O O O O o o O O O O O O O O O O O O O O O O o o O O O O - - O O O O O O O O O O O O O O O O O O O o o O O O O O O O O O O O O O O O O O O O O O O O O O O O O O O O O O O O O O O O O O O O O O O o . . o O O O O O O O O O O O O O O O O O O O O O O O O - - ; - , , ; & & & O O O O O O O O O O O O O O O O O O O O ; O ; , z i s t t r = # # @ . . . o - O O O O o o o o o o O X . O o . . o O O O O o o O O X o o o o - O O O - O O O O O O O O O ; & & O ; , j j 4 1 * 1 1 ; 1 4 1 O & 1 1 1 4 4 z z 6 6 x 6 6 6 6 v S A A 1.r.v.[.]./.O...P A D <.8.c.x.*.O.X.F S W W K p y y y i v Z y A 7.r.OX)./.@.L E J u i Z v v S S p u y 6 6 6 i i 6 6 6 6 6 6 3 3 3 4 6 6 6 6 6 6 6 6 6 6 6 6 6 6 6 6 Z Z Z i 6 x i i y 6 v I 5.y. .u 4 Y p.j.$.3.N.-Xh.d S x.V.$.y 3 Z 6 6 6 6 6 Z S A i 6 4 6 6 6 3 3 1 4 4 1 3 6 3 3 6 6 6 6 6 6 6 6 6 6 i 6 6 6 6 i i 6 6 6 6 6 6 x Z x x Z 6 6 6 x U ! E ! j.=Xj.y.U 6 i i 6 6 x x x i i y 6 Z S R S i i Z Z Z i i i i i y y 6 y i Z Z Z Z S Z Z A i i y y i 6 3 y A Q T v 6 & 7 [ s.5.5.y.y.y.y.y.3.E D K ~ ! E D Z 6 6 6 6 6 6 6 6 6 Z Z Z 6 6 3 6 y y i i i i Z i p J W S o.(.].;Xc.L *.m.4.S P E J -./.].@XN.a.y.3.E K Q Q D S Z Z Z 6 7 F Z v 4 1 3 6 4 4 4 1 1 1 1 1 1 1 4 4 1 ; O O & 1 1 1 1 1 1 1 , 1 1 1 O 1 1 1 O O O o # w g d T :.l o O O & ; , ; - O X X . o O & y p A D B N c x p  .@.5.>.N z 4 z 6 6 6 i x v v v v z z 4 4 , , , , , , ; O O - o o O O O o o o . . o o o o . . O O O o O O 2 j l > o o . X $ % e 3 , h > o . . . . . o o o . . . . . . . . . . . @ @ @ @ @ # q + 2 : ; ; o . . o o o o o o o o o o o o o o o o o o o o o o o o o o o o o o o O O O O o o o o o o o o o o o o o o o o o o o o o o o o o o o o o o o o o o o o o o o o o o o o o o o o o o o o . . o o . . o o . . . . . . o o o o o . o o . . o o o o o o . . o o o o o o . . o o o o . . o o o o o o o o . . o o o o o o o . o o o o o o o o o o o o o o o o o o . . . . . o o o o . . . . . . . . . . . . . . . . . . . . . . . . . . . . . . . . . . . . . . . . . . . . . . . . . . . . . . . . . . . . . . . . . . . . . . . . . . . . . . . . . . . . . . . . . . . . . . . . . . . . . . . . . . . . . . . . . . . . . . . . . . . . . . . . . . . . . . . . . . . . . . . . . . . . . . . . . . . . . . . . . . . . . . . . . . . . . . . . . . . . . . . . . . . . . . . . . . . . . . . . . . . . . . . . . . . . . . . . . . . . . . . . . . . . . . . . . . . . . . . . . . . . . . . . . . . . . . . . . . . . . . . . . . . . . . . . . . . . . . . . . . . . . . . . . . . . . . . . . . . . . . . . . . . . . . . . . . . . . . . . . . . . . . . . . . . . . . . . . . . . . . . . . . . . . . . . . . . . . . . . . . . . . . . . . . . . . . . . . . . . . . . . . . . . . . . . . . . . . . . . . . . . . . . . . . . . . . . . . . . . . . . . . ",
". . . . . . . . . . . . . . . . . . . . . . . . . . . . . . . . . . . . . . . . . . . . . . . . . . . . . . . . . . . . . . . . . . . . . . . . . . . . . . . . . . . . . . . . . . . . . . . . . . . . . . . . . . . . . . . . o o o o o o o o o o o . o o o . o o o o . . o o o o o o o o . . o o . . . o o o o o o o o o o o o o o o o o o o o o o o o o o . . . . . o o o o o o o o o o o o o o o o o o o o o o o o o o o o o o o o o o o o o o o o o o o o o o o o o o o o o o o o o o o o o o o o o o o o o o o o o o o o o o o o o o O o O O o o o o o o o O O O O O O o O O O O o o o o O o o o o o O O o o o o O O O o o O O O o o o O O o o O o o O o o o O O O O O O O o o o O O O o o o o o O O . . . . o O O O o o o o O O O o o o o o o O O o O O O o O O O O O O o o O O O O O O o o O O O O O o O O O O O O O O O O o o O o o O O O O O O O O O O O o o O O O O O O O O O O O O O O o o o O O O O O O O O O O O O O O O O O O O O O O O O O O O O O O O O O O O O O O O O O O O O O O O O O O O O O O O O O O O O O O O O o O O O O O O O O O O O O O O O O O O O O O O O O O O O O O O O O O o . . . o O O O O O O O o O ; 2 2 o o O O O O O O O O O O O O O O O O O O O O O O O - ; ; - ; , 1 & & O O o . . . o O O O O O O O O O O O O O O O O O 4 v S K d t r r # # @ . . . - - O O O O . . o O o O O O O o o o . o O O o O O o o O O o o o O O O O - ; O O O O O O O O O ; 1 1 & O , ; o . X O , , 4 4 1 1 & & & 1 4 j c c v 6 6 v v 6 6 z v D K T 7.e.m.M.h.O... .D I U 2.8.e.x.*... .F D P L A i y 6 6 x Z p p 1.*XOX]./.-.&.L +.s 3 6 6 v I A p u y 6 6 6 3 3 3 6 6 i i 6 3 3 3 6 4 4 6 6 6 6 6 6 6 6 6 6 6 6 6 6 x x x x i i x i i i i Z x S Q +.s y 4 I p.u.L 2.OX-Xh.u E m.'.$.u y 6 6 x Z 6 3 Z D A i 6 6 6 6 3 3 1 4 4 4 6 6 3 3 6 6 6 6 6 6 6 6 x x i 6 6 6 6 i Z x 6 x Z S S Z Z Z Z Z Z i 6 6 D y.y.u.m.=XM.y.D 6 i i y 6 x x 6 x 6 y i Z A D Z 6 i Z i i i i 6 6 6 6 6 6 6 6 i Z Z Z v 6 i i i y 3 3 6 6 3 3 A ! 3.U x O = ] G.V.x.s.i.y.y.! Q D D W ~ #.E Z 6 6 6 6 6 6 6 6 6 i A D S x 6 6 6 6 6 6 6 6 i i 6 y A K Z o.(.{.@X8.P $.a.Y u @.u.<. .^._.v.8.S i D D E E U D Z Z i 6 4 4 6 6 4 4 & O O O O ; 1 1 1 1 1 1 6 4 4 , ; O O & 1 1 1 ; ; ; 1 1 1 1 1 O 1 1 1 O O O + # w g d I M h o O O & ; , ; - O X X O 1 6 y p A D S v c c x p  .%.y.:.N z 4 4 4 6 6 6 x v v v v z z z 4 , , , , , 1 ; O O O o O O O o o o o . . o o o o . . o o o O O * 7 k M h o . . . . . X X o - . . . . . . . . . . . . . @ @ . X X O > > . @ # # w q = * 6 j h - . . . o o o o o o o o o o o o o o o o o o o o o o o o o o o o o o o O O O O O o o o o o o o o o o o o o o o o o o o o o o o o o o o o o o o o o o o o o o o o o o o . . o o o o o o . . o o . . o o o . . . . . o o o o o . o o . . . o o o o o o o o o . . o o . . . o o o o o o o o o o o o o . . . . . . . o o . o o o o o o o o o o o o o o o o o o o o . . . o o o o . . . . . . . . . . . . . . . . . . . . . . . . . . . . . . . . . . . . . . . . . . . . . . . . . . . . . . . . . . . . . . . . . . . . . . . . . . . . . . . . . . . . . . . . . . . . . . . . . . . . . . . . . . . . . . . . . . . . . . . . . . . . . . . . . . . . . . . . . . . . . . . . . . . . . . . . . . . . . . . . . . . . . . . . . . . . . . . . . . . . . . . . . . . . . . . . . . . . . . . . . . . . . . . . . . . . . . . . . . . . . . . . . . . . . . . . . . . . . . . . . . . . . . . . . . . . . . . . . . . . . . . . . . . . . . . . . . . . . . . . . . . . . . . . . . . . . . . . . . . . . . . . . . . . . . . . . . . . . . . . . . . . . . . . . . . . . . . . . . . . . . . . . . . . . . . . . . . . . . . . . . . . . . . . . . . . . . . . . . . . . . . . . . . . . . . . . . . . . . . . . . . . . . . . . . . . . . . . . . . . . . . . . ",
". . . . . . . . . . . . . . . . . . . . . . . . . . . . . . . . . . . . . . . . . . . . . . . . . . . . . . . . . . . . . . . . . . . . . . . . . . . . . . . . . . . . . . . . . . . . . . . . . . . . . . . . . . . . . . . . o o o o o o o o o o o . o o o o o o o o o o . o . o o o o o o o o o o o o o o o o o o o o o o o o o o o o o o o o o o o o o o o + + + o o o o o o o o o o o o o o o o o o o o o o o o o o o o o o o o o o o o o o o o o o o o o o o o o o o o o o o o o o o o o o o o o o o o o o o o o o o o o O O O o o o O O O o o o o o o o o o o O O O o o O o o o O O o o o o o o o o o o o o o o o o o O O O O o o o o o o o o O O O O o o o O O O O O O O o o O O O O O o o o o o o + : : + O O O O o o - - o O O O O o O O O O o o o O o o o O O O O O O O O O o o O O O O O O O O O O O O O O O O O O O O O O O O O O O O O O o O O O O O o o O O O O O o O O O O O O O O o o O O O O O O O O O O O o O O O O O O O O O O O O O O O O O O O O O O O O O - O O O O - O O O O O O O O O O O O O O O O O O O O O O O O O O O O O O O O O O O O O O O O O O O O O O O O o O O O O O O O + : : : O O O O O O O O o G d.A.D.G o O O O O O O O O O O O O O O O O O O O O O O - - - - - , , 1 & & O O O : : : + O O O O O O O O O O O O O O O O O , c I U d | t r q # @ . . . o - - O O O X X . o O O O O O O O O . o o o o O O o o o O O o o O O O ; , ; ; & & O O O O O O ; ; ; 1 , , : 2 : 2 O ; , ; O & & 1 1 1 1 4 c c v 6 6 6 x v x 6 F f.f.I.n.c.x.j.g.=... .p S U Q 4.8.z.a.$...s S K d J i y i x x Z Z Z Y w.oX]./.(.o.H u u 3 4 v v U K s u y 6 6 x x F a i 6 6 6 6 6 3 3 3 4 z 4 6 3 3 6 6 x 6 6 3 6 y 6 6 6 x 6 x x 6 i i Z Z Z Z i 6 Z S U K p 6 v S y.#.E 2.B.:Xh.d W m.M.+.y 6 6 x Z 6 3 6 x S A 6 6 x 6 6 3 3 3 4 4 6 6 6 6 6 6 6 6 6 6 6 6 x x i i 6 6 i Z Z Z Z Z D y.! S A Z A A Z Z i 6 S ! a.j.M.-XM.u.D 6 Z Z i 6 6 6 6 6 6 6 i i Z Z 6 6 6 Z i i y y 6 6 6 6 3 6 3 y Z A D S x 6 i A A Z i i 6 6 3 y K y.p.5.S ; 2 [ d.s.y.! ! E U D Z Z Z Z Z D D Z 6 6 6 6 6 6 6 6 6 6 D E U v 6 6 6 6 6 6 6 6 6 y 6 6 Z Z 3  ./.[.v.<.s #.4.c e ..u.8.J O.h.v.w.B p K W E U S S x x 6 4 4 1 3 1 4 1 & 2 2 2 2 1 ; 1 1 1 1 1 3 4 , ; ; O & & 1 1 ; ; ; ; 1 1 1 1 ; ; 1 1 1 O O ; O q q = y c k - O O O O ; ; ; - O O O 1 x Z A K U Y I v c c 6 3 3 3 4 c c z 4 4 4 4 3 6 x v v v v v c z j , , ; , , 1 ; - - O o o O O o o . o X O O - o o . o . o . o O X O ; h > o . . . . . . X o o o . . o . o . . . . . . . # # @ $ & , h h - @ # w w = % 6 z h > . . . . O o o o o o o o o o o o o o o o o o o o o o o o o o o o o o o O O O O O O o o o o o o o o o o o o o o o o o o o o o o o o o o o o o o o . o o o o o o o o o o . . . o . . . . o o o o o o o o o o o o o o o o . o o o o o o . . . . o o o o o o o . . . . . . . . . o o o o o o o o o o o o o o + + + o o . o . . . . . . . o o o . . o o o o o o o o o o o o o o o o . . . . . . . . . . . . . . . o + + + o . . . . . . . . . . . . . . . . . . . . . . . . . . . . . . . . . . . . . . . . . . . . . . . . . . . . . . . . . . . . . . . . . . . . . . . . . . . . . . . . . . . . . . . . . . . . . . . . . . . . . . . . . . . . . . . . . . . . . . . . . . . . . . . . . . . . . . . . . . . . . . . . . . . . . . . . . . . . . . . . . . . . . . . . . . . . . . . . . . . . . . . . . . . . . . . . . . . . . . . . . . . . . . . . . . . . . . . . . . . . . . . . . . . . . . . . . . . . . . . . . . . . . . . . . . . . . . . . . . . . . . . . . . . . . . . . . . @ + 2 9 _ ( 0 + . . . . . . . . . . . . . . . . . . . . . . . . . . . . . . . . . . . . . . . . . . . . . . . . . . . . . . . . . . . . . . . . . . . . . . . . . . . . . . . . . . . . . . . . . . . . . . . . . . . . . . . . . . . . . . . . . . . . . . . . . . ",
". . . . . . . . . . . . . . . . . . . . . . . . . . . . . . . . . . . . . . . . . . . . . . . . . . . . . . . . . . . . . . . . . . . . . . . . . . . . . . . . . . . . . . . . . . . . . . . . . . . . . . . . . . . . . . . . . . . o o o o o o o o o o o o o o o o o o o . o . o o o o o o o o o o o o o o o o o o o o o o o o o o o o o o o o o o o o . 5 J.9X7X2X] . o o o o o o o o o o o o o o o o o o o o o o o o o o o o o o o o o o o o o o o o o o o o o o o o o o o o o o o o o o o o o o o o o o o o o o o o o o o O O o o o o o O O o o o o o o o o o o o o O o o o o o o O O o o o o o o o o o o o o o o O O O o O O O o o o o o o o o O o O O O O o o o o O o o o o o O O O O O o o o o . 2 W.8X9X>X' : . O O o o o o O o o o O O O O O O o o O O O O O O O O o o O O O o o O O O O O O O O O O O O O O O O O O O O O O O O O O O O o o o o O O O O o o O O O O o o O O O O O O O O O O O O O O O O O O O O O O O O O O O O O O O O O O O O O O O O O O O O O O O O O O O O - O O O O O O O O O O O O O O O O O O O O O O O O O O O O O O O O O O O O O O O O O O O O O O o . . . . . ; O o ` E.9X0X>X' . O O O O o o G 9XSXBXNXlXF.. O O O O O O O O O O O O O O O O O O O O O O - - - ; , , & & O O . ] 3X7X9XF.2 O O O O O O O O O O O O O O O O , z B T P | | t = # # . . . o - - - ; & O O o o O O O O O O O . . . . . . O o o o o O O O O O O O ; , , , 1 & & O O O O & & 1 1 , j - G.eX7XeX&.. ; ; ; ; 1 1 z z z 4 4 6 6 6 6 v x i 6 1 %XBXNXCXSX1X'.=.=... .p i S U <.4.e.x.a.@. .A A J s p p y i v Z i Z Y w.oX'./.O.X.f 3 y v v A S I E +.d p 6 6 1 F E.9XeX>X^ 6 3 6 6 6 3 6 v V D u e y 6 x v U ~ +.p 6 i 6 6 x x x 6 6 Z i Z Z Z Z Z 6 i Z S U D A i y S 4.y.W i.+X:Xh.+.U p.j.#.p 3 6 Z A x 3 3 v S A Z Z 6 3 3 6 3 3 6 6 6 6 6 6 Z 6 6 6 6 6 6 Z Z i Z i i Z Z Z A A D E #.#.E D D K A A A A A S E a.j.M.-X[.u.D x Z Z Z 6 6 6 i Z Z Z Z A A A Z Z A K W W K A A K K A A Z K y.j.m.m.a.#.! u.m.M.m.m.j.a.u.y.u.M.=X=XB.m.y.D F ~ #.W W K D A i i Z Z i 6 Z Z Z 6 6 6 6 6 6 6 6 6 6 A E U Z 6 6 6 6 6 6 6 6 6 6 4 6 Z Z 6 d *.B.c.S s #.1.c $ | $.4.D X.=.B.c.1.A D D E D S v v v x 4 4 3 * 1 z o ) E.7X9X>Xd.O 1 1 1 1 1 1 1 ; ; ; O 1 1 1 1 O O ; ; ; 1 1 1 1 ; 1 1 1 O ; ; - + @ $ 1 , , O O & ; , ; O O ; , z 4 x Z A K K Q Y B v x z 4 4 z z 4 4 z z 4 4 4 4 3 6 x v v v v v v c j > . . . . ; , ; ; ; - O o o o o o o X O O - O o o . . o . . . . . . o - o o . . . . o o . o o o . . . . . . . . . . . # # = % & 4 h h > # q q = = & ; > - . . . X X X o o o o o o o o o o o o o o o o o o o o o o o o o o o o o o O O O O o o o o o o o o o o o o o o o o o o o o o o o o o o o o O . . . . . . o o o o o o o o o o . o o . o o . . . o o o o o o o o o o o o o o o o o o o o . . . . . . o o o o o o . . . . . o . . o o o o o o o o o o o o . . D.8X5X9XF.. . o o o . . . . o o o o o . o o o o o o o o o o o o o . o o o . . . . . . . . . . . . . 2 H.2X9X4XP.: . . . . . . . . . . . . . . . . . . . . . . . . . . . . . . . . . . . . . . . . . . . . . . . . . . . . . . . . . . . . . . . . . . . . . . . . . . . . . . . . . . . . . . . . . . . . . . . . . . . . . . . . . . . . . . . . . . . . . . . . . . . . . . . . . . . . . . . . . . . . . . . . . . . . . . . . . . . . . . . . . . . . . . . . . . . . . . . . . . . . . . . . . . . . . . . . . . . . . . . . . . . . . . . . . . . . . . . . . . . . . . . . . . . . . . . . . . . . . . . . . . . . . . . . . . . . . . . . . . . . . . . . . . . . . . . . . ] 7XcXMXnXnXvXyX] . . . . . . . . . . . . . . . . . . . . . . . . . . . . . . . . . . . . . . . . . . . . . . . . . . . . . . . . . . . . . . . . . . . . . . . . . . . . . . . . . . . . . . . . . . . . . . . . . . . . . . . . . . . . . . . . . . . . . . . . . ",
". . . . . . . . . . . . . . . . . . . . . . . . . . . . . . . . . . . . . . . . . . . . . . . . . . . . . . . . . . . . . . . . . . . . . . . . . . . . . . . . . . . . . . . . . . . . . . . . . . . . . . . . . . . . . . . . . . . o o . o o o o o o o . o o o . o o o o o o o o o o o o o o o o . o o o o o o o o o o o o o o o o o o o o o o o o o . . ( eXJXKXSXP.. o o o o o o o o o o o o o o o o o o o o o o o o o o o o o o o o o o o o o o o o o o o o o o o o o o o o o o o o O o o o o o o o o o o o o o o o o o O O O o o o o O O O o o o o o O O o o o o o o o o o o o o O o o o o o o o O O o o o o o O O O O o o o o O o o o o o o o o o o O O O O o o O O o o o o O O o o O O O o o O . 9 nXJXJXNXF.: . O O O o o O O o o o O O O O O O O O O O o O O O O o o O O O O O O O O O O O O o o O O o O O O O O o o O O O O O O O O O O O O o O O O O O O O O O O O O O O O O O O O O O O O O O O O O O O O O O O - - O O O O O O O o O O O O O O O O O O O O O O O O O O O O O O O O O O O O O O O O O O O O O O O - - O O O O O O O O O O O O O O O O O O O O O O O O O O o 2 J.8X0X4X] . O . A.cXJXKXNXF.. O O O O o + P.SXJXJXJXJX4X. O O O O O O O O O O O O O O O O O O O O O O - - ; , 1 1 & & ; - . U.SXKXJX0X5 o O O O - - ; ; ; O O O O O O - , z v T +...X.| f # # . . . o - - - ; 1 1 O O O O O O O O O o 5 J.9X7X>X' . O O O O - O O O O O O O ; , ; ; & O O O O O & & 1 , , , . 3XJXKXJXU.. O , , , 4 6 x v 4 4 1 1 1 1 4 z x i 6 a sXJXJXJXJXAX|./.O...J A Z S U <.8.c.N.j.@...J Z i p p y y i i y 6 B w.c.'./.O.| e 3 6 B 1.2.L D S P  .d 6 6 6 & / dXKXJXMXd.6 3 6 6 3 3 6 B 7.%. .e y 6 x v T #.+.s x i 6 i x 6 i 6 x Z Z Z Z Z Z Z Z i Z A U U D A y 6 <.p.a.#.p.=X:X_.d D p.V.g.d * 6 S A y 6 x Z A U T ~ p 1 6 6 6 6 6 6 x x x Z A Z i 6 i Z A A Z Z Z A D D D D A D K L K K D E E E K A A D D E a.m.B.-X{.j.! K K K E y.u.a.j.j.j.j.m.M.M.j.a.j.V.M.'.[.M.a.j.M.M.j.#.#.u.[.-X-X-X[.M.j.'.-X:X:X-X-X{.'.k.'.{.:X:X-X[.j.#.K K K K K J A A i i A A Z Z Z Z Z i i i Z i Z 6 x x 6 i D I x 6 6 6 6 6 6 6 6 6 6 6 i A S i  .k.+Xe.i +.s.1.4 $ u +.2.I | =.}.v.7.S D S D D Z v v v 4 1 O O 1 3 4 . A.bXKXJXBXU.. 1 1 1 1 1 1 , ; O O & & 1 1 1 1 1 ; ; ; 1 1 1 1 ; 1 1 1 ; ; ; ; O O & 1 1 , 1 y p S N j - O & 3 x x v Z A A K E I v v x z z z z z 4 4 4 4 4 4 4 4 4 6 x x v c z x x z c q.>XeX3XP.5 o ; , ; ; - - - - o o o X O O o o o o . . o o . . . . . . o o . . . o O o o . o o o o . . . . . . . . . # w w = r 3 c V N z 4 j , O O o o o . . . . . X X o o o o o o o o o o o o o o o o o o o o o o o o o o o o o o X X O O O - - o o o o o o o o o o o o o o o o o o o o o o o o o . 8 W.5XtXR.: o . o o o o o o o o o o o o o o o . . o o o o . o o o o o o o . . o . o o o o . . o o o o . . o . o o o o o o o o o o o o o o . . o o o o . . . . 4XJXKXJX2X. . . o o o o o . o o o o . . o o o o . . o o o o . . o o o o o o o o o o o o o o o o o . G 8XFXJXHXtX9 . . . . . . . . . . . . . . . . . . . . . . . . . . . . . . . . . . . . . . . . . . . . . . . . . . . . . . . . . . . . . . . . . . . . . . . . . . . . . . . . . . . . . . . . . . . . . . . . . . . . . . . . . . . . . . . . . . . . . . . . . . . . . . . . . . . . . . . . . . . . . . . . . . . . . . . . . . . . . . . . . . . . . . . . . . . . . . . . . . . . . . . . . . . . . . . . . . . . . . . . . . . . . . . . . . . . . . . . . . . . . . . . . . . . . . . . . . . . . . . . . . . . . . . . . . . . . . . . . . . . . . . . . . . . . . . . F.BXKXJXJXJXJXJXKXJ.. . . . . . . . . . . . . . . . . . . . . . . . . . . . . . . . . . . . . . . . . . . . . . . . . . . . . . . . . . . . . . . . . . . . . . . . . . . . . . . . . . . . . . . . . . . . . . . . . . . . . . . . . . . . . . . . . . . . . . . . . ",
". . . . . . . . . . . . . . . . . . . . . . . . . . . . . . . . . . . . . . . . . . . . . . . . . . . . . . . . . . . . . . . . . . . . . . . . . . . . . . . . . . . . . . . . . . . . . . . . . . . . . . . . . . . . . . . . . . . o o o o o o o o o o . o o o o o o o o o o o o o o o o o o o . . o o o . . o o o o o o o o o o o o o o o o o o o o . . ) iXJXJXHXT.. o o o o o o o o o o o o o o o o o o o o o o o o o o o o o o o o o o o o o o o o o o o o o o o o o o o O O o o o o O o o o o O o o o O O O o o o o o O o o o o o o O O O O o o o O O O o o o o o o o o o o o o O O o o o o O O O O O O O O O O O O O O o o o o o o o o o o o o o o o O O O o o o o o o o o O O O o o O O O O O . 9 NXJXJXFXJ.: . O O O O O O O o o o O O O O O O O O O O O O O O O O O O O O O O O O O o O O O O o o O o o O O O O o O O O O o O O O O O O O O O O O O O O O O O O O O O O O O O O O O O O O O O O O O O O O O O O O O O O O O O O O O O O O O O O O O O O O O O O O O O O O O O O o O O O O O O O O O O O O O O O O O O O O O O O O O O O O O O O O O O O O O O O O O O O O o . 0.MXJXJXDXF.. O . D.nXJXJXDXJ.. O O O O o + W.DXJXJXJXJX5X. O O O O O O O O O O O O O O O O O O O O O O - ; ; , 1 1 & O ; - . T.HXJXJX9X5 o - O O - - O O ; ; O O O O O ; > z Z K +.| | | r # # . . . o - - - - ; ; O O O O O O O O O . d.BXJXJXBXd.. O O O O O O O O O O O O - - - O O O O O O O 1 4 z 4 1 1 . 5XJXJXJXR.. z z x 6 3 6 6 3 1 1 4 4 4 6 6 y i 6 i / cXJXJXJXJXzX|.O.O. .Z S S I U 2.8.c.OXk.O.o./ S Z p 3 6 6 i i y v 7.e.j./.O.d y y y v V <.~ P Z Z u u y 6 6 6 O / vXJXJXZXd.3 3 6 3 3 3 4 v T %.d y 6 6 x v S A u p Z i 6 i i 6 i 6 6 Z Z Z Z Z Z Z Z i i Z A D U D A y x 4.x.j.u.x.=X:X). .T v.[.g.u 6 x A A Z y y y I 4.s.&.0 1 6 6 6 6 i x x Z Z A A i 6 Z Z A A A Z A D D D D A A A p p p p A E Q E K p Z A K ! j.B.M.[.{.M.y.#.+.W #.u.k.}.}.}.}.{.{.{.}.'.k.M.}.{.{.{.'.j.j.'.'.j.$.#.u.'.{.{.{.'.l.g.k.'.'.'.'.k.k.g.g.g.k.'.'.M.j.#.W K A A A Z A Z Z Z p Z Z Z Z Z Z x i i Z Z Z Z 6 6 x x 6 Z v 6 6 6 6 6 6 6 6 6 6 6 3 A K S u =.].OX7.p +.s.<.6 & e d #.<.s O.).N.e.V A D D A Z x x 4 3 y J <.:.c 1 . G.BXJXJXSXU.. 1 1 1 1 1 1 1 ; O & & & 1 1 4 4 4 1 ; ; 1 & 1 1 ; ; & 1 1 , 1 1 & & y p A B c u s I N > , 1 3 3 6 x v v Z A K U I v v z 4 z z 4 4 4 4 4 4 4 4 4 4 1 6 6 x v v b x Z , 9.uXJXJXKX$X7 o , , , , - ; - - o o . X X o o o o o o o O O X X X . o o . . . . o o . X . . o . . . . . . . . . . @ # w w w f d D :.:.V v 4 j > o o . . . . . . . . X O O o o o o o o o o o o o o o o o o o o o o o o o o o o o o o X X O O O - - o o o o o o o o o o o o o o o o o o o o o o o o . . F.HXJXJXcX: . . o o o o o o o o o o o o o o o . . . . o o o o o o o o o o . . . . o o o . o o o o o o o . . . o o o o o o o o o o o o . . . . . . o o o . . . 7XJXJXJX4X. . . o o o o o o o o o o . . o o o o . . . . o o o . . . o o o o o o o o o o o o o o o . ( uXKXJXJXyX9 . o . . . . o o . . . . . . . . . . . . . . . . . . . . . . . . . . . . . . . . . . . . . . . . . . . . . . . . . . . . . . . . . . . . . . . . . . . . . . . . . . . . . . . . . . . . . . . . . . . . . . . . . . . . . . . . . . . . . . . . . . . . . . . . . . . . . . . . . . . . . . . . . . . . . . . . . . . . . . . . . . . . . . . . . . . . . . . . . . . . . . . . . . . . . . . . . . . . . . . . . . . . . . . . . . . . . . . . . . . . . . . . . . . . . . . . . . . . . . . . . . . . . . . . . . . . . . . . . . . . . . . . . . . . . . . _ bXJXJXJXFXcXsXsX9X] . . . . . . . . . . . . . . . . . . . . . . . . . . . . . . . . . . . . . . . . . . . . . . . . . . . . . . . . . . . . . . . . . . . . . . . . . . . . . . . . . . . . . . . . . . . . . . . . . . . . . . . . . . . . . . . . . . . . . . . . . ",
". . . . . . . . . . . . . . . . . . . . . . . . . . . . . . . . . . . . . . . . . . . . . . . . . . . . . . . . . . . . . . . . . . . . . . . . . . o . . . . . . . . . . . . . . . . . . . . . . . . . . . . . . . . . . . . . . . . o o o o o o o o o o o o o o o . . o o o . . . . . . . o o o o o o o o o o o o o o o o o o o o o o o o o o o o o o . . ) yXJXJXDXU.. o o o o o o o o o o o o o o o o o o o o o o o o o o o o o o o o o o o o o o o o o o o o o o o o o o o o o o o o o o o o o o o o o o o o o O O O o o o o o o o o o o o o o o o o O O O O o o o O O O O o o O o o o o O o O O O O O O O O O O O O O O O O O o o o o o o o o o o o o o O O o o o o o o o o O O O O O o O O O O o . 9 MXJXJXSXH.: . O O O O O O O o o o O O O O O O O o o O O O O o O O O O O O O O O O O o O O O O O O O O O o O O O O O O O O O o o o O O O O O O O O O O O O o O O O O O O O O O O O O O O O O O O O O O O O O O O O O O O O O O O O O O O O O O O O O O O O O O O O O O O O O O O O O O O O O O O O O O O O O O O O O O O O O O O O O O O O O O O O O O O O O O O O O O O O o o >XHXJXHX>X9 . O . A.bXJXJXFXH.. O O O O o + R.SXJXJXJXJX>X. O O O O O O O O O O O O O O O O O O O O O O ; , , , 1 1 & O ; O . U.DXJXJX7X5 o O O O - - O O O ; O O O O O , > z Z P  .t t t % # @ . . . o o - - - - O O O O O O O O O O . W.KXJXKXW.: X O O O O O O O o O O O - ; ; O O O O O O O , z c c 6 * & . 4XJXJXJXR.o B S A y 3 2 2 1 1 1 4 6 c v A u p x i / lXJXJXJXJXzX(.X.%./ Z S I Y Q 5.8.c.N.h.O.-./ U J p y x Z Z A B 7.e.y.....D I P d y z v S Z i y p y 3 3 3 6 6 & / lXJXJXBXd.6 6 6 3 3 3 1 1 6 3 3 6 6 6 x x 6 6 6 6 6 6 Z i 6 x 6 6 x x Z i Z Z Z Z Z Z i i Z A S U U A y Z 4.N.M.j.x.=X:Xh.L 5.N.M.u.A y Z S S y y 6 v 4.b.G.} O 6 6 6 6 6 6 6 x x A Z Z 6 x Z A A A A A A A A Z Z i i i p A A Z D D D D Z A D E y.m.M.M.'.M.j.y.K J J K +.$.$.$.*.*.*.*.*.$.@.+.@.$.g.g.u.#.P P +.+.P A A J @.g.g.g.#.J P +.$.*.$.@.+.P s s P @.$.$.#.K D E D i y 6 6 i i i y y 6 6 6 6 x x 6 6 6 6 i 6 6 6 6 6 x 6 6 x 6 6 6 6 6 6 6 6 i i y y K E S d /.-XOX7.A +.! I 6 & e d $.5.Y ..=.M.c.:.A D A A A A Z K W #.V.OXr.N 1 . G.MXJXJXNXU.. 1 1 1 1 1 1 1 O X & & 1 4 1 3 3 4 1 1 1 & & 1 1 1 ; 1 1 1 1 1 1 3 y p P ~ :.N 3 * 1 ; 1 1 1 6 x x v x x Z i D S v v v z 4 4 4 4 4 4 4 4 4 4 , 4 1 3 6 6 x v v F F Z ; I.DXJXJXdXH 1 ; , , ; ; ; - ; - o o o X X o o o o o o o o o . . . . . . . . . o o o . . . o o . . . . . . . . @ @ # w w } g  .+.T >.,.k ; - - o o . . . . . . . X X . o o o o o o o o o o o o o o o o o o o o o o o o o o o o o o o O O O O O o o o o o o o o o o o o o o o o o o o o o o o o o o . n 0XKXJXDXR.. . o o o o o o o o o o o o o o o o o o o o o o o o o o o o o o . o o . o o o o o o o o o o o o o . . . . . o o o . . . o o o o o o o o o o o . . . 5XJXJXJX3X. . . o o o o o o o o o o o o o o o . . . o o o o o . o o o o o o o o o o o o o o o o . . ( tXHXJXKXuX9 . . . . . . o o . . . . . . . . . . . . . . . . . . . . . . . . . . . . . . . . . . . . . . . . . . . . . . . . . . . . . . . . . . . . . . . . . . . . . . . . . . . . . . . . . . . . . . . . . . . . . . . . . . . . . . . . . . . . . . . . . . . . . . . . . . . . . . . . . . . . . . . . . . . . . . . . . . . . . . . . . . . . . . . . . . . . . . . . . . . . . . . . . . . . . . . . . . . . . . . . . . . . . . . . . . . . . . . . . . . . . . . . . . . . . . . . . . . . . . . . . . . . . . . . . . . . . . . . . . . . . . . . . . . . . . + tXJXJXJXZX2X( + 2 0 + . . . . . . . . . . . . . . . . . . . . . . . . . . . . . . . . . . . . . . . . . . . . . . . . . . . . . . . . . . . . . . . . . . . . . . . . . . . . . . . . . . . . . . . . . . . . . . . . . . . . . . . . . . . . . . . . . . . . . . . . . ",
". . . . . . . . . . . . . . . . . . . . . . . . . . . . . . . . . . . . . . . . . . . . . . . . . . . . . . . . . . . . . . . . . . . . . . . . . . . . . . . . . . . . . . . . . . . . . . . . . . . . . . . . . . . . . . . . o o o o o o o o o o o o o o o o o o o o o o o . . . . . o . o o o o o o o o . . o o o o o o o o o o o o o o o o o o o o . . ) yXJXJXDXU.. o o o o o o o o o o o o o o o o o o o o o o o o o o o o o o o o o o o o o o o o o o o o o o o o o o o o o o o o o o o o . . o o o o o o o O o o o o o o o o o O O o o o o o o o o o o O o o o o O O O o O O o o o o o O O O O o o o o O O o o o o O O O O O o o O o o o o o o o o O O O O o o o o O o o O O O O O O O O O O O . 9 MXJXJXSXF.: . O O O O O O O o o o o O O O O O O o o O O O O o o O O O O O O O O O O o O O O O O O O O O o O O O O O O O O O o . . o O O O O O O O O O O O o O O O O O O O O O O O O O O O o O O O O O O O O O O O O O O O O O O O O O O O O O o O O O O O O O O O O O O O O O O O O O O O O O O O O O O O O O O O O O O O O O O O O O O O O O O O O O O O O O O O O O O O o 2 aXJXJXSXd.. O O . A.bXJXJXFXH.. O O O O o + d.MXJXJXJXSXJ.. O O O O O O O O O O O O O O O O O O O - O ; , ; ; 1 1 ; 1 O O - . U.DXJXJX7X5 o O O O - - - O O O ; O O O - - , 4 i P P d r r $ @ @ . . . o o o - - O O O O O O O O O o O + tXJXJXHXF.. O O O O X X O O o O O ; , , O O X O O O X ; j N N v p e * . 3XJXJXJXR.o N v A u 3 2 ; , 4 1 1 4 v B S p p 6 v V kXJXJXJXJXgXO.X.P F D I S Y 2.5.8.c.N.).O...K U K A A S A A U >.r.a... .R 1.L  .u 4 4 6 1 6 i y y 3 6 6 3 6 6 & / lXJXJXBXd.4 6 6 3 3 3 1 1 3 6 6 6 6 6 Z i 3 6 x 6 3 6 6 6 6 6 6 6 6 x Z Z Z Z Z Z Z Z Z i i Z S U 2.! J y I 8.B.'.u.m.=X-XM.a.a.x.m.g.P 6 S D Z Z i x Y z.Y.;.@ 1 6 6 6 6 6 i 6 6 Z Z Z 6 6 Z A A A A Z Z i i Z i 6 i i i A D A Z 6 Z D Q ! #.y.y.a.m.m.M.j.u.y.A i p i A A J L L L L L L L J J L #.y.y.#.K p p J J A i i u +.$.$.$.W A J +.$.$.#.L P J A A L $.$.#.L D U T D A 6 6 6 6 6 6 3 3 3 3 6 6 6 6 6 6 6 6 6 6 6 6 6 6 6 6 6 6 x 6 6 6 6 6 6 6 i i 6 p K U Z X.).-XOX4.A P Q S 6 3 * u @.8.<. .=.].OX>.v S A Z A W u.V.B.m.M.x.:.c 4 . G.MXJXJXNXU.. 1 1 1 1 1 1 ; O O O , 4 1 1 6 1 ; O O O ; & & ; , 1 1 1 1 1 3 3 p J J U I z > O X X & 1 3 6 x v v x x x x Z A v v c z 4 4 4 4 4 4 4 1 1 1 1 1 1 1 1 6 6 x v v b b 6 v >XKXJXJX9Xo , 1 , , , , , , ; - o o o o o o o o o . o o . o . . . . o o . . . . . . . . X X O - > > - o o : : : : # w w } g t d Y ,.,.> . . . . . . . . . . . . X X . o o o o o o o o o o o o o o o o o . . . o o o o o o o o o o o O O O O o o o o o o o o o o o o o o o o o o o o o o o o o o o . d.bXKXJXcX0.. . o o o o o o o o o o o o o o o o o o o o o o o o o o o o o o o . o o o o o o o o . o o o o o o o . . o o o o o o . . o o o o o o o o o o o . . . 5XJXJXJX2X. . . o o o o o o o . o o o o o o o o . . o o o o . . o o o o o . . . o o . o o o o . . . ( tXHXJXKXuX9 . . . . . . . . . . . . . . . . . . . . . . . . . . . . . . . . . . . . . . . . . . . . . . . . . . . . . . . . . . . . . . . . . . . . . . . . . . . . . . . . . . . . . . . . . . . . . . . . . . . . . . . . . . . . . . . . . . . . . . . . . . . . . . . . . . . . . . . . . . . . . . . . . . . . . . . . . . . . . . . . . . . . . . . . . . . . . . . . . . . . . . . . . . . . . . . . . . . . . . . . . . . . . . . . . . . . . . . . . . . . . . . . . . . . . . . . . . . . . . . . . . . . . . . . . . . . . . . . . . . . . . . . . . . . . . 0 cXJXJXHXP.+ . . . . . . . . . . . . . . . . . . . . . . . . . . . . . . . . . . . . . . . . . . . . . . . . . . . . . . . . . . . . . . . . . . . . . . . . . . . . . . . . . . . . . . . . . . . . . . . . . . . . . . . . . . . . . . . . . . . . . . . . . . . . . . ",
". . . . . . . . . . . . . . . . . . . . . . . . . . . . . . . . . . . . . . . . . . . . . . . . . . . . . . . . . . . . . . . . . . . . . . . . . . . . . . . . . . . . . . . . . . . . . . . . . . . . . . . . . . . . . . . . o o . . o o o o o o o o o o o o o o o o o o . : G n : . o o o o o o o o o . . . o o o o o o o o o o o o o o o o o o o o o . ) yXJXJXDXU.. o o o o o o o o o o o o o o o o o o o o o o o o o o o o o o o o o o o o o o o o o o o o o o o o o o o o o o o o o o o . 8 ' 8 O o o o o o o o o o o o o o O O O O O o O O o o o o o o O O o o o o o O o o O O o o o o o o O o o o o o o o o o o o o o o o o O o O O O O O O O o O O O O O o o O O O O o O O O O O O O O O O O . 9 MXJXJXSXH.: . O O O O O O O o o o o O O O O O O O O O O O O O O O O O O o o O o O O O O O O O O O O O O o O O O O O O O o o O ) G o O O O O O O O O O O O O O O o o O O O O O O O O O O O O O O O O O O O O O O O O O O O O O O O O O O O O O O O O O O O O O O O O O O O O O O O O O O O O O O O O O O O O O O O O O O O O O O O O O O O O O O O O O O O O O O O O O O o ; ' vXJXKXcX) . O O . A.bXJXJXSXH.. O O O O O O 5 A.W.W.>XF.9 o O O O O O O O O O O O O O O O O O O - - O ; ; , ; ; 1 & ; O O O . U.DXJXJX7X5 o O O O - - - - O O O O ; - - - - 1 6 A J u r % $ _ _ + . . o o o o o O O O O O O O O - . : F.MXJXHXeX) . O O X O X X X O O O O , j , 1 * & O - ; O , M V v p e * & . 4XJXJXJXT.. j z v x 6 3 1 1 1 & & 1 4 x x y p Z V >.#X1X1X1X<X(.X.%.J Y 8.p.y.#.Q 5.z.v.N.).O.%.F I E J J J p S >.r.x.=.X.9 M U  .u 6 v v S q.^ i 3 * 3 x 6 3 6 6 O / lXJXJXBXd.4 6 6 6 3 1 1 4 6 x 6 3 3 6 Z y 3 6 x 6 y 6 6 6 6 6 6 6 6 6 Z Z Z Z Z i Z Z Z Z i Z Z S T i.#.s y v p.'._.$.a.;X;X'.h.y.p.B.k.P 1 Z S D A 6 Z 8.Y.!.q 1 4 6 6 6 i 6 6 6 6 Z x Z Z A K J A A i i i i Z i i 6 x x Z x Z D y.a.j.B.j.#.#.y.y.a.M.k.u.u.#.i 3 3 3 6 i Z A A A A A A A Z Z D E W W W K i i Z Z 6 6 6 y J #.Z.s.S 6 Z A K K J A A Z Z i A K L J J D S S A Z Z Z Z 6 1 1 1 1 1 1 1 3 6 6 6 3 3 6 6 6 6 6 6 6 6 6 i Z Z x 6 6 6 6 6 6 6 6 6 p E U i X.`.-Xv.<.J W U v 6 3 3 y +.3.T  .O.`.B.e.T U E y.a.x.j.m.x.5.L S x 6 z . G.MXJXJXNXU.. 1 1 1 1 1 1 ; O O O - O O 1 1 3 3 6 z 4 1 1 ; ; 1 1 1 1 1 1 3 3 p p S B c ` H O O 1 6 6 6 x x x 6 6 x x x Z Z v v c z 4 4 4 4 4 1 1 1 1 1 1 , 1 1 1 6 6 v v v z x ; f.dXJXJXMXG.. , , , , , 1 , , , , ; - o o o o . . o o . . . O o . . . . . . . X ; , < w q t  .~ 7.,.M > - o O O o o n ] w w = r e c M M - . . X . o o . . . . . X . X o o o o o o o o o o o o o o o o . . 9 ( 5 . o o o o o o o o o o O O O O o o o o o o o o o o o o o o o o o o o o o o o o o o o . W.JXJXJX$X. . o o o o o o o o o o o o o o o o o o o o o o o o o o o o o o o o . o . o o o o . . . . o o o o o o o o o o o o o o . o o o o . . . . . o o o . . . 5XJXJXJX2X. . . o o o o o o o o . . o o o o o o . o o o o o . . o . . . . . . . . . . . . . . . . . ( tXHXJXKXuX9 . . . . . . . . . . . . . . . . . . . . . . . . . . . . . . . . . . . . . . . . . . . . . . . . . . . . . . . . . . . . . . . . . . . . . . . . . . . . . . . . . . . . . . . . . . . . . . . . . . . . . . . . . . 0 _ 0 . . . . . . . . . . . . . . . . . . . . . . . . . . . . . . . . . . . . . . . . . . . . . . . . . . . . . . n ( 2 . . . . . . . . . . . . . . . . . . . . . . . . . . . . . . . . . . . . . . . . . . . . . . . . . . . . . . . . . . . . . . . . . . . . . . . . . . . . . . . . . . . . . . . . . . . . . . . . . . . . . . . @ ] MXJXJXMX( . . . . . . . . . . . . . . . . . . . . . . . . . . . . . . . . . . . . . . . . . . . . . . . . . . . . . . . . . . . . . . . . . . . . . . . . . . . . . . . . . . . . . . . . . . . . . . . . . . . . . . . . . . . . . . . . . . . . . . . . . . . . . . . ",
". . . . . . . . . . . . . . . . . . . . . . . . . . . . . . . . . . . . . . . . . . . . . . . . . . . . . . . . . . . . . . . . . . . . . . . . . . . . . . . . . . . . . . . . . . o . . . . . . . . . . . . . . . . . . . . . . . . . . . o o o o o o o o o o o o o o o o . S.pX5X) . o o o o o o o o o . . . o o o o o o o o o o o o o o . . . . o o . . ) yXJXJXDXP.. . o o o o o o o o o o o o o o o o o o o o o o o o o o o o o o o o o o o o o o o o o o o o o o o o o o o o o o o o o o + W.pXF.: . o o o o o o o o o o o o O O O O O O O O O O o o o o O O o o o o o o o o O O O o o o o o o o o o o o o o o o o o O o o o o O O O O O O O O O O O O O O O o o o O O O o O O O O O O O O O O O . 9 MXJXJXSXH.: . O O O O O O o o o o o O O O O O O O O O O O O O O O O o o o O O o O O O O O O O O O O O O O o o O O O O O . : S.yX3X5 O o O O O O O O O O O O O O o O O O O O O O O O O O O O O O O O O O O O O O O O O O O O O O O O O O O O O O O O O O O O O O O O O o O O O O O O O O O O O O O O O O O O O O O O O O O O O O O O O O O O O O O O O O O O O O O O O O . 5 5XFXJXSXT.8 . O O . A.bXJXJXSXH.. O O O O O O . . . . . . . O O O O O O O O O O O O O O O O O O - - - ; - , , ; & & & ; O O O . U.DXJXJX7X5 o O O O - - - ; ; ; O O O O - - - 1 6 i p u % % &.tX8X] + . o o o o o O O O O O O O O - . 2 tXJXJXFXG.3 X O O O O O . o O O O - j M k 6 y * , , 1 ; > h j 4 * $ X O . 3XJXJXJXT.. O ; j j z 4 3 & & & & 1 1 1 4 6 p S 7.r.oXB.]./.O.O.o.H A <.8.a.u.y.y.i.c.v.B.).=.%.P A D J s u A :.w.z.=.X.a b S s A Y U 6 ~ ,XlXQ.3 3 3 3 6 6 3 6 6 O / lXJXJXNXd.4 4 6 6 3 3 4 4 6 6 6 3 6 6 6 y 6 6 6 6 y 6 6 6 6 6 x x x x x x Z Z Z i Z Z Z Z Z i Z Z S 2.y.#.p 3 D a.m.u.#.x.;X:X`. .S a.[.k.d 3 x S D A Z 1.n.L.g 6 6 6 6 i 6 6 6 6 x Z Z Z A K J J A p i i Z A A A Z Z x D ! y.y.m.[.{.'.'.g.L W W ! a.M.g.$.#.W 6 3 3 3 6 i Z Z Z Z A Z Z Z Z Z D W D D D A Z Z D U Z x 6 O %.eXlXC.4 6 y p A A Z i i i 6 6 y p i i A U S 6 3 p A K D i 1 1 1 & 1 1 1 1 1 4 4 6 3 6 6 6 6 6 3 3 3 6 6 A D v 6 3 3 6 6 6 6 6 6 p K S u O.`.=Xz.D P #.T x 3 3 3 y s ! 2.P O.).[.OXx.a.a.m.V.z.5.E v 4 1 1 3 3 z - D.MXJXJXNXU.. 1 1 1 1 1 O - O & * u A v j - * d W 1.N 4 , ; ; 1 1 1 1 1 1 1 3 3 3 ; j d.uX0XH 3 4 v v x v v x 6 6 6 x v A Z S c 4 4 1 1 4 4 1 , 1 , 1 , , , 1 1 1 6 6 v v v v v . E.HXJXJX9Xz ; , 1 , , , , 1 1 , 4 4 , , - - o . . . . . . o o . # # # w g g d W 8.7.,.{ { t  .~ >.,.M > o . . . . _ 7XtX~.# . $ X o > > . . . . . . . . . . . . X . . o o o o o o o o o o o o o o o o . : 4XpXF.. . o o o o o o o . O O O O O O o o o o o o o o o o o o o o o o o o o o o o o o . . 2 tXJXJXHXF.. o o o o o o o o o o o o o o o . o o o o o o o o o o o o o o o o o o . o o o o o o . . . o o o o o o o o o o o o o o o o o o . . . . . . o o o o . . 5XJXJXJX2X. . . o o o o o o o o . o o o o o o o o o o o o o . . . . . . . . . . . . . . . . . . . . ( tXHXJXKXuX9 . . . . . . . . . . . . . . . . . . . . . . . . . . . . . . . . . . . . . . . . . . . . . . . . . . . . . . . . . . . . . . . . . . . . . . . . . . . . . . . . . . . . . . . . . . . . . . . . . . . . . . . . . : 4XcXJ.. . . . . . . . . . . . . . . . . . . . . . . . . . . . . . . . . . . . . . . . . . . . . . . . . . . . . ` uXaXS.. . . . . . . . . . . . . . . . . . . . . . . . . . . . . . . . . . . . . . . . . . . . . . . . . . . . . . . . . . . . . . . . . . . . . . . . . . . . . . . . . . . . . . . . . . . . . . . . . . . . . . . + J.BXJXKXaX9 . . . . . . . . . . . . . . . . . . . . . . . . . . . . . . . . . . . . . . . . . . . . . . . . . . . . . . . . . . . . . . . . . . . . . . . . . . . . . . . . . . . . . . . . . . . . . . . . . . . . . . . . . . . . . . . . . . . . . . . . . . . . . . . ",
". . . . . . . . . . . . . . . . . . . . . . . . . . . . . . . . . . . . . . . . . . . . . . . . . . . . . . . . . . . . . . . . . . . . . . . . . . . . . . . . . . . . . . . . . . . . . . . . . . . . . . . . . . . . . . . . . . . . . . . o o o o o o o o o o o o o . . + 9XJXZX0.. o o o o o o o o o o o o o o o o o . . . . o o o o o . . o o o o . . ) yXJXJXDXU.. o o o o o o o o o o o o o o o o o o o o o o o o o o . . . . o o o o o o o o o o o o o o o o o o o o o o o o O o o . o H.DXJXW.8 . o o o o o o o O O O o o O O o o o o o o o o o o O O O O O O o o o o o o o o o o o o o o o o o o O O o O o o o o o o o o o O O O O O O O O O O O O O O O o o o o o o o o O O O O O O O O O O . 9 MXJXJXSXH.: . O O O O O O o o o o o o o o o o o o O O O O O O O o o O O O O O O O O O O o o o o o O O O O O o O O O O O . n uXJXbXG O o O O O O O O O O O O O O O O O O O O O O O O O O O O O O o o o o O O O O O O O O O O O O O O O O o o o o o O O O O O O O O O O O O O o O o O O O O O O O o o o o O O O O O O O O O o o o o O O O O O O O O O O O O O O O O O O o . ' ZXJXJXjX8 o O O O o A.bXJXJXSXH.. O O O O O O O O O o o O O O O O O O O O O O O O O O O O o o O O O - - ; ; ; ; & & & ; O O - . U.DXJXJX7X5 o O - - - - - - O O O O O O O - , 4 p d  .t % r 0XJXFXF.: . o o o o o O O O O O O O O o . H bXJXJXnX' O & & & O O O O O O O O - l M k 6 y 3 4 4 6 4 z c v A p e % $ . 3XJXJXJXR.. 3 1 4 z N I U J s p y 3 6 x x Z A Y w.r.N.'.).=.O.@.^ A D Y Y E #.y.i.x.v.OXM.).=.%.@.d p p u y :.w.i.*...A B D P U 1.4.#.u L.LXJXgX& 1 6 3 6 6 6 6 6 & H lXJXJXNXd.6 1 6 3 3 3 4 4 3 6 6 6 x 6 6 6 6 6 6 6 6 6 6 6 6 6 6 6 6 6 6 6 6 x x 6 6 x Z Z Z Z i Z i Z U ! L p p D 2.a.u.y.N.;X].@.y I a.'.h.+.i Z D D I I 6.f.[ Z Z Z i i 6 6 6 x Z Z Z A K K J A A A A A A Z Z i Z A U a.B.[.[.'.{._.g.$.P A K W y.j.g.$.#.#.W 6 6 3 6 6 6 i i i i i i i Z Z A D K D A Z Z Z Z Q s.6.U x O E.KXJXE.o y y i A A A Z i y 6 6 y Z A Z Z U U 6 1 3 A K L D 6 6 6 1 1 1 1 1 1 1 1 4 1 3 6 6 6 6 6 3 3 6 3 i D S x 6 3 6 6 6 6 6 6 p A x u =.].OX1.p P ! Y 6 3 6 3 e d #.5.W =./.{.;X+XN.x.a.i.T I x 6 6 A v x 6 6 - G.MXJXJXNXU.. 1 1 1 1 1 , - & y d @.g.8.M h % d L 1.N , , ; ; 1 1 1 1 1 1 1 1 1 ; . 9 8XJXMX&.p 6 v v v v v v x 6 6 z v Z Z v z 4 4 1 , 4 , , , , , 1 , , 1 1 1 1 6 6 v v v v v z qXJXJXJXE.. , 1 1 1 , , ; ; 1 1 4 4 4 4 > - - o o o @ O O - o @ w w } } ;.K.%.a.c.w.>.C 8 $ % 1 > h > o . . . . . W.JXHXT.2 . . o . . . . . . . X X o - . . . . . . . o o o o o o o o o o o o o o o . O S.DXJX>X. . o o o o o o o o O X O O O o o . . . . . o o o o o o o o o o o o o o o o o o . . H.MXJXKXyX` . o o o o o o o o o . . . . . o o o o o o o o o o o o o o o o o o o . . . . . . o o . o o . . o o o o o o o o . . . . . . o o o o o o . o o o o . . . 5XJXJXJX2X. . . . . o o o o o o o o . . . . . . . . o o o o . . . . . . . . . . . . . . . . . . . . ( qXHXJXKXuX9 . . . . . . . . . . . . . . . . . . . . . . . . . . . . . . . . . . . . . . . . . . . . . . . . . . . . . . . . . . . . . . . . . . . . . . . . . . . . . . . . . . . . . . . . . . . . . . . . . . . . . . . . . A.DXJX0X. . . . . . . . . . . . . . . . . . . . . . . . . . . . . . . . . . . . . . . . . . . . . . . . . . . . . W.JXJXT.. . . . . . . . . . . . . . . . . . . . . . . . . . . . . . . . . . . . . . . . . . . . . . . . . . . . . . . . . . . . . . . . . . . . . . . . . . . . . . . . . . . . . . . . . . . . . . . . . . . . . . . 2 R.SXJXHXyX9 . . . . . . . . . . . . . . . . . . . . . . . . . . . . . . . . . . . . . . . . . . . . . . . . . . . . . . . . . . . . . . . . . . . . . . . . . . . . . . . . . . . . . . . . . . . . . . . . . . . . . . . . . . . . . . . . . . . . . . . . . . . . . . . ",
". . . . . . . . . . . . . . . . . . . . . . . . . . . . . . . . . . . . . . . . . . . . . . . . . . . . . . . . . . . . . . . . . . . . . . . . . . . . . . . . . . . . . . . . . . . . . . . . . . . . . . . . . . . . . . . . . . . . . . . o o o o o . . . o o o . . . . D.NXJXMX] . . . . o o o o o o o o . . o o o o o o o . . o o o o o o o o o o . . ) yXJXJXDXU.. . o o o o . . o o o o o o o o o o o o o o o o o o o o o o . o o o o o o o o o o o o o o o o o o o o o o o o o o o . + tXJXSXE.5 . o o o o o o o o O O o o o o o o o o o o o o o o o o o o o o o o o o o o o o o o O O o o O O o o o O o o o o o o o o o o o o O O O O O O O O O O O O o o o o o o o o o o o o o O O O O O O O . 9 MXJXJXSXH.: . O O O O O O O o o O O o o o o o o O O o o O O O O O O O O O O O O O o o o o o o o o o o o o O o O O O O o . d.SXJXaXG O o O O O O O O O O O o O O O O O O O O O O O O O O o o o o o o o O O O O O O O O O O O O O O O O O O o O O O O O O O O O O O O O O O O O o o O O O O O O O o O O O O O O O O O O O O o O O o O O O O O O O O O O O O O O O O O O . : U.DXJXKX0X+ . O O O . A.bXJXJXSXH.. O O O O O O O O O O O O O O O O O O O O O O O O O O O O O O O O O O - - ; ; ; & & O ; - - - . U.DXJXJX7X5 o O O O O O O O O O O O O O O ; > z u  .| t r [ VXJXMXD.: . o o o O O O O O O O O O O . 9 R.FXJXHX6X7 o ; ; ; ; ; 1 3 3 1 1 ; , j N c y y 3 4 v v Y 1.8.x.m.g.=...| X 0XJXJXJX,X3 L d p I 2.i.a.g.*.@.+.s Z S A D U 1.e.z.m.k.=.=.@.@.+.K U T U U Q 3.5.z.oX+X'.).=.%.+.P p i Z Y 7.i.@.| i V Y P D 1.4.#.s %.6XKXJX6X& 3 3 3 6 6 6 6 6 & H lXJXJXNXd.3 1 3 3 3 3 4 4 1 3 6 6 6 6 6 6 6 6 6 6 6 6 6 6 6 6 6 6 6 6 6 6 6 6 x 6 6 6 Z Z Z Z Z i i i Z U E A p i A 2.a.a.u.m.[.k.P A S a.'._.+.y i D E D U ^ H i A D Z i i i 6 i x x A D K K A A A A D K D Z y y A E p.[.:X{.'.g.$.$.P p Z A D W a.a.#.L K #.W i 6 6 6 6 6 6 i i i Z Z Z Z Z Z A D D A Z i x 6 U n.n.2.x ^ uXJXJXY.. 3 6 y i A A Z i 6 6 6 6 i Z Z 6 D Y v 1 3 p J #.W D 6 6 6 3 1 4 x x 4 1 1 1 1 1 3 3 3 6 6 6 6 3 i S v v 6 3 3 6 6 6 6 6 p Z 6 u =.'.v.I p L Q B 6 3 3 6 y u #.y.~ -.(.{.;Xv.5.T Y U D U S i p A v v i Z - G.MXJXJXNXU.X 1 1 3 y z j 1 e d P =.l.8.V l 1 % & , , , ; 1 1 1 1 1 1 1 1 1 ; O O O ] NXJXIX%.P D I v v v x x x x 6 4 z v v z 4 6 Z v z , , ; ; ; , , , , ; 1 1 1 6 6 x v v z x f.lXJXJXbXf.o 4 1 , , , , O O O 1 1 4 4 4 4 , > > - + q 2 3 4 > < w w } } g f K Q V M l > o . . . . . o . . . . . 8 sXJXNXP.2 . o o o . . @ @ . $ r e 4 l h - . . . . . o o o o o o o o o o o o o o o . ( eXKXJXW.. . o o o o o o o o O X O o o o o o o o o o o o o o o o o o o o o o o o o o o o . . 7XJXJXHXJ.. . o o o o o o o o o o . o o o o o o o o o o o o o o . o o o o . . o o . . . . . . . . o . . o . . o o . . . . . . . . . . . . . o o o . o o . . . . . 5XJXJXJX3X. . . . . o o o . o o . . . . . . . . . . . . . o . . o . . . . . . . . . . . . . . . . . G qXHXJXKXuX0 . . . . . . . . . . . . . . . . . . . . . . . . . . . . . . . . . . . . . . . . . . . . . . . . . . . . . . . . . . . . . . . . . . . . . . . . . . . . . . . . . . . . . . . . . . . . . . . . . . . . . . . . _ uXHXJX4X. . . . . . . . . . . . . . . . . . . . . . . . . . . . . . . . . . . . . . . . . . . . . . . . . . . . ] bXJXKXP.. . . . . . . . . . . . . . . . . . . . . . . . . . . . . . . . . . . . . . . . . . . . . . . . . . . . . . . . . . . . . . . . . . . . . . . . . . . . . . . . . . . . . . . . . . . . . . . . . . . . . . . 0 W.SXJXDX7X0 . . . . . . . . . . . . . . . . . . . . . . . . . . . . . . . . . . . . . . . . . . . . . . . . . . . . . . . . . . . . . . . . . . . . . . . . . . . . . . . . . . . . . . . . . . . . . . . . . . . . . . . . . . . . . . . . . . . . . . . . . . . . . . . ",
". . . . . . . . . . . . . . . . . . . . . . . . . . . . . . . . . . . . . . . . . . . . . . . . . . . . . . . . . . . . . . . . . . . . . . . . . . . . @ 8 9 9 . . . . . . . . . . . . . . . . . . . . . : 9 n 9 + . . . . o . . . . . . . o o o o o o . . . o . . . . . . 5XJXJXvX) . . . . . o o o o o o . . . . . . . : n 2 . . . . . o o o o o o o . . ) yXJXJXDXU.. . . . . . . . . . . o o o o o o o o o o o o . . . . 5 m G + . . . . . o o o o o o o o o o o o o o o o o o o . . . . ] MXJXNXT.. . . . . o o o o o o O o . . . . o 9 G m : . . . . o o o o o o o o O O O O O O O O O O O O O O o o O o . . . o 9 n 5 o . . . . o O O O O O O O O o o o . . . o : m G m o . . . o o O O O O O O . 9 MXJXJXSXH.: . O O O O O O O O o . . . . : G G 9 o . . . o O O O O O O O O O O O o . . . o 9 G m : . . . . o O O o . . . 5 7XHXJXyX: . . . . O O O O O O O o O O O O O O O O O O O O O o . . . o 8 n G + . . . . o O O O O O O o . . . . . : 9 m : . . . . o O O O O O O O O O . . . . O o . . . : 5 G 9 . . . o - . . . . : 9 G 8 . . . O O O O O O O O O O o O O O O . ( qXHXJXBXH.+ o O O O . A.bXJXJXSXH.. O O O O O O ; . . . . . O O O O O O O O O O O . . . . 5 m G 9 . . . . . . o ; & & ; ; - O O . U.DXJXJX7X5 . . . . . . . . . . O O O O O , j 6 u | | r r  XFXJXvX] . . . . . O O O O O O O O O O . ` aXHXJXBXH.2 O 1 4 , 1 1 3 3 , o . ; x ^ 9.^ a $ o h :.4.5.i.x.B.[.`./.O.O.r 0XJXJXJX,XZ P u % O , Z J  . . .d A x y p S >.r.x.k.*...| d u s P D S I T Q E Q 4.e.v.+X[./.-.&.^ E P E 1.r.m.=.O.f j B A p B 1.E s . G.DXJXJX>X. . . . & 6 6 6 6 & H lXJXJXBXd.1 O . . . . . . . O 1 6 6 6 6 6 6 6 6 6 6 6 6 6 1 o . O F ^ / ^ i . . O 1 6 6 Z Z Z Z i Z Z 1 O 1 A A 1 O 4 Q a.l.s.s.y.L A Z U a.[.k.+.* Z U E D Z Z 6 Z D D i i 6 6 6 x Z D K K J A A A A i i A E y.u.u.u.u.M.'.k.$.+.J J A 6 6 A E y.y.#.K K D W K i 6 6 4 1 3 6 6 Z Z Z Z Z Z Z Z Z A A Z i i i Z A F U Z . Y.HXJXJXI.. X O O 6 p p i i i 6 O . 3 A i 6 6 v c - 2 H ~ W #.E 6 6 4 O X ; x x F H 6 . . . X 1 1 6 6 6 6 3 6 v v v - . X 1 6 O . X 3 F ^ %.h.m.7.4 y +.2.v 3 3 3 3 3 u #.y.R o.-.`.;X#Xs.R 6 ; 6 v v x i Z v 6 3 6 o G.mXJXJXNXU.. 1 1 y A v c 1 e e 3 % % ; - > b H 1 . . . . O 1 1 1 1 1 - ; ; . . . 5 4XHXJXdXd 3 x j , v v 4 4 z z 6 Z S z > o ; H ^ ^ / , . . . O ; ; ; ; ; 1 1 1 6 6 x x v 4 4 ,XLXJXKX3XH - 4 1 , , , . . . O 1 & 1 - > , , b C > < q = 3 4 - . . @ @ q _ n 5 . . . . . . . . . . . . . . . . @ T.SXJXNXF.. . . . . o . X X $ r d 3 > > . . . @ 0 8 . . . . . o o o o o o o o . . . . 0.DXJXHXT.. . . . . o o o o o O O O . . . . : n n G : . . . . o o o o o o o o o o o o o . o 9 sXJXJXBX] . o o o o o o o . . . o 9 G 9 + . . . . . . o o o o o o o o o . . . . . 2 n 9 8 . . . . . o . . . . o . . . . . . . 2 9 + . . . . . . o o o o . . . . . 5XJXJXJX3X. . . . o o o . . o . . . . . . 8 G 9 + . . . . . o o o o o o o o o o . . . . . . . . . . ( tXHXJXKXuX0 . . . . . . . . . . . . . . . . . . . . . . . . . : 9 9 9 + . . . . . . . . . . . . . . . . . . . . . . . . . . . . . . . . . . . . . . . . . . : n 9 + . . . . . . . . . . . . . . . . . . . . . . . . . . . . S.LXJXJXW.. . . . . . . . . . . . . . . . . o : 0 n 2 . . . . . . . . . . . . . . . . . . . . . . . . . . . . . . E.JXJXKXF.. . . . . . . . . . . . . . . . . . . . . + + o . . . . . . . . . . . + 9 + . . . . . . . . . . . . . . . . . . . . . . . . + 9 9 8 . . . . . . . . . . . . . . . . . . . 2 0 9 + . . . . . . . . . . . . . . + 4XFXJXFX4X@ . . . . . . . . . . . . . . . . + 0 9 2 . . . . . . . . . . . . . . . . . . . . . . . . . . + 9 o . . . . . . . . . . . @ + 0 0 . . . . @ . . . . @ + 0 0 . . . . . . . . . . . . . . . . . . . . . . . . . . . . . . . . . . . . . . . . . . . . . . . . . . ",
". . . . . . . . . . . . . . . . . . . . . . . . . . . . . . . . . . . . . . . . . . . o ] J.T.J.] : . . . . . . . 2 A.T.T.J.( . . . . . . . . . . 8 T.4XqXyXyXyX8X4XE.F.` . . . . . . . . . o . . ` U.4X9XtXyXyXyXqX5XR.( . . . . . . . . . o o . . o o o . o o o . : ) S.R.NXJXKXSX>XD.U.P.0.: . o o o o . . 2 ] P.2X5X9XtXyXtX9X4XU.` . . o o o o . . . . ) yXJXJXFXF.. d.U.W.2X4X4X>XT.] . . . o o o o o o o o . . : D.2XqXuXyXpXeX4XW.U.] : . . o o o o o o o o o o o o o o o o o o m ] T.aXHXJXFXtXT.J.T.H.G O . o o o O . . : S.W.4X8XyXpXyXeX7X>XA.: . . O o o o o o O o o O O O O O O O O o O O o O . . n J.3XeXuXiXuXqX4XR.F.G . . O O O O O O o o . . G U.7XqXtXyXpXyX8X4XT.` . . o O O O O O . 9 MXJXJXSXH.: . O O O O O O O . . G U.4X9XtXiXiXyXqX4XR.] . . O O O O O O O O o . . 0.W.3X9XyXpXyXtX7XW.A.m O o o O 5 ( ] 4XDXJXJXnXE.U.U.R.d.. o O O O O O O O O O o o O O O O O O O . . ' J.2XeXuXiXpXeX4XW.U.' : o O O O o . . 2 A.R.$X7XeXuXyXeX7X>XP.) . . O O O O O O O . 9 F.U.' . o A.W.9XeXuXyXyX7XU.` . . O F.$X9XeXuXiXuX7XT.G . . - O O O o O O O O O O O o . J.HXJXJX9X+ O O O O O . A.bXJXJXSXH.. O O O O O O . ' R.U.T.0.: O O O O O O O ; . . : d.>X8XtXyXpXuX9X3X3XW.P.0.m ; O & O ; O O O . U.DXJXJX7XO . ' U.W.3X4X5X>XH.G . . ; O ; , > 3 u X.-.&. XZXJXJXSX4XT.P.T.F.8 O O O O O O O O O O . D.LXJXJXyX: O O ; , 4 4 4 1 o b f.,XeXeXpXdXpXuXgX,XI.7.Y #.u.a.m.k./.O.O.X.r 0XJXJXJXI.; L.Q. X,X6X6X6X XL./ 3 z v y S :.t.c.k././..X X.XY.s.x S S I T E E Q 4.e.c.OX'./.-.&.9.W ! 8.oX+X/.^.o.0 j S S Z Z U s.f.f.fXJXJXJXpXU.U.U.U.' 1 6 6 6 1 / lXJXJXMX^ . / U.E.>X3X6X3XE.d.1 O 6 6 6 6 6 6 6 6 6 6 6 O F G.>X9XyXpXpXdXeX6XE.U./ ; 6 Z Z Z Z Z Z 6 d.E.I.R , ^ E.>XeXkXlXpXiXrX<XC.K 4 T x.'.h.d & x U D i i 6 6 A D Z i 6 x Z Z Z A K K A p 6 Z Z D ! a.B.-X}.g.$.+.#.#.P p p i i Z x v D ~ E K A A A A K K i 6 6 6 1 3 3 6 6 Z i i i Z Z Z i Z Z i i y 6 i 6 6 ^ f.L.lXJXJXJXeXI.Q.Q.Y.^ 6 y y y 1 / U.E.d.& 1 O ~ Y.,XwXpX>X&.K W K ; . x d.Y.6XeXeXiXiXeX9X3XE.&.O O 1 1 3 3 3 6 6 x 4 f.E.G.6 . ' E.3XeXiXaXhXhXkX,X' r #.5.c 3 3 3 3 3 s #.T <.G.gXhXxXzXjXiXeX,X%Xf.R z z 6 6 6 1 1 . G.MXJXJXNXU.. 1 1 3 6 4 , 1 X . m ] P.>X6XqXuXiXeX9X3XU.' . o 1 1 ; ; - o O 2 H ] >XFXJXJXMX XQ.E.%Xn.c z 4 z z z i y Z q.I.>XeXfXpXdXiXeX3XE.] . . O ; ; ; 1 & 1 6 6 x x x 4 4 dXJXJXLXf.- , , , - o 7 d.U.A.9 * $ 6 f.%X6XeXuXU.> > < + . . - 0.W.7X7XeXyXuXtX5XW.S.9 . . . . . . . . . : n ` T.MXJXJXFX7XT.J.T.K.+ . O % r t y ; h q.I.E.4X9XtXyXyX9X5XW.d.: . . o o o o o . O n ' H.iXJXJXKXuXH.P.T.D.n o o o o o O . . : 0.R.7XtXiXyXpXtX4XW.P.n . . o o o o o o o o o o o . : P.NXJXLX7Xm . o o o o o . . . ] W.qXyXiXyXeX7XW.P.] : . . o o o o o o o . . 2 F.W.7XuXiXyXuX9X$XU.' : . . . . o . . o ) J.W.0X9XuXyXtX7X4XR.] . . . o o o . . . . . 5XJXJXJX3X. . . . o o o o o . . : d.W.9X9XuXpXyXtX9XW.S.5 . . o o o o o o o o o . . . . . . . . . . ( tXHXJXKXuX0 . . . . . . : ] J.U.T.D.o . . . . . . . . 9 A.W.9XtXyXyXyX8X5XW.] . . . . . . . ( H.T.J.A.9 . . . . . . . . . G T.U.T.A.8 . . . . . . . . S.W.7XuXyXyX8X7XW.H._ + . . . . . . . . . . . . . . . . . . . + n ` J.aXJXJXJXyXF.J.T.D.n . . . . . . . . . ] R.7XqXuXyXiXuX7XW.J.9 . . . . . . . . . . . . . . . . . . . . . . + ( ] H.bXJXJXKX9XD.P.T.S.0 . . . . . 2 F.T.` . . . + F.2X7XaXW.8 . . . . . 2 ] P.2X0X7XtXyXtX9X4XJ.( . . . . . . . . . . + S.J.` . . ( T.4X9XtXyXyXyX7XJ.( . . . . . . . . . . . . @ 0.W.9XuXyXyXuX0XW.T.] . . . . . . . . 2 ( J.cXKXJXHXaXT.H.T.H.[ + . . . . . . . ` P.4X9XtXyXyXuX7X2XT.9 . . . . . . . . . . . 9 F.H.( o . . 9 J.W.0XuX9X9 . . o _ J.D.+ . 9 T.0X8XtXyXyX8X4XJ.+ . . 9 J.4X8XtXyXyX8X2XF.@ . . . . . . . . . . . . . . . . . . . . . . . . . . . . . . . . . . . . . . . . . . . . . . ",
". . . . . . . . . . . . . . . . . . . . . . . . . . . . . . . . . . . . . . . . . . . + 4XSXJXNX4Xn . . . . . . o ` dXJXHXFXJ.. . . . . . . . . ( 7XHXJXJXJXJXJXJXJXJXBXaXF.o . . . . . . . . o A.uXHXJXJXJXJXJXJXJXJXJXyXA.8 . . . . . . . o o o o o o o o o . . 8 T.sXnXKXJXJXJXJXHXHXKXDX5Xn . o o . . n J.4XsXHXJXJXJXJXJXJXJXJXHXyXF.+ . o o o o o . . ( yXJXJXSX4XR.bXHXJXJXJXJXJXHXaXP.5 . o o o o o o o . . ) $XBXJXJXJXJXJXJXJXJXDXbXT.: o . o o o o o o o o o o o o o o . : d.7XvXFXJXJXJXJXKXHXHXKXBXD.: . o o o . . ) W.nXJXJXJXJXJXJXJXJXJXBXW.` o . O o o o o O o O O O O O O O O O o o O o o . 0.qXSXJXJXJXJXJXJXJXKXBXuXA.o o O O O O O O . 5 F.9XHXJXJXJXJXJXJXJXJXKXyXF.2 . O O O O O . 9 MXJXJXSXH.: . o o O O O o o : A.uXDXJXJXJXJXJXJXJXJXKXlXJ.: . o O O O O O o o G P.cXJXJXJXJXJXJXJXJXJXbXU.2 . . G 2XuXMXKXJXJXJXKXHXHXHXJXuX. o O O O O O O O O O O O O O O O O O . o F.aXSXJXJXJXJXJXJXJXJXLX$X5 . O O o : ' F.5XnXKXJXJXJXJXJXJXJXJXFXuXd.o o O O O O O O . 0.lXFX>X] T.nXJXJXJXJXJXJXJXHXtX] n R.NXJXJXJXJXJXJXJXKX7X' O o O O O O O O O O O O O . o 4XJXJXKXT.. O O O O O . A.bXJXJXSXH.. O O O O O O . >XJXLXKX4X5 o O O O O O O o O ' W.vXJXJXJXJXJXJXJXJXJXJXZXsXeXd.. & O O O O O . U.DXJXJX5X' R.aXDXJXJXJXJXJXSX7Xd.; . - O ; , O a  XfXVXDXJXJXJXJXHXHXHXJXvX' O X O O O O O O O . 7 5XJXJXHXE.. O ; O - , 4 , c d.>XmXJXJXJXJXJXJXJXJXJXCX,Xf.+.L ! W +.| | t r . 3XJXJXJX%XI.nXDXJXJXJXJXJXJXMX3Xq.v x S 1.t.r.m.h.=..XIXKXDXBXY.4 S D U E E E Q 4.e.v.B.).=.$.%.+.W e.oX@X`.(.;.g 5 x I 1.T y f.pXvXFXJXJXJXJXKXLXHXHXSXU.X 3 6 6 1 / lXJXJXNXf.f.9XSXKXJXJXJXJXKXbXT.F 3 6 6 6 6 6 6 6 6 6 O q.6XBXJXJXJXJXJXJXJXJXJXSX9X' 1 6 Z Z Z Z i 1 >XJXBXf.q.iXHXJXJXJXJXJXJXJXJXzX.X#.Z S y.m.g.d y 6 S D i 6 6 6 Z Z Z Z Z Z Z A A A A i 6 A Q i.m.M.M.{.{.k.+.y y p i 6 6 i Z A A D D U D Z 6 i A D Z A D Z 6 6 6 6 6 6 6 6 6 6 i i i i Z i 6 6 i i i 6 6 1 G.dXnXFXJXJXJXJXKXHXHXHXNXL.O i p y X d.SXJX>X. F f.6XFXJXJXJXvX&.Z A 3 / U.>XpXLXJXJXJXJXJXJXJXJXJXdXU.7 . 1 3 3 3 3 6 4 , 9XJXlX' d.pXKXJXJXJXJXJXJXJXKXeXZ.u.4.z 3 3 1 3 y P L s.%XjXKXJXJXJXJXJXJXJXLXlX>Xd.6 6 v 4 3 y , I.MXJXJXNXP.. ; 1 O O - O . G T.5XjXHXJXJXJXJXJXJXJXJXHXyXG.5 . O O O o . 9 W.uXnXKXJXJXJXJXHXHXHXKXeXz 4 4 4 4 4 1 p G.uXCXJXJXJXJXJXJXJXJXJXsXJ.9 O O O O O & 3 6 6 x x 4 v f.BXJXHXpX/ - z 4 , : . ` 8XLXsX] 7 f.E.lXJXJXJXJX>X- > > o . n R.bXJXJXJXJXJXJXJXJXJXMX7X] . . o . . . . + J.8XbXHXJXJXJXJXHXHXHXKXBXn . O $ r e m 0.%XiXNXJXJXJXJXJXJXJXJXJXvXW.( o . o o o . : S.8XcXDXJXJXJXJXKXHXHXJXjX0.o . o o o O . G >XcXJXJXJXJXJXJXJXJXJXDX8X] . . o o o o o o o o o o . G aXJXJXnX] + . o o o o . o G U.lXJXJXJXJXJXJXJXJXFXlX$Xn . o o o o o o o . ) 4XBXJXJXJXJXJXJXJXJXDXuX` . o . . . 8 F.W.yXFXJXJXJXJXJXJXJXJXJXsXT.8 . . o o . . . . . 5XJXJXJX3X. . . o o o o o . . ` W.vXJXJXJXJXJXJXJXJXJXMX>X_ . . o o . . o o o o . . . . . . . . . . ( tXHXJXKXuX0 . . . . . . ] bXFXKXSX2X+ . . . . . . . d.7XBXJXJXJXJXJXJXJXJXJXlXJ.9 . . . . . S.sXKXDXnXA.. . . . . . . . . U.HXHXJXtX2 . . . . . . ( W.vXJXJXJXJXJXJXJXJXZXyXR.( . . . . . . . . . . . . . . . . . . 0.8XcXDXJXJXJXJXHXHXHXKXbXD.@ . . . . . . 9 R.sXJXJXJXJXJXJXJXJXJXDX9X' . . . . . . . . . . . . . . . . . . . . . H.aXbXDXJXJXJXKXHXHXHXHXaX] . . . . . [ MXKXR.. + ] 2XNXJXJXJXcX+ . . . 0 J.0XsXHXJXJXJXJXJXJXJXJXHXuXJ.+ . . . . . . . . ( uXHXtX[ ] yXHXJXJXJXJXJXJXJXHX8X' . . . . . . . . . . 0 E.cXJXJXJXJXJXJXJXJXHXbXT.2 . . . . . n W.sXBXJXJXJXJXHXHXHXKXNXR.2 . . . . . 2 J.yXHXJXJXJXJXJXJXJXJXHXtXd.@ . . . . . . . . @ A.vXSXW.+ . S.8XSXJXJXJXZX` . . : T.SXbXS.[ 0XKXJXJXJXJXJXJXJXDXT.+ ' 7XHXJXJXJXJXJXJXJXNXT.@ . . . . . . . . . . . . . . . . . . . . . . . . . . . . . . . . . . . . . . . . . . . . . ",
". . . . . . . . . . . . . . . . . . . . . . . . . . . . . . . . . . . . . . . . . . . + 9XKXJXHX7XG . . . . . . o ` bXJXJXKXJ.. . . . . . . . 2 qXJXJXJXKXHXHXKXKXJXJXJXJXaX_ . . . . . . . . D.SXKXJXJXKXHXHXHXHXKXJXJXJXFXT.2 . . . . . . o o o o o o o o o . . ] sXJXJXJXJXJXJXJXKXKXJXHX4Xn . o o . . H.DXJXJXJXKXHXHXHXHXKXJXJXJXJXSXF.. o o o o o . . ( yXJXJXFXFXKXJXJXKXKXKXKXJXJXJXSXP.o . o o o o o o . G 8XKXJXJXJXHXHXKXKXKXJXJXJXcX( o . o o o o o o o o o o o o o o . 8 4XFXJXJXJXJXJXJXJXKXKXJXBXD.: . o o o . G 7XHXJXJXKXHXHXHXHXHXHXJXJXHXyX` . o o o o o O O O O O O O O O O O O O O o . ] sXJXJXJXJXHXHXKXKXJXJXJXJXuX: o o o o O O . o P.FXJXJXJXHXHXHXHXHXKXJXJXJXNXF.O . O O o O . 9 MXJXJXSXH.: . o o O O O o . H.BXJXJXJXKXHXHXHXHXKXJXJXJXSXT.o o o O O O o . m >XDXJXJXKXHXHXHXHXHXHXJXFX>X5 . . ] SXJXJXKXJXJXJXJXKXKXKXJXyX. o O O O O O O O O O O O O O O O O O . D.nXJXJXJXKXHXHXHXHXHXKXJX3X2 . O O . 9 W.HXJXJXJXKXHXHXHXHXKXJXJXJXJXdX' . O O O o O O . A.BXJXyXaXHXJXKXHXHXHXHXJXJXJXHXuXsXHXJXKXHXHXHXHXJXJXJXHXyX` . O O O O O O O O O O o . ' aXJXJXvXA.. O O O O O . A.bXJXJXSXH.. O O O O O O . 4XJXJXJX7X5 o O O O O O O . ' pXKXJXJXKXHXHXHXHXHXKXJXJXJXJXJX>X. O O O O O O . U.DXJXJXeXeXKXJXJXKXKXKXJXJXJXJXBXd.. O O - , o / fXKXJXJXJXJXJXJXJXKXKXJXnX) O O O O O O O O - . G.NXJXJXsX0.o , , , 4 4 6 O f.pXKXJXJXKXHXHXHXHXHXKXJXJXHXfX&.e Z i y r r % $ . 4XJXJXJXSXFXJXJXJXKXKXJXJXJXJXHX9X' 6 1.w.r.N.'.h....XVXJXJXFXY.1 D U U E ! Q 3.8.c.oXB.).).g.+.+.4.c.+X]./.-.;.0 y Z B 1.Q e .XJXJXKXJXJXJXJXJXKXKXJXDXR.. 3 6 6 & H lXJXJXFX9XNXJXJXKXKXKXJXJXJXJXDX>X6 1 6 6 6 6 6 6 6 6 F iXJXJXJXJXHXHXHXHXKXJXJXJXJX9X6 x 6 Z Z Z 6 3 3XJXHX>XpXJXJXKXHXHXHXHXJXJXJXJXAX.X+.A A y.m.k.@.u 6 S i 6 6 6 6 i Z A Z y i Z Z Z Z Z U y.m.[.:X'.$.$.$.P y 6 x Z Z Z Z Z Z A K K D Z 6 6 Z A A A 6 i A Z i 6 6 6 6 6 6 6 6 6 6 6 i i i i i 6 x x x 6 6 1 9XJXJXJXJXJXJXJXJXKXJXJXFXY.O Z Z Z X f.LXJXeX^ Q.MXJXJXJXJXJXuX/ y y . U.HXJXJXJXKXKXHXHXKXKXJXJXJXJXSXG.. O 1 1 3 3 1 4 4 eXJXFX>XvXJXJXHXHXHXHXKXJXJXJXKXhXC.B z 3 1 1 1 i p K 6XKXJXJXJXJXJXKXKXKXJXJXJXFXE.p W T v A +.1.#XMXJXJXNXP.. O 1 ; O O O . U.JXJXJXJXKXHXHXHXKXKXJXJXJXJXNXD.. . o o o . [ NXJXJXJXJXJXJXJXKXKXKXJXeX4 4 4 4 4 4 O G.mXJXJXJXKXHXHXHXHXJXJXJXJXSXR.5 . O O O & 3 6 6 x v ; ^ eXHXJXBXI.F 4 v c z m 2 d.fXJXZXU.q.iXKXJXJXJXJXBXU., z , - ( 5XDXJXJXJXHXHXHXHXHXKXJXJXHXaX' . . o . . . : 7XHXJXKXJXJXJXJXJXKXKXJXNXG . . . . . ` aXJXJXJXJXHXHXHXHXHXJXJXJXJXHX5Xn . o o o . m 2XHXJXJXJXJXJXJXJXKXKXJXjX] o . o o o . + 5XJXJXJXJXHXHXHXHXKXJXJXJXJXiX0 . . o o o o o o o o . . A.DXJXJXtX+ . o o o o o . G 5XLXJXJXJXKXHXHXKXJXJXJXJXDX0.. . o o o o . o 9 eXJXJXJXKXHXHXHXHXHXKXKXMX0.. o o o . A.DXKXJXJXKXHXHXHXHXKXJXJXJXJXDXJ.. . . o . . . . . 5XJXJXJX2X. . . o . o o o . ` tXHXJXJXKXHXHXHXHXKXJXJXJXHX9X( . o o o . o o o o . . . . . . . . . . ( tXHXJXKXuX0 . . . . . o W.JXJXJXcX] o . . . . . . S.vXKXJXJXKXHXHXHXHXKXJXJXJXDXW.9 . . . . _ aXJXJXJXT.. . . . . . . . : 4XJXJXJX0X. . . . . . 2 qXJXJXJXJXKXHXHXKXKXJXJXJXBXD.. . . . . . . . . . . . . . . . . + T.HXJXJXJXJXJXJXJXKXKXJXvXF.@ . . . . . + 4XKXJXJXKXHXHXHXHXHXKXJXJXJXaX( . . . . . . . . . . . . . . . . . . . + 0XJXJXKXJXJXJXJXJXKXKXKXsX] . . . . . ] SXJX7X2 J.BXJXJXJXJXJX8X. . . . S.HXJXJXJXKXHXHXHXHXKXJXJXJXJXFXA.. . . . . . . . ` aXJXFX7XbXJXJXHXHXHXHXHXJXJXJXHXtX_ . . . . . . . . o W.HXJXJXJXKXKXKXKXKXJXJXJXMXA.@ . . . + S.vXJXJXJXJXJXJXJXKXKXJXSXR.2 . . . . . T.DXJXJXJXHXHXHXHXHXHXJXJXJXMXS.+ . . . . . . . @ F.BXJXaXn A.NXJXJXJXJXHXyXn . . 2 E.LXFX8XaXHXJXHXHXHXHXKXJXJXJXBX7XyXHXJXHXHXHXHXKXJXJXJXSXP.. . . . . . . . . . . . . . . . . . . . . . . . . . . . . . . . . . . . . . . . . . . . . ",
". . . . . . . . . . . . . . . . . . . . . . . . . . . . . . . . . . . . . . . . . . . : 9XKXJXHX7XG . . . . . . o ` bXJXJXHXJ.. . . . . . . . 4XHXJXJXJXBXyXiXsXcXBXHXJXJX0X. . . . . . . . n 8XJXJXJXKXcX0X>X2X8XbXJXJXJXJXBX' . . . . . o o o o o o o o o o . . G W.yXtXcXLXJXJXDXaX9XuXqXJ.8 . o o . . 0.DXJXKXBXdXtXqX8XtXsXKXJXJXJXJX2Xo . o o o o . . ) yXJXJXKXJXJXKXnXyXpXlXBXKXJXJXKXvXd.. o o o o o o . E.HXJXJXJXFXaXiXdXcXMXDXJXJXsX+ . . o o o o o o o o o o o o o o . 2 J.9XtXpXSXJXJXHXbXuX8XyX5X' : . o o o . T.HXJXJXKXcX5X2X>X3X9XdXHXJXJXHX2X9 . o o o O O O O O O O O o O O O O O o o o 9XJXJXJXJXSXpXiXdXnXSXHXJXJX4X. o o O O O O . ' aXKXJXJXHXaX9X>X4XyXvXKXJXJXKXaX' . O O o o . 9 MXJXJXSXH.: . o O o O o o : uXJXJXJXKXMX9X>X>X9XMXKXJXJXJXdX( O o O O O o . D.BXJXJXKXMXaX5XW.4X7X9XvXpXS.: . . ) 7XuX9XcXJXJXJXSXyXtXeXdXE.. o O O O O O O O O O O O O O O O o + ' aXJXJXJXHXsX7X2X>X4X8XsXBXF.. O O O o . d.HXJXKXZXlXuXqXqXtXlXHXJXJXJXJXW.. O O O o O O . A.MXJXFXDXJXHXsX5X$X4XtXSXJXJXJXHXHXJXHXaX4X$X4XyXFXJXJXJXHXA.. O O O O O O O O O O o . E.HXJXJX5X5 . O O O O O . A.vXJXJXSXH.. O O O O O O . 4XJXJXJX7X5 . O O O O O O . T.KXJXJXKXcX7X2X>X4X7XyXNXJXJXJXJXW.. O O O O O O . U.DXJXJXDXKXJXDXvXdXlXnXDXJXJXJXKX4X7 . O ; , - F E.eXeXdXHXJXJXDXsXtXeXpX3XG O X O O O O O ; , . R.JXJXJX5X; ; z c v D P s * E.KXJXJXKXbXwX6X,X3XgXcXKXJXJXLX Xa o 1 1 * * & $ . 4XJXJXJXJXJXKXZXbXpXaXmXKXJXJXJXDXG.j w.r.+X{.`.=...L.mXJXJXFXY.1 U Y Q ! 3.3.5.i.c.v.B.`./.=.+.E r.OX]./.O.g 9 p u Z v I U 6 Z.dXfXeXMXJXJXJXMXeXeXuXeXf.O 6 6 6 O H lXJXJXKXLXJXKXnXlXsXlXSXJXJXJXJXbXq.6 6 6 6 6 6 i 1 7 9XKXJXJXJXmXeX6X3X6XlXHXJXJXJXmXG.Z 6 6 Z Z 6 3 >XJXJXZXHXJXZXxXgX X3XeXZXJXJXJXJXxX}.$.p S a.[.'.$.y 1 Z i i x Z Z Z A Z i Z 6 6 D #.u.j.M.M.h.$.+.s u y y 6 6 x Z Z D U K D A A A i 6 6 6 f.G.^ 6 3 6 Z Z i 6 6 3 3 6 Z Z 6 6 6 6 6 6 6 i i i 6 6 6 6 6 6 Y.dXuXpXSXJXJXJXbXyXbXmXkXC.x Z 6 i O f.HXJXmXpXFXJXJXJXKXZXBXE.3 p y O f.nXJXJXZXdXpXuXeXyXbXLXJXJXJXKX8X/ . & & 1 1 1 4 4 eXJXKXPXKXJXmXeX,X>X0XhXGXJXJXJXKX,XB 4 3 3 1 1 1 & L.mXJXJXJXKXPXzXzXzXBXDXJXJXmXZ.+.u.p.4.~ u.1.#XnXJXJXNXP.. ; 1 ; O O O . G.DXJXJXZXpXeXeXeXyXbXLXJXJXJXKX0Xf . O - ; . _ 8XaXrXzXJXJXJXSXpXtXuXyXE.4 4 4 4 4 1 / tXJXJXJXHXcX9X3X3XtXnXHXJXJXJXbX) . O O & & 3 6 x x v o ' nXJXJXmXq.I I Y B v b o ' iXKXFXdXbXHXJXJXJXFXmXqXf.4 z , j U.DXJXJXKXMX8X2X>X2X0XcXKXJXJXJX>Xo . . . . . + U.eXtXyXDXJXJXHXbXuXeXiX5Xm . . . . . 8 8XJXJXLXcXuX8X8X9XiXSXJXJXJXJXSX0.. o o o . 5 H.8XtXaXSXJXJXKXvX8XeXiX$X) o . o o . . W.HXJXJXJXNX8X5X>X5XdXFXJXJXJXNXU.2 . o o o o o o o o . 2 R.DXJXDX>X+ . o o o o . . F.FXJXJXJXHXbXyXpXcXBXHXJXJXvX) . o o o o o . + 7XHXJXJXJXvX9X4X2XW.0XsXbX$XG . o o o . ' cXJXJXSXcXaXtX9XuXcXDXJXJXJXKXtX( . o o . o . . . 5XJXJXJX2X. . . o o o o . o W.HXJXJXKXvXiX4X$X8XcXDXJXJXJXHXA.. . o . . o o o o . . . . . . . . . . ( tXHXJXKXuX9 . . . . . J.DXJXJXDXR.. . . . . . . 0 7XJXJXJXKXbX8X2X2X8XbXKXJXJXJXBX] . . . . @ 7XJXJXJXW.. . . . . . . . ( tXJXJXKXW.. . . . . + U.BXJXJXJXDXbXaXyXcXvXHXJXJXyX( . . . . . . . . . . . . . . . . . o S.8XuXyXBXJXJXJXMX9XtXyX2X] . . . . . . T.SXJXJXJXBX7X$X2XW.7XnXHXJXJXDX7X0 . . . . . . . . . . . . . . . . . . + J.yXtXaXSXJXJXJXcX7XtXuXW.( . . . . . ] SXJXbX7XSXJXJXJXKXBXBXE.. . . . ] SXJXKXBXaXtX8X8XtXsXFXJXJXJXJX2X+ . . . . . . . _ aXJXJXDXJXKXBX8X2XW.4XyXSXJXJXJXHXJ.. . . . . . . . T.DXJXJXJXDXcXsXsXcXMXDXJXJXbX_ . . . . @ [ 2XyXyXBXKXJXKXBXyX8XyX7XS.+ . . . . ] aXJXJXJXSX9X2X$XW.2XyXDXJXJXJXMX] . . . . . . . @ F.BXJXSXyXnXJXJXJXKXSXsXW.0 . . 2 E.SXJXHXHXJXSX7XW.2XW.sXJXJXJXJXLXHXJXBX0XW.2X2XbXJXJXJXJXyX0 . . . . . . . . . . . . . . . . . . . . . . . . . . . . . . . . . . . . . . . . . . . . ",
". . . . . . . . . . . . . . . . . . . . . . . . . . . . . . . . . . . . . . . . . . . : 9XHXJXLX5XG . . . . . . o ` bXJXJXHXJ.. . . . . . . _ MXJXJXFX4XS.` ` ] ] S.F.T.9XS.. . . . . . . . U.HXJXJXSX2X` n 9 9 G 0.>XSXJXJXKXJ.. . . . . o o o . o o o . o o . . : n ( ` W.NXJXKXBXJ.8 ) ) 9 o . o o o . 9 R.W.U.d.] ` ) ( ) ] J.bXJXJXJXsX] . . o o o . . ) yXJXJXJXJXjXJ.] ` ' ] 0.$XNXJXJXJXW.. o o o o . o n yXJXJXJXtXd.' ' ] 0.d.F.T.7XJ.. . o o o o o o o o o o o o o o o o O 9 ) m A.bXKXJXSX3X] G ` ( 2 O o o o . 2 9XJXJXLX4X` G m 9 m G ' 3XSXJXJXSXD.. o o o O O O o o o O O o O O O O O . : F.NXJXJXJX9Xd.' ' ] d.A.F.R.4Xd.. o O O O O o . E.JXJXJXNXE.' G m G ) d.tXHXJXJXHXF.. O O O o . 9 MXJXJXSXH.: . O O O o . 2 F.NXJXJXHX4X] G m 9 G ] 4XKXJXJXSXT.2 . O O O . 2 >XKXJXKX8X] ' G 9 G G ) d.' 2 O O o 2 ( ` 2 E.JXJXJXsXd.` ) ' G o o O O O O O O O O O O O O O O O . 2 W.DXJXKXbXR.` G m m G ) ] d.9 . O O O O . 5 W.W.F.A.] ` ) ) ` ' W.NXJXJXJXpX9 o o O O O O . A.vXJXJXJXNXU.] n 9 m ` S.jXJXJXJXJXnXH.' G m n ' D.bXJXJXJX$X: . O O O O O O O O o o + tXJXJXHXH.. O O O O O O . A.bXJXJXFXH.. O O O O O O . 4XJXJXJX7X5 . O O O O o . ' dXJXJXDX5X' G m m G ) ` W.NXJXJXJXW.. O O O O O O . U.DXJXJXJXHX7XF.0.] 0.d.F.pXJXJXJXMXD.. O ; , , 6 ^ f./ L.SXJXJXBXT.` G ` G + X X O O O O O ; > b qXJXJXKXU.. j N Y ! +.+.d &.fXJXJXHX6X' 9.R / ^ 9.f.qXHXJXJXbXd.. ; 1 3 3 1 1 . 4XJXJXJXJXvXU.D.d.q.q.f.U.mXJXJXJX6X7.w.oX=X]./.O. .L.nXJXJXFXY.4 T 1.2.#.y.5.i.p.v.+X[.`./.=.P w.c.k.^.O.f 6 y y y 6 x x S S ~ &.&./ eXJXJXJXeX^ ' &.' F 3 6 6 6 & H lXJXJXJXJXcXU.d.d.&.d.G.6XFXJXJXDX>X/ 1 6 6 6 6 6 6 ' NXJXJXKX6Xf.^ / / ^ '  XNXKXJXHX6XF 4 x x x 6 1 >XJXJXJXJXbXn.s.s.%./ ' f.dXJXJXJXzX:X_.#.A ! m.-X].*.u 3 i Z Z Z Z i 6 6 6 A E y.j.'.'.g.$.#.P p i i i Z Z A A D K K W ~ K A Z Z i 6 6 6 6 Y.lXfXd.1 & Z Z i 6 3 3 6 3 i A A i 6 6 6 6 6 6 6 6 6 6 6 6 6 6 / ' ' f.lXJXJXJX>XF d.f.C.C.s.2.S x o f.LXJXHXJXJXJXbXE.U.G.f./ y p A 6 ^ U.E.Q.G.f.d.&.' q.f.T.vXJXJXJXZXG.. & & & & 1 1 1 eXJXJXJXJXpXf.%.^ H o.|.<XAXJXJXJXrX9.& 3 3 1 1 & 7 eXJXJXJXlX.X(..X#X#XC.Y.%X6XU./ L #.a.p.4.E z I.nXJXJXNXP.. 1 1 ; O X O . ` E.E.U.A.' ` ` ) ` d.U.BXJXJXJXcXL...l.8.:.> 0 } &.~ %XJXJXJXcXS.[ ` ' / 4 4 1 4 , - U.SXJXJXLX3X` ) G G ) d.R.SXJXJXDXJ.O . O & & 3 6 x v z x U.DXJXJXeXR I Y Y V B z . ) yXHXJXKXJXJXFX9XU.I.f.q.F x x - ' iXJXJXFX5X0.( 9 0 0 9 ` 2XSXJXJXcX] . . o o . . 9 _ 9 d.MXJXJXSXW.&./ q.9.C 2 r r t p Z f.5XT.D.] ` ) _ ( ) F.uXHXJXJXKXP.. . o o o O 8 ) n F.sXKXJXHX4Xn ( ` G : o o o . o 2 dXJXJXJXtXd.G G 9 G ) P.bXKXJXHXuXG . o o o o o o o o . ] vXKXJXcX] o . o o o o . ` uXJXJXJXpXA.] ' ' ] S.H.T.E.J.2 . o o o o . . ` NXJXJXSX2X0.G n 9 0 n ] ] n + . o o o . 9 F.R.T.A.] ` ) ( ) ] D.sXJXJXJXSXH.. . . . o . . . 5XJXJXJX2X. . . o o o . . ' dXJXJXJX9X' ` n 9 ( ] J.bXJXJXJX$X+ . o . . o o o o o . . . . . . . . . ( tXHXJXKXuX9 . . . . + uXJXJXJXtX2 . . . . . . . F.BXJXJXHX5X` _ 9 9 ( ] T.NXJXJXHXJ.. . . . . W.JXJXJX9X+ . . . . . . . d.bXJXJXBXF.. . . . . 0 sXJXJXHX7XF.] ` ` ] 0.D.T.4XD.+ . . . . . . . . . . . . . . . . . . 2 ( n d.yXJXJXJX9X0 ( _ n : . . . . . + yXJXJXDX7XS.9 0 0 8 n 0.T.NXJXJXZX` . . . . . . . . . . . . . . . . . . . 0 ( ( D.cXJXJXKXW.: _ ) n + . . . . . ] SXJXHXKXJXJXcXW.H.0.] n . . . . 0 H.R.J.0.` _ ( ( _ ] F.bXJXJXJXsX] . . . . . . . _ aXJXJXJXJXtX] ( 0 8 0 ` S.cXJXJXJX4X. . . . . . . o uXJXJXJXyXS.] ] ] ] 0.D.J.7XT.@ . . . . . + n 9 ] uXHXJXLXtX] 9 _ ( 2 . . . . . T.KXJXJXaXA.n 0 0 0 0 ` F.sXJXJXKXE.@ . . . . . . @ F.MXJXJXJXJXJXaXE.J.S.] ( o . . 2 R.ZXJXJXJXbXJ.0 0 0 0 ( W.SXJXJXJXJXsXF.2 0 0 0 _ 4XHXJXJXvX] @ . . . . . . . . . . . . . . . . . . . . . . . . . . . . . . . . . . . . . . . . . . . ",
". . . . . . . . . . . . . . . . . . . . . . . . . . . . . . . . . . . . . . . . . . . : 9XKXJXLX5XG . . . . . . o ` bXJXJXHXJ.. . . . . . 2 R.SXJXKXaX9 . . . . . . . . + + . . . . . . . . 8XJXJXJX5X@ . . . . . . @ yXJXJXKX2X2 . . . . . o o . o o . o o o o o . . . . F.BXJXKXvX` . . . . . o o o o o o . . . . . . . . . . . T.KXJXJXNXJ.. . o o o . . ) yXJXJXJXvX0.. . . . . . . 5XJXJXJX4X. o o o o . o J.BXJXKXvX' . . . . . . . . . o . o o o o o o o o o o o o o o o o o o . . . n dXKXJXNXT.+ . . . . o o o o . A.vXJXJXpXG . . . . . . . + eXJXJXJXE.. o o O O O o O O O O o O O o O O O . 8 eXKXJXHXpXn . . . . . . . . o : o O O O O o o : eXJXJXJX$X. . . . . . . ) sXJXJXJXR.. o O O O . 9 MXJXJXSXH.: . O O O o . m eXHXJXHXyXm . . . . . . G vXJXJXDX7X9 . O O O . ] sXJXJXMXd.. . . . . . . . . . O O O o . . . F.JXJXJXyX2 . . . . O O o O O O O O O O O O O O O O O . 2 aXJXJXFXR.o . . . . . . . . . ; O O O O O o - . . . . . . . . . . 2XJXJXJXbXA.o o O O O O . A.vXJXJXJX9X. . . . . . . R.JXJXJXJX3X. . . . . . . >XJXJXJXpX' . O O O O O O O O . + A.nXJXHXdX` . O O O O O O . A.bXJXJXSXH.. O O O O O O . 4XJXJXJX7X5 . O O O O o . R.HXJXJXaXG . . . . . . . 0.bXJXJXJXW.. O O O O O O . U.DXJXJXJXeX2 . . . . . . A.MXJXJXJXE.. O ; , 1 1 1 1 . &.ZXJXJXvXd.. . . . o O O O O O O - > j U.CXJXKXjXd.O A S D P d d % Q.FXJXJXpXH . - > h k 4 O ^ pXJXJXJXW.. ; z x 6 6 x . 6XJXJXJXFXU.. . . . . . .  XKXJXJXjXn.7.x.j.*... .A I.nXJXJXFXY.v 2.2.! y.5.5.i.z.v.+X[./.=.s.z.v.k.-.o.P Z p u 6 x i 3 6 v S p % $ . 3XJXJXJX>X. & O & 1 6 6 6 6 O H lXJXJXJXSXG.. . . . . . H eXLXJXKXlX' O 6 6 6 i 1 F E.FXJXJXvXH . O O & O . F 6XLXJXJXlXF 1 6 6 i 6 1 >XJXJXJXSXY.O - Y 3.K * . U.KXJXJXBX<X-X'.$.p Q x.-X{.g.d 3 x A Z 6 x x S ! u.m.M.l.l.$.d y y 6 x Z D E E K A J K K K K A A i 6 6 6 i i 6 6 &.mXJXdXf.O 1 Z i 6 6 6 6 1 3 y i i i 6 6 6 6 6 6 i 6 6 6 6 6 i 1 X O F pXJXJXJXI.. O O i y.s.y.Q S o f.LXJXJXJXNXuXf.O . 1 , 4 A W ! U v x O . . O & 1 1 O O O T.SXJXJXJXE.. 1 1 & & 1 1 1 eXJXJXJXNXG.. 1 4 $ | /.'.1XKXJXJXzXf.X 3 3 1 & 3 ' nXJXJXDXY.% | =.x.7.v y p #.u.u.y.2.2.T B c . G.MXJXJXNXU.. & 1 ; O O O ; 1 O . . . . . . . . . . 2XKXJXJXLX.X@.l.e.:.j + @ $ . G.KXJXJXaX0 . . . - 4 4 4 1 - : eXJXJXKX6X7 . . . . . . + jXJXJXHX>XG . O & & 3 x v v ; d.dXKXJXmXI.S B B v N N j . ` yXHXJXJXHXpXT.F . . - , z v x . U.DXJXJXaXm . . . . . . . 9 uXJXJXHXW.. , h > . . . . . 0 bXJXJXNXP.e X > h < 0 r t |  .d P s X . - - . . . . . ) sXJXJXJX4X5 . o o o o . . . ( yXKXJXHXR.. . . . . o O o . : A.MXJXJXSX] . . . . . . o R.SXJXJXNX) . o o o o o o o . . T.JXJXJX5X. o o o o o o . P.HXJXJXvX0.. . . . . . . . . . o o o o o o . 8 T.FXJXHX8X2 . . . . . . . . . . o . o o . o o . . . . . . . . . . F.NXJXJXJXW.. . o o . . . . 5XJXJXJX3X. . . o o o . . T.HXJXJXcX` . . . . . . . 4XJXJXJXaX' . o o . . . . o o o o . o o . . . . ( tXHXJXKXuX9 . . . + R.SXJXJXDXF.. . . . . . . . 4XJXJXJXtX8 . . . . . . . uXJXJXKX4X9 . . . . J.KXJXJXsX] . . . . . . . T.KXJXJXyX_ . . . . . S.SXJXJXcX0 . . . . . . . . . o . . . . . . . . . . . . . . . . . . . . . . : 7XJXJXJX$X. . . . . . . . . . ` vXJXJXbX_ . . . . . . . @ 8XJXJXHXT.+ . . . . . . . . . . . . . . . . . . . . . ( aXJXJXKXH.. . . . . . . . . . ] SXJXJXJXBX0X] . . . . . . . . . . . . . . . . . . . . . R.KXJXJXFXP.. . . . . . . _ aXJXJXJXsX_ . . . . . . . W.JXJXJXuXn . . . . . o ] bXJXJXDXS.. . . . . . . . . + . . . . . . . . . : 7XDXJXDX4X+ . . . . . . . . @ 8XJXJXKXF.. . . . . . . . T.DXJXKXyX` . . . . . . @ F.MXJXJXJXFX4X` . . . . . . . . 2 E.SXJXJXHXJ.. . . . . . 2 dXKXJXJXSXS.. . . . . . n bXKXJXBXT.+ . . . . . . . . . . . . . . . . . . . . . . . . . . . . . . . . . . . . . . . . . . . ",
". . . . . . . . . . . . . . . . . . . . . . . . . . . . . . . . . . . . . . . . . . . : 9XKXJXLX5XG . . . . . . o ` bXJXJXHXJ.. . . . . . n 9XDXJXFX2X8 . . . . . . . . . . . . . . . . . 9 aXJXJXJXF.. . . . . . . . 9XJXJXKX9Xn . . . . . . o . . . . o . o o o o o . + P.BXJXKXnX] . o o o o o o o . o o . . o o o o o o . . . d.bXJXJXFXT.. . o o o . . ) yXJXJXJX5X. o o o o o o . T.JXJXJX8X2 . . o o . + 4XHXJXHX2Xm . o o o o o o o . . o o o o o o o o o o o o o o o o o o o o o . ) sXKXJXSXE.5 . o o o o o o o . W.KXJXKX4X5 . o o o o o o . W.JXJXJX3X. o o o O O O O O O O o o o o O O O . 8 dXJXJXSXF.: . O O O O O O o o o O O O O O o . ` aXJXJXNXA.. O O O O o o . 7XJXJXJX>X. o O O O . 9 MXJXJXSXH.: . O O O o . G bXJXJXBXF.: . O O O O . G 0XDXJXHXtXn . O O o . P.FXJXJXyX` . o O O O O o O O O O O O O O O . J.JXJXJXaXG O o O O O O o o o O O O O O O O O O O O O . 9 vXJXJXSX] o o O O O O O O O O O O O O O O O o o O O O O O O O O . F.HXJXJXBXJ.o o O O O O . A.vXJXJXKXW.. o O O O o . H.NXJXJXHXR.. o O O O o . U.SXJXJXbXd.. O O O O O O O O . 5 7XHXJXFXU.2 . O O O O O O . A.vXJXJXSXH.. O O O O O O . 4XJXJXJX7X5 o O O O O O . >XJXJXJX4X5 . O O O O O o D.vXJXJXJXW.. O O O - - O . U.DXJXJXSXP.. O O - - O . G eXJXJXJX>X. O ; , 1 3 6 x O d.ZXJXJXMXD.+ . O - - ; 1 1 1 & 1 > l N qXJXJXLX,X%.| d u e % & O . >XJXJXJX XO - j M ,.V p p & >XJXJXJX5X. , c c 6 x v . 6XJXJXJXfX) . , 1 1 1 1 O f.bXJXJXmXY.! #.+.P d p v I.mXJXJXFXY.I 3.3.! 3.8.5.3.p.v.N.k./.g.v.@X].(.;.0.~ +. .A I D A y y 6 i y y 3 1 6XJXJXJX6X1 6 6 6 6 6 6 6 6 O H lXJXJXLXgX/ X 3 1 1 1 O F U.NXJXJXZXf.O 6 6 i i 1 ^ 9XDXJXDX6XF & 6 6 6 6 1 F U.FXJXJXBXH 1 6 x i 6 1 >XJXJXJXfX/ 3 3 v 8.p.+.% d.bXJXJXSX<XN.-X].@.A Q x.;X{.*.d i x D Q y.#.y.a.j.l.$.p * & & 6 Z A A Z S D K A i i i i y 6 3 3 6 6 6 6 Z A 6 3 . Y.HXJXsXf.4 6 6 6 6 6 6 6 6 6 6 6 Z Z i 6 6 6 Z Z i 6 6 6 6 6 6 3 6 ^ dXJXJXJXY.O Z 6 3 3 Z E U S O f.LXJXJXFX,X/ 1 6 Z D Q T 3.u.y.U 4 4 6 6 Z Z Z Z x 6 6 6 ^ iXJXJXJXE.. 6 6 1 1 1 1 O eXJXJXJX6XF 4 x 6 r X./.=X<XnXJXJXCXI.. 3 3 3 & F L.MXJXJXmXb.1  .*.m.x.5.$.g.M.[.+Xb.8.N , 1 4 o G.MXJXJXNXU.. 1 1 ; O O O & O O 1 1 1 ; 4 3 y x j . A.bXJXJXJX X$ i c , ; ; 1 3 . I.KXJXJXsX_ X X & 1 4 z , , ; 7 cXJXJXHXS.. O - O O O . + tXJXJXHX7XH . O 1 1 6 v v v - Y.HXJXJXeXF v c v v c k j o ` yXHXJXJXdX) . 1 x v v c v x x . %XJXJXJX6X- > - o o O & $ 7 2XKXJXJX9XO k l > . . . . . ( vXJXJXNXT.f $ j l > o $ % r r t | .. .U V M > o o o o . 7XJXJXJXqX( . o o o o o o . ' aXKXJXHXW.. o o o o o o o . 2 W.SXJXHXuX( . o o o o . : d.MXJXJXLX' . o o o o o o o . n eXJXJXFXP.. o o o o o o . E.JXJXJX9X+ . . o o o o o o . . o o o o o o . ( 9XLXJXNXT.: . o o . . . . o o o o . . o . . . . . o o o o . . . . 9 eXJXJXJX3X. . o o o . . . 5XJXJXJX3X. . . o o o . . 4XJXJXJX$X. . . . o o . . T.DXJXJXbXd.. o . . . . . o o o o o o . . . . . ( tXHXJXKXuX9 . . o ] bXJXJXLXW.8 . . . . . . . + yXJXJXKXJ.. . . . . . . . 0XJXJXKXtX_ . . . . 0.bXKXJXNXU.. . . . . . . 4XJXJXJX4X@ . . . . 2 T.SXJXHX7X: . . . . . . . . . . . . . . . . . . . . . . . . . . . . . . . . n 9XKXJXJX4X. . . . . . . . . : J.BXJXHXuXG . . . . . . . @ W.FXJXHX9X( . . . . . . . . . . . . . . . . . . . . . [ dXJXJXKXP.. . . . . . . . . . ] SXJXJXSXT.@ . . . . . . . . . . . . . . . . . . . . . . ] sXJXJXJXW.. . . . . . . _ aXJXJXJX2X. . . . . . . . J.HXJXJXsX] . . . . . + T.NXJXHXaX` . . . . . . . . . . . . . . . . . . . 9 9XLXJXDX7X9 . . . . . . . . _ sXJXJXSX] . . . . . . . . S.vXJXJXMXS.. . . . . . @ F.MXJXJXJXW.. . . . . . . . . . 2 E.SXJXJXNX( . . . . . . n 7XDXJXJXbX0 . . . . . . _ uXHXJXDX2X+ . . . . . . . . . . . . . . . . . . . . . . . . . . . . . . . . . . . . . . . . . . . ",
". . . . . . . . . . . . . . . . . . . . . . . . . . . . . . . . . . . . . . . . . . . : 9XKXJXLX5XG . . . . . . o ` bXJXJXHXJ.. . . . . . _ dXKXJXSXW.2 . . . . . . . . . . . . . . . . o ` sXJXJXLXS.. . . . . . . . 7XJXJXKX7Xn . . . . . . o o o . o o o o o o o o . + P.BXJXKXnX] . o o o . o o o o o o o o o o o o o . o . . ] dXJXJXHXR.. . o o o . . ) yXJXJXJX>X. o o o o o o . P.HXJXJXaX` . . o o . + 9XJXJXHX2Xm . o o o o o o o o o o o o o o o o o o o o o o o o o o o o o o . ) sXKXJXSXE.5 . o o o o o o o . 3XJXJXKX2X2 . O o o o o o . W.JXJXJX8X5 . o o o o o o o o o o o o O O O O . 9 bXJXJXSXF.: . o O O O O O O o o O O O O O o . A.bXJXJXvXd.. O o o O o o o 8XJXJXJX3XO . O O O . 9 MXJXJXSXF.: . O O O o . ) SXJXJXBXS.: . o O O O . m >XFXJXKXiXG . O O o . T.HXJXJX9X5 . o O O O O O O O O O O O O O O . J.JXJXJXaXG O o O O O O O O O O O O O O O O O O O O o o ' BXJXJXNXn . O O O O O O O O O O O O O O O O O O O O O O O O O O . D.ZXJXJXSXT.o o O O O O . A.vXJXJXFXR.. o O O O o . F.BXJXJXSXU.. o O O O o . P.NXJXJXvXA.. O O O O O O O o o ` MXJXJXMX` . o O O O O O O . A.vXJXJXSXH.. O O O O O O . 4XJXJXJX7X5 o O O O O o . 9XJXJXJX3X2 . O O O O O o D.vXJXJXJXW.. O O - - - O . U.DXJXJXcXd.. O O O - O . 5 7XJXJXJX3X. O ; , 1 3 y A , f.SXJXJXMXK.+ . O ; , 4 4 6 i a 6 z c 9.bXJXJXPXZ.| X.t % & O O O . 9XJXJXJXW.O > M ,.:.A t r . 2XJXJXJX6X, 6 6 4 4 4 4 . 5XJXJXJX9X7 O 1 1 1 1 1 O d.cXJXJXZX<X@...d A A Z x I.mXJXJXFXY.v 2.2.! 2.8.3.#.i.c.x.g.g.v.@X{./.XX!.^ +.@.J Y K L D A A p y 6 6 3 & 6XJXJXJX6X1 6 6 6 6 6 6 3 6 O H lXJXJXFX>X/ O 3 3 1 1 1 F U.NXJXJXSXd.O Z i i Z O d.dXHXJXZXE.F 1 6 6 6 6 1 Z Y.FXJXJXMX^ 1 6 Z Z 6 1 >XJXJXJXeXF i 3 6 I Q #.e f.lXJXJXDX,X3.+X-X_.@.s 5.OX-X].h.P x 3.M.}._.$.W K A i 6 6 6 i i Z Z Z Z Z Z Z i 6 6 6 6 6 y y i 6 3 6 3 i Z 6 6 & / 6XKXJXlXf.2 6 6 6 6 6 6 6 6 6 6 6 i i 6 6 i Z A i 6 6 6 6 6 6 6 6 ^ dXJXJXJXY.X i 6 6 6 i Z Z Z O f.LXJXJXNXY.F 6 i i D ! y.p.y.Q v 4 6 6 i Z Z i Z x x 6 6 / eXJXJXJX>X. 6 6 3 1 1 1 O eXJXJXJX>X1 6 x z * ..).B.&XvXJXJXZXU.. y 3 3 & F E.ZXJXJXzXC.v d *.M.+XN.M.}.-X+Xz.1.V z 6 6 4 o G.MXJXJXNXU.. 1 1 1 ; O O 1 1 1 1 1 1 ; 4 3 a F z . [ aXJXJXJXT.. O - ; - q w r . I.JXJXJXsX) X . O & 1 : , ; 1 ) bXJXJXLX] . O O O o o . : 7XKXJXHXeX` . 1 1 3 6 x v z , >XJXJXJX>X- v v v v c z j o ' yXHXJXDX0Xa O 6 x v v v x x 4 o >XJXJXJX3Xo , 4 , , , 4 * O R.KXJXJXtX. - > o . . . . . G vXJXJXNXP.7 . > h - . . @ @ X % r r y 6 j > - o o o o . 4XJXJXJX8XG . o o o o o o . ' aXKXJXHXW.. o o o o o o o . 8 7XLXJXFX4Xn . o o o o . : 0.nXJXJXDX0.. . o o o o o . . D.MXJXJXuX) . o o o o o o . W.JXJXJX5X. . o o o o o o o o o o o o o o o . ` aXHXJXNXT.: . o o o . . . o o o o . . o o o . . o o o o o o o . . 2 9XJXJXJX2X. . o o o . . . 5XJXJXJX2X. . . o o . . . 9XJXJXJXT.. . . . o o . . J.NXJXJXvXS.. o o o . . o o o o o o . o . . . . ( tXHXJXKXuX9 . . n 7XDXJXJXMX_ . . . . . . . . ( sXJXJXKXD.. . . . . . . . W.HXJXKXyX` . . . . _ tXKXJXHXW.. . . . . . + qXJXJXJXE.. . . . . n 4XDXJXHX5X2 . . . . . . . . . . . . . . . . . . . . . . . . . . . . . . . . n 9XKXJXJX4X. . . . . . . . . 2 W.SXJXHXqXG . . . . . . . o R.SXJXHXyX` . . . . . . . . . . . . . . . . . . . . . [ dXJXJXKXP.. . . . . . . . . . ] SXJXJXBX` . . . . . . . . . . . . . . . . . . . . . . . ( uXJXJXJXW.. . . . . . . ` aXJXJXJXW.. . . . . . . . J.FXJXJXcX] . . . . . + W.SXJXHX7X( . . . . . . . . . . . . . . . . . . . 9 9XLXJXDX7X0 . . . . . . . . [ sXJXJXMX] . . . . . . . . ] sXJXJXSXF.. . . . . . @ F.MXJXJXHXJ.. . . . . . . . . . 2 R.SXJXKXsX( . . . . . . 0 2XFXJXKXyX9 . . . . . . n 7XHXJXHX7X: . . . . . . . . . . . . . . . . . . . . . . . . . . . . . . . . . . . . . . . . . . . ",
". . . . . . . . . . . . . . . . . . . . . . . . . . . . . . . . . . . . . . . . . . . : 9XKXJXLX5XG . . . . . . o ` bXJXJXHXJ.. . . . . . _ lXKXJXZXT.2 . . . . . . . . . . . . . . . . o ] cXJXJXDXS.. . . . . . . . 0XJXJXKX7Xn . . . . . . o o o o o o . . o o o o . + P.BXJXKXnX] . o o o . o o o o . o o o o o o o o o o o . ] aXJXJXHXR.. . o o o . . ) yXJXJXJXW.. o o o o o o . H.FXJXJXbXS.. . o o . + tXJXJXHX$X8 . o o o o o o o o o o o o o o o o o o o o o o o o o o o o o o . ) sXKXJXSXE.5 . o O o o o o o . 9XJXJXKX>X: . O o o o o o . W.JXJXJXiX) . o o o o o o o o o o O o o O O O . m BXJXJXZXD.: . o O O O O O O O O O O O O O o . P.NXJXKXbXd.. O o o O o O . 9XJXJXJX7X5 . o O O . 9 MXJXJXSXH.: . O O O O . ( SXJXJXnX` o . o o o o . m W.SXJXKXpXG . O O o . W.JXJXJX7X2 . o O O O O O O O O O O O O O O . P.JXJXJXaXG O o O O O O O O O O O O O O O O O O O O . : A.ZXJXJXBX9 . O O O O O O O O O O O O O O O O O O O O O O O O O O . D.NXJXJXSXR.o o O O O O . A.vXJXJXZXU.. o O O O o . F.BXJXJXBXH.. O O O O o . P.NXJXJXnXA.. O O O O O O O . : D.SXJXKXtX9 . O O O O O O o . A.bXJXJXSXH.. O O O O O O . 4XJXJXJX7X5 o O O O O o . 8XJXJXJX2X2 . O O O O O o D.vXJXJXJXW.. O O O O - O . U.DXJXJXlXd.. O O O - O . 5 7XJXJXJX7X. O O , 1 3 y Z j n.ZXJXJXMX!.q . O ; , , 4 1 1 1 z h V Y.CXJXKXhX%.r r $ O O O X . . eXJXJXJXR.. h ,.>.T u r = . $XJXJXJXeXF 3 3 1 1 4 1 . 3XJXJXJX7X7 O 1 1 1 & 1 O f.bXJXJXKX.XO.O.d S I A Z I.mXJXJXFXY.v 2.2.2.4.5.y.#.3.e.v.M.M.B.[.`./.&.q.L  .J I D s p S D J u y 6 6 6 & 6XJXJXJX6X1 3 6 6 6 6 6 6 6 O H lXJXJXFXE.F & 3 1 1 1 1 Z f.mXJXJXDXf.O x Z Z Z O f.lXKXJXZXE.F 1 6 6 6 6 4 Z Y.FXJXJXMX^ 1 6 6 i x 4 >XJXJXJXeX6 6 3 3 6 v D 3 f.dXKXJXHX,XQ x.=X:X).@.J 5.N.[.].h.#.y.j.k.*.s i y i Z Z x f.Y.Y.Y.Y.L.L.L.L.L.L.L.L.L.L.L.L.L.L.L.L.L.L.L.L.L.L.L.G.>XSXJXJXnX3X^ 1 6 6 3 6 6 6 6 6 6 6 6 6 6 y A A i 3 3 6 6 6 6 6 6 ^ dXJXJXJXY.. 6 6 6 6 i i 6 6 O f.LXJXJXBXL.F 6 6 3 A 3.a.i.! S x 6 6 i i Z Z Z 6 6 Z Z 6 F eXJXJXJX>X. 6 6 3 3 1 1 1 eXJXJXJX X& y Z z e .._.x.C.IXJXJXDXU.X 3 6 6 ; F  XSXJXKXlXC.Y s O._.+XOXx.a.a.i.1.B v x 6 6 4 . G.MXJXJXNXU.O 1 1 4 1 1 1 1 1 1 4 4 1 ; , & * 2 , . [ aXJXJXJXT.. O X O : q g f 1 Y.JXJXJXsX) o . O 1 1 1 1 - : ' bXJXJXLX] . O & & 4 x z b 6XHXJXHXeX' . 1 1 3 6 x x , f.lXJXJXBXI.- v v v v v c z o ' yXHXJXFX>Xa O 1 6 x v v v c z z 6XJXJXJX>X. z z z j > ; X . T.KXJXJXyX@ . . . . . . . . G vXJXJXNXP.2 . > - o . . . . . X X X . o o o O X o o . . 4XJXJXJX8XG . o o o o o o . ' aXKXJXHXW.. o o o o o o o . 9 tXHXJXFX3Xn . o o o o . + ] nXJXJXDXd.. . o o o o o . . 5XJXJXJXR.. . o o o o o . . 4XJXJXJX4X. . o o o o o o o o o o o o o o o . ' cXKXJXNXT.: . o o . . . . o o o o . . o o . o o o o o o o o o . . 2 7XJXJXJX2X. . o o o . . . 5XJXJXJX2X. . . o o . . + tXJXJXJXP.. o . . o o . . J.BXJXJXMXS.. o o o o o o o o o o o . . . . . . ( tXHXJXKXuX9 . . ' SXJXJXFXR.+ . . . . . . . . ( sXJXJXDXS.. . . . . . . . W.HXJXKXyX` . . . . 8 2XKXJXJX7X. . . . . . 9 yXJXJXHXJ.. . . . . G 5XDXJXHX7X2 . . . . . . . . . . . . . . . . . . . . . . . . . . . . . . . . n 9XKXJXJX4X. . . . . . . . . 2 4XFXJXHX8XG . . . . . . . o R.SXJXKXaX` . . . . . . . . . . . . . . . . . . . . . [ dXJXJXKXP.. . . . . . . . . . ] SXJXJXMX( . . . . . . . . . . . . . . . . . . . . . . . ( tXJXJXJXW.. . . . . . . ` aXJXJXJXW.. . . . . . . . J.FXJXJXBXF.. . . . . + W.FXJXHXtX_ . . . . . . . . . . . . . . . . . . . 9 9XLXJXDX7X9 . . . . . . . o F.MXJXKXvX] . . . . . . . . [ aXJXJXKXP.. . . . . . @ F.MXJXJXHXF.. . . . . . . . . . 2 E.SXJXKXaX( . . . . . . 0 $XFXJXHXuX9 . . . . . . n 0XLXJXKX9X: . . . . . . . . . . . . . . . . . . . . . . . . . . . . . . . . . . . . . . . . . . . ",
". . . . . . . . . . . . . . . . . . . . . . . . . . . . . . . . . . . . . . . . . . . : 9XHXJXLX5XG . . . . . . o ` bXJXJXHXJ.. . . . . . ( yXHXJXSXW.+ . . . . . . . . . . . . . . . . o S.bXJXJXDXS.. . . . . . . . 0XJXJXKX7Xn . . . o . . o o o o o o o o o o . . . + P.BXJXKXnX] . o o o o o o o o o o o o o o o o o o o o . ] dXJXJXHXR.. . o o o . . ) yXJXJXJXW.. o o o o o o . F.SXJXJXvXA.. . o o . + tXJXJXHX5X9 . o o o o o o o o o o o o o o o o o o o o o o o o o o o o o o . ) sXKXJXSXE.5 . o o o o o o o . eXJXJXJX>X2 . o o o o o o . W.JXJXJXaX' . o o o o o o o o O O O o o O O O . 9 vXJXJXSXF.o . O O O O O O O O O O O O O O o . T.SXJXKXbXd.. O O O O O O . 8XJXJXJX5X: . o O O . 9 MXJXJXSXH.: . O O O o . ] FXJXJXvXG o . o o o o . 9 $XFXJXKXyXG . O O o . 2XJXJXJX7X5 . o O O O O O o o O O O O o O o . J.JXJXJXaXG O o O O O O O O O O O O O O O O O O O O . 2 F.ZXJXJXBXn . O O O O O O O O O O O O O O O O O O o O O O O O O O . D.ZXJXJXSXT.o o O O O O . A.vXJXJXNXP.. o O O O o . F.BXJXJXBXF.. o O O O o . P.NXJXJXnXA.. O O O O O O O . ( yXHXJXBXH.: . O O O O O O O o A.bXJXJXSXH.. O O O O O O . 4XJXJXJX7X5 o O O O O O . eXJXJXJX2X2 . O O O O - - D.vXJXJXJXW.. O O O - - - . U.DXJXJXcXd.. O O O - O o 5 7XJXJXJXqXO O - , 4 y u A c n.SXJXJXMX!.q . o - - ; - O ; ; j > ^ pXHXJXZXH.= . . o o o X . . + uXJXJXJXR.- M >.>.1.J u e . W.JXJXJXyXH O & & 1 1 & . 4XJXJXJX9X7 O 1 1 1 1 1 O f.bXJXJXJX<XO.o.f S I D Z I.mXJXJXFXY.c T 2.4.8.8.y.#.Q e.oX[.'.k.*.@.+.J K L U Y K d u 3 6 i p y 3 6 6 3 & 6XJXJXJX0X1 3 6 6 6 6 6 6 6 O H lXJXJXSXE.F & 3 & & 1 1 6 d.mXJXJXLXf.O Z Z Z Z 1 f.bXKXJXZXE.F & 6 6 6 6 4 Z G.FXJXJXBXH 1 6 6 6 6 1 >XJXJXJXgX1 3 3 * 3 6 6 1 f.dXJXJXKX,XE 3.m.;X:X)...p 5.m.B.'.j.#.K u e y p i Z S Z Z eXHXLXDXFXDXDXDXDXDXDXDXDXDXDXDXDXDXDXDXFXFXDXFXFXFXFXDXSXZXLXKXJXJXJXeX^ O 6 3 3 6 6 6 6 6 6 6 6 3 3 i A i 3 3 3 6 6 6 6 6 ^ dXJXJXJXU.. 6 6 6 6 6 6 6 6 . f.LXJXJXNXY.F 1 3 1 6 T 5.! S x 6 6 i Z Z Z Z Z 6 6 x x 6 / eXJXJXJX>X. 6 6 6 6 6 3 6 eXJXJXJX X& y Z 4 t =.M.8.n.IXJXJXLXU.. 3 6 6 1 F E.ZXJXJXVXC.N F -./.[.oX7.Q U Y B v v 6 6 6 3 . G.MXJXJXNXU.O 1 1 1 1 1 1 1 1 1 1 4 , O - X . o - o ' aXJXJXJXT.. ; O O : q g f - I.KXJXJXsX) o . X O o . . . 2 d.nXJXJXHX0.. ; 3 i b v z b 6XHXJXHXqX) . & & 3 6 x 4 o >XJXJXJX6XF z S v v v v c z o ' yXHXJXDX3Xa O 0 9 p A I B B c R eXJXJXJX>X. z z z j > - . . T.KXJXJXyX+ . . . . . . X . G vXJXJXNXP.2 . - . . . . . . . . . . . . . . . . o o o . 4XJXJXJX8XG . o o o o o o . ' aXKXJXHXW.. . o o o o o O . 9 tXHXJXDX4Xn . o o o o . o ' vXJXJXHX] . . o o o o . o 8 sXJXJXSXd.. o o o o o o . . >XJXJXJX7X. . . o o o o o o o o o o o o o o . ' bXKXJXNXT.: . o o o . . . o o o o . . o o o o o o o o o . o o . . 2 7XJXJXJX2X. . o o o . . . 5XJXJXJX2X. . . o o . o m iXJXJXJXJ.. o o o o . . . J.NXJXJXvXS.. o o o o o o o o o o . o o . . . . ( tXHXJXKXuX9 . G yXJXJXJXqX: . . . . . . . . o ] cXJXJXSX] . . . . . . . . W.HXJXKXuX` . . . . . F.HXJXJXpX@ . . . . . d.bXJXKXvX] . . . . . 9 4XFXJXJXyX+ . . . . . . . . . . . . . . . . . . . . . . . . . . . . . . . . n 9XJXJXJX4X. . . . . . . . . 9 8XHXJXHX8XG . . . . . . . o R.SXJXKXcX] . . . . . . . . . . . . . . . . . . . . . [ dXJXJXKXP.. . . . . . . . . . ] SXJXJXBX_ . . . . . . . . . . . . . . . . . . . . . . . ( uXJXJXJXW.. . . . . . . _ aXJXJXJXW.. . . . . . . . J.FXJXJXNXJ.. . . . . + W.FXJXKXsX_ . . . . . . . . . . . . . . . . . . . 9 9XDXJXDX7X0 . . . . . . . + T.BXJXKXnX] . . . . . . . . _ aXJXJXJXT.. . . . . . . F.MXJXJXHXF.. . . . . . . . . . 2 R.SXJXKXsX( . . . . . . 0 2XFXJXKXuX9 . . . . . . n 7XGXJXHX7X: . . . . . . . . . . . . . . . . . . . . . . . . . . . . . . . . . . . . . . . . . . . ",
". . . . . . . . . . . . . . . . . . . . . . . . . . . . . . . . . . . . . . . . . . . : 9XHXJXLX5XG . . . . . . o ` bXJXJXHXJ.. . . . . . n 9XDXJXHXyX` . . . . . . . . . . . . . . . . o F.MXJXJXDXS.. . . . . . . + yXJXJXKXW.: . o o o o o o o o o o o . o o o . . . + P.BXJXKXnX] . o o o o o o o o o o . o . . . . . . . . . ) aXJXJXHXR.. o o o o . . ) yXJXJXJXW.. o o o o o o . F.SXJXJXvXA.. . o o . + 5XKXJXKXbXD.. . . . . . . . o o o o o o o o o o o o o o o o o o o o o o o . ) sXKXJXSXE.5 . o o o o o o o . qXJXJXJX>X2 . o o o o o O . W.JXJXJXaX` . o o o o o o o o o O O o o O O O . 8 aXJXJXDX7X) . . . . . . . o o O O O O O O o . T.SXJXJXbXd.. O o o o . . m pXJXJXJXR.. o O O O . 9 MXJXJXSXH.: . O O O . o A.FXJXJXvXH o o o . . . . G tXHXJXDX0Xm . O O o . 3XJXJXJX7X5 . o O O O O O O O o O O O O O o . J.JXJXJXaXG O o O O O O O O O O O O O O O O O O O O . : F.ZXJXJXBXn . O O O O O O O O O O O O O O O O O o . . . . . . . . . d.NXJXJXSXT.o o O O O O . A.vXJXJXNXU.. o O O O O . F.BXJXJXBXF.. o O O O o . P.NXJXJXnXA.. O O O O O O O . F.HXJXJXaX5 O o O O O O O O O o A.bXJXJXSXH.. O O O O O O . 4XJXJXJX7X5 o O O O O O 2 yXJXJXJX2X2 . O O O O - - D.vXJXJXJXW.. O O O O - O . U.DXJXJXcXd.. O O O - O o 5 7XJXJXJX8Xo O ; > 4 y u J c n.SXJXJXMXK.# . o - - - O , 4 z 4 ; G.DXJXJXpX+ . . o - - - ; O ; 2 iXJXJXJXE.> M :.:.:.I Z y . W.JXJXJXpX) o O ; & & 1 . 3XJXJXJX9Xa O 1 1 1 1 4 ; n.nXJXJXJX X| s A S S A A I.mXJXJXFXY.v T T 2.8.8.y.#.8.c.N.M.).=.#.5.! +.+.2.4.#...t * 1 1 & 1 1 6 3 3 3 & 6XJXJXJX0XO 3 6 6 6 6 6 3 6 O H lXJXJXSXE.F & 3 & & 1 1 6 d.nXJXJXDXd.o 6 x Z Z ; f.bXKXJXZXE.F 1 6 6 3 1 O F E.DXJXJXbXF O 6 6 6 6 1 >XJXJXJXgX& 3 3 3 6 6 6 1 f.jXJXJXHX,XU 3.y.N.;X{./. .D 5.x.m.j.y.K i y i p i Z A Z i 6XZXNXBXNXNXBXBXBXBXBXBXBXBXBXBXBXBXBXBXBXBXBXBXBXBXBXBXmXNXJXJXJXJXZXeXq.O 3 1 3 3 3 6 3 6 6 6 6 3 3 y i y 3 3 6 6 6 6 6 6 ^ dXJXJXJXU.. 6 6 6 6 6 6 6 6 X f.LXJXJXBXU.F 1 1 1 1 v U D i 6 6 6 x v x 6 4 4 1 1 1 ; O x eXJXJXJX>X. 6 6 3 6 x 6 6 eXJXJXJX>XO 6 6 & | h.N.7.n.IXJXJXDXU.. 3 3 3 & a U.BXJXJXFXY.I 7 o.^.].oX>.D K T Y v x 4 4 1 3 . G.MXJXJXNXU.. ; 1 1 1 1 1 1 ; ; ; O . . . . . . . . H pXJXJXJXT.. ; , ; 1 1 * 3 . I.JXJXJXsX) o . @ # w q a i R I.BXJXJXHXf.- , 1 3 4 ; . : qXJXJXHX2Xm . O & & 6 6 x x eXJXJXLXI.- v v v v v c c z - ' yXHXJXDX3XF O { _ s P T 1.:.N R eXJXJXJX>X. z 4 z j > - o . T.KXJXJXaX: . . . . . . . . G vXJXJXZXU.m > h - o X $ % & O - o . . . . . . . . . . . >XJXJXJX8XG . o . o o o o . ' aXKXJXHXW.. . o o o o o . . 9 yXJXJXDX4Xn . o . . . . o F.BXJXJXSX` . o o o o o . + T.NXJXHX7XG . o o o o o o o . R.JXJXJXbXS.o . . . . . . . o o o o o o o o . ] bXKXJXNXT.: . o o o . . . . o o o o . o o o o . . . . . . . . . . o 0XJXJXJX2X. . o o o . . . 5XJXJXJX2X. . . o o . o G aXJXJXJXJ.. o . . . . . . W.KXJXJXaX] . o o o . . o o o o o . . o . . . . ( tXHXJXHXuX8 . 2XJXJXJXcX] . . . . . . . . . + S.vXJXJXFXd.. . . . . . . . 4XJXJXKX7X9 . . . . . ` NXJXJXcX( . . . . @ R.SXJXHX9X( . . . . . 0 W.FXJXJXvX` . . . . . . . . . . . . . . . . . . . . . . . . . . . . . . . . n 9XJXJXJX4X. . . . . . . . . 9 yXKXJXHX8XG . . . . . . . o R.SXJXKXnX] . . . . . . . . . . . . . . . . . . . . . [ dXJXJXKXP.. . . . . . . . . . ] SXJXJXBX_ . . . . . . . . . . . . . . . . . . . . . . . 0 qXJXJXJXW.. . . . . . . _ aXJXJXJXW.. . . . . . . . J.FXJXJXNXJ.. . . . . + E.SXJXJXSXH.. . . . . . . . . . . . . . . . . . . 9 9XDXJXDX7X0 . . . . . . . o J.MXJXJXnX] . . . . . . . . ` aXJXJXJXT.. . . . . . . F.MXJXJXHXH.. . . . . . . . . . 2 E.SXJXKXsX( . . . . . . 0 2XFXJXKXuX0 . . . . . . n 7XGXJXHX7X: . . . . . . . . . . . . . . . . . . . . . . . . . . . . . . . . . . . . . . . . . . . ",
". . . . . . . . . . . . . . . . . . . . . . . . . . . . . . . . . . . . . . . . . . . : 9XKXJXLX5XG . . . . . . + ` bXJXJXHXJ.. . . . . . 9 4XFXJXJXFX4X] 2 2 : : + + . . . . . . . . . + J.BXJXJXDXS.. . . . . @ 8 J.BXJXJXHXJ.. . o o o o o o o o o . o o o o o o o . + P.BXJXKXnX] . o o o o o o o o o . . . o + + 2 2 8 8 8 : d.sXJXJXHXR.. o o . o . . ) yXJXJXJXW.. o o o o o o . F.SXJXJXBXH.. . o o . + T.SXJXJXKXuX0.9 8 2 2 : + o . . o o o o o o o o o o o o o o o o o o o o o . ) sXKXJXSXE.5 . o o o o o o o . eXJXJXJX2X2 . o o o o o O . W.JXJXJXaX' . o O O o o o o o o O O O o o o o . 8 8XHXJXJXDX>XG 2 8 2 2 : + O o o O O O O O o . E.FXJXJXbXd.. o o o O + 2 U.BXJXJXHXF.. O O O O . 9 MXJXJXSXH.: . O O O o . S.FXJXJXvXG o . o o O o : J.ZXJXJXBXP.2 . O O o . 3XJXJXJX7X5 . o O O O O O O O O O O O O O O . J.JXJXJXaXG O o O O O O O O O O O O O O O O O O O O . : F.ZXJXJXBXn . O O O O O O O O O O O o O O O o o o : : 2 2 2 8 8 8 + H.SXJXJXSXR.o o O O O O . A.vXJXJXNXU.. o O O O O . F.BXJXJXBXF.. o O O O o . P.NXJXJXnXA.. O O O O O O . 5 2XKXJXJX3X. o O O O O O O O O . A.bXJXJXSXH.. O O O O O O . 4XJXJXJX7X5 o O O O O O : yXJXJXJX3X2 . O O O - - - D.vXJXJXJXW.. O O O O O O . U.DXJXJXcXd.. O O O - O o 5 7XJXJXJX8Xo O ; > 4 y u J , f.ZXJXJXMXK.+ . - ; ; , 1 6 v Z 3 H >XHXJXHX>XO O & O > j j 4 4 4 4 iXJXJXJXR.> l j 4 z z 4 c . %XJXJXJXdX' o O ; & & ; . 3XJXJXJX9Xa & 1 1 1 1 4 j n.zXJXJXJX,X* A D D S Z S I.mXJXJXFXY.v Q Q 2.4.8.z.a.v.OX+X_./.*.p.x.h.=.#.8.u.O.X.e $ & & & & 1 1 3 3 3 1 6XJXJXJX0X& 1 6 6 6 6 6 3 6 O H lXJXJXSXE.F & 3 & 1 1 1 6 d.nXJXJXDXd.. 6 6 6 x O f.MXJXJXZXE.F O 6 6 6 6 1 f.lXKXJXHX9XF 1 6 6 6 6 1 >XJXJXJX8X1 4 6 6 6 x Z 1 f.jXJXJXHX>Xv 5.u.a.m.=X{.*.J 4.p.x.m.m.m.j.u.p 3 6 Z A A Z / ^ ^ ^ s.s.^ ^ ^ ^ / / / / / ^ / / / / / / / / / ^ ^ / / Y.DXJXJXcXU.F 1 6 6 1 1 1 3 3 3 6 6 6 6 1 1 3 3 3 3 6 i i 6 6 3 6 ^ dXJXJXJXU.. 6 6 6 x 6 6 6 6 O f.LXJXJXBXU.F 1 6 1 1 Z D S 6 6 6 6 Z D D S F F H H F H F ' yXJXJXJX>X. 6 3 3 6 x 6 6 eXJXJXJX XO 1 4 * ..k.v.1.f.IXJXJXDXU.. 3 1 3 & 3 d.vXJXJXKXdXY.' o.(.].@Xe.T D U Y Z 6 x 4 4 1 . G.mXJXJXNXP.. O O O 1 1 1 1 O O O O + 2 2 8 9 9 9 5 d.dXJXJXJXT.. 1 , ; & 1 3 3 . I.KXJXJXsX[ 4 > # } } ;.&.i.b.&XCXJXJXHXq.. O o o o - : ' MXJXJXDXP.: . O & * 6 4 v I.MXJXKXdXq.- v v v v v v c c > q.yXHXJXDX3XF O n _ J K U :.V c R eXJXJXJX>X. z z z z z , - . T.KXJXJXsX_ o . . . . . . . n vXJXJXZXQ.H M M < q = r u i 4 > - X X X 2 2 2 8 8 8 8 + 5XJXJXJX8XG . o o o o o o . ' aXKXJXHXW.. . o o o o o o . 9 cXJXJXDX3Xm . . o o o o ) qXHXJXHXyXG . o o o o o . 2 dXJXJXSXF.+ . o o o o o o o . P.HXJXJXKXyXd.9 2 2 2 : + o o o o o o o o o . ] BXJXJXNXT.: . o o o . . . o o o o . . o o . . . o + : : 2 2 8 8 2 n 8XJXJXJX2X. . o o o . . . 5XJXJXJX2X. . . . . . o n aXJXJXJXJ.. . . . o o + 9 dXJXJXKX4X2 . o o . . . . o o o o . o o . . . . ( tXHXJXKXtX2 ] cXJXJXHXW.. . . . . . . . . . + S.bXJXJXFX0.. . . . . o + ( cXJXJXHXR.+ . . . . . _ sXKXJXBXH.+ . . . @ 4XKXJXHXE.2 . . . . . : J.SXJXJXHX9XA.0 2 2 + + + . . . . . . . . . . . . . . . . . . . . . . . . . G 9XKXJXJX4X. . . . . . . . . 0 yXKXJXHX8XG . . . . . . . o R.SXJXKXBXS.. . . . . . . . . . . . . . . . . . . . . ` aXJXJXKXP.. . . . . . . . . . ] SXJXJXBX_ . . . . . . . . . . . . . . . + + + 2 2 2 2 + ` yXJXJXJXW.. . . . . . . _ aXJXJXJXW.. . . . . . . . J.FXJXJXNXJ.. . . . . o S.vXJXJXJXaXS.8 2 : + + + . . . . . . . . . . . . 9 9XDXJXDX7X0 . . . . . . . @ J.MXJXJXnX] . . . . . . . . _ aXJXJXJXR.. . . . . . @ F.MXJXJXHXF.. . . . . . . . . . 2 R.SXJXKXsX( . . . . . . 0 2XFXJXKXuX0 . . . . . . n 7XHXJXHX7X+ . . . . . . . . . . . . . . . . . . . . . . . . . . . . . . . . . . . . . . . . . . . ",
". . . . . . . . . . . . . . . . . . . . . . . . . . . . . . . . . . . . . . . . . . . : 9XKXJXHX5Xn . . . . . . + ' bXJXJXHXJ.. . . . . . + F.SXJXJXJXFXNXMXsX8X7XW.d.+ . . . . . . . . + J.BXJXJXDX] . . . @ 0 A.4XBXJXJXJXNX] . . o o o o o o o o o . o o o o o o o . + P.BXJXKXnX] . o o o o o o o o o . . . ( T.>X7XyXdXdXcXvXNXHXJXJXHXR.. . o . o . . ) yXJXJXJXW.. o o o o o o . F.SXJXJXZXU.. . o o . o ` jXJXJXJXHXNXMXbXuX7X$XD.8 . . o o o o o o o o o o o o o o o o o o o o o . ) sXKXJXSXE.5 . o o o o o o o . tXJXJXJX2X2 . o o o o o O . W.JXJXJXsX] . o O o o o O o o o o O o o o o o . 2 W.FXJXJXJXFXBXvXaXeX5XT.] 2 . . O O O O O o . W.HXJXKXcX` . . + + m J.9XBXJXJXKXsX] . o O O O . 9 MXJXJXSXH.: . O O O o . S.FXJXJXbX8 . . . : G d.7XSXJXJXJXnXG O o O O o . 3XJXJXJX7X5 . o O O O O O O O O O O O O O O . J.JXJXJXaXG O o O O O O O O O O O O O O O O O O O O . : F.ZXJXJXBXn . O O O O O O O O O O O O O O O o . 2 0.U.W.7XyXdXdXnXMXZXKXJXJXSXR.o o O O O O . A.vXJXJXNXU.. O O O O O . F.BXJXJXBXF.. o O O O o . P.NXJXJXnXA.. O O O O O O . ] sXJXJXcXd.. o O O O O O O O O . A.bXJXJXSXH.. O O O O O O . 4XJXJXJX7X5 o O O O O O : yXJXJXJX3X2 . O O O ; - o D.vXJXJXJXW.. O O O O O O . U.DXJXJXcXd.. O O O - O o 5 7XJXJXJX8Xo O - , 1 e t s O d.ZXJXJXMXD.: . - , , 4 6 i y 3 . [ pXKXJXnXD.- , 1 ; j j z 4 1 1 2 uXJXJXJXR.o > O O ; ; , > . %XJXJXJXdX' X O & O ; 1 . 3XJXJXJX9Xa & 1 1 ; 4 4 M n.zXJXJXJX,X3 J D U S Z v I.mXJXJXFXY.v Q 3.5.8.z.x.x.OX@X-X].`.(.Z.$.@.#.8.a.=.X.r & * 1 & & & * 3 1 1 1 1 6XJXJXJX0X& 1 3 3 3 4 6 6 3 O H lXJXJXSXE.H O & & O 1 1 6 d.nXJXJXLXd.. 6 6 6 6 o f.ZXJXJXNXU.1 . O 7 7 d.>XlXKXJXJXNXU.x 4 x 6 6 6 , >XJXJXJX9X1 z 6 6 6 x Z 1 f.jXJXJXHX>X4 Y a.j.j.x.=X'.+.E i.x.m.B.M.B.}.l.s 3 4 v Z 6 6 6 i Z Z D D Z i 6 6 3 6 3 6 6 3 6 3 3 3 6 3 6 6 6 Z 1 ^ eXKXJXuX^ F 6 6 6 6 3 1 1 6 6 3 6 6 6 1 4 3 3 3 3 3 i A A i 1 1 3 ^ dXJXJXJXU.. 3 6 6 6 6 6 6 6 o f.LXJXJXBXU.F ; 1 1 1 6 S S 6 6 i 3 i u.C.E.>X6XpXlXlXvXMXBXLXJXJXJX>X. 6 3 6 6 x x 6 eXJXJXJX>XX 1 4 $ ..k.c.V f.cXJXJXDXU.X 3 3 3 3 3 F lXJXJXJXHXSXBXVXhXhXkX<Xb.S v Y A Z v z 4 1 . G.mXJXJXNXP.. O O O O ; ; O . . . ( T.4X8XpXdXsXbXMXNXHXJXJXJXT.. ; O O O & 3 p . I.KXJXJXlXf.5.:.C } } g #.4.7.Y.BXJXJXLX) . . o + 8 d.4XvXKXJXJXZX` . O O & * 6 , F 6XLXJXDX>XR , v v v x i Z v N h q.yXHXJXDX3XF & 5 m Z Z S B B c R eXJXJXJX>X. z x z z z z , - R.KXJXJXsX_ o . . . . X & . _ vXJXJXZXQ.R M M > q = % * 3 ; - . X f K.W.7XuXaXaXsXMXMXFXJXJXJX8XG . o o o o o o . ' aXKXJXHXW.. . o o o o o o . 9 cXJXJXFXW.: . . + o ` E.pXDXJXJXFXE.8 . o o o o . o ] BXJXJXMXG . o o o o o o o o . 0.cXJXJXJXHXNXBXcXyX5XE.F.( . . . o o o o o . 0.SXJXJXNXT.: . o . o . . . o o o o . . o o . . . G J.W.4XqXaXsXbXMXBXDXJXJXJX2X. . o o o . . . 5XJXJXJX2X. . . . . . o n aXJXJXJXA.. . . o 2 ] T.dXHXJXJXHXF.. . o o . . . . . o o . . . o . . . . ( tXHXJXHXuX( >XKXJXKXiX' . . . . . . . . . . + S.bXJXJXSX` . . . @ 0 S.W.cXHXJXJXFX0.. . . . . . G 8XGXJXSXW.2 . . . @ aXJXJXLXF.. . . . . . . ` BXJXJXJXDXSXMXsXuX7X>XH.9 . . . . . . . . . . . . . . . . . . . . . . . . n 9XKXJXJX4X. . . . . . . . . 9 yXKXJXHX8XG . . . . . . . o R.SXJXKXBXS.. . . . . . . . . . . . . . . . . . . . . [ dXJXJXKXP.. . . . . . . . . . ] SXJXJXBX_ . . . . . . . . . . . . . . _ T.2X7XyXdXdXbXnXBXGXJXJXJXW.. . . . . . . _ aXJXJXJXW.. . . . . . . . J.FXJXJXNXJ.. . . . . . o yXJXJXJXHXZXMXcXtX5XW.F.9 . . . . . . . . . . . 9 9XDXJXDX7X0 . . . . . . . @ J.MXJXJXnX] . . . . . . . . ` aXJXJXJXW.. . . . . . @ F.MXJXJXHXF.. . . . . . . . . . 2 E.SXJXKXsX_ . . . . . . 0 2XFXJXKXuX0 . . . . . . n 7XHXJXHX7X+ . . . . . . . . . . . . . . . . . . . . . . . . . . . . . . . . . . . . . . . . . . . ",
". . . . . . . . . . . . . . . . . . . . . . . . . . . . . . . . . . . . . . . . . . . : 9XHXJXLX5XG . . . . . . o ` bXJXJXHXJ.. . . . . . . 2 5XJXJXJXJXJXJXJXKXHXFXvXtXJ.o . . . . . . + J.BXJXJXKXaX5X8XtXuXaXnXHXJXJXJXSXT.: . . . o o o o o o o o o o o o o o o o . + P.BXJXKXnX] . o o o o o o o o . . ' W.jXNXDXJXJXJXJXJXJXJXJXJXJXHXR.. . o o o . . ( yXJXJXJXW.. o o o o o o . F.SXJXJXSXT.. . o o o o . W.JXJXJXJXJXJXJXJXHXFXnXsXR.8 . o o o o o o o o o o o o o o o o o o o o . ` sXKXJXSXE.8 . o o o o o o o + yXJXJXKX>X2 . O O O O O O . W.JXJXJXbXd.. o O O O O o o o o o o o o o o o o O G dXJXJXJXJXJXJXJXKXHXNXbXaXH.o . o O O O o . $XHXJXJXFXaX7X8XuXuXaXBXKXJXJXJXSXF.o . o O O O . 9 MXJXJXSXF.: . O O o o . S.FXJXJXDXuX8X9XeXiXdXbXHXJXJXJXHXR.o o o O o o . 3XJXJXJX7X5 . o o o O O O O O O O O O o o O . J.JXJXJXaXG O o O O O O O O O O O O O O O O O o O O . : F.ZXJXJXBXn . O O O O O O O O O O O O O - . . d.qXnXBXFXJXJXJXJXJXJXJXJXJXJXSXR.o o O o O O . A.vXJXJXNXU.. o O O O O . F.BXJXJXBXF.. O O O O o . P.NXJXJXnXA.. O O O O O O . T.KXJXJX7X- o O O O O O O O O o . A.bXJXJXSXH.. O O O O O O . 4XJXJXJX7X5 o O O O O O : yXJXJXJX3X5 . O O - , - o D.vXJXJXJXW.. O O O O O O . U.DXJXJXcXd.. O O - - - o 5 7XJXJXJX8Xo O - ; 1 * r u o 0.ZXJXJXMXF.< o , 4 6 6 c v 6 3 . T.HXJXJX0XO - - O O ; ; , O O O + uXJXJXJXR.. o O O O O O - . %XJXJXJXjXq.4 3 * 1 1 & . 3XJXJXJX9XF & 1 1 , 4 N ,.#XzXJXJXJX,Xy K D D S A v I.mXJXJXFX&XT i.a.a.a.y.p.c.OX;X-X{.|.|.k.=.$.i.y...X.t * 1 3 3 1 1 1 & * 3 1 1 & 6XJXJXJX0X1 1 3 3 6 1 1 3 3 O H lXJXJXSXE.F ; 6 6 1 1 1 6 d.nXJXJXLXf.& 6 6 6 6 . f.SXJXJXHXbXeX9XuXiXiXbXFXJXJXJXJX6X6 x x Z 6 6 1 ; >XJXJXJX9X1 x v v S S Z 1 d.dXKXJXKX X$ v 8.x.j.y.z.B.k.#.Q 8.x.M.M.j.j.V.j.#.A 4 1 6 6 6 6 i i x Z i 6 6 6 1 1 1 3 6 6 3 3 3 3 3 6 3 3 6 6 O E.KXJXfX^ . O 1 6 6 6 3 1 3 6 6 3 6 6 6 1 1 1 3 3 3 1 i A A y 3 6 6 ^ dXJXJXJXY.. 3 6 6 6 6 6 6 6 O f.LXJXJXBXU.F ; 1 1 1 6 Z Z Z Z i 3 f.rXmXCXFXKXJXJXJXJXJXJXJXJXJXJX>X. 3 6 6 6 6 6 3 eXJXJXJX XX 1 1 % *.M.e.k f.bXJXJXDXQ.X 6 3 1 3 1 1 R.HXJXJXJXJXJXJXJXKXGXAXzXwXf., A A v z 4 4 . G.MXJXJXNXJ.. O O O O O O . + A.5XsXNXHXJXJXJXJXJXJXJXJXJXJXJXT.. O O 2 9 f d $.Q &XJXJXJXIXf.<.V l < q $ 3 , b P.BXJXJXKXiX0XqXtXyXaXbXHXJXJXJXFXP.: . O & & 1 6 - / nXJXJXnX' 4 x v v v A +.%.2.>.M q.iXHXJXFX3XF & 6 z v v v v v 4 H eXJXJXJX>X. z x z z z z , - R.JXJXJXsX( o . . . . O & $ [ nXJXJXZXU.m > h o @ . . X o . . _  XaXMXFXKXJXJXJXJXJXJXJXJXJXJX8XG . o o o o o o . ' aXKXJXHXW.. o o o o o o o . 9 cXJXJXHXnXuX7XqXyXuXsXSXJXJXJXJXtX9 o . o o o o . 9 $XFXJXFX$X: . o o o o o o o o . o T.KXJXJXJXJXJXJXJXHXSXBXsXR.9 o . . o o o . 0.SXJXJXNXT.: . o o o o o o o o o o o o o . . n >XjXBXSXHXJXJXJXJXJXJXJXKXJXJX2X. . . . . . . . 5XJXJXJX2X. . . . . . o n aXJXJXJXsX5X8XtXuXiXcXNXJXJXJXHX4X8 . o o . . o o o o o o o o o o . . . . ( tXHXJXHXuXG uXJXJXKX7X9 . . . . . . . . . . + S.bXJXJXHXaX0X8XtXuXaXvXFXJXJXJXFXR.: . . . . . . 2 T.ZXJXKXaX0 . . . 9 vXJXJXSX` . . . . . . . + 4XJXJXJXJXJXJXJXJXHXFXBXyXW.9 . . . . . . . . . . . . . . . . . . . . . . n 9XKXJXJX4X. . . . . . . . . 0 yXKXJXLX8XG . . . . . . . o R.SXJXJXBXS.. . . . . . . . . . . . . . . . . . . . . [ aXJXJXKXP.. . . . . . . . . . ] SXJXJXBX_ . . . . . . . . . . . . ] $XsXZXLXJXJXJXJXJXJXJXJXJXJXJXW.. . . . . . . _ aXJXJXJXW.. . . . . . . . J.FXJXJXBXJ.. . . . . . . T.KXJXJXJXJXJXJXJXHXFXBXsXW.2 . . . . . . . . . 9 9XDXJXDX7X0 . . . . . . . @ J.MXJXJXnX] . . . . . . . . ` aXJXJXJXW.. . . . . . @ F.MXJXJXHXF.. . . . . . . . . . 2 E.SXJXKXsX_ . . . . . . 0 2XFXJXKXuX0 . . . . . . n 5XLXJXHX9X: . . . . . . . . . . . . . . . . . . . . . . . . . . . . . . . . . . . . . . . . . . . ",
". . . . . . . . . . . . . . . . . . . . . . . . . . . . . . . . . . . . . . . . . . . : 9XHXJXLX5XG . . . . . . o ` bXJXJXHXJ.. . . . . . . . n 0XFXKXJXJXJXJXJXJXJXJXJXSXP.. . . . . . + J.BXJXJXJXJXJXJXJXJXJXJXJXJXDXbXT.+ . . . . o o o o o o o o o o o o o o o o . + P.BXJXJXnX] . o o o o o o o . . 0.aXJXJXJXJXKXZXMXnXvXsXbXDXJXJXHXR.. o o o o . . ) yXJXJXJXW.. o o o o o o . F.SXJXJXNXP.. . o o o o . n 4XBXHXJXJXJXJXJXJXJXJXJXKXW.o . o o o o o o o o o o o o o o o o o o o . ` sXKXJXSXE.5 . o o o o o o o 2 pXJXJXKX>X2 . O O O O O O . W.JXJXJXvXD.. o O O o o o o O O O O O O O O O O o . d.yXNXHXJXJXJXJXJXJXJXJXJXSXJ.. o o O O o . $XHXJXJXJXJXJXJXJXJXJXJXJXJXFXaXU.+ . O o O O O . 9 MXJXJXSXH.: . O O o o . S.FXJXKXJXJXJXJXJXJXJXJXJXJXSXvXT.: . o O O O o . 3XJXJXJX7X5 . o o o O O O o o O O O O O o O . J.JXJXJXaXG O o O O O O O O O O O O O O O O o o O O . : F.ZXJXJXBXn . O O O O O O O O O O O O O . - S.lXJXJXJXJXKXNXBXnXbXsXnXHXJXJXSXR.o o O O O O . A.vXJXJXNXP.. o O O O O . F.BXJXJXBXF.. o O O O o . P.NXJXJXnXA.. O O O O O O O 9XJXJXKXT.. O O O O O O O O O o . A.bXJXJXSXH.. O O O O O O . 4XJXJXJX7X5 o O O O O O : yXJXJXJX3X2 . O - , , ; O D.vXJXJXJXW.. O O O O O O . U.DXJXJXcXd.. O ; ; O O o 7 7XJXJXJX8Xo O - ; , 1 * 6 - f.ZXJXJXMXH.b - 6 z c c V :.I x Z 8XJXJXHXP.. O o . o o O O X . . + uXJXJXJXE.. O & & O O O O . W.JXJXJXjXq.N S i y 3 * . 3XJXJXJX9XF & 1 1 4 N :.:.#XzXJXJXJX,XA Q E K D D S Y.mXJXJXFX&X4.p.a.u.$.W 7.r.OX-X].}.V.B.B.'.B.M.=.O.t $ & * 3 * 3 3 1 * 3 6 1 & & 6XJXJXJX0X1 4 z V ! @.d y 1 O H lXJXJXSXE.H 4 Y E P y 1 6 d.nXJXJXLXZ.& 3 6 6 6 o f.SXJXJXJXJXJXJXJXJXJXJXJXJXDXmX6X^ X 6 6 6 4 1 O ; >XJXJXJXeX6 v S Y U U Z 1 d.dXKXJXKX,X* 6 B 5.u.#.T 8.N.M.u.#.y.j.M.j.y.y.x.m.j.$.u * 4 v A A A Z Z Z i i 6 6 6 6 6 6 6 6 6 6 6 6 6 6 6 6 6 f.mXJXeX^ . 1 1 1 6 6 6 3 3 3 6 6 3 6 6 6 1 1 3 6 6 6 3 6 6 i 3 y A A ^ dXJXJXJXU.. 6 6 6 6 6 6 6 6 X f.LXJXJXBXU.F 1 1 1 3 3 Z S S S 1 f.fXJXJXJXJXJXSXMXmXnXlXcXFXJXJXJX>X. 3 6 6 6 6 6 3 eXJXJXJX XX 1 1 r =.B.7.j f.VXJXJXDXQ.X 6 3 1 3 3 1 a E.MXDXKXJXJXJXJXJXJXJXJXJXuX9.6 6 6 4 4 4 . G.MXJXJXNXJ.. O O - O O O . d.MXJXJXJXJXJXSXnXnXbXsXcXDXJXJXJXR.. 1 1 7 G G P $.Q &XJXJXJXsX) , - ; o . . X . 2 H.BXJXJXJXJXJXJXJXJXJXJXJXKXFXvXU.. . O O & & 1 , F E.DXJXJXuXb , v x x b A +.%.4.>.l q.iXHXJXFX3XF O 6 6 z v v x x 4 H eXJXJXJX>X. z z z z z z 4 ; E.KXJXJXsX( o . o . o o X X [ nXJXJXNXU.: . . . . . . . . . 0 7XKXJXJXJXJXFXMXnXvXcXsXNXJXJXJX8XG . o o o o o o . ' aXKXJXHXW.. o o o o o o O . 9 cXJXJXJXJXJXJXJXJXJXJXJXJXHXBX0X' . . o o o o o . ] vXKXJXbX( o . o o o o o o o o o . n 7XMXHXJXJXJXJXJXJXJXJXJXDX4X8 . . o o o . 0.SXJXJXNXT.: . o o o o o o o o o o o o o . _ 8XKXJXJXJXJXFXBXvXvXsXjXSXJXJXJX2X. . . . . . . . 5XJXJXJX2X. . . o o . o n aXJXJXKXJXJXJXJXJXJXJXJXJXDXbXW.2 . . o o . o o o o o o o o o o o . . . . ( tXHXJXHXtX: W.JXJXJXBXS.. . . . . . . . . . + S.bXJXJXJXJXJXJXJXJXJXJXJXJXFXcXT.@ . . . . . . . . _ MXJXJXNX( . . + F.BXJXJXcX9 . . . . . . . . G >XNXHXJXJXJXJXJXJXJXJXJXKX2X: . . . . . . . . . . . . . . . . . . . . . n 9XJXJXJX4X. . . . . . . . . 0 yXKXJXHX8XG . . . . . . . @ R.SXJXJXBXS.. . . . . . . . . . . . . . . . . . . . . [ aXJXJXKXP.. . . . . . . . . . ] SXJXJXBX_ . . . . . . . . . . . S.sXJXJXJXJXKXSXnXvXvXsXcXSXJXJXJXW.. . . . . . . _ aXJXJXJXW.. . . . . . . . J.FXJXJXBXJ.. . . . . . . 2 W.BXDXJXJXJXJXJXJXJXJXJXKX>X: . . . . . . . . 9 9XDXJXDX7X0 . . . . . . . @ J.MXJXKXvX] . . . . . . . . ` aXJXJXJXW.. . . . . . @ F.MXJXJXHXF.. . . . . . . . . . 2 R.SXJXKXsX( . . . . . . 0 2XFXJXKXyX0 . . . . . . n 5XHXJXHX9X+ . . . . . . . . . . . . . . . . . . . . . . . . . . . . . . . . . . . . . . . . . . . ",
". . . . . . . . . . . . . . . . . . . . . . . . . . . . . . . . . . . . . . . . . . . : 9XHXJXLX5XG . . . . . . o ` bXJXJXHXJ.. . . . . . . . . 2 T.tXbXBXSXSXSXLXJXJXJXJXvXS.. . . . . o J.BXJXJXJXDXSXSXSXZXSXBXbXuX$X` . . . . . . o o o o o o o o o o o o o o o o . + P.BXJXJXnX] . o o o o o o o . _ uXJXJXJXHXbX5XU.A.S.S.G F.cXJXJXHXR.. o o o o . . ) yXJXJXJXW.. o o o o o o . F.SXJXJXMXF.. . o o o o o . + F.5XjXBXZXSXSXDXKXJXJXJXnX0.+ . o o o o o o o o o o o o o o o o o o . ` sXKXJXSXE.8 . o o o o o o o + yXJXJXKX>X2 . o o o o o o . W.JXJXJXbXd.. o o o o o o o O O O O O O O O O O O O . : P.9XlXBXSXSXSXDXJXJXJXJXlX) o o O O o . W.HXJXJXKXFXSXSXSXZXZXBXvXaXW.G . o O o o o o o . 9 MXJXJXSXH.: . O O O o . S.FXJXJXKXFXSXSXSXNXZXSXBXyXW.G . . o O O O O o . 3XJXJXJX7X5 . o o O O O O O o O O O O O O O . J.JXJXJXaXG O o O O O O O O O O O O O O O O O O O O . : F.ZXJXJXBXn . O O O O O O O O O O O O O . ] cXJXJXJXDXnX5XP.F.A.0.9 U.SXJXJXSXR.o o o O O O . A.vXJXJXNXP.. o O O O O . F.BXJXJXBXF.. o O O O O . P.NXJXJXnXA.. O O O O o o A.bXJXKXpX' . O O O O O O O O O O . A.bXJXJXSXH.. O O O O O O . 4XJXJXJX7X5 o O O O O O : yXJXJXJX3X5 . O - , , ; O D.vXJXJXJXW.. O O O O - - . U.DXJXJXcXd.. O ; O O O o 5 7XJXJXJX8Xo O - , 4 4 Z I 4 f.ZXJXJXMXH.b 1 6 c M M V Y S 6 f.cXJXJXsX] . o o o o o O O O O O + uXJXJXJXE.o - 1 & O O O ; . %XJXJXJXjXf.V V I A Z y . 0XJXJXJX9XF 1 3 3 c :.7.p.<XmXJXJXJX,XD 3.! ! Q T T Y.mXJXJXDX&XT 3.! L s U w.*XOX'._.M.m.N.OX@X;X]./.(.o.a e e * * * * 3 3 6 6 3 & & 6XJXJXJX0X& 4 N 7.a.=...a 4 O H lXJXJXSXE.a 1 Y ~ P u 1 x d.nXJXJXLXf.X 6 6 6 6 O f.SXJXJXJXLXFXFXSXSXZXZXNXlX3Xf.1 O 6 1 1 1 1 1 1 1 >XJXJXJXeXS I I U U S Z 1 d.aXKXJXHX,Xx y i D Q y.E Y z.=X'.*.#.y.x.m.u.E U a.=X{.*.u 6 Z D D D A p A Z i i 6 6 6 6 i 6 6 6 6 6 6 6 6 6 6 1 Y.mXeX/ 6 6 6 1 1 6 6 6 6 3 3 6 6 1 6 6 6 1 1 3 6 6 6 6 6 3 6 1 6 i F s.dXJXJXJXU.. 6 6 6 6 6 6 6 6 X d.LXJXJXBXU.F 1 1 3 6 3 Z U D x x 0XJXJXJXKXBXeXR.G.G.f.' f.pXJXJXJX>X. 3 6 6 6 6 6 1 eXJXJXJX>XO 1 1 | ).+Xw.j f.bXJXJXDXU.X 6 6 3 3 6 6 1 1 f.>XuXvXZXSXFXFXKXJXJXJXKX6X, 1 6 6 4 1 . G.MXJXJXNXP.. O - O O X . 7 8XJXJXJXHXnXqXT.A.D.d.` A.sXJXJXJXE.. x v 6 4 1 3 6 . I.JXJXJXsX) X . O O . X X . 5 H.BXJXJXJXFXSXSXSXZXSXSXnXeXW.) . O O O & & 3 3 o f.bXKXJXZXE.b 4 v v b x v v 6 v B > q.iXHXJXDX3X9 O 6 6 6 6 x v c z R eXJXJXJX>X. z z c z 6 6 4 , E.KXJXJXjX` - . o . o . . . n bXJXJXNXU.: . . . . . . . . . T.HXJXJXKXSXaXW.D.S.d.] m 7XJXJXJX8XG . o o o o o o . ' aXKXJXHXW.. . o o o o o o . 9 cXJXJXJXHXSXSXSXSXZXZXBXcX7XA.o . o o o o o o . . J.HXJXJXuX+ . . o o o o o o o o o . . : H.9XsXvXBXSXSXDXJXJXJXJXDXA.. . o o o . 0.SXJXJXNXT.: . o o o o o o o o o o o o . o W.JXJXJXKXBXtXW.D.S.S._ ' uXJXJXJX2X. . o o o . . . 5XJXJXJX2X. . . o o . o n aXJXJXJXDXSXSXSXZXNXZXBXsX4X` . . . o o o o o o o . o . . o o o o . . . . ( tXHXJXKXuX: G dXJXJXJX5X. . . . . . . . . . + S.bXJXJXJXDXSXSXSXNXZXSXMXuXW.` . . . . . . . . . . 2 cXJXJXFX] . . 0 W.SXJXDX7X9 . . . . . . . . . . S.8XyXvXSXSXSXFXKXJXJXJXDXJ.. . . . . . . . . . . . . . . . . . . . . n 9XJXJXJX4X. . . . . . . . . 9 yXKXJXHX8XG . . . . . . . @ R.SXJXJXBXS.. . . . . . . . . . . . . . . . . . . . . [ aXJXJXKXP.. . . . . . . . . . ] SXJXJXBX_ . . . . . . . . . . _ yXJXJXJXHXcX7XT.S.S.S.( ] yXJXJXJXW.. . . . . . . _ aXJXJXJXW.. . . . . . . . J.FXJXJXBXJ.. . . . . . . . + F.4XsXMXNXSXSXDXJXJXJXJXFXR.+ . . . . . . . 9 7XDXJXDX7X0 . . . . . . . + J.MXJXKXvX] . . . . . . . . ` aXJXJXJXW.. . . . . . @ F.MXJXJXHXF.. . . . . . . . . . 2 E.SXJXKXsX( . . . . . . 0 2XFXJXKXyX0 . . . . . . n 5XHXJXKX9X: . . . . . . . . . . . . . . . . . . . . . . . . . . . . . . . . . . . . . . . . . . . ",
". . . . . . . . . . . . . . . . . . . . . . . . . . . . . . . . . . . . . . . . . . . : 9XHXJXLX5XG . . . . . . o ` bXJXJXHXJ.. . . . . . . . . . + 8 0 n ' A.P.7XSXJXJXJXDXT.. . . . . o J.BXJXJXKX2X0.F.F.] ] ) 8 2 : o . . . . . . o o o o o o o o o . . o o o o o . + P.BXJXJXMX] . o o o o o o o . A.NXJXJXJXiX_ 2 + + + + . ] dXJXJXHXR.. o o o o . . ) yXJXJXJXW.. o o o o o o . F.SXJXJXvXA.. . o o o o o o o : 2 8 n ` S.F.2XMXJXJXJXDX3X2 . o o o o o o o o o o o o o o o o o o . ` sXKXJXSXE.8 . o o o o o o o . eXJXJXKX>X2 . o o o o o o . W.JXJXJXaX' . o o o o o o O O O O O O O O O O O O O o o : 8 9 n ] H.P.4XBXJXJXJXBXJ.+ o O O o . E.DXJXJXSX2XA.H.A.0.' G 9 8 2 O o O O O O o o o . 9 MXJXJXSXH.: . O O O o . S.FXJXJXZXE.H.H.D.] ] ' G 8 2 O o o o o o O O o . 3XJXJXJX7X5 . o O O O O O O O O O O O O O O . J.JXJXJXaXG O o O O O O O O O O O O O O O O O O O O . : F.ZXJXJXBXn . O O O O O O O O O O O O O . F.KXJXJXFX5X` 2 : : : : . D.ZXJXJXSXR.o o O O O O . A.vXJXJXNXP.. o O O O O . F.BXJXJXBXF.. O O O O o . P.NXJXJXnXA.. O O O O o O 4XKXJXHXW.5 . O O O O O O O O O O o A.bXJXJXSXH.. O O O O - O . 4XJXJXJX7X5 o O O O O O : yXJXJXJX3X5 . O - , , ; O D.vXJXJXJXW.. O O O O O O . U.DXJXJXcXd.. O O O O O o 5 7XJXJXJX8Xo O - , 4 v Y T J Z.SXJXJXMXG.5 X 1 j k z 1 & O . 2XJXJXKXR.. o O O O O O O O O O O : yXJXJXJXE.o - ; & & ; O - . %XJXJXJXjXq.M V I S D Z . 0XJXJXJXwXR 6 i v ,.w.x.k.<XzXJXJXJX,XE y.y.3.3.Q Q Y.mXJXJXFXY.D ! K A p Y w.oX+X].'.k.j.m.v.OX=X{.].).=...t r * * * 3 4 3 3 * * & O 6XJXJXJX0X& 3 c V E  .t 3 6 & H lXJXJXSXE.F O 4 1 3 3 1 Z d.nXJXJXDXd.X y i 6 6 . f.SXJXJXFXeXU.I.L.f.d.' / H F 6 1 1 1 1 ; ; 1 4 4 4 ,XJXJXJXeXv v v v v Z Z & d.aXKXJXHX,Xx A p Z U 2.y.E 5.OX-X].*.#.p.a.a.#.K U a.[.'.u.J y i A D A A Z Z i i 6 6 6 i i 6 6 6 6 6 6 6 6 6 6 6 F ^ / A i 6 6 1 1 6 6 6 6 3 6 6 6 4 6 6 6 1 1 3 6 6 1 1 3 6 6 6 1 1 y s.lXJXJXJXU.. 4 4 6 6 6 6 6 6 . d.LXJXJXBXU.F ; 1 1 1 6 Z S Z 1 f.bXJXJXJXdXd.H F x x x 6 / eXJXJXJX>X. 6 6 6 6 6 6 1 eXJXJXJX>XO 1 & | `.=X8.j d.cXJXJXDXU.X 6 6 6 3 6 6 6 6 Z F F 9 ' G.L..XhXKXJXJXJXdXz 1 6 6 1 1 . G.MXJXJXNXP.. O O O X X . J.ZXJXJXJX7Xn a a A I S 4 q.aXJXJXJXT.. 1 1 O O O O ; . F.JXJXJXsX) + o O . . . O . 5 H.BXJXJXHXW.S.J.F.0.] ` 9 8 2 O O O O O 1 3 3 6 . f.FXJXJXpXF z 4 x v v x v c z x c > q.iXHXJXFX3X9 O 4 7 b 6 x v c c R eXJXJXJX>X. c c c z 4 6 4 , E.KXJXJXjX` - . . . . . . . n vXJXJXNXP.: . . . . . . . . . 9XJXJXJXbXF.+ 2 + + + o . 4XJXJXJX8XG . o o o o o o . ' aXKXJXHXW.. . o o o o o o . 9 cXJXJXHXyXT.D.F.S.] ` G 0 2 : . o o o o o o o . 9 5XKXJXSXT.. . o o o o o o o o o o o o o : 2 8 9 G d.P.4XBXKXJXJXHX5Xn . o o o . 0.SXJXJXNXT.: . o o o o o o o o o o o . . ] sXJXJXJXaX] 8 + + + + . 8 9XJXJXJX2X. . o o o . . . 5XJXJXJX2X. . . o o . o n aXJXJXJX0X0.H.H.0.] ` 9 0 2 o . . o o o o . . o o . . . . o o o . . . . . ( tXHXJXKXuX0 . W.KXJXJXvXA.. . . . . . . . . + S.bXJXJXHX>Xd.H.F.] ] _ 0 2 : . . . . . . . . . . . + eXJXJXDXJ.+ . G tXHXJXBXJ.: . . . . . . . . . . + 2 8 8 _ A.H.R.sXKXJXJXJX4X. . . . . . . . . . . . . . . . . . . . . n 9XJXJXJX4X. . . . . . . . . 9 yXKXJXHX8XG . . . . . . . @ R.SXJXJXBXS.. . . . . . . . . . . . . . . . . . . . . [ aXJXJXKXP.. . . . . . . . . . ] SXJXJXBX_ . . . . . . . . . . A.BXJXJXJXtXn 2 + o o o . ( uXJXJXJXW.. . . . . . . ` aXJXJXJXW.. . . . . . . . J.FXJXJXNXJ.. . . . . . . . . + : 0 0 n S.S.$XMXKXJXJXJXuX+ . . . . . . . 9 9XDXJXDX7X0 . . . . . . . + J.BXJXKXvX] . . . . . . . . _ aXJXJXJXW.. . . . . . @ F.MXJXJXHXF.. . . . . . . . . . 2 R.SXJXKXsX( . . . . . . 0 2XFXJXKXyX0 . . . . . . n 5XHXJXKX9X: . . . . . . . . . . . . . . . . . . . . . . . . . . . . . . . . . . . . . . . . . . . ",
". . . . . . . . . . . . . . . . . . . . . . . . . . . . . . . . . . . . . . . . . . . : 9XHXJXLX5XG . . . . . . o ` bXJXJXHXJ.. . . . . . . . . . . . . . . o : 2 T.BXJXJXJX7X. . . . . o F.MXJXJXHXD.. + + . . . . . . . . . . . . . o o o o o o o o o o o o o o o . . + J.BXJXKXnX] . o o o o o o o . T.JXJXJXbXS.. . . . . . . ] aXJXJXHXR.. o o o o . . ) yXJXJXJXW.. o o o o o o . F.SXJXJXvXA.. . o o o o o o o . . . . . o : : J.nXKXJXJXpX8 . o o o o o o o o o o o o o o o o o o . ) sXKXJXSXE.8 . o o o o o o o . qXJXJXKX>X2 . o o o O o o . W.JXJXJXaX` . o o o o o o O O O O O O O O O O O o O O o . . . . . : 2 : E.HXJXJXHX4X+ . O O o . T.SXJXJXvXA.. : O o . . . . . o O O O O O o o o . 9 MXJXJXSXF.: . O O O . . A.FXJXJXnX` : : O . o . . . . o O O O O O O O o . 3XJXJXJX7X5 . o O O O O o o O O O O O O O O . J.JXJXJXaXG O o O O O O O O O O O O O O O O O O O O . : F.ZXJXJXBXn . O O O O O O O O O O O O . o $XJXJXJXdXH . . . . . o . A.ZXJXJXSXT.o o O O O O . S.vXJXJXNXP.. o O O O O . F.BXJXJXBXF.. O O O O O . P.NXJXJXnXA.. O O O O o + aXJXJXDXd.. o O O O O O O O O O o . A.vXJXJXFXH.. O O O O O O . 4XJXJXJX7X5 o O O O O O o tXJXJXJX3X5 . - - - , ; O D.vXJXJXJXW.. O O O O O O . U.DXJXJXcXd.. O O O O O o 5 7XJXJXJX8Xo O - , 4 v Y 1.D Z.SXJXJXMXL.* X X o - . o O O 2 pXJXJXSXd.. , , , 1 1 & & O O O - 5 iXJXJXJXE.o ; 1 & & - O - . W.JXJXJXyX/ j c v I Y S X 0XJXJXJXwX1.T 3.8.c.OX=X].<XzXJXJXJX<X#.y.y.3.2.Q U Y.mXJXJXDXY.A W L J D 1.r.oX[.`._.l.u.y.p.p.m.m.m.N.m.g.@. .u * % 1 4 3 * * 3 1 O 0XJXJXJX0XX & 1 x 6 3 3 1 3 X H lXJXJXFXE.H O & & 1 1 3 i f.nXJXJXLXd.. 6 6 6 6 o d.mXJXJXZXE.F 3 i 6 3 1 O O & & & & O O ; 1 4 6 6 4 ,XJXJXJXeX6 6 6 6 6 i i O &.aXKXJXHX>X4 U K A Z S 2.p.p.a.+X:X_.@.W 5.a.j.$.p S 5.p.a.j.j.+.u * y A A Z i i 6 6 6 6 i 6 6 6 6 6 6 6 6 6 6 Z 6 3 6 Z 6 6 6 1 1 1 6 6 6 6 6 6 6 6 6 6 6 3 1 1 1 6 4 1 3 6 6 6 4 1 3 s.zXJXJXJXU.. 4 4 4 6 6 6 6 6 . d.LXJXJXBXU.F O 1 1 1 6 6 x x O E.DXJXJXFXQ.O ; 1 1 1 1 1 F eXJXJXJX>X. 6 6 6 6 6 1 1 eXJXJXJX>X; 1 * X.`.+X7., d.cXJXJXDXU.X 6 6 3 6 6 6 6 x 4 , - X e K S u Z.hXJXJXJXbXR x 6 6 6 1 . G.MXJXJXNXP.. o X X O O . E.HXJXJXnXD.. e +.#.<.N j q.aXJXJXJXT.. ; - O O O O O . F.KXJXJXsX) : o O . . o O . 5 J.BXJXJXHXd.. 2 : o o . . . . o O O O O & 1 3 1 4 %XKXJXJX5X- z x Z S v v v v x x v > q.iXHXJXDX3X9 O 4 7 b i Z v c z R eXJXJXJX>X. c c c z 4 6 4 , E.JXJXJXdXn o . . . . . . . ( bXJXJXNXP.2 . . . . . . . . n aXJXJXJXE.. . . . . . . . 4XJXJXJX8XG . o o o o o o . ' aXKXJXHXW.. . o o o o O O . 9 sXJXJXDX4X( . + o . . . . . . o o o o o o o o . A.BXJXJXaX` . . o o o o o o o o o o o o . . . . . . o : 9 ] iXJXJXKXaX] . o o o . ] nXKXJXNXT.: . . . . . . o o o o o . . . J.SXJXJXDXT.. . . . . . . : 7XJXJXJX2X. . o o o . . . 5XJXJXJX2X. . . o o . o G aXJXJXJXU.. + + . . . . . . . o o o o . . o o o . . . o o o o o o . . . . ( eXHXJXKXuX9 . ( tXJXJXJXtX+ . . . . . . . . + S.vXJXJXFXS.. + + . . . . . . . . . . . . . . . . . + W.FXJXHX2X9 . ( bXJXJXvX] + . . . . . . . . . . . . . . . @ + + d.aXJXJXJXeX@ . . . . . . . . . . . . . . . . . . . . n 9XJXJXJX4X. . . . . . . . . 9 yXKXJXHX8XG . . . . . . . @ R.SXJXKXNXS.. . . . . . . . . . . . . . . . . . . . . [ aXJXJXKXP.. . . . . . . . . . ] SXJXJXBX_ . . . . . . . . . . R.JXJXJXvXS.. . . . . . . G tXJXJXJXW.. . . . . . . ` aXJXJXJXW.. . . . . . . . J.FXJXJXNXJ.. . . . . . . . . . . . . . . . + F.aXHXJXJXbX0 . . . . . . . 9 9XLXJXDX7X0 . . . . . . . + J.BXJXJXvX] . . . . . . . . _ aXJXJXJXT.. . . . . . . F.MXJXJXHXF.. . . . . . . . . . 2 E.SXJXKXsX_ . . . . . . 0 2XFXJXKXuX0 . . . . . . n 0XGXJXKX9X+ . . . . . . . . . . . . . . . . . . . . . . . . . . . . . . . . . . . . . . . . . . . ",
". . . . . . . . . . . . . . . . . . . . . . . . . . . . . . . . . . . . . . . . . . . : 9XKXJXLX5XG . . . . . . o ` bXJXJXHXJ.. . . . . . . . . . . . . . . . . . . 2XKXJXJXyX@ . . . . o S.bXJXJXDXd.. . . . . . . . . . . . . . . o o o o o o o o . o o o o o o o . . + J.BXJXKXnX] . o o o o o o o . W.JXJXJX8X+ . . . o . . . ] aXJXJXHXR.. o o o o . . ) yXJXJXJXW.. o o o o o o . F.SXJXJXbXS.. . o o o o o o o o o o o . . . . : $XFXJXJXvX9 . o o o o o o o o o o o o o o o o o o . ) sXKXJXSXE.8 . o o o o O O o . eXJXJXKX>X2 . o o o o o o . W.JXJXJXpX) . o o o o o o O O O O O O O o O O O O O O O O O O O o . . . G yXHXJXJXtX+ . O O o . U.ZXJXKXbX0.. . . . o o o o O O O O O O O O O o . 9 MXJXJXSXF.: . O O O o . d.FXJXJXvXn . . . o o o o O O O O O O O O O O o . >XJXJXJX7X2 . o O O O O o O O O O O O O O O . P.JXJXJXaXG O o O O O O O O O O O O O O O O O O O O . 2 H.ZXJXJXBXn . O O O O O O O O O O O O . 8 0XJXJXJX7X. o O O O O O . D.ZXJXJXSXT.o o O O O O . A.vXJXJXNXP.. O O O O O . F.BXJXJXBXF.. O O O O O . P.NXJXJXnXA.. O O O . 2 F.NXJXHXeXm . O O O O O O O O O O o . A.vXJXJXFXH.. O O O O O O . 4XJXJXJX7X5 o O O O O O . eXJXJXJX3X5 . O - - , ; O A.vXJXJXJXW.. ; ; O O O - . U.DXJXJXcXd.. O - ; O O o 5 7XJXJXJX8Xo ; - , 4 z v :.V n.ZXJXJXBXY.$...| t = # @ . < H.BXJXHXeXH . , , 1 1 & & O O O - ; , uXJXJXJXE.O ; 1 & & ; O O . W.JXJXJXeXm ; , c V 1.Q e 6XJXJXJXrXb.m.B.B.+X[.[.M.<XzXJXJXKX<X#.#.#.3.Q E D Y.mXJXJXDXY.I ! ! L U 7.r.OX`./.=.s.8.y.+.d J T 1.8.z.x.u.u.u.+. .r * & * 3 3 1 X 0XJXJXJX0X$ & & 1 1 1 4 1 3 X H lXJXJXFXE.F X & & 1 3 & i f.nXJXJXLXd.. 6 6 6 6 o q.lXKXJXZXR.6 X 1 1 3 6 6 3 1 1 O O O 1 1 4 6 6 6 4 >XJXJXJXgX3 6 6 6 6 i i O &.aXKXJXHX>X1 I 3.W p y B 8.a.u.a.+X-Xh.+.K x.=X'.$.p 4 I 3.N.;X{.g.@.p 6 Z A A i 6 6 6 6 Z Z A Z 6 6 6 6 6 6 6 i Z Z Z Z 6 6 6 1 1 1 6 6 6 6 6 6 6 6 6 6 6 3 3 6 4 4 6 3 3 6 6 6 6 1 6 s.zXJXJXJXU.. 1 1 4 6 3 6 6 6 . d.LXJXJXBXU.F O 1 1 1 6 6 x 4 o >XKXJXJXlXd.o 6 6 6 6 6 4 F eXJXJXJX X. 6 1 1 1 1 1 & eXJXJXJX>X- 1 * ..`.OX:.; f.bXJXJXDXU.. 3 3 6 6 6 6 6 6 6 6 z p @.$.Y & | .XHXJXJXmXf.S 6 x 6 1 . G.MXJXJXNXP.. X X & 4 , . 0XJXJXJXeXq.4 A ~ E B k ; ' aXJXJXJXT.. ; - ; ; : 2 3 . I.KXJXJXsX) : o O O o o o . 2 A.MXJXJXLX' . . . o o o O O O O O O O O O & 1 X d.jXJXJXBXI.- n F A U Y Y B v v v v > q.iXHXJXDX3X7 . 1 6 x 6 i v c z / eXJXJXJX,X- v c c z z 4 4 - R.JXJXJXpX: . . . . . . . . ( vXJXJXZXP.: . . . . . . . o 0.cXJXJXHXS.. o o o o o o . 4XJXJXJX8XG . o o o o o o . ' aXKXJXHXW.. . o o o o o O . 9 yXJXJXFX2X8 . . . . . o o o o o o o o o o o o . $XJXJXJX$X. . o o o o o o o o o o o o o o o o o o o . . . . T.FXJXKXMXd.. o o o . ' cXKXJXNXT.: . . . . . . . o o o o . . . R.KXJXJXbX] . . o o o . . 2 7XJXJXJX2X. . o o o . . . 5XJXJXJX2X. . . o o . o 9 yXJXJXJXJ.. . . . . . o o . . o o o o . . . o o o . . o o o o o . . . . . ( eXHXJXKXuX9 . . 0.FXJXJXFXT.+ . . . . . . . + 0.bXJXJXSX] . . . . . . . . . . . . . . . . . . . . @ F.vXJXHXsX] . ] FXJXJXsX2 . . . . . . . . . . . . . . . . . . . . T.JXJXJXaXG . . . . . . . . . . . . . . . . . . . . n 9XJXJXJX4X. . . . . . . . . 0 8XHXJXHX8XG . . . . . . . @ R.SXJXKXvX] . . . . . . . . . . . . . . . . . . . . . [ aXJXJXKXP.. . . . . . . . . . ] SXJXJXBX_ . . . . . . . . . . $XJXJXJX7X+ . . . . . . . ( uXJXJXJXW.. . . . . . . ` aXJXJXJXW.. . . . . . . . J.FXJXJXNXJ.. . . . . . . . . . . . . . . . . . F.FXJXJXMXn . . . . . . . 9 7XLXJXDX7X0 . . . . . . . + P.BXJXJXvX] . . . . . . . . _ aXJXJXJXT.. . . . . . @ F.MXJXJXHXF.. . . . . . . . . . 2 E.SXJXKXsX_ . . . . . . 0 2XFXJXKXuX0 . . . . . . G 7XHXJXKX9X+ . . . . . . . . . . . . . . . . . . . . . . . . . . . . . . . . . . . . . . . . . . . ",
". . . . . . . . . . . . . . . . . . . . . . . . . . . . . . . . . . . . . . . . . . . : 9XKXJXLX5Xn . . . . . . o ` bXJXJXHXJ.. . . . . . . . . . . . . . . . . . . J.KXJXJXaX: . . . . o 0.bXJXJXDXS.. . . . . . . . . . . . . o o o o . o o o o o . o o o o o o o o . + J.BXJXKXnX] . o o o o o o . . >XJXJXJX8X2 . . o o o o . ] aXJXJXHXR.. o o o o . . ) yXJXJXJXW.. o o o o o o . F.SXJXJXjX] . . o o o o o o o o o o o o o o . : F.SXJXJXNX9 . o o o o o o o o o o o o o o o o o o . ) sXKXJXSXE.8 . o o o O O O o . 9XJXJXKX>X: . o o o o o o . W.JXJXJXtXn o o O O O O O O O O O O O O o o O O O O O O O O O O O O O . 8 W.HXJXJXuX+ . O O o . U.NXJXKXbXd.. O O O O O O O O O O O O O O O O O . 9 MXJXJXSXH.: . O O O o . ' FXJXJXvXG o o O O O O O O O O O O O O O O O O . W.JXJXJX9X5 . O O O O O O O O O - O O O O O . J.JXJXJXaXG O o O O O O O O O O O O O O O O O O O O . : A.NXJXJXBXm . O O O O O O O O O O O O . 5 4XJXJXJX7X. o O O O O O . D.NXJXJXSXR.o o O O O O . A.vXJXJXNXP.. O O O O O . F.BXJXJXBXF.. O O O O O . P.NXJXJXnXA.. O O O . G pXKXJXBXd.: . O O O O O O O O O O O o A.vXJXJXSXH.. O O O O O O . 4XJXJXJX7X5 o O O O O O . 7XJXJXJX2X2 . - - ; , ; O D.vXJXJXJXW.. ; O O O - - . U.DXJXJXcXd.. O ; ; - O o 5 7XJXJXJX8XO ; , 4 4 4 x I k n.ZXJXJXCX<XV.)./.=.%.[ a * / uXKXJXNXF.: . - - ; O O O O O O - - . eXJXJXJXE.X & 1 & & ; ; ; . W.JXJXJXeXm ; , c V 1.3.D wXJXJXJXxX=X[.[.[.M.j.a.p.#XmXJXJXHX<X+.+.W Q Q E D Y.mXJXJXFXY.B 2.E P T 7.r.x.h.O.+.1.e.a.@. .J D S S V 1.8.c.N.M./.O.| r 3 3 * & X 0XJXJXJX6X* * 1 1 1 1 4 1 3 O H lXJXJXSXE.F O 1 1 1 3 1 i d.nXJXJXLXd.. 6 6 6 6 O d.lXKXJXZXE.F 1 6 6 4 1 1 1 1 1 ; 1 1 4 6 6 6 6 4 1 >XJXJXJXqX3 i i i i Z Z & d.aXKXJXHX>X1 v ! y.K i 6 I 5.y.#.p.B.[.g.+.i.+X-X].$.p D I 5.B.;X:X{.l.#.J A A Z i i i i Z S D D D Z 6 6 6 y i i Z Z Z Z i 6 6 3 1 1 6 6 6 6 6 6 6 6 6 6 3 3 3 3 4 1 1 3 3 3 3 6 3 1 6 s.lXJXJXJXU.. 6 4 4 1 3 6 6 6 . d.LXJXJXBXU.b O 1 1 1 3 3 6 x o >XJXJXJXdXf.; 6 6 6 6 6 4 F eXJXJXJX>X. 1 1 1 1 & 1 1 eXJXJXJX>X; 1 e @.M.c.M O d.bXJXJXDXU.. 3 3 6 6 i i i 6 6 6 4 a %.g.4.c t (.FXJXJXBXY.F 4 x x 6 o G.MXJXJXNXP.. = 7 Z S c . eXJXJXJXeX9., 4 1 O O O X ' aXJXJXJXT.. ; O ; < 2 0 p . I.KXJXJXsX) O o O O o . . . O ' bXJXJXHX] . - - - O O O O O O O O O O O & 1 . E.KXJXJX6Xb 8 { g J Q 1.1.B v S v v > q.iXHXJXFX3XF O 6 x c v Z v c z A gXJXJXJX,X> v x z c z z , - R.JXJXJXyXo . . . . . . . . ( vXJXJXNXP.2 . . o . . . . o A.vXJXJXHXK.. o o o o o o . 4XJXJXJX8XG . o o o o o o . ' aXKXJXHXW.. . o o o o o O . 9 eXHXJXDX3Xn . o o o o o o o o o o o o o o . . G aXJXJXSXS.. o o o o o o o o o o o o o o o o o o o o o o . o H.MXJXJXSXA.. o o o . ' cXKXJXNXT.: . . o . . . . . . o o o . . E.JXJXJXsX] . . o o o . . 2 7XJXJXJX2X. . o o . . . . 5XJXJXJX2X. . . o o . o : uXJXJXJXJ.. o o o . o o o o o . . o o o o o o o o . o o o . . o . . . . . ( tXHXJXKXuX9 . . 9 9XHXJXJXvX) . . . . . . . o ` jXJXJXDX0.. . . . . . . . . . . . . . . . . . . . . _ aXJXJXFXS.. J.HXJXJX8X. . . . . . . . . . . . . . . . . . . . . A.KXJXJXsX[ . . . . . . . . . . . . . . . . . . . . n 9XJXJXJX4X. . . . . . . . . 8 4XFXJXHX8XG . . . . . . . @ R.SXJXHXaX' . . . . . . . . . . . . . . . . . . . . . [ aXJXJXJXP.. . . . . . . . . . ] SXJXJXBX_ . . . . . . . . . . 2XJXJXJX7X+ . . . . . . . ( tXJXJXJXW.. . . . . . . _ aXJXJXJXW.. . . . . . . . J.FXJXJXNXJ.. . . . . . . . . . . . . . . . . . n ZXJXJXMX_ . . . . . . . 9 9XLXJXDX7X0 . . . . . . . + H.BXJXKXvX] . . . . . . . . [ aXJXJXKXU.. . . . . . @ F.MXJXJXHXF.. . . . . . . . . . 2 R.SXJXKXsX_ . . . . . . 0 2XFXJXKXuX0 . . . . . . G 7XLXJXKX9X+ . . . . . . . . . . . . . . . . . . . . . . . . . . . . . . . . . . . . . . . . . . . ",
". . . . . . . . . . . . . . . . . . . . . . . . . . . . . . . . . . . . . . . . . . . : 9XHXJXLX7XG . . . . . . o ` bXJXJXHXJ.. . . . . . . . . . . . . . . . . . . T.KXJXJXyX+ . . . . o 0.bXJXJXDXS.. . . . . . . . . . . . . . . . o . o o o o o o o o o o o o o o . + J.BXJXKXnX] . o o o o o o . . W.JXJXJXeX8 . . o o . o . ] dXJXJXHXR.. . o o o . . ) yXJXJXJXW.. o o o o o o . F.SXJXJXaX` . . o o o o o o o o o o o o o o . : F.SXJXJXBX9 . o o o o o o o o o o o o o o o o o o . ) sXKXJXSXE.8 . o o O O O O o . 4XJXJXKX2X2 . o o o o o o . W.JXJXJXqX8 . o O O O O O O O O O O O O o o O O O O O O O O O O O O O . m 2XHXJXJXtX+ . O O o . H.MXJXKXbXd.. O O O O O O O O O O O O O O O O O . 9 MXJXJXSXH.: . O O O O . ) SXJXJXvX) o o O O O O O O O O O O O O O O O O . E.JXJXJXeXG . O O O O O O O O O O O O O O O . J.JXJXJXaXG O o O O O O O O O O O O O O O O O O O O o o ' BXJXJXBXn . O O O O O O O o O O O O . 2 4XJXJXJX7X. o O O O O O . D.NXJXJXSXR.o o O O O O . A.vXJXJXNXP.. o O O O O . F.BXJXJXBXF.. O O O O O . P.NXJXJXnXA.. O O O . ` MXJXJXcXG O o O O O O O O O O O O O . A.vXJXJXSXH.. O O O O O O . 4XJXJXJX7X5 o O O O O O . 3XJXJXJX3X5 . - ; ; , ; O J.BXJXJXJXW.. ; O O O - - . U.DXJXJXcXd.. O - - - O o 5 7XJXJXJX8XO ; , 4 4 6 Z D 1 f.SXJXJXBX&Xz.p.a.a.x.a.u.=.XXFXJXJXbXn . X O O O O O O - O O - O . 8XJXJXJXE.X & & & 1 1 1 1 . W.JXJXJX8X4 j c 1.1.4.y.Q rXJXJXJXhX}.k.j.u.y.i.y.! C.bXJXJXGX<X+.+.W Q T U D Y.mXJXJXFXY.v Q K J Y 7.e.a.g.$.! 8.p.a.a.a.j.*.+.s Z B 7.r.c.+X]./.=.@.d u e % $ 6XJXJXJX6Xe e * 1 & & 1 1 1 X H lXJXJXSXE.H O 1 2 1 3 & i d.nXJXJXLXd.. 6 6 6 x ; q.dXHXJXZXE.F 1 4 1 1 ; ; 1 1 1 1 4 6 6 6 6 6 6 6 1 >XJXJXJXqX4 6 x Z Z Z Z & d.aXKXJXHX>X1 6 S E E S y y U 2.y.W i.N.B.u.#.x.=X{.).+.A D D 3.N.;X;X:X}.$.J p i i i Z Z Z A A E ~ U i 6 3 i i i Z Z Z Z i 6 6 3 1 1 3 6 6 6 6 6 6 6 6 3 3 3 3 3 6 4 1 3 3 3 3 3 3 1 6 q.jXJXJXJXU.. 6 6 4 1 3 6 6 6 . d.LXJXJXBXU.F O 1 1 1 1 3 6 6 - 3XJXJXJXsXf.O 6 6 6 6 6 4 F eXJXJXJX X. 1 1 1 1 & 1 3 eXJXJXJX>X> 1 u *.m.e.l X d.bXJXJXDXU.. 3 3 6 6 i Z Z 6 6 x 6 6 p W 2.N % -.ZXJXJXBXU.F 6 S I S 1 I.BXJXJXNXU.- 9 H / I c . 6XJXJXJXeX) . , , 1 & O o ' aXJXJXJXT.. 1 + O + q 0 a . I.KXJXJXsX) O o O O O . . . O ) cXJXJXHX] . O O O O O O O O O O O O O O & 1 2 eXJXJXHXI.. n { _ P Q 1.1.V v v v v > q.iXHXJXDX0X/ p D I R I D S B c 6 6XJXJXJX,Xo c c z z j , - o R.JXJXJXtX. . . . . . . . . G vXJXJXNXU.b . o o . . . . @ S.bXJXJXHXK.. o o o o o o . 4XJXJXJX8XG . o o o o o o . ' aXJXJXHXW.. . o o o o o O . 8 7XHXJXDX4Xn . o o o o o o o o o o o o o o . . T.SXJXHX4Xm . o o o o o o o o o o o o o o o o o o o o o o . o F.nXJXJXNXA.. o o o . ` dXHXJXNXT.: . o o o o o o . . o o o . . R.KXJXJXsX] . . . o o . . 2 7XJXJXJX2X. . o o . . . . 5XJXJXJX2X. . . o o . . @ qXJXJXJXJ.. . . . o o o o o o o . o o . o o o o o o o . . . . o o . . . . ( tXHXJXKXuX9 . . o 0.MXJXJXDXT.: . . . . . . . 8 aXJXJXHXS.. . . . . . . . . . . . . . . . . . . . . @ 8XJXJXKXA.. $XHXJXHXW.. . . . . . . . . . . . . . . . . . . . . D.HXJXJXsX` . . . . . . . . . . . . . . . . . . . . n 9XKXJXJX4X. . . . . . . . . 8 4XDXJXHX8XG . . . . . . . @ R.SXJXHXyX` . . . . . . . . . . . . . . . . . . . . . [ aXJXJXKXP.. . . . . . . . . . ] SXJXJXBX_ . . . . . . . . . . $XJXJXJX9X: . . . . . . . ( uXJXJXJXW.. . . . . . . _ aXJXJXJXW.. . . . . . . . J.FXJXJXNXJ.. . . . . . . . . . . . . . . . . . 9 ZXJXJXMX_ . . . . . . . 9 9XDXJXDX7X0 . . . . . . . @ ] bXJXKXMX] . . . . . . . . ] sXJXJXSXF.. . . . . . . F.MXJXJXHXF.. . . . . . . . . . 2 E.SXJXKXsX_ . . . . . . 0 2XFXJXKXuX0 . . . . . . G 7XLXJXHX7X+ . . . . . . . . . . . . . . . . . . . . . . . . . . . . . . . . . . . . . . . . . . . ",
". . . . . . . . . . . . . . . . . . . . . . . . . . . . . . . . . . . . . . . . . . . : 5XHXJXHX9X( . . . . . . + ] bXJXJXHXJ.. . . . . . . . . . . . . . . . . . . T.KXJXJXuX. . . . . o n dXJXJXHXS.. . . . . . . . . . . . . o o o o o o o o o o o o o o . . o o o . + J.BXJXKXvX] . o o . . o o o . W.JXJXJXuX9 . . o o o . . d.bXJXJXHXR.. . o o o . . ) yXJXJXJXW.. o o o o o o . P.HXJXJXuXn . o o o o o o o o o o o o o o o . + S.NXJXJXMX9 . o o o o O o o o o o o o O O o o o o . ` sXKXJXZXR.5 . o o o o o o o . W.KXJXJX7Xm . o o o o o o . W.JXJXJX9X: . o o o O O o o o O O O o o O O O O O O O O O O O O O O O . n 3XHXJXJX7X+ . O O o . A.bXJXJXnXS.. O O O O O O O O O o o o O O O O O . 9 MXJXJXSXH.: . O O O O . G BXJXJXBXd.: . O O O O O O O O o o O O O O O O . T.HXJXJXiX` . o O O O O O O o O O O O O O O . P.JXJXJXsX` O o O O O O O O O O O O O O O O O O O O O . ) NXJXJXNX) . o O O O O O O O O O O - . : 2XJXJXJX9X. o O O O O O . D.SXJXJXSXR.o o O O O O . A.vXJXJXNXU.. o O O O O . F.BXJXJXBXF.. O O O O O . P.NXJXJXnXA.. O O . 2 R.DXJXHX4X+ o O O O O O O O O O O O O . A.bXJXJXSXH.. O O O O O O . 4XJXJXJX7X5 o O O O O O . R.HXJXJX8XG . ; ; , , o . >XJXJXJXJXW.. - - - - - - . U.DXJXJXcXd.. O - - - O o 5 7XJXJXJX8Xo ; ; , 4 4 3 y X d.SXJXJXBXI.<.Y 4.e.r.c.m.'.<XGXJXKXgXf % % X @ @ . o O O O O - O . 0XJXJXJX>X& O ; 1 1 1 1 & . >XJXJXJX5X> V >.e.v.M._.*.rXJXJXJXrXs.2.8.e.z.a.u.%.Y.bXJXJXCXY.L W K E T T S I.mXJXJXFXY.v E J A :.w.x.j.#.E 2.3.#.#.4.e.z.k.h.@.d 6 B <.4.z.N.B.'.'.).=.o.f * 6XJXJXJX6Xy u * 1 1 & & 1 1 X H lXJXJXSXE.H O 1 3 3 3 & 6 d.nXJXJXDXd.. 3 6 4 x , ' eXLXJXZXE.F O 1 & ; 1 1 1 1 4 4 6 6 6 6 6 6 6 4 1 >XJXJXJXqX4 6 x Z i i i O d.aXKXJXHX>X1 6 Z S D D Z i Z U 2.W Q 8.N.M.$.#.m.=X].*.J K A A 3.x.+X;X:X}.g.P y i A Z i i Z Z Z U U A y 3 6 i i Z Z Z Z i 6 6 3 3 1 1 3 6 3 3 3 6 6 6 3 3 6 3 3 6 4 1 1 3 6 3 3 3 3 6 q.jXJXJXJXU.. 6 Z 6 6 6 6 6 6 . d.LXJXJXBXU.F 4 x 4 1 3 3 3 6 - >XKXJXJXdXd.; 6 6 6 6 6 6 / uXJXJXJXW.. 3 1 1 1 1 1 3 eXJXJXJX,Xj 1 r *.N.7., $ f.bXJXJXDXU.. 3 3 6 6 6 Z Z x 6 x i 4 6 A E V . &.FXJXJXMXP.' ~ ! 4.` ( U.mXJXJXZX&XV c 2 1 4 , . 3XJXJXJXeXH . ; 1 1 & O o d.lXJXJXJXT.. 1 ; O O + 2 3 . I.KXJXJXdXH O O O O O o o . . 2 sXJXJXHXd.. O O O O O O O O O O O O O O O 1 d.bXJXKXBXf.. m { _ P Q 1.:.V v x x v , q.iXHXJXDX6X%.P ~ 9.q.^ W ! 1.1.> >XJXJXJX5X- z z z j > - . - W.KXJXJX8X. . . . . . . . . G vXJXJXZXU.C - . . . . . . @ 0.bXJXJXHXD.. . o o o O o . 5XJXJXJX8XG . o o o o o o . ' aXKXJXHXW.. . o o o o o O . 2 2XFXJXDX4Xn . o o o o o o o o o . o o o o . . 5XJXJXHXP.. . o o o o o o o o o o o o o o o o o o o o o o . o H.MXJXKXBXS.. o o o . ) uXHXJXSXW.: . o o o o . . . . o o . . . P.FXJXJXsX] . . o o o . . 8 9XJXJXJX2X. o o o o . . . 5XJXJXJX2X. . . . . o . . 5XJXJXJXT.. . . . . . o o o o . . . o o o o o o o . . o o o o o o . . . . ( tXHXJXKXuX9 . . . : 2XLXJXJXBX] . . . . . . . @ yXJXJXKXF.. . . . . . . . . . . . . . . . . . . . . . 2XJXJXJXJ.0 uXKXJXvXD.. . . . . . . . . . . . . . . . . . . . . A.KXJXJXaX( . . . . . . . . . . . . . . . . . . . . n 9XKXJXJX4X. . . . . . . . . : R.ZXJXDX7Xn . . . . . . . o 2XHXJXHX9X( . . . . . . . . . . . . . . . . . . . . . ` aXJXJXKXP.. . . . . . . . . . ] SXJXJXBX_ . . . . . . . . . . W.JXJXJXuXn . . . . . . . [ aXJXJXJXW.. . . . . . . _ aXJXJXJXW.. . . . . . . . J.FXJXJXBXJ.. . . . . . . . . . . . . . . . . . [ SXJXJXMX9 . . . . . . . 9 9XDXJXDX7X0 . . . . . . . @ ` sXJXJXSX] . . . . . . . . ] cXJXJXSXD.. . . . . . @ F.MXJXJXHXF.. . . . . . . . . . : E.SXJXKXsX( . . . . . . 0 2XFXJXKXyX0 . . . . . . n 5XHXJXKX9X+ . . . . . . . . . . . . . . . . . . . . . . . . . . . . . . . . . . . . . . . . . . . ",
". . . . . . . . . . . . . . . . . . . . . . . . . . . . . . . . . . . . . . . . . . . : 2XFXJXHXaXn . . . . . . . J.NXJXJXHXJ.. . . . . . . . . . . . . . . . . . 2 9XJXJXJX7X. . . . . . . qXJXJXKXP.. . . . . . . . . . . . . o o o o o o o o o o o o o o o . o o o . + T.BXJXJXNX0.. o o . . o o o . R.JXJXJXaX) . . . . . . . J.HXJXJXHXR.. . o o o . . ) yXJXJXJXR.. . . . . . . . R.JXJXJX7X. . o o o o o . . . . . . . . . . . + W.FXJXJXsX8 . o o o O O o o o o o o o o o o o o o . ) aXHXJXSXW.2 . o o o o o o o . U.SXJXJXyXG . . . . . . . . 3XJXJXJXW.. o o o o o o o o o O O O O o O O O O o . . . . . . . o o . . G dXKXJXHX3X+ . O O o . G yXJXJXHXH.. . . o o . . . . . . . O O O O O O . 9 MXJXJXSXH.: . O o O O . G pXKXJXFXW.+ . . . o . . . . . . o O O O O O O . A.MXJXJXBXA.. . . o o . . . . . o O O O O O . J.KXJXJXsX` O o O O O O O O O O O O O O O O O O O O O . 9 dXJXJXFXR.o . . o o o . . . . o O - o . E.JXJXJXtX. . . o o . . . U.JXJXJXSXR.o o O O O O . A.vXJXJXNXU.. o O O O O . F.BXJXJXBXF.. O O O O O . P.NXJXJXnXA.. O O . ' sXKXJXcX0.o o O O O O O O O O O O ; O . A.bXJXJXSXH.. O O O O O O . 4XJXJXJX7X5 o O O O O O . F.MXJXJXZXU.. . . . . O ] cXJXJXJXJXW.. O - - - - - . U.DXJXJXcXd.. O - - ; ; o 5 7XJXJXJX8Xo ; O , , 1 & & . d.FXJXJXBXY.R v Y 1.7.w.7.C.zXKXJXCX<Xl.=.O.X.g w # X . . O O O O . W.KXJXJXgXa . o O O O o . j qXJXJXJX,XB 8.8.z.x.M.h...gXJXJXJX6XI M >.w.z.u.$.L E.ZXJXJXlXC.Q ! W E T Y S I.mXJXJXFXY.x A p B >.z.g.Z.,XrXrXwXC.! 3.3.3.#.#.P A S D J p Z Y e.oX;X:X`.(.-.%.gXJXJXJX6X3 y y * & 1 & & 1 . H IXJXJXSXE.H & 1 1 1 1 & 6 d.nXJXJXDXd.. 3 1 4 4 , /  XFXJXKXfX2 . X X O O O O o . . O 6 6 6 6 6 6 4 1 >XJXJXJXqX4 6 6 x 6 6 6 O &.aXKXJXHX>X1 6 Z Z A A A Z Z Z U ! ! T 8.N.'.g.$.m.[._.+.K #.+.J E y.m.=X;X-X_.+.3 6 Z A A A Z y i A A Z 6 6 6 i i Z Z Z i 6 6 3 3 1 1 1 1 1 3 3 3 4 4 6 6 6 6 3 3 4 6 1 6 6 6 6 3 6 Z 9.dXJXJXJXU.. 6 i 6 6 6 6 6 6 o f.LXJXJXBXU.^ ~ 9.I v 6 6 6 6 ; U.SXJXJXMXf.. 1 1 1 1 O . f.nXJXJXJX X. 3 3 1 1 1 3 3 eXJXJXJX,X, * t h.oX>.& t Y.nXJXJXDXU.. 3 6 6 6 6 6 O o ; 1 1 1 1 y K B > H.HXJXJXMXA.d.G.Z.s.A.S.>XZXJXJXZX&X:.k - O ; ; . E.KXJXJXiX/ . O O O O . . R.HXJXJXJXT.. & O O O O - 1 . H.JXJXJXlX' : o O O O O O o . X pXJXJXHXU.. . . o o . . . . . . . O O O X O 3XHXJXHX>XR 4 b n m D U V V B v 6 x v , q.iXHXJXDX6X^ i / ] ] %.#.y.7.7.h R.KXJXJXqXz > > > > > o . : 5XKXJXJX4X. . . . . . X X . H vXJXJXZXU.C - . . . . . . . ( aXJXJXKXD.. . . . . . . 2 iXJXJXJX8XG . o o o o o o . ] aXKXJXJX>X. . o o o o o O . 2 T.NXJXKXlX9 . . . . . . . . . . . . o o . o ( jXJXJXvX' . o o o o o o o o o o o o o . . . . . . . . . . . . W.HXJXKXaX] . o o o . 8 E.FXJXJXiX8 . . . . . . . . . . o . . . F.BXJXJXBXS.. . . . . . . ` sXJXJXJX2X. . o o o . . . 5XJXJXJX2X. . . . . o . . W.JXJXJX7X+ . . . . . . . . . . . o o o o o . o o . . o o o o o o o o o . ( tXHXJXKXuX9 . . . . 0 aXJXJXJX0X+ . . . . . . . 8XJXJXKXT.. . . . . . . . . . . . . o . . . . . . . . J.DXJXJXW.A.bXKXJXaX_ . . . . . . . . . . . . . . . . . . . . . W.JXJXJXyXo . . . . . . . . . . . . . . . . . . . . G 9XJXJXJX4X. . . . . . . . . + S.BXJXJXbX0 . . . . . . . . 9XJXJXHXW.8 . . . . . . . . . . . . . . . . . . . . . ] sXJXJXJXP.. . . . . . . . . . ] SXJXJXBX_ . . . . . . . . . . T.KXJXJXaX( . . . . . . . F.DXJXJXJXW.. . . . . . . _ aXJXJXJXW.. . . . . . . . J.FXJXJXBXJ.. . . . . . . . . . . . . . . . . . J.FXJXJXbX2 . . . . . . . 9 9XDXJXDX7X0 . . . . . . . . + uXJXJXKXA.. . . . . . . . H.ZXJXKXaX' . . . . . . . F.MXJXJXHXF.. . . . . . . . . . 2 E.SXJXKXsX( . . . . . . 0 2XFXJXKXyX0 . . . . . . n 5XHXJXKX9X+ . . . . . . . . . . . . . . . . . . . . . . . . . . . . . . . . . . . . . . . . . . . ",
". . . . . . . . . . . . . . . . . . . . . . . . . . . . . . . . . . . . . . . . . . . + F.MXJXJXFXT.+ . . . . + S.sXJXJXJXHXJ.. . . . . . o 8 ] 0.G : : o . . : 2 W.FXJXJXSXP.. . . . . . . W.JXJXJXaXS.: o . . o 8 n ) S.J.0.: . o o o . o o o o o o o o o o . o . o . + J.MXJXJXHXA.. . . . . o o o . H.DXJXJXSXW.: o . . . 2 ' yXJXJXJXHXR.. . o o o . . ) yXJXJXJX4X@ : o . . . : ' aXJXJXJXT.. o o o o o o 9 ] ] ( 8 : + . . + 5 U.BXKXJXDX$X2 . o o o o o o o o o o o o o o o o o O . ) uXHXJXKXyXm . . . o o o o o . ] jXJXJXSXW.m : . . . O m H.bXJXJXHXH.. o o o o O o o o o O O O O O O O O o O G 0.] G 5 2 o . . : n >XHXJXJXnXS.o o O O O o . >XJXJXJXyX' 5 O . . - 5 m ' H.U.d.5 . O O O O . 9 MXJXJXSXH.: . O O O O . 5 T.SXJXKXvXJ.2 o o . O 5 G ` S.E.F.. o O o O O . ) tXJXJXJXyX0.9 . . . . : ) ` 9 O o O O O O . H.KXJXJXBXH.. . . . O O O O O O O o O O O O O O O O O . : 3XLXJXJXMXT.5 o . . o : G ' G : o O O . J.KXJXJXMXP.G O . . o 9 0.aXJXJXJXSXR.o o O O O O . A.vXJXJXNXU.. o O O O O . F.BXJXJXBXF.. O O O O O . P.NXJXJXnXA.. O O . J.HXJXJX7Xo O O O O O O O O O O O ; ; O . A.bXJXJXSXH.. O O O O O O . 4XJXJXJX7X5 o O O O O O o 9 8XJXJXJXvXW.U.U.P.U.>XlXJXJXJXJXJXW.. O O O - - - . U.DXJXJXcXd.. O - - - - o 5 7XJXJXJX8XO O O ; ; ; & & . q.MXJXJXDX,XR z x v Y :.M &XKXJXJXkXc.B._./.=.&.[ f e % $ $ X X . . q.jXJXJXPX X9 2 - o - z 9.%XCXJXJXAX<X#.u.y.y.5.i.#.r 6XJXJXJXfXf.1.1.>.7.y.u.s.rXJXJXJXwXy.3.! W E U U S Y.mXJXJXFXY.y p F :.w.z.*.gXKXJXJXJXrXz.a.g.*. .y v I 1.3.#.@. .p B 7.v.@X{.`.`.=.rXJXJXJXyX/ & % $ $ 3 1 & 1 o H lXJXJXSXE.F X & 1 1 3 1 6 d.nXJXJXDXd.. 4 1 1 4 4 v f.NXJXJXDXU.H 3 & ; 6 H / ' f.E.G.i 6 x x x 6 4 ; >XJXJXJXqX4 6 6 6 6 6 6 X &.aXKXJXHX>X1 6 Z Z Z Z A A Z Z Z T 2.E I p.=X{.g.$.m.[.h.+.+.#.#.W D E p.N.=X:X'.#.i y i Z A Z p y y Z Z 6 6 6 i i i i i 6 6 3 1 1 1 1 1 6 6 y Z Z A A x 6 6 6 6 4 4 6 6 6 6 6 6 3 6 U 6.pXJXJXJX6X6 . O O 1 6 6 6 6 o f.LXJXJXBXU.^ R ~ S x 6 6 x x x n.zXJXJXJX9X/ x 1 1 1 F ' uXJXJXJXJX X. 6 6 4 3 3 3 3 eXJXJXJX>X; e ..M.c.M * +.Y.nXJXJXDXU.. 6 6 6 6 6 6 f.f.q.^ F x 1 3 A 6.I.jXJXJXJXfX%.d.J.n.b.I.n.,XZXJXJXZX&Xh j : 1 1 , . P.NXJXJXFXW.F 4 O o O F ' jXJXJXJXJXQ.. & ; ; ; O O & . F.KXJXJXBXF.o . . . O O O O . . >XKXJXKXjXJ.7 ; o o : 8 m ` D.U.A.5 X O & 9 lXJXJXZXq.- v v x 6 v v v v v x x x v ; q.iXHXJXDX5XB > n [ %.#.y.8.7.>.l f.vXJXJXMXY.b b , o o - 2 T.MXJXJXNXH.. . . . . . . X . H vXJXJXDX3X5 . . . . . . . . . 8XJXJXJXtX_ + o . . O ' 4XDXJXJXJX8XG . o o o o o o . ` yXKXJXJX9X. . . . . o o O . O ` bXJXJXHXW.m O o . o 2 n ( ] T.J.5 o o . 8 $XFXJXSXE.5 . o o o o o o o o o o o o . 8 0.0.` m 2 + . . . 9 0.bXJXJXKXW.2 . o o o . o ] NXJXJXDXW.) o . . . + 9 G ( : . o . . ] dXJXJXJX9X9 : . . . : G 5XKXJXJXJX2X. . o o o . . . 5XJXJXJX2X. . . . . o . . F.BXJXJXSXW.n + . . . : 8 G d.P.J.9 . . o o o o o o . o o o o o o o o o . ( tXHXJXKXuX9 . . . . . T.KXJXJXDXU.. . . . . . . R.HXJXJXaXF.9 o . . + 8 8 _ S.J.D.2 . . . . . . . . . ] cXJXJXeX7XDXJXJX7X. . . . . . . . . . : ] ] _ 9 + . . . . 2 T.MXJXJXJX>X. . . . . . . . . . . . . . . . . . . . . n 9XKXJXJX8X. . . . . . . . . . 0 dXJXJXHXT.2 o . . . . 9 A.bXJXJXFXS.. . . . . . . . . . . . . . . . . . . . . . _ aXJXJXJXW.. . . . . . . . . . ] SXJXJXBX_ . . . . . . . . . . D.BXJXJXSXE.: + . . . : ( yXJXJXJXJXW.. . . . . . . _ aXJXJXJXW.. . . . . . . . J.FXJXJXBXJ.. . . . . . : ] 0._ 9 + . . . + + D.lXKXJXKX7X+ . . . . . . . 9 9XLXJXDX7X0 . . . . . . . . . 2XJXJXJXtX[ o . . . . 2 ( tXJXJXKXW.+ . . . . . . @ F.MXJXJXHXF.. . . . . . . . . . 2 E.SXJXKXsX( . . . . . . 0 2XFXJXKXyX0 . . . . . . n 7XHXJXKX9X+ . . . . . . . . . . . . . . . . . . . . . . . . . . . . . . . . . . . . . . . . . . . ",
". . . . . . . . . . . . . . . . . . . . . . . . . . . . . . . . . . . . . . . . . . . . 0 aXJXJXJXNX4XD.d.] S.W.bXKXJXHXJXHXJ.. . . . . . 8 T.bXMX7XT.U.J.S.S.T.0XSXJXJXJX8X9 . . . . . . . ] sXJXJXJXbXW.P.S.S.J.W.4XtXFXHXyX_ . o o o o o o o o o . o o o o . o . . . o ] bXJXJXJX2Xn n n 8 o . o o . ` yXKXJXJXBXW.H.S.] S.R.bXJXJXHXJXHXR.. . o o o . . ) yXJXJXJXbXW.U.H.A.0.S.T.sXJXJXJXaX' . o o o o . o U.jXbX7XW.T.J.D.d.J.0XBXJXJXJXsX] + . o o o o o o o o o o o o o o o o o O . G 9XHXJXJXFXU.G G G : o o o o . + 2XKXJXJXDX8XP.S.d.S.J.2XMXJXJXKXaX] . o o o o O O o o o o O O o o O O O . 2 >XvXcX7XW.T.F.0.S.P.yXHXJXJXJX5X. o o O O O O . D.SXJXJXJXnXW.J.d.S.J.R.$XaXHXHXtX` . O O O O . 9 MXJXJXSXH.: . O O O O o O ( sXJXJXJXMX>XF.F.d.F.R.4XyXSXJXsX+ o O O O O . + W.HXJXJXJXZXW.A.d.d.S.U.eXeXF.: . O O O O . D.FXJXJXJXtX) n G 9 o O O O O O O O O O O O O O O O O . : F.nXJXJXJXZX4XF.d.d.A.U.4XpXE.m . O O . ] cXKXJXJXBX2XJ.A.0.A.W.MXJXJXHXJXSXR.o o O O O O . A.vXJXJXNXU.. o O O O O . F.BXJXJXBXF.. O O O O O . P.NXJXJXnXA.. O o + 5XJXJXKXT.. O O O O O O O O O O O O - O . A.bXJXJXSXH.. O O O O O O . 4XJXJXJX7X5 o O O O O O O . H.DXJXJXJXJXJXJXJXJXJXJXHXHXJXJXJXW.. O O O O O - . U.DXJXJXcXd.. O - - - O o 7 7XJXJXJX8Xo O O ; 1 1 1 1 . ' iXHXJXJXlXn.9.s.s.U B 6.rXJXJXGX,X:.8.i.a.p.p.p.y.#. .d t e & $ X , 3XJXJXJXFX7XU.G.d.f.Y.wXFXJXJXJXrX}.*.$.#.2.4.4.5.Z wXJXJXJXCXeX%XY.I.C.Y.<XrXDXJXJXHX.XW y.W K K E T S Y.mXJXJXFXY.e a b >.r.y...VXJXJXJXJXlX#Xe.m.k.=.@.W ! 2.5.p.u.u.#.L K U e.N.M._.*.1XJXJXJXZXW.^ %.^ a * 3 & & o H lXJXJXSXE.F X & 1 3 3 1 6 d.nXJXJXLXd.. 6 6 y 3 4 z 9.jXJXJXJXLXuXU.G.f.U.$X3X9XvXJXMX' 6 4 v v x 4 ; >XJXJXJXqX4 6 6 6 6 6 6 X ] aXKXJXHX>X1 6 Z Z Z Z Z A A Z i S T Q E E m.;X{.h.a.B.[.$.A E u.y.W K E ! a.B.[.M.#.J i x i i y i i Z i 6 6 6 Z Z i i y 6 6 6 6 6 1 1 6 A A D W E E E S x 6 6 6 6 6 6 6 4 4 6 3 1 6 T I uXJXJXJXBXU.F / / Z 1 1 1 1 . d.LXJXJXBXU.a O 1 1 1 3 3 6 Z D s.rXJXJXJXDXeXY.G.f.G.E.iXHXJXHXJXJX X. 6 4 4 1 1 3 3 eXJXJXJX,X, p @.V.e.> * +.Y.bXJXJXDXU.. 6 6 6 1 i ' pXZXeX6XE.U.G.f.G.>XMXJXJXJXBXY./ ' ~.f.p.n.s.,XBXJXJXCXU.o 1 1 4 1 1 o ] dXJXJXJXFX7XU.A.d.D.>XvXKXJXHXJXJXQ.. 6 c j - O O O . d.SXJXJXDX7X` G G 9 O O O O . . &.sXJXJXJXBX4XJ.d.A.U.W.$XtXDXJXlXG . X 7 H.NXJXHXeX/ ; v v x x v v v v c x x x x , q.iXHXJXDX5XR 5 n f P ! 4.1.:.:.M R >XHXJXJXBX$XR.F.d.d.F.$XZXJXJXJX8Xm . . o o . . . . . 9 aXJXJXKXbXS.8 G n . . . . . . W.JXJXJXJXsXP.F.S.d.T.uXHXJXHXJXJX8XG . o o o o o o . m 0XKXJXJXcX' G G m : o o O o . . 7XJXJXJXHXuXJ.D.d.F.R.2X9XcXJXFXS.: . . ( jXJXJXvX` o . o o o o o o o o o o o o . H.BXvXyX>XT.P.S.] D.3XMXKXJXJXSX0.. . o o o o . 9 dXJXJXJXHXuXJ.A.d.] J.>X7X7X' . o o . : 4XJXJXJXDXtXT.S.] S.T.uXHXJXHXJXJX2X. . o o o . . . 5XJXJXJX2X. . . o o o . . G qXJXJXJXHXqXT.S.] A.T.W.5XBXKXNX0.. . . o o o o . . o o o o o o o o . . ( tXHXJXKXuX9 . . . . . ) uXJXJXJXtX+ . . . . . . ` aXJXJXJXNX5XJ.S.S.J.E.W.8XFXKXMX` . . . . . . . . . ( uXJXJXvXBXJXJXJXW.. . . . . . . . . + D.bXvX8X2XT.F.S.0.F.2XBXJXJXJXcX] . . . . . . . . . . . . . . . . . . . . . 2 4XJXJXJXbXS.n 9 9 + . . . . . . W.HXJXJXZX7XJ.A.S.] A.4XMXKXJXJXdX0 . . . . . . . . . . . . . . . . . . . . . . + 8XJXJXJXiX] n n 0 o . . . . . ] SXJXJXBX_ . . . . . . . . . . ( tXJXJXJXNXW.T.S.] S.E.sXKXJXLXJXJXW.. . . . . . . _ aXJXJXJXW.. . . . . . . . J.FXJXJXBXJ.. . . . . @ S.dXNXeX2XT.H.A.d.J.W.bXJXJXJXbXS.@ . . . . . . . 9 9XLXJXDX7X0 . . . . . . . . . D.MXJXJXJXsXT.D.S.] A.W.yXHXJXJXFXD.. . . . . . . @ F.MXJXJXHXF.. . . . . . . . . . 2 E.SXJXKXsX( . . . . . . 0 2XFXJXKXyX0 . . . . . . n 5XLXJXKX9X+ . . . . . . . . . . . . . . . . . . . . . . . . . . . . . . . . . . . . . . . . . . . ",
". . . . . . . . . . . . . . . . . . . . . . . . . . . . . . . . . . . . . . . . . . . . . 0XJXJXJXJXHXFXSXSXFXLXJXJXsXcXJXHXJ.. . . . . . ( dXKXJXHXDXDXFXFXFXDXHXKXJXJXHXP.. . . . . . . . . W.HXJXJXKXLXFXFXFXFXDXHXHXJXJXFX] . o o o o o o o o o o o o o . . o o o . o 9 dXJXJXJXHXBXbXbXW.n . o o . . U.HXJXJXKXDXFXFXSXFXDXJXJXbX9XHXKXR.. . o o o . . ) pXJXJXJXKXDXDXFXFXSXFXDXKXJXJXHXT.o . o o o o . + 9XJXJXHXDXDXFXFXFXFXHXJXJXJXHXW.. o o o o o o o O O o o o o o o o o o o O . m W.FXJXJXJXDXMXBXdX) o o o o o . ] aXKXJXJXHXDXFXSXFXFXHXKXJXJXFXP.o . o o o o o o o o O O O O o o O O o . 8 sXJXJXHXDXDXFXSXFXDXHXJXJXJXBXF.. o O O O O O . 8 4XKXJXJXKXDXFXFXFXFXDXDXKXJXJXMXd.. O O o O . 9 MXJXJXSXH.: . O O O O O o o >XHXJXJXKXHXFXFXFXFXDXHXHXJXJXvXG O o O O O o . ' aXKXJXJXJXDXFXSXFXFXDXKXSX>X5 . O O O O . ' dXKXJXJXHXBXvXBX>X. o O O O O O O O O O O O O O O O o o + 8XJXJXJXKXHXFXFXFXFXDXHXKXyX' . O O . G 4XHXJXJXJXHXFXFXSXFXLXJXKXBXsXKXFXR.+ o O O O O . A.vXJXJXNXU.. o O O O O . F.BXJXJXBXF.. O O O O O . P.NXJXJXvXA.. O . F.nXJXJXcXd.. O O O O O O O O O O O O - O . A.bXJXJXSXH.. O O O O O O . 4XJXJXJX7X5 o O O O O O O . 5 T.ZXJXJXJXJXJXJXJXJXHXeXdXJXJXJXW.. - - - - - - . U.DXJXJXcXd.. O - - - O . 5 7XJXJXJX8Xo O - ; 1 1 4 4 O ^ 6XLXJXJXKXZXmXZXrX6.S C.mXJXJXjXn.1.1.2.4.8.e.e.z.p.a.a.a.u.@...| r !.nXJXJXJXHXDXFXFXFXDXHXJXJXJXDX.X$.u.y.i.5.5.5.5.D rXJXJXJXJXHXDXDXDXDXDXLXHXJXJXKXhXC.#.y.W L W T Y I Y.mXJXJXFXY.u H C t.e.$...VXJXJXJXJXbXn.:.8.z.m.M.l.*.#.T T E Q 5.u.$.#.Q 4.i.a.x.<XKXJXJXJXDXBXmXdXG.X * * & . H lXJXJXFX%X/ % % 1 3 3 1 6 d.nXJXJXDXd.. v A P y 1 c 1.,XSXJXJXJXHXDXFXFXDXLXHXHXJXJXNXG.6 4 v v v 6 1 >XJXJXJXqX4 6 6 6 6 6 6 . ] aXJXJXHX>XO 6 x x x Z Z Z S S Z v S D E U i.+X;X].g.x.B.k.W 6 K #.W D A A S Q y.x.m.j.#.p 3 3 y Z x 6 3 6 6 x Z A A Z i 6 x A F Z 6 1 6 S S S U U U S Z 6 6 6 1 1 6 6 6 6 4 6 6 1 Z Q 4 6XJXJXJXJXFXMXvXuXf.O 3 1 1 . d.LXJXJXBXU.F O 1 1 & 1 3 3 3 y 6 ,XKXJXJXJXHXDXFXFXFXLXKXJXbXfXKXJX>X. 4 4 4 1 1 3 3 eXJXJXJX,Xc i $.x.7., * Z n.bXJXJXDXU.. 1 1 1 & F U.NXJXHXHXDXDXFXFXFXLXJXJXJXJXrX8.R ` ~.d.p.p.<.&XBXJXJXNXP.. 1 1 1 1 1 ; . W.JXJXJXJXHXDXFXSXFXHXJXJXsX7XKXJXQ.X / :.k - O O O . 0.bXKXJXJXLXBXvXBX4X+ . O O . X . >XJXJXJXKXHXFXFXFXDXDXDXHXJXJXSX) . . H 6XDXJXZXT.F 1 x x x v v v v v v x x x Z 4 q.iXHXJXDX5XF - z x G Z S I B V N - d.nXJXJXKXLXDXFXSXFXFXDXJXJXJXZXF.. . . o o . . . . . 0 4XDXJXJXKXZXvXBXaX9 . . . . . S.vXJXJXJXKXFXFXFXSXDXHXJXMXyXBXJXqXG . o O o o o o . + W.KXJXJXKXSXvXBXqX] o . O O o . A.nXJXJXJXHXFXFXFXFXDXHXHXKXJXFXT.5 . . 0.FXJXJXiX: . o o o o o o o o o o o . . . 4XJXJXHXLXDXFXFXSXFXHXKXJXJXDX4Xm . o o o o o . + U.ZXJXJXJXHXFXFXFXFXFXHXHXFXA.. o o o . F.HXJXJXJXHXDXFXSXFXDXKXJXbX8XKXJX2X. . o . . . . . 5XJXJXJX2X. . . o o o o . . J.DXJXJXJXHXDXFXSXFXDXDXHXJXJXKXJ.. . . o o . . o o o o . . o . . . o . ( tXHXJXKXuX9 . . . . . . P.HXJXJXBXJ.o . . . . . . E.KXJXJXKXHXFXSXFXFXDXDXHXJXJXSX' . . . . . . . . . + 2XJXJXKXKXJXJXDXJ.. . . . . . . . . ( 9XHXJXHXHXDXFXSXFXFXLXKXJXJXHXE.. . . . . . . . . . . . . . . . . . . . . . . U.KXJXJXKXSXvXMXtX0.. . . . . . n aXJXJXJXHXDXFXSXSXFXHXKXJXJXNXF.+ . . . . . . . . . . . . . . . . . . . . . . . 2XJXJXJXKXNXbXnX7X` . . . . . ] SXJXJXBX_ . . . . . . . . . . . J.HXJXJXJXDXDXFXSXFXDXJXJXsX4XHXJXW.. . . . . . . ` aXJXJXJXW.. . . . . . . . J.FXJXJXNXJ.. . . . . + W.SXJXHXGXDXFXFXFXDXLXKXJXJXJX7X@ . . . . . . . . 9 9XDXJXDX7X0 . . . . . . . . . o W.HXJXJXKXDXFXFXSXFXDXHXJXJXHX7XG . . . . . . . @ F.MXJXJXHXF.. . . . . . . . . . 2 E.SXJXKXsX( . . . . . . 0 2XFXJXKXyX0 . . . . . . n 7XGXJXKX7X+ . . . . . . . . . . . . . . . . . . . . . . . . . . . . . . . . . . . . . . . . . . . ",
". . . . . . . . . . . . . . . . . . . . . . . . . . . . . . . . . . . . . . . . . . . . . ( yXJXJXJXJXJXJXJXJXJXKXuX( W.JXJXT.. . . . . . n 5XNXJXJXJXJXJXJXJXJXJXJXJXsXT.2 . . . . . . . . . 9 W.ZXJXJXJXJXJXJXJXJXJXJXHXtXP.8 . o o o o o . o o o o o o o o . o o . . . . T.HXJXJXJXJXJXJXiX) . o o . . G 5XDXJXJXJXJXJXJXJXJXJXqX] D.KXJX$X. . o o o o . 5 W.BXHXJXJXJXJXJXJXJXJXJXJXJXMXW.9 . o o o o o . + T.MXJXJXJXJXJXJXJXJXJXJXJXSXE.: . o o o o o o o o o o o o O O o o o o o O o o ( bXJXJXJXJXJXJXHXP.: . o o o . . 0.iXKXJXJXJXJXJXJXJXJXJXJXpXH.5 . o o o o o o o o o o O O O O o O O o . m >XSXJXJXJXJXJXJXJXJXJXJXJXsXF.O . O O O O O O o . ` 7XHXJXJXJXJXJXJXJXJXJXJXBX9XF.5 . O O o O . 9 FXJXJXHXU.: . O O O O O o . 5 W.DXJXJXJXJXJXJXJXJXJXJXSXyXU.2 o o O O O O . o ] 8XKXJXJXJXJXJXJXJXJXJXKX2X5 . O O O O . 2 U.DXJXJXJXJXJXJXbX+ o O O O O O O O O O O O O O O O O o . ` 7XFXJXJXJXJXJXJXJXJXJXJXdX' . O O o o ' eXJXJXJXJXJXJXJXJXJXLXW.d.W.JXJXW.+ o O O O O . F.FXJXJXKXT.. o O O O O . P.HXJXJXHXP.. O O O O o . T.KXJXJXFXF.. O . 0XJXJXJX4X: . O O O O O O O O O O O ; - O . F.SXJXJXJXU.. O O O O O O . 9XJXJXJXuX7 o O O O O O O O . 7 P.7XsXMXMXnXlXtX>XG.' eXJXJXJXW.. - - - - - O . R.JXJXJXNXA.. O - - ; - o 7 uXJXJXJXiXO O - ; 1 4 j z 3 J f.PXJXJXJXJXJXJXDXb.3.rXJXJXJXrX2.1.4.1.4.4.4.8.8.z.z.c.c.oXB._./.O.-.Q.sXKXJXJXJXJXJXJXJXJXJXJXzX<Xa.3.i.i.i.5.5.8.5.Q <XAXKXJXJXJXJXJXJXJXJXJXJXJXKXrXC.y.5.8.8.a.u.s.9.U Y.mXJXJXFXY.r H ,.w.x.@.X.VXJXJXJXJXdXf.x I 1.8.x.j.$.3.8.i.a.a.a.$.+.P D T 4.8.e.@XxXJXJXJXJXJXJXJX3XX * 3 * . / BXJXJXJX,Xs.d e 1 & 1 1 i d.FXJXJXKXd.. x Z p 3 1 c B F Q.BXJXJXJXJXJXJXJXJXJXJXKXsXU./ 6 6 6 x v x 1 6XJXJXJXfX1 6 4 6 3 6 6 . d.bXJXJXJX0XO 6 6 6 6 x 6 x A D S 6 3 Z S T 3.a.N.{.k.y.x.m.u.u 3 D D D D K Z 6 A 2.p.N.[.'.*.P * 1 i 6 6 i Z S D E E K D Z 6 Z Z x 4 1 4 4 6 6 x x x x 6 6 6 1 1 1 1 3 6 6 6 6 6 1 x U 1 d.MXJXJXJXJXJXJXJXE.. 6 6 3 . d.KXJXJXHXT.F O 1 ; O 1 3 1 & 1 O ^ 3XHXJXJXJXJXJXJXJXJXKXfXf.I.KXJX0X. 6 4 4 1 1 6 3 pXJXJXJXwX6 s *.m.7., * 6 I.ZXJXJXJXE.. 1 1 3 1 a G.iXJXJXJXJXJXJXJXJXJXJXJXGXgX|.x.8.0.!.G.x.z.:.Y.DXJXJXHXU.. 1 & 1 , 1 1 . H 9XKXJXJXJXJXJXJXJXJXKXeX/ P.JXJXW.. Z N l - O O O . 5 U.FXJXJXJXJXJXJXbX+ . O O o . . G 4XBXJXJXJXJXJXJXJXJXJXJXLX7XK.2 . . H.HXJXJXlXb 4 6 x x v v v v v v v x x x Z 4 f.lXJXJXJXqXH , c c b 6 y x v B v ; z D.tXJXJXJXJXJXJXJXJXJXJXJXaXI.> . o o o o . . . . . @ _ bXJXJXJXJXJXJXHX[ . . . . . . J.BXJXJXJXJXJXJXJXJXJXvXA.d.bXJXdX( . o O o o o o o . ] jXJXJXJXJXJXJXDXP.+ . O O O o o F.cXJXJXJXJXJXJXJXJXJXJXJXcXT.( + . ` aXJXJXHXT.. . o o o o o o o o o o o o o . U.SXKXJXJXJXJXJXJXJXJXJXJXLXW.n o . o o o o o . o : U.BXJXJXJXJXJXJXJXJXJXJXHXD.. o o o . 2 W.DXJXJXJXJXJXJXJXJXJXyX` d.HXJX7X. . o o o . . . tXJXJXJX9X. . . . o o o o . 8 R.cXJXJXJXJXJXJXJXJXJXJXKXuXW.( . . . . . . . . o o o o . o . . . o . ) dXJXJXJXsX9 . . . . . . G 8XJXJXJXBX) . . . . . . 9 W.vXJXJXJXJXJXJXJXJXJXJXHX8XJ.2 . . . . . . . . . . U.JXJXJXJXJXJXnXS.. . . . . . . . . 8 T.sXJXJXJXJXJXJXJXJXJXJXJXBXW.9 . . . . . . . . . . . . . . . . . . . . . . . ` sXJXJXJXJXJXJXHXT.@ . . . . . . ` uXJXJXJXJXJXJXJXJXJXJXJXjXJ.+ . . . . . . . . . . . . . . . . . . . . . . . . S.BXJXJXJXJXJXJXFXF.. . . . . d.HXJXJXDX` . . . . . . . . . . . 0 $XDXJXJXJXJXJXJXJXJXJXtX( S.KXJX4X. . . . . . . ` bXJXJXJX4X. . . . . . . . T.JXJXJXHXT.. . . . . + T.cXJXJXJXJXJXJXJXJXJXJXJXHX9X( . . . . . . . . . n yXJXJXJXuX9 . . . . . . . . . . 0 W.MXJXJXJXJXJXJXJXJXJXJXDXW.( . . . . . . . . @ J.DXJXJXJXJ.. . . . . . . . . . 2 $XKXJXJXMX_ . . . . . . 9 7XJXJXJXsX9 . . . . . . ( tXJXJXJXyX2 . . . . . . . . . . . . . . . . . . . . . . . . . . . . . . . . . . . . . . . . . . . ",
". . . . . . . . . . . . . . . . . . . . . . . . . . . . . . . . . . . . . . . . . . . . . . ( 4XyXbXMXMXbXbXdX9XT.( . ( 7X5X' . . . . . . o ) F.W.8XaXdXcXMXMXvXbXaXW.] . . o . . . . . . . . . + H.5XiXcXBXBXnXbXsXuX4XP.G . . o o o o o . . o o o o o o o o o o o o . . . 2 T.dXbXMXBXvXaXT.9 . o o o . . 9 J.tXbXvXMXnXbXsX9XE.G . 8 W.7X0.. . o o o o . . G D.T.2X8XiXsXbXMXBXMXbXdX5XS.+ . . o o o o o o o 9 S.W.8XyXsXvXBXMXnXbXiX4XJ.+ . o o o o o o o o o O o o o o o o o O o o o O . . A.8XcXvXMXBXvX7X0.: . o o o O . . ' T.9XsXcXMXBXMXbXsXyXW.' . . o O o o o o o o o O O O O O O o O O o O 5 G F.3XqXpXsXvXBXMXnXbXiX$X] . . O O O O O O O O . . m P.eXsXbXMXBXMXbXsXtX>XF.G . . - O O O O . 2 W.8X9X>X' : . O o o O O O O . : U.9XyXcXMXBXBXvXdXeX3XJ.G o . o O O O O O - . . ) R.tXdXbXMXBXnXcXpX9XR.] : o O O O O O . 9 R.uXvXBXBXnXbXE.+ o O O O O O O O O O O O O O O O O O O . 9 U.9XaXcXnXMXnXvXdX9X>XF.m . O O O . . ` $XaXcXMXBXvXsXiX9XU.: . ) >X4X0.o o O O O O . ` W.0X7X$X] o O O O O O . ' W.7X7XW.' . O O O O O . ] W.7X7XW.` . O . F.9X7X7X' . O O O O O O O O O O O O O O O o ` E.9X0X>X' . O O O O O O . F.eX7X9XH.2 o O O O - O O O O o . m 0.D.G.D.d.) 1 . + eXJXJXJXW.. - - - ; - O . ] 2X7X9XR.) . O ; ; ; ; O 2 H.9X7XeXJ.O O ; ; 1 4 c c A u s Y.uXlXmXCXBXmXwXb.i.,XkXrXrXC.2.5.4.8.4.2.2.4.8.8.8.e.e.oXOX+X'._.l.s.Y.<XrXzXmXBXZXBXzXzXkX<XC.i.i.p.i.i.5.5.8.i.p.p.b.&X<X,XrXpXlXzXBXCXBXbXzXkX,Xs.W ! 4.4.8.i.y.s.s.y.Y.mXJXJXFXL.$ C t.c.k.O.X. XZXJXJXJX0Xp 3 y 6 B Y <.2.8.z.x.m.k.=.@.D U W W U <.Y 4.#XrXzXAXAXAXPXzXL.% % & 1 & F E.9X8X>Xn.^ d e 1 & 1 4 3 / W.qX9X3X/ O 4 1 1 1 1 4 4 . 1 f.3XiXlXnXBXBXvXlXpX9XE.' - - 6 6 6 6 x 6 1 G.eX9XeXU.4 4 6 6 6 6 1 X H T.7X9X0Xf.1 6 6 6 6 x 6 6 Z A D A 3 1 x S y.u.u.p.a.y.2.8.a.$.u y Z A K #.#.L i x B 5.+X:X-XM.+.y 3 i Z Z A D U U D D D Z i 6 6 3 1 1 1 1 1 1 1 3 3 3 6 6 6 3 3 3 1 1 6 6 6 6 Z x 6 v 1 & G.iXdXnXNXBXbXuXf.O 6 6 3 O / 3X9X8X>X] 6 ; 1 O O 1 3 6 1 4 1 O F E.iXbXMXBXnXvXsXgX Xf.3 ~ ,XeXf.X 3 6 6 6 6 6 6 U.eX6XgXf.y ..).=Xe.> e D q.E.9X6X3Xf.O 3 1 1 1 3 F d.E.7XyXdXbXmXBXBXnXjX9XR.-./.[.OXb.f.f.z.w.M q. X9XqX>Xq.; 1 1 1 1 1 1 1 O F E.uXcXMXMXnXvXdX7XE.H . H >X7Xd.. 1 , , , ; O O O o 5 R.yXvXBXBXMXlXR.o . O O o . . . 2 F.0XaXcXnXBXnXvXsXuX7XQ.H . ; ; & &.gXeXwXI.- 4 x x v v v v x x c v v v v Z 6 9.&X6XeX3XI.I c N c z x 6 6 v v v z h > ` %XuXaXbXMXBXMXcXjXiX%Xq.o . - o o o . . . . . . . . S.8XsXvXBXMXbX7Xn . . . . . . . K.7XaXbXBXBXbXsXuXW.d.. o J.5XJ.8 . o o o o o o o . O 0.4XcXBXBXMXbX0X] + . O O O O . . ] W.uXsXbXBXBXvXjXaX9XW.] . . . . ) W.5X8XT.m o . o o o o o o o o o o o o o . m A.R.4XuXdXbXMXBXMXbXaXeXP.2 . . o o o o o o o o . o S.4XyXsXvXBXBXbXsXuX4XE.G . o o o o . + T.tXcXnXMXvXbXsX8XW.( . + E.eXD.. o o o o o . . F.8X5X8XA.. . o o o o o o . . o 0.2XaXjXbXMXMXbXcXyX9XT.( . . o o o o o . . o o o o . . o o o o o . 8 J.2X9X4XJ.: . . . . . . . _ $X7XqX3Xn . . . . . . . o S.4XaXcXvXMXnXbXsXtX7XT.9 . . . . . . . . . . . . ( 4X4XsXHXJXKXuX_ . . . . . . . . . . 8 ] R.7XyXdXbXMXBXMXbXaX5XF.+ . . . . . . . . . . . . . . . . . . . . . . . . o ] 4XaXbXBXMXvX9X] . . . . . . . . 9 W.8XaXbXBXBXvXbXsXtXW.` . . . . . . . . . . . . . . . . . . . . . . . . . . + F.qXaXvXBXvXbX5X` . . . . . G W.7X9XW.0 . . . . . . . . . . . . + J.tXcXvXMXvXbXdX7XW.n . 2 W.8XS.. . . . . . . 0 T.7X0X8XS.. . . . . . . . ' 2X0X7XW.` . . . . . . n S.R.7XyXaXcXnXMXvXbXaX0XR.9 . . . . . . . . . . : F.2X9X2XF.: . . . . . . . . . . . o A.4XaXcXbXMXBXvXsXyX9XJ.+ . . . . . . . . . . ` E.7X5X4X[ . . . . . . . . . . + ] W.9X4XT.0 . . . . . . : S.>X9X4XJ.+ . . . . . . 2 F.2X7X4XF.+ . . . . . . . . . . . . . . . . . . . . . . . . . . . . . . . . . . . . . . . . . . . ",
". . . . . . . . . . . . . . . . . . . . . . . . . . . . . . . . . . . . . . . . . . . . . . . . 8 ] H.H.S.0.( . . . . . . . . . . . . . . . . . . . n _ ] F.H.A.S.2 . . . . . . . . . . . . . . . . . 2 ] J.J.F.S.] + . . . . . . . o o o o . o o o o o o o o o o o o o o o . . 9 S.J.J.0.n + . . o o o o . . . + 0.D.J.F.A.) . . . o . . . . o o o o o o o o . . . . . m ` S.F.J.H.d.G . . . o o o o o o o o o . . . . 8 ' A.J.J.F.0.9 . . . o o o o o o o o o o o o o o o o o o O o o o o O o . o ' D.J.J.' + . . O o o o o O o . . o ` 0.F.J.H.S.' + . . o o O O O O O O O O O O O O O O O O O O O O o . . . . m ' D.P.H.D.0.5 . . o O O O O O O O o O O o . . o ` d.H.J.H.d.' o . . . o O O O O O O O o . . . . . o O O O o O O O O O . . . 5 ] H.J.J.A.) o . . . o O O O O O O O O O O . . + ` A.H.P.F.] n . . . O O O O O O O O . . 2 A.P.J.A.m . o O O O O O O O O O O O O O O O O O O O O . . o G d.F.J.F.A.) . . . o O O O O O O . . 5 0.J.P.D.' m . . . O . . . . - - O O O O ; . . . . . . O O O O O O ; . . . . . . ; O O O O O ; . . . . . . ; O ; . . . . . - O O O O O O O O O O O O O O O O . . . . . . ; O O O O O O : . . . . . O O O O O O O O O O O o . . . . . . . O O 9 eXJXJXJXW.. - - - ; ; ; ; . . . . . . - - - - - ; ; O . . . . . - O ; , 1 4 c c v p u X x f.I.Y.Y.b.4.4.4.Y B V V <.5.5.5.5.4.4.4.4.4.4.5.5.5.8.e.8.p.z.c.p.y.! y.C.C.&X,X&XC.C.p.5.i.p.p.i.8.p.e.z.x.x.m.x.a.y.! E E 6.s.n.Y.&XY.n.b.5.T E #.! Q 1.<.T 2.8.p.a..XmXJXJXFXQ.2 :.w.v.).O. .s.jXJXJXFXL.X 3 y y 6 v V 7.e.z.x.a.*.@.+.E 4.i.u.#.W ~ Q 8.z.@X<X1X<X<XV.=.| t e * 3 1 . . . . ; 1 $ $ & 1 6 6 3 & . . . . ; 4 1 1 1 1 1 1 & 1 , . o H d.G.Y.U.f.d./ o . O 4 6 6 6 6 6 4 6 6 O . . . O 6 4 6 6 6 3 1 & O . . . . O 6 6 6 6 6 x 6 6 i i S E E Z 3 6 5.m.g.K T i.3.2.x.M.*.s i i D ! u.#.K A Z 6 i.+X;X:X}.$.s A Z Z A A A A A Z i i i 6 3 3 1 1 1 3 3 6 6 6 3 3 6 6 6 3 6 6 6 3 6 3 3 6 Z Z x 4 4 O O 3 ' G.U.J.d.6 & 6 6 6 6 6 1 . . . . O 1 1 1 & & 1 3 6 4 4 3 3 1 o Z f.L.Y.G.G.' 1 $ p ~ S - . 1 y y 6 6 6 6 i A O . & O . f -.`.=Xw.4 P 3.B . . . . 1 6 6 1 1 * * 1 O . . a ` d.L.U.U.L.s.z . o.(.].;XOX8.Y 1.N c 4 . . . o , 4 4 4 1 1 1 1 1 1 O . 2 d.G.U.G.D./ . . O 4 - . . o 1 O O ; , ; ; O O ; O . 7 A.U.P.D.G . O O O O o . o X . . . m d.F.J.F.S.' 2 . $ d ~ :.N 4 $ . o - - c x x x v v v v x x c v v v v x v v j > . o , v B N c c v 6 v v v v c c j > . - H d.J.U.H.d.' j - o o o o o o o o o o o . . . . . . ` A.J.D._ + . . . . . . X . . . 9 S.P.J.S.' : . . o o . . . . o o o o o o o o o . . . ) J.H.D.' : . o . O O O o - . . . : ' S.J.J.S.] G . . . . o o o . . . . . . o o o o o o o o o o o o o o o o . . . . + ` 0.F.J.H.d.G . . . o o o o o o o o o o o . . . 9 ' A.J.H.S.` : . . . O o o . o . . . o ] F.H.D.S.) . . . o . . . . o o o . . o o o . . . . . o o o o o o o o o o . . . 2 ] S.H.F.S.] 9 . . . . o o o o o o o o o o o o . o o o o . o o . . . . . . . o . . . . o . . . . . . . . . . . . . . . . . 8 ] A.H.F.S.` + . . . . . . . . . . . . . . . . . . T.KXJXKXW.+ . . . . . . . . . . . . . . 8 _ 0.F.J.H.S.9 . . . . . . . . . . . . . . . . . . . . . . . . . . o . . . 8 S.J.A.] 2 . . . . . . . . . . . @ 9 ] J.J.D.S.` @ . . . . . . . . . . . . . . . . . . . . . . . . . . . . . . @ n A.J.S.' + . . . . . . . . . . . . . . . . . . . . . . . . . . . ] D.H.D.S.( . . . . . . . . . . . . . . . . . . . . . @ . . . . . . . . . . . . . . . . . . . . . . . 0 _ ] D.H.A.S.n . . . . . . . . . . . . . . . . . . . . . . . . . . . . . . . . . . 2 ] S.F.J.D.' 2 . . . . . . . . . . . . . . . . . . . o . . . . . . . . . . . . . . . . . . . . . . . . . . . . . . . . . . . . . . . . . . . . . . . . . . . . . . . . . . . . . . . . . . . . . . . . . . . . . . . . . . . . . ",
". . . . . . . . . . . . . . . . . . . . . . . . . . . . . . . . . . . . . . . . . . . . . . . . . . o o @ @ . . . . . . . . . . . . . . . . . . . . . . o o o o o . . . . . . . . . . . . . . . . . . . o o o o o o . . . . . . . . o o o o o o o o o . o . . o o . . . o o o . o o + + o o o o o o o o o . . . . o o + + o o o o o o o o . o o o o o o o o o . o o o o o o o + + + o o . o o o o o o o o o o o o o o o o o o + + + o o o o o o o o o o o o o O o o o o o o o o O o o o o o o o o o o + + + o o o o o o o o o o o o o o o o + + + + o o o o o O O O O O O O O O O O O O O O O O O O o O O o o o o o O + + + + + o o o o O O O O O O O o O O O o o o O O + + + + O o o o o O O O o o O O O O o o o o o O O O O o O O O O O O O O O O + + + + O o O O O O O O O O O O O O O O O O O O + + + + + O O O O O O O O O O O O O o o + + + + O O O O O O O O O O O O O O O O O O O O O O O O O O O + + + + + O O O O O O O O O O O O o O O : : + O O O O O O O O O O - - O O O O O O O O O O O O O O O O O O O O O O O O O O O O O O O O O O O O O O O O O O O O O O O O O O O O O O O O O O O O O O O O O O O O O O O O O O O O O O O O O ; O O O O O O - - - O - - ; ; ; , 1 O ; O m eXJXJXJXW.. O O O O O O O O O O O O O - - O - - - ; ; O O O O O ; O - , 1 1 4 c c 6 y p A S B V 1.1.1.1.<.<.<.4.4.4.4.4.4.4.5.5.8.8.4.5.5.5.5.4.6.Q ~ <.1.1.1.<.4.8.8.8.e.p.p.p.p.p.p.i.p.i.p.z.c.c.v.m.j.a.i.5.y.y.! ! Q Q T T T <.4.2.3.3.! ! 2.4.4.4.8.i.5.! Y.mXJXJXFX X{ ,.w.a.*...L ,XFXJXHXeX&.& y y 6 6 v 1.7.z.x.x.a.g.$.@.W 4.e.N.k.g.Z.n.b.N.B.B.[.{.[.[.'./.O.X.r & 3 3 3 * 3 1 1 & & 1 4 6 3 3 3 1 1 1 1 1 6 6 6 y y 3 3 3 3 1 1 4 z x 6 6 6 6 6 6 6 4 4 6 6 4 4 4 4 4 6 4 1 4 4 6 6 6 3 3 6 6 3 3 1 4 4 4 4 6 6 6 6 6 6 6 6 6 6 6 i v T i.s.y 6 Y z.V.$.A T p.i.x.B._.$.u i D D D K ! #.P A U p.B.-X;X[.g.#.A Z Z p y i Z Z i i 6 6 6 3 3 1 1 3 3 6 6 6 6 6 6 6 6 6 6 6 6 3 1 1 3 3 y Z Z x 4 4 1 1 3 3 3 2 2 1 6 6 6 6 6 6 6 1 1 1 1 1 1 1 ; 1 1 1 3 3 1 3 3 3 6 6 6 6 x x 6 6 i 6 y y 6 x x 6 6 i Z Z x 6 y A A p p U Y j t -.{.OX1.p $.8.V 1 * 3 y i 6 6 3 3 3 3 i i 6 6 6 3 6 i i 9 d #.4.B a o.`.{.@Xe.c x x v x 6 6 6 6 3 4 1 1 1 & 1 1 1 1 1 1 & 1 2 2 2 2 1 1 1 1 1 1 4 , , 1 1 1 1 , ; O O O ; O & & 2 2 2 : - O O O o o o o . . . . X O O + + + O O O O r d Q :.M , & 4 z z z x x z x x c v x x x v v v x x v v v v v c x x x v v c c z 6 x v c z z c z j > ; - + : : < - - - o . o o o o o . . . o . . . . . . X O + + + o o o . . . . . . . . . o + + + + o o o o o O o o o o o o o o o o o o o o o o o + + + o o o o X O O O o - - o o o o o + + o o o . o o o o o o o o o . o o o o o o o o o o o o o o o o o o o o o o o o o + + + o o o o o o o o o o o o o o o o o o o o o o + + o o o . o o o o o . o o o o o o o + o o o o o o o . . . . o o . . . . o o . . o . . o o o o o o . . . . . . . . . o o o o o . . . . . o o o o o o o o o o o o o o o o o o . . . . . . . . . o o o o o o o . . . . . . . . . . . . . . . . . . @ o o @ @ . . . . . . . . . . . . . . . . . . . 9XJXJXHXF.. . . . . . . . . . . . . . . . . @ o + o @ . . . . . . . . . . . . . . . . . . . . . . . . . . . . . . . . @ o @ . . . . . . . . . . . . . . . . o o o o . . . . . . . . . . . . . . . . . . . . . . . . . . . . . . . . . . o o o @ . . . . . . . . . . . . . . . . . . . . . . . . . . . . . @ @ @ @ . . . . . . . . . . . . . . . . . . . . . . . . . . . . . . . . . . . . . . . . . . . . . . . . . @ @ @ @ . . . . . . . . . . . . . . . . . . . . . . . . . . . . . . . . . . . . . @ @ @ @ . . . . . . . . . . . . . . . . . . . . . . . . . . . . . . . . . . . . . . . . . . . . . . . . . . . . . . . . . . . . . . . . . . . . . . . . . . . . . . . . . . . . . . . . . . . . . . . . . . . . . . . . . . . ",
". . . . . . . . . . . . . . . . . . . . . . . . . . . . . . . . . . . . . . . . . . . . . . . . . . . . . . . . . . . . . . . . . . . . . . . . . . . . . . . . . . . . . . . . . . . . . . . . . . . . . . . . . . . . o . . . . . o o o . o o o o o . o o o o o . . o o o o . . . . . . . o o o o o o o . . o . . . . . . . o o o o o o o o o o o o o o o o o o o o o . . . . . . . . o o o o o o o o o o o o o o o o o . . . . . . . o o o o o o o o o o o O o o o o o o o o o O o o o o o o o o . . . . o o o o o o o o o o O o O o o . . . . . o o O o O O O O O O O O O O O O O O O O O O O o o O O O O O o o o . . . . . o o O O O O O O O O o o o O O O O o o o o . o o o o O O O O O O o o O O O O O O O O O O O O O O O O O O O O O o o o o o . o o o O O O O O O O O O O O O O O O O o o o o o o o o O O O O O O O O O O O O O o o . o o O O O O O O O O O O O O O O O O O O O O O O O O O O o o o o o o o O O O O O O O O O O O O o o o o o o o O O O O O O O O O O O O O O O O O O O O O O O O O O O O O O O O O O O O O O O O O O O O O O O O O O O O O O O O O O O O O O O O O O O O O O O O O O O O O O O O O O O O O O O O O - ; O O O O O O O - - O O - - ; , ; , 1 O O O G tXJXJXJXW.. O O O - - O O ; O O O O - - ; O - - O O O O O O O ; ; ; ; ; O & , k M I L P / / R V V Y <.<.<.<.<.<.<.4.4.4.4.4.8.8.8.8.p.p.y.y.! ! ^ / / b v B V :.1.7.e.e.z.p.p.p.p.p.p.p.a.p.p.z.z.z.a.a.p.i.8.8.i.y.! E E U T T T <.<.2.3.3.y.! Q 4.w.e.z.a.y.! Y.mXJXJXFX Xn >.e.g.=. .~ pXJXJXFXn.x i p p 3 6 v 1.7.e.v.N.V.Y.Y.Z.u.a.z.v.B.M.Z.f.s.i.p.x.B.{.].B.+X{.`./.X.r $ $ ; 6 6 3 3 3 1 1 4 3 3 3 3 1 1 4 x D K K K J A y 3 3 6 1 1 4 4 x 6 3 1 1 3 3 6 6 3 3 3 4 4 4 6 6 4 4 4 4 4 4 6 6 6 6 6 3 3 1 1 1 4 4 6 6 6 6 6 6 6 6 6 6 6 x Z x B 4.y.P y v 1.p.a.+.A 4.p.x.B.[.k.+.p S D p Z D #.#.K S 2.a.m.B.[.[.}.g.s & 3 Z A p i i i 6 6 6 6 3 1 1 1 3 6 6 6 6 6 6 6 3 6 4 1 1 1 1 1 3 3 6 x S S x 6 6 1 1 1 1 1 1 3 6 6 6 6 6 6 3 1 1 1 1 1 1 1 ; 1 1 3 3 1 1 3 1 3 6 6 6 6 6 6 6 3 6 i 6 6 6 6 6 6 i i i i i i i A J $.u.4.V - r =.[.c.N d l.8.N 1 3 y i i i Z p A S S S J E T S v 6 6 _ K.f.j.c.7.N e  .g.N.c.:.z 6 6 z 4 z z 4 1 1 1 1 1 1 1 3 1 1 1 1 1 ; ; O O O O 1 1 1 1 1 1 , , ; 1 1 ; ; O O O ; O O & & O O O - O O O O o o o O O O O O O O o . o o o o . O & 1 4 k , & * 4 4 z z x x z x x x x x x 6 x x z c v v c z 6 z z 6 6 6 v v c z 4 4 4 4 z j > , , ; - - O o o o o o o o o o o o . . . . . . . o . . . . . o O & O O - - o . . . . . . . X . o . . . . o o o o o o O o o o o o o o o o o o o o o o . . . . . o o o X O O O o - o o o o . . . . . . . o o o o o o o o o o o o o o o o o o o o o o o o o o o o o o o o o . . . . . . . . . o o o o o o o o o o o o o o o o . . . . . . . . . o o o o o . . o o o o . . . . . . o o o o . . . o o o o . . o o o o o o o o o o o o o o . o o . . o . . . . . . . . . . o . . o o o o . . o o o o o o o o o o o o . . o o o o o . o . o o o o o . . . . . . . . . . . . . . . . . . . . . . . . . . . . . . . . . . . . . . . . . . + yXJXJXFX] . . . . . . . . . . . . . . . . . . . . . . . . . . . . . . . . . . . . . . . . . . . . . . . . . . . o . . . . . . . . . . . . . . . . . . . . . . . . . . . . . . . . . . . . . . . . . . . . . . . . . . . . . . . . . . . . . . . . . . . . . . . . . . . . . . . . . . . . . . . . . . . . . . . . . . . . . . . . . . . . . . . . . . . . . . . . . . . . . . . . . . . . . . . . . . . . . . . . . . . . . . . . . . . . . . . . . . . . . . . . . . . . . . . . . . . . . . . . . . . . . . . . . . . . . . . . . . . . . . . . . . . . . . . . . . . . . . . . . . . . . . . . . . . . . . . . . . . . . . . . . . . . . . . . . . . . . . . . . . . . . . . . . . . . . . . . . . . . . . . . . . . . . . . . . ",
". . . . . . . . . . . . . . . . . . . . . . . . . . . . . . . . . . . . . . . . . . . . . . . . . . . . . . . . . . . . . . . . . . . . . . . . . . . . . . . . . . . . . . . . . . . . o . . . . . . . . o o o o o . o o . . . o o o o o . o o o o o o o o o o o . . o o o o . o . o o o o o o o o o o o o o o o o o o o o o o o o o o o o o o o o o o o o o o o o o o o o o o o o o o o o o o o o o o o o o o o o o o o o o o o o o o o o o o o o o o o o o o o o o o o o o o o o o o o o o O o o o o O o o o o o O o O O o o o o o o o O o o o o o o O O O O O O O O O O O o O o O O O O o o O O O O O O O O O O O O O O o o O O o o O O O O O O O O o O O O O O O O O O O O O O o O O O O O O O O O O O O O O o O O O O O O O O O O O O O O O O O O O O O O O O O O O O O O O O O O O O O O O O O O O O O O O O O O o O O O O O O O O O O O O O O O O O O O O O O O O O O O O O O O O O O O O O O O O O O O O O O O O O O O O O O O O O O O O - O O O O O O O O O O O O O O O O O O - - - O O O O O O O O O O O O O O O O O O O O O O O O O O O O O O O O O O O O O O O O O O O O O - O O O O O O O O O O O O O O O O O O O O O O O O O O O ; ; O O O O O O - ; o . . . - , , ; & & o . ] cXJXJXJXR.. O O O - - - - ; - O O O O O O - - O O O O O O O O - ; ; ; ; O O , N V U #.P H { C B Y Y T Y <.<.<.<.<.4.4.4.4.4.8.8.8.8.p.i.y.#.W ~ <.1.R D A Z v N :.7.7.e.p.p.z.z.c.v.x.m.m.x.a.p.p.i.y.y.5.5.5.8.z.p.u.u.y.! ! ! Q Q <.4.5.3.3.#.! Q 1.7.e.p.y.3.&XmXJXJXSXQ.k w.a.=...~ n.BXJXLX,XR v E P H ( 5 6 I 1.w.z.a.s.f.0.9.8.a.j.a.i.y.#.~ U U <.e.v.M._.k.N.N.'._.h.*...| f 2 ; 3 6 3 & 1 1 1 1 1 3 & 1 c I ! #.W L L J p y 3 6 3 1 4 4 x 6 6 3 6 6 6 6 6 6 1 1 1 4 4 4 6 6 4 4 4 4 4 6 6 6 z 6 1 1 4 1 1 1 6 3 3 3 3 6 6 6 6 6 6 6 i 6 6 v Y T K p 3 v Y 5.#.p v 4.p.x.B.'.h.d 6 S A A Z A D D A D E 3.p.x.B.{.{.k.+.3 1 i A p p y 6 6 6 6 6 1 1 1 1 3 6 6 6 6 6 1 1 4 4 1 1 1 1 1 6 6 6 6 v S x 6 4 4 1 1 1 1 1 1 3 6 6 6 6 6 1 1 1 1 1 1 1 ; ; 1 1 3 3 1 1 1 1 1 6 6 6 6 x x 6 i i Z x 6 6 6 i i Z x 6 y i Z Z S D W 3.1.c X t g.N.w.j s y.1.j 1 p A D D K E E E Q Q Q E 2.4.T Y S F _ ] %.a.z.w.:., r  .u.v.c.:.j , 1 4 z z 4 1 O 1 1 1 4 1 3 1 1 1 1 1 1 1 1 ; 1 1 1 1 1 1 1 ; - ; ; 1 O ; ; O O O ; ; O O & ; ; ; - O O O o o O + O O ; - - O O O O O O o O O X o o O - O $ 1 4 4 4 z 4 4 4 c x 6 6 6 z x z 6 x c v c b 6 u p A v B v v v b m 5 6 6 4 k h > O O O O O O O O O O - o o o o o o . . . . . . o o o . . . . o O X O O - - o . . . . . X . o o o o O o o o o o o o o o o o o o o o o o o o o o o o o o o o o o o o o O O O O o o o o o o o o o o o o o o o o o o o o o o o o o o o o o o o o o o o o o o o o o o o o o o o o o o o o o o o o o o o o o o o o o o o o o o o o o o o o o o o . o o o o o o o o o o o o o o o o o o o o o o . o o o o o . . o o o o o o o o . o o o o . . o o o o o o o . . . o o o o . . . o o o o o . . . o o o o o o o . . o o . . o o o o o . o o o o o o o . . . . . . . . o o . . . . . . . . . . . . . . . . . . . . . . . . . . . . . . . . A.MXJXHXuX( . . . . . . . . . . . . . . . . . . . . . . . . . . . . . . . . . . . . . . . . . . . . . . . . . . . . o . . . . . . . . . . . . . . . . . . . . . . . . . . . . . . . . . . . . . . . . . . . . . . . . . . . . . . . . . . . . . . . . . . . . . . . . . . . . . . . . . . . . . . . . . . . . . . . . . . . . . . . . . . . . . . . . . . . . . . . . . . . . . . . . . . . . . . . . . . . . . . . . . . . . . . . . . . . . . . . . . . . . . . . . . . . . . . . . . . . . . . . . . . . . . . . . . . . . . . . . . . . . . . . . . . . . . . . . . . . . . . . . . . . . . . . . . . . . . . . . . . . . . . . . . . . . . . . . . . . . . . . . . . . . . . . . . . . . . . . . . . . . . . . . . . . . . . . . ",
". . . . . . . . . . . . . . . . . . . . . . . . . . . . . . . . . . . . . . . . . . . . . . . . . . . . . . . . . . . . . . . . . . . . . . . . . . . . . . . . . . . . . . . . . . . . . o . . . . . . . o o o o o o . o . . . o o o o o o o o o o o o o o o o o . . o o o o o o o o . o o o o . o o o o o o o o o o o o . o o o o o o o o o o o o o o o o o o o o o o o o o o o o o o o o o o o o o o o o o o o o o o o o o o o o o o o o o o o o o o o o o o o o o o O O O o o o o o o o o O o o o o O O O o o o O O O O O O o o o o o o o o o o o o O O O O O O O O O O O o O O O O O O O o O O O O O O O O O O O O O O O O O O o o O O O O O O O O O O O O O O O O O O O O O O O O O O O O O O O O O O O O O O O O O O O O O O O O O O O o O O O O O O O O O O O O O O O O O O O O O O O O O O O O O O O O O O O O O O O O O O O O O O O O O O O O O O O O O O O O O O O O O O O O O O O O O O O O O O O O O O O O O O O O O O O O O O O O O - O O O O O O O O O O O O O O O O O O - - - O O O O O O O O O O O O O O O O O O O O O O O O O O O O O O O O O O O O O O O O O O O O - - O O O O O O O O O O O O O O O O O O O O O O O O O O O ; O O O O O O O O o : m ) m - . . . . . . 9 7XHXJXJXDXJ.. O O O - - - - - - O - - O ; - ; - - - O - - - O O - - - - ; O O , j c 6 p y 5 C M B Y T T Y Y <.<.<.<.4.4.4.8.8.4.5.5.5.5.2.2.T U T 1.1.<.E D Z S I 1.7.w.e.z.x.x.c.c.v.m.m.x.a.p.i.i.i.y.y.5.5.5.e.z.p.a.u.u.y.#.#.~ ~ 6.<.4.2.Q ! #.W Q <.1.1.<.Y ,XGXJXJXNXI.,.e.$...d 9.,XKXJXfXF S I K P H 9 2 3 6 c V Y S y % O l M Y #.#.D S D A Z Z Y 1.e.x.k.).h.u.p.z.N.B.`./.-.g $ & & & & & 1 1 2 1 1 & 1 v T ! W K A A A p 3 3 3 1 1 1 4 4 6 3 1 4 x 6 6 1 4 4 2 1 3 1 1 1 6 3 1 4 4 4 4 4 6 4 1 ; O o O & 1 3 3 1 1 3 3 6 6 6 6 3 1 3 6 3 6 z c S Z i 3 6 v U A 6 c T i.m.[.].*.u p D K D x 4 x A A A S Q 5.p.m.[.:X'.$.J 6 6 i i y 6 6 6 6 6 1 1 1 3 6 6 6 6 6 6 3 4 4 4 1 1 1 1 6 Z x 6 4 6 6 6 4 4 4 1 1 1 1 1 1 3 6 6 6 6 6 1 1 1 1 1 1 1 & 1 1 1 3 3 1 1 1 1 1 6 6 6 6 6 x 6 i Z Z Z i y i Z Z x x x 6 6 4 6 p E E W ! K d =.'.OX7.z i U v 4 3 A W ! ! 3.y.5.3.y.a.i.4.T T T I S Z 6 1 z S U 1.:.z r  .+.p.x.p.4.B 4 & 1 6 y i v z 4 1 1 1 1 4 4 4 1 4 1 ; 1 1 1 1 1 1 1 1 1 ; ; ; 1 1 ; ; O O O O ; ; O O O ; ; O O O O O O O O + O & ; - o o O O O O O O O O O O O ; - O O 1 4 4 4 z 4 4 4 z z 5 7 6 x v v v v v v c 5 a  .@.! >.,.N 4 4 m { ( a A B M M > O o . o O O O O O - - o o o o o o . . . X O O - > o . . . o o . . . . . . . . . . . X X X o o o o O O o o o o o o o o o o o o o o o o o o o o o o o o o o o o o o o O O O O o o o o o o o o o o o o o o o o o o o o o o o o o o o o o o o o o o o o o o o o o o o o o o o o o o o o o o o o o o o o o o o o o o o o o o o o o o o o o o o . o o o o o o o o o o o o o o o o o o o o o o o o o o o o . . o o o o o o o . . o o o . . . o o o o o o o o . . o o o o o o . o o o o o . . . o o o o o o . . . . . o o o o o o o . o o o o o o o . . . . . . . . . . . . . . . . . . . . . . . . . . . . . . . . . . . . . . . . . ] aXKXJXFXH.+ . . . . . . . . . . . . . . . . . . . . . . . . . . . . . . . . . . . . . . . . . . . . . . . . . . . . . . . . . . . . . . . . . . . . . . . . . . . . . . . . . . . . . . . . . . . . . . . . . . . . . . . . . . . . . . . . . . . . . . . . . . . . . . . . . . . . . . . . . . . . . . . . . . . . . . . . . . . . . . . . . . . . . . . . . . . . . . . . . . . . . . . . . . . . . . . . . . . . . . . . . . . . . . . . . . . . . . . . . . . . . . . . . . . . . . . . . . . . . . . . . . . . . . . . . . . . . . . . . . . . . . . . . . . . . . . . . . . . . . . . . . . . . . . . . . . . . . . . . . . . . . . . . . . . . . . . . . . . . . . . . . . . . . . . . . . . . . . . . . . . . . . . . . . . . ",
". . . . . . . . . . . . . . . . . . . . . . . . . . . . . . . . . . . . . . . . . . . . . . . . . . . . . . . . . . . . . . . . . . . . . . . . . . . . . . . . . . . . . . . . . . . . . . . . . . . . . o o o . o o o o . . . . . o o o o o o o o o o o o o o . . . o o . o o o . o . o o o o . o o o o o o o o o o o o . o o o o o o o o o o o o o o o o o o o o o o o o o o o o o o o o o o o o o o o o o o o o o o o o o o o o o o o o o o o o o o o o o o o o o O o o o o O O o o o o O O o o o O O O o o o o o o o o o o o o o o o o o o o o o o o o o O O O O O O O O O O O O o O O O O O O O O O O O O O O O O O O O O O O O O O O O o O O o O o O O O O O O O O O O O O O O O O O O O O O O O O O O O O O O O O O O O O O O O O O O O O O O O O O O O O O O O O O O O O O O O O O O O O O O O O O O O O O O O O O O O O O O O O o O O O O O O O O O O O O O O O O O O O O O O O O O O O O O O O O O O O O O O O O O O O O O O O O O O O - O O O O O O O O O O O O O O - - - - - - O O O O O O O O O O O O O O O O O O O O O O O O O O O O O O O O O O O O O O O O O O O O O O O O O ; O O O O O O O O O O O O O O O O O O O O O O O O ; O O O O O O O - . ) W.9X$Xd.) H G G G d.3XFXJXJXJXnXA.. O O O O - - - - - - - - - - ; - - - O O O O O - - - - O ; ; O & 1 , - . X O > k V V Y T T T T <.<.<.4.4.4.4.4.4.2.2.2.Q Q T Y <.<.6.! ! T Y Y T 2.5.8.8.e.c.v.x.x.x.p.p.p.p.p.i.i.i.i.i.i.i.i.i.8.8.8.i.i.y.y.y.y.#.s.^ ^ T T T Q Q Q 2.2.5.s.b.s.s.kXJXJXJXsXn.7.y...X.e R >XZXBXU.1 6 x i y * & 1 6 1 1 4 4 & & * 3 1 , , z I T ! #.P u i S 1.e.c.B.`./.@.E 4.e.oX+X'.).O.| t r $ & 1 6 3 * & & 1 4 v S D A A Z i y 3 6 3 3 1 1 1 1 4 1 1 1 4 v x 6 1 1 4 4 4 1 1 1 1 1 3 1 1 4 6 4 4 6 3 4 z 6 2 q 2 3 3 3 1 1 3 3 6 6 6 6 6 6 3 3 y y 6 4 v S D p y 6 6 v v 6 v 2.x.B.[.].*.s D K K A x x Z A D D D E y.y.a.m.[.}.g.P y i i y 3 6 6 6 4 1 1 3 6 6 6 6 6 3 6 6 6 4 4 1 1 1 4 S F x 6 1 1 4 4 4 4 1 1 1 1 1 1 1 3 3 6 6 6 6 3 1 1 1 1 1 1 & 1 1 1 3 3 3 1 6 3 6 6 6 6 6 6 Z i i Z Z Z i Z Z i i i i p y y 3 u ..g.j.k.k.g.g._.-X@X8.v A S Z 6 Z K ! y.y.i.p.i.5.u.V.p.4.I I S S v 6 4 z j 1 y I N 4 r  .L E #.l.m.z.Y 6 i Z A ~ 9.V z & & 1 1 4 4 4 1 1 , ; 1 1 1 1 1 1 1 1 1 1 1 1 1 1 ; ; ; O O 1 1 , ; O O ; - O O O O O ; ; O O O O o o o . X O O O O O O O O X O O ; ; 1 1 3 4 4 x 4 6 6 z 5 { { H A U T Y I B c b 7 p +.+.3.>.:.v 6 y m ` _ H K 1.,.l > o o o o o O O O O - - - o o o o o . . O O & 1 < < - O X o - - o . . . . . . . . . . . X X o o o o O O O o o o o o O O o o o o o o o o o o o o o o o o o o o O O O O O O O O o o o o o o o o o o o o o o o o o o o o o o o o o o o o o o o o o o o o o o o o o o o o o o o o o o o o o o o o o o o o o o o o o o o o o o o o o o o o o o o o o o o o o o o o o o o o o o o o o o o o o o o o o . . o . . . o o o o o o . o o o o o o . . . . . o o o o o o o o o o o o . . . . o o o . . . o o o o . . o o o o . . o o o o o o . . . o o o o . . . . . . . . . . . . . . . . . . . . . . . . . . . . . . . . . . . 2 G 0 9 9 F.aXKXJXJXbX( . . . . . . . . . . . . . . . . . . . . . . . . . . . . . . . . . . . . . . . . . . . . . . . . . . . . . . . . . . . . . . . . . . . . . . . . . . . . . . . . . . . . . . . . . . . . . . . . . . . . . . . . . . . . . . . . . . . . . . . . . . . . . . . . . . . . . . . . . . . . . . . . . . . . . . . . . . . . . . . . . . . . . . . . . . . . . . . . . . . . . . . . . . . . . . . . . . . . . . . . . . . . . . . . . . . . . . . . . . . . . . . . . . . . . . . . . . . . . . . . . . . . . . . . . . . . . . . . . . . . . . . . . . . . . . . . . . . . . . . . . . . . . . . . . . . . . . . . . . . . . . . . . . . . . . . . . . . . . . . . . . . . . . . . . . . . . . . . . . . . . . . . . . . . . . ",
". . . . . . . . . . . . . . . . . . . . . . . . . . . . . . . . . . . . . . . . . . . . . . . . . . . . . . . . . . . . . . . . . . . . . . . . . . . . . . . . . . . . . . . . . . . . . . . . . . . . . o o o . o o o o . . . . . o o o o o o o o o o o o o o o . . . o o . o o o o . . o o o o o o o o o o o o o o o o . o o o o o o o o o o o o o o o o o o o o o o o o o o o o o o o o o o o o o o o o o o o o o o o o o o o o o o o o o o o o o o o o o o o o O O o o o o O O o o o o o O o o o O O O O o O o o o o o O o o o o o o o o O o o o o O o o O O O O O O O O O O O o o O O O O O O O O O O O O O O O O O O O O O O O O O O O O O O O O o O O O O O O O o O O O O O o o O O O O O O O O O O O O o o O O O O o O O O O O O O O O O O O O O O O O O O O O O O O O O O O O O O O O O O O O O O O O O O O O O O O O O O O O O O O O O O O O O O O O O O O O O O O O O O O O O O O O O O O O O O O O O O O O O O O O O O O O O O O O O - O O O O O O O O O O O O O O O O O O O O O O O O O O O O O O O O O O O O O O O O O O O O O O O O O O O O O O O O O O O O O O O O O O O O O O O O O O O O O O O O O O O O O O O O O O O O O O O O - - O O O O - . A.BXHXLXSXSXZXvXsXvXSXLXJXJXJXJX7XH . - O O O O - - - - - - - - - ; - - - - O O O O O O - O O ; ; O $ & O O . o , j k N V Y <.<.<.<.<.1.<.2.2.2.2.2.2.<.<.T U U <.7.7.4.y.#.W Q 7.7.8.p.a.i.8.e.e.z.z.p.i.p.p.p.p.p.i.i.i.i.i.i.i.i.i.i.i.i.i.p.p.p.a.u.u.y.#.~ E U T T T <.<.4.b.pXZXlXmXHXJXJXKX$Xw.z.*.O.o.g c / f.G.^ 3 3 6 4 3 3 3 6 6 6 6 6 3 * 3 4 1 & 1 1 6 I 1.4.y.+. .J D Y 7.c.+X_.^.O.d S 1.7.e.z.v.'.`./...t $ & 1 3 3 * 1 1 4 6 6 6 6 x i i 6 3 6 6 6 1 1 1 1 1 1 O & 4 v x 3 3 1 1 1 4 4 6 a n q 2 2 3 6 6 6 6 6 3 z 5.V.L.!.] D i 6 6 6 6 i 6 x v U ~ 9./ a Z A Z Z 6 v E ~ J y 6 v I D Z 2.v.B.[.{._.@.K D A p Z Z i Z A A D D U Q y.y.a.m.B.k.$.d e * 3 6 6 6 6 1 1 1 6 i i i 6 6 6 6 6 6 6 1 1 4 S I S x 6 3 3 3 1 1 1 3 1 1 1 1 1 1 3 3 6 6 6 6 3 3 1 1 1 1 1 & 1 1 1 3 6 6 3 6 6 6 6 6 6 y i Z A A Z A A A Z i 6 y e u d  .#.@.=.).].-X-X-X=XB.M.B.OX5.D J E Q E W #.y.i.p.i.i.8.2.Q 3.2.T U U D S S S x 6 4 3 s #.I > 3 u D / %.=.M.+Xv.i.6.T S S Y V c 1 1 1 1 1 1 4 1 1 1 1 1 1 1 1 1 1 ; ; 1 1 1 1 3 3 1 - ; O O 1 4 4 1 1 ; ; O O O O O 1 ; ; - o o o o . . . X X O O X O O O O O O ; O ; 1 1 3 4 6 6 6 6 x x m { } [ L 2.1.1.V B N c x 6 i i v B S p d K Y ,.C Z A B M j - O O O o o X X O O O - o o o o o o o o O O & O < # < $ * & > h - . . . . . . . . . . . X X o o o o O O O o o o o O O O o o o o O O o O o o o o o o o o o o O o O O o O O O O o o o o o o o o o o o o o o o o o o o o o o o o o o o o o o o o o o o o o o o o o o o o o o o o o o o o o o o o o o o o o o o o o o o o o o o o o o o o o o o o o o o o o o o o o o o o o o o o o o o o o o o o . . . o . . . o o o o o o o o o o o o o o . . o o o o o o o o o o o o o o . . o o o o o o . . o o o o . . o o o o . . o o o o o o . . . o o o o . . o . . . . . . . . . . . . . . . . . . . . . . . . . . . . . . . . >XFXcXsXMXFXHXJXJXFXE.+ . . . . . . . . . . . . . . . . . . . . . . . . . . . . . . . . . . . . . . . . . . . . . . . . . . . . . . . . . . . . . . . . . . . . . . . . . . . . . . . . . . . . . . . . . . . . . . . . . . . . . . . . . . . . . . . . . . . . . . . . . . . . . . . . . . . . . . . . . . . . . . . . . . . . . . . . . . . . . . . . . . . . . . . . . . . . . . . . . . . . . . . . . . . . . . . . . . . . . . . . . . . . . . . . . . . . . . . . . . . . . . . . . . . . . . . . . . . . . . . . . . . . . . . . . . . . . . . . . . . . . . . . . . . . . . . . . . . . . . . . . . . . . . . . . . . . . . . . . . . . . . . . . . . . . . . . . . . . . . . . . . . . . . . . . . . . . . . . . . . . . . . . . . . . . . ",
". . . . . . . . . . . . . . . . . . . . . . . . . . . . . . . . . . . . . . . . . . . . . . . . . . . . . . . . . . . . . . . . . . . . . . . . . . . . . . . . . . . . . . . . . . . . . o . . . . . . . o o o . o o o o o . . . . o o o o o o o o o o o o o o o o . . o o o o o o o o o o o o o o o o o o o o o o o o o o o o o o o o o o o o o o o o o o o o o o o o o o o o o o o o o o o o o o o o o o o o o o o o o o o o o o o o o o o o o o o o o o o o o o o O O o o o O O o o o o o O O O o o o o O o O O o o O O O O o o O o O O O O o o o O O O O O O O O o o o O O O O O O O O O O O O O o O O O O O O o o O O O o O O O O O O O O O O O O O O O o O o O O o O O O O O O O o O O O o O O O O o o o O o O O O O o O O O O O O O O O O O O O O O O O O O O O O O O O O O O O O O O O O O O O O O O O O O O O O O O O O O O O O O O O O O O O O O O O O O O O O O O O O O O O O O O O O O O O O O O O O O O O O O O O O O O O O O O O O - - O O O O O O O O O O O O O O O O O O O O O O O O O O O O O O O O O O O O O O O O O O O O O O O O O O O O O O O O O O O O O - O O O O O O O O O O O O O O O O O O O O O O O O O O O ; ; O O O O O O O O O O O . ' dXJXJXJXJXJXJXJXJXJXJXJXJXJXjXd.. O - - ; - - - - - - ; O O ; - - - - ; ; - - ; ; ; ; O O O ; , ; X O & & O , , j k N V 1.<.<.<.<.<.<.4.<.<.2.Q Q T T Y I S S Y Y <.<.Y D D Y 1.1.1.4.Q T 1.7.7.e.z.p.p.p.p.p.p.i.i.i.i.8.8.i.i.i.i.i.i.i.i.p.p.a.a.a.u.u.u.#.~ E U T T T Y 4.,XKXJXJXJXJXJXJXvXn.t.x.=.O.o.n c 6 3 3 y y y 3 6 6 6 6 6 6 6 i v x y y 1 & 1 1 4 x D Q Q Q E K K K U <.e.c.N.).^.O.t 6 v V 7.r.OX=X].`.=.X.f * 3 * $ & & O X . . . O 1 3 6 6 6 6 6 6 3 3 4 z S K J i x Z 6 6 6 i Z v B 5.n.G.S.G 1 3 6 6 6 6 x x B p.V.Z.f.^ K i 6 6 6 6 6 6 x S I Q ~ F i x Z Z Z 6 x U 3.~ i * 4 V 5.y.W 5.x.N.=X].h.+.u A A A i Z Z p Z Z S Z S D U 2.i.a.M.[.'.*.u * y Z Z 6 3 1 3 3 6 y i 6 6 6 6 6 6 6 6 6 Z S S x 6 6 3 3 3 3 3 1 1 1 1 1 1 1 1 3 6 6 6 6 6 6 3 3 1 1 1 1 * 3 3 3 6 6 6 3 6 3 3 6 6 i A D A A i 6 6 * e u d +.@.*.h._.}.[.'.].{.-X;X=X+XN.p.u.j.v.8.W u.a.p.p.p.i.i.y.i.5.5.2.Q T T T U U U D S S S S x 4 1 t @.y.:.> * p p L $.m.N.N.z.4.V v v c c 1 3 4 4 4 4 1 1 1 1 1 1 1 1 1 1 1 1 1 4 4 1 1 3 y 6 z , O O O 1 1 1 1 1 1 , ; O O O O O O - O o o o . . . . . X X O O O O & ; 1 1 ; O & 1 1 1 4 z 6 6 i A S b { { f P 2.1.:.B c c c x 6 4 4 6 d @.@.#.4.:.,.M j 1 , k , - - - o O O O & & 1 , , > - - o o o o o O O X X # w # % * 1 l l > . X X o o . . . . . . X O o o o o o o O O o o o o O O o o o O o o o o o o o o O o o o o o o o o O o O O O o o o o o o o o o o o o o o o o o o o o o o o o o o o o o o o o o o o o o o o o o o o o o o o o o o o o o o o o o o o o o o o o o o o o o o o o o o o o o o o o o o o o o o o o o o o o o o o o o o o o o o o o o o . o o o . . o o o o o o o o o o o o o o o o o o o o . . o o o o o o o o o o o o o o o o o o o o o o . o o o o o . o o o . . o o o o o o o . o o o o o . . . . . . . . . . . . . . . . . . . . . . . . . . . . . . ] MXJXJXJXJXJXJXJXDXT.: . . . . . . . . . . . . . . . . . . . . . . . . . . . . . . . . . . . . . . . . . . . . . . . . . . . . . . . . . . . . . . . . . . . . . . . . . . . . . . . . . . . . . . . . . . . . . . . . . . . . . . . . . . . . . . . . . . . . . . . . . . . . . . . . . . . . . . . . . . . . . . . . . . . . . . . . . . . . . . . . . . . . . . . . . . . . . . . . . . . . . . . . . . . . . . . . . . . . . . . . . . . . . . . . . . . . . . . . . . . . . . . . . . . . . . . . . . . . . . . . . . . . . . . . . . . . . . . . . . . . . . . . . . . . . . . . . . . . . . . . . . . . . . . . . . . . . . . . . . . . . . . . . . . . . . . . . . . . . . . . . . . . . . . . . . . . . . . . . . . . . . . . . . . . . . . ",
". . . . . . . . . . . . . . . . . . . . . . . . . . . . . . . . . . . . . . . . . . . . . . . . . . . . . . . . . . . . . . . . . . . . . . . . . . . . . . . . . . . . . . . . . . . . . . . . . . . . . o o o o o o o o o . . . . o o o . o o o o o o o . o . o o o o o o o o . o o o o o o o o o o o o o o o o o o o o o o o o o o o o o o o o o o o o o o o o o o o o o o o o o o o o o o o o o o o o o o o o o o o o o o o o o o o o o o o o o o o o o o o o o o o O o o o O o o o o o o o O O o o o o O O O O o o O O O O o O O o O O O O o o O O O O O O O O o o o o O O O O O O O O O O O o o o O O O O O o o o O O O o O O O O O O O O O O O O O O O O o o O O O O O O O O O O o O O O O O O O O O o o O o O O O O O O O O O O O O O O O O O O O O O O O O O O O O O O O O O O O O O O O O O O O O O O O O O O O O O O O O O O O O O O O O O O O O O O O O O O O O O O O O O O O O O O O O O O O O O O O O O O O O O O O O O O O O O O O O O O O O O O O O O O O O O O O O O O O O O O O O O O O O O O O O O O O O O O O O O O O O O O O O O O O O O O O O O O O O O O O O O O O O O O O O O O O O O O O O O O O O O O O O O - - O O O O O O O O O O O O o 2 d.W.eXlXBXFXKXJXKXHXDXNXjX3Xd.O . ; - - ; - - - - ; ; ; O O - - - - - ; ; - - - ; ; ; ; O O ; ; ; ; 1 & 3 3 4 4 4 c V V 1.<.<.2.<.1.<.Q 2.T T U U U S S v v v v v v v c c c v S B N B v S Y 1.7.7.8.p.p.p.p.p.p.p.i.i.8.8.i.i.p.i.i.i.8.i.p.a.a.x.x.a.a.u.u.y.#.E U T 2.2.U Q ,XBXJXJXJXKXZXfXI.w.r.j.O.X.f < v y 6 3 * 6 3 6 6 6 6 6 6 6 3 6 N B p e * & 1 4 c S A A A D Y T U E K E <.e.v.[.).^...J p i B 7.e.z.v.+X]./.-.d p u y p i F / ` [ [ g 9 6 6 i i 6 6 6 6 6 x N 4.s.%.p 6 v Z Z Z Z Z v Y 8.b.f.' 9 1 3 6 6 4 4 4 v Y 4.3.E S S Z 6 6 6 6 6 6 6 6 x v S x 6 i 6 6 6 6 6 x v U E K y & c 4.x.j.#.E x.+X-X'.*. .i D A i Z D K A Z Z Z Z D K K E 3.a.=X:X-Xg.u * y i i 6 3 6 6 y i i Z x 6 6 6 6 6 Z S S Z 6 3 3 1 3 3 1 3 3 3 1 1 1 1 1 1 3 6 6 i 6 y y 6 3 3 3 1 6 6 3 3 3 3 6 6 6 6 6 6 6 y i p p A p u u  .@.$.$.$.h._.].{.{.-X;X=XB.M.B.B.B.N.x.4.U L u.V.z.3.y.a.a.p.i.5.3.3.3.3.Q Q Q T T U U U U D S S Z v v z 1 e  .u.e.M O r d #.i.8.i.p.p.8.V z 4 4 6 3 3 4 4 4 4 1 1 1 1 1 1 1 4 , , 1 6 F D v 4 1 1 3 z z , & ; O O 1 , , ; , , - O O X X O o O O O O O . . . . . X X O O O O & 1 1 1 , 1 & 1 1 4 4 z 6 6 p P K V :.b y A Y :.V c z x 6 x v v x u ..=.u.8.1.K A B l , , , O O ; , - O X & & & 1 4 j j > - o o o o o O O X @ # w q % * 1 l l > . . X o o o . . . . X . O O o o o o o O O o o o o O o o o o o o o o o o o o o O o o o o o o o o O O O O O o O o o o o o o o o o o o o o o o o o o o o o o o o o o o o o o o o o o o o o o o o o o o o o o o o o o o o o o o o o o o o o o o o o o o o o o o o o o o o o o o o o o o o o . . o o o o o o o o o o o o o o o o o o o o o o o o o o o o o o o o o o o o o o o o o o o o . . o o o o o o o o o o o o o o o o o o o o o o o o o o o . o o o . . o o o o o o o . . o o o o o . . . o . . . . . . . . . . . o . . . . . . o . . . . . . S.pXHXJXJXHXZXbXyXJ.@ . . . . . . . . . . . . . . . . . . . . . . . . . . . . . . . . . . . . . . . . . . . . . . . . . . . . . . . . . . . . . . . . . . . . . . . . . . . . . . . . . . . . . . . . . . . . . . . . . . . . . . . . . . . . . . . . . . . . . . . . . . . . . . . . . . . . . . . . . . . . . . . . . . . . . . . . . . . . . . . . . . . . . . . . . . . . . . . . . . . . . . . . . . . . . . . . . . . . . . . . . . . . . . . . . . . . . . . . . . . . . . . . . . . . . . . . . . . . . . . . . . . . . . . . . . . . . . . . . . . . . . . . . . . . . . . . . . . . . . . . . . . . . . . . . . . . . . . . . . . . . . . . . . . . . . . . . . . . . . . . . . . . . . . . . . . . . . . . . . . . . . . . . . . . . . . . ",
". . . . . . . . . . . . . . . . . . . . . . . . . . . . . . . . . . . . . . . . . . . . . . . . . . . . . . . . . . . . . . . . . . . . . . . . . . . . . . . . . . . . . . . . . . . . . . . . . o o o o o o o o o o o o o o o o o o . o o o o o o o o o o o . o o o o o o o o o o o o o o o o o o o o o o o o o o o o o o o o o o o o o o o o o o o o o o o o o o o o o o o o o o o o o o o o o o o o o o o o o o o o o o o o o o o o o o o o o o o o o O o o o O o o O O O O o o o o o o o o o O O o o O O O O O O o o o O O O O O O O o o o o o O O O O O O O O O O O O O O o o o O O O O O O O o O O O O O O O o O O O O o O O O O O O o O O O O O O O O O O O O O O O O O O O O O o O O O O O O O O O O O O O O O O O o O O O O O O O O O O O O O O O O O O O O O O O O O O o O O O O O O O O O O O O O O O O O O O O O O O O O O O O O O O O O O O O O O O O O O O O O O O O O O O O O O O O O O O O O O O O O O O O O O O O O O O O O O O O O O O O O O O O O O O O O O O O O O O O O O O O O O O O O O O O O O O O O O O O O O O O - O O O O O O O O O O O O O O O O O O O - O O O O O O O O O O O O O O O O O O O O O O O O - - ; O O O O O O O O O O O O o . . O ' U.W.7X9X9X7X>XT.G . . o - - - ; ; - ; - - - - O O O O - - - - O ; - - O ; ; ; ; O O O ; ; , 4 1 3 3 1 4 z c V V V Y <.2.T T T U U D S S S S v v v v v z 4 4 z v v v v v v N :.1.3.u.a.8.7.i.a.a.a.p.p.p.p.p.i.i.i.i.i.i.i.i.i.i.p.z.x.a.a.a.a.a.s.s.y.#.! 2.4.8.i.y.! n.,XwXrXrXwXQ.0.:.w.v./.O.o.0 4 i p 6 3 y 3 3 6 6 6 6 3 3 1 1 4 c B A u * & , z B U J F Z A S Y T 2.W E 2.8.v.B.k.g.u.$.+.s Z S D I :.r.+X`.=.+.K E ! ! 6.s.n.n.G.K.] ( 7 x Z i y 6 6 6 6 c N <.y.P y 4 x x Z x 6 4 4 v I v 4 O 1 1 1 1 4 4 1 4 x S v 6 6 6 6 6 6 6 6 3 6 6 6 6 6 6 6 6 6 6 6 6 6 6 6 6 6 x S ! #.s 3 v i.[.k.K y.B.=X{.].*.s i D A i D E W A y 6 i K #.+.A ! y.a.B.=XM.#.p y y 3 6 6 6 6 i Z Z i i i 6 6 6 x S S x 4 1 1 1 1 1 1 1 6 6 3 3 3 3 4 6 3 3 6 6 y y i i 6 3 3 3 1 6 6 6 6 3 3 y 3 3 6 6 6 y p p u d +.$.$.$.=.`.{.{.'.'.[.[.B.m.a.a.i.2.3.i.p.p.i.5.S A L y.V.v.4.D ! #.Q T Q ! 3.y.3.! Q Q T U T U U U D S Z 6 6 x z 4 1 e +.5.:.z r  .u.8.4.T W u.a.8.Y 6 6 i x x 6 6 4 4 1 1 1 4 4 1 1 1 ; ; 1 6 / E v 4 ; O 1 4 , , ; 1 & & 1 1 - ; ; - - O O O O o o o O O O O X X . . . . X O O O O O O ; ; ; ; & 1 1 4 z z 4 6 Z J D B N z 6 Z v N c c 6 6 6 x v v Z p d J Y :.D X.X.+.:.M j , O O ; ; - O X O O O - , > > - o o o o . X O X O o # # @ $ * , l h - . . X X . . . . . . X X O O o o o O O o o o o o o o o o o o o o O O O O O O O o o O O o o o o o O O O O O O - o o o o o o o o o o o o o o o o o o o o o o o o o o o o o o o o o o o o o o o o o o o o o o o o o o o o o o o o o o o o o o o o o o o o o o o o o o o o o o o o o o o o o . . o o o o o o o o o o o o o o o o o o o o o o o o o o . . o o . o o o o . o o o o o o o . . . . o o o o o . o o o . o o o o o o o o o o o o . . . . o o . . . o o o o o o o o o o o o o o o o . . o o o . . . . . . . . . . . . . . . . o . . . . . . 9 A.W.7X9X4XT.0.@ . . . . . . . . . . . . . . . . . . . . . . . . . . . . . . . . . . . . . . . . . . . . . . . . . . . . . . . . . . . . . . . . . . . . . . . . . . o . . . . . . . . . . . . . . . . . . . . . . . . . . . . . . . . . . . . . . . . . . . . . . . . . . . . . . . . . . . . . . . . . . . . . . . . . . . . . . . . . . . . . . . . . . . . . . . . . . . . . . . . . . . . . . . . . . . . . . . . . . . . . . . . . . . . . . . . . . . . . . . . . . . . . . . . . . . . . . . . . . . . . . . . . . . . . . . . . . . . . . . . . . . . . . . . . . . . . . . . . . . . . . . . . . . . . . . . . . . . . . . . . . . . . . . . . . . . . . . . . . . . . . . . . . . . . . . . . . . . . . . . . . . . . . . . . . . . . . . ",
". . . . . . . . . . . . . . . . . . . . . . . . . . . . . . . . . . . . . . . . . . . . . . . . . . . . . . . . . . . . . . . . . . . . . . . . . . . . . . . . . . . . . . . . . . . . . . . . . o o o o o o . o o o o . . o o o o o o o o o o . . o o o o o . o o o o o o o o o o o o o o o o o o o o o o o o o o o o o o o o o o o o o o o o o o o o o o o o o o o o o o o o o o o o o o o o o o o o o o o o o o o o o o o o o o o o o o o o o o o o o O o o o O o o O O o O o o o o o o o o O O O o o o O O O O O o o o o o o o o o O o o o o O O O O O O O O O O O O O O O o O O O O O O O O O o O O O O O O O o O O O O O O O O O O O O O O O O O O O O O O O O O O o O O O O O o o o O O O O O O O O O O O O O O O O o o O O O O O O O O O O O O O O O O O O O O O O O O O O O O O O O O O O O O O O O O O O O O O O O O O O O O O O O O O O O O O O O O O O O O O O O O O O O O O O O O O O O O O O O O O O O O O O O O O O O O O O O O O O O O O O O O O O O O O O O O O O O O O O O O O O O O O O O O O O O O O O O O O O O O O O O O O O O O O O O O O O O O O O O O O O O O O O O O O O O O O O O O O O O O O O O O O O O O ; O O O O O O ; O O O O O - - - , , 1 2 2 5 5 2 2 2 : - O O O - - - - - O O ; ; - - O O O O - - - - O O - - O O - ; - - O - ; ; ; , 1 & 1 1 4 z c N V V Y T U U I S v v v x x 6 6 x x x x z z z z c c v v v x v :.>.w.a.l.j.z.z.x.m.j.a.s.p.p.p.p.i.i.i.i.i.i.i.i.8.i.z.a.x.x.a.a.a.s.s.s.y.#.y.8.8.z.a.a.y.y.6.8.8.y.+.%.q.>.r.k.^.X.f b D P A y y y 3 3 3 6 6 6 3 3 1 1 4 c v i y 3 & , N <.W +.[ H i Z I T 6.y.! 1.8.p.a.a.a.u.$.+.P S v S D I w.v.k.@.P I T 3.5.5.5.6.E D i 1 1 4 4 6 6 4 1 1 1 1 4 c v 6 3 1 4 4 6 6 6 4 4 1 1 6 4 1 1 1 1 1 1 1 1 1 1 6 4 4 6 i 6 6 6 4 6 6 6 6 6 3 3 6 6 6 6 6 6 6 6 6 6 6 6 6 i Z U j.g.u 6 Y x.M.g.E x.=X-X-X].@.u D A A S U ~ K p y 6 x E ~ D S D y.u.u.y.y.y.K y * * 1 1 6 i Z A p y 3 6 x S S x 6 1 1 1 1 1 1 1 1 1 6 x 6 6 3 3 6 6 6 6 6 6 3 y y i 6 3 3 3 3 3 3 6 6 6 6 6 3 * 3 3 6 p s s  .=.].{.{.'.[.-X;X+Xx.p.p.y.T U A D A Z A D E 2.T v y L W W l.N.8.v S K D D D E ! ! ! ! Q Q Q Q T U U S S S S x 4 4 4 4 1 e s U V v u +.6.:.v S J +.g.M.a.Y 4 6 v v x 6 6 4 4 1 4 4 4 4 4 1 1 & 1 1 3 6 4 4 ; ; 1 1 O - , 1 * * 6 4 ; O O - O O O O O O o O O O X X X O o o . . . X X O - O O O ; ; O 1 1 4 6 x z z 6 6 6 x v v 6 x x x c c z 6 6 x x v v i x z h h > d O.O.$.w.,.j ; O O ; ; - O O O - - - - O O o o o o o o . . X X @ < # @ % * , h h o . X X . . . . . . X X X O O O o o O O o o o o o o o o O o o o o o O o O O O O o o O O o o o o o O O O O O - - o o o o o o o o o o o o o o o o o o o o o o o o o o o o o o o o o o o o o o o o o o o o o o o o o o o o o o o o o o o o o o o o o o o o o o o o o o o o o o o o o o o . o . . o o o o o o o o o o o o o . . o o o o o o o o o o o o o o . . o o o o . . o o o o o o . . . . o o o o . . . o o . o o o o o o o o o o o o . o . . o . . . . . o o o o o o o o o o o o o o . . . o o o . . . . . . . . . . . . . . . . o o . . . . . . o + + + + + o . . . . . . . . . . . . . . . . . . . . . . . . . . . . . . . . . . . . . . . . . . . . . . . . . . . . . . . . . . . . . . . . . . . . . . . . . . . . . . . . . . . . . . . . . . . . . . . . . . . . . . . . . . . . . . . . . . . . . . . . . . . . . . . . . . . . . . . . . . . . . . . . . . . . . . . . . . . . . . . . . . . . . . . . . . . . . . . . . . . . . . . . . . . . . . . . . . . . . . . . . . . . . . . . . . . . . . . . . . . . . . . . . . . . . . . . . . . . . . . . . . . . . . . . . . . . . . . . . . . . . . . . . . . . . . . . . . . . . . . . . . . . . . . . . . . . . . . . . . . . . . . . . . . . . . . . . . . . . . . . . . . . . . . . . . . . . . . . . . . . . . . . . . . . . . . . . . . ",
". . . . . . . . . . . . . . . . . . . . . . . . . . . . . . . . . . . . . . . . . . . . . . . . . . . . . . . . . . . . . . . . . . . . . . . . . . . . . . . . o . . . . . . . . . . . . . . . . . . . . . . . . . o o . . o o o o o o o o o o . . o o o o o o o o o o o o o o o o o o o o o o o o o o o o o o o o o o o o o o o o o o o o o o o o o o o o o o o o o o o o o o o o o o o o o o o o o o o o o o o o o o o o o o o o o o o o o o o o o o o o o o o o o o o o o o o o O O o o o o o O O O o o o o o o o o o o o o o o o O O O o o o o O O O O O O O O o O O O O O O O O O O O O O O O O O o o o o O O O O O O O O O O O O O O O O O O O O O O o O O O O O o o O O O O O o O O O O O O O O O O o O O O O O O O O O O O O O O O O O O O O O O O O O O O O O O O O O O O O O O O O O O O O O O O O O O O O O O O O O O O O O O O O O O O O O O O O O O O O O O O O O O O O O O O O O O O O O O O O O O O O O O O O O O O O O O O O O O O O O O O O - O O O O O O O O O O O O O O O O O O O O O O O O O O O O O O O O O O O O O O O O O O O O O O O O O O O O O O O O O O O O O O O O O O O O O O O O O O O O O O O O O O O O O O O O O O O O O O O - - - ; ; , , ; O O . . . . . o O - - - - O O O - O O O ; - - - O O O ; - - O O O - O O O - - - - O ; O ; ; ; & 1 1 , , , j k N N B I S S Z v v x 6 4 4 4 4 4 4 4 4 4 4 z z c c c v x x v B :.>.4.y.8.r.c.m.m.j.a.s.p.p.p.i.i.i.i.i.i.i.i.8.i.z.x.a.x.x.x.a.a.s.s.s.y.y.y.i.8.8.8.i.i.i.5.5.3.L d _ 9.w.c.=.O.o.R :.#.@.J y y y 3 3 6 6 6 6 3 3 3 1 1 z z 6 3 & ; k V 1.#.%.) F 6 y S Y <.! E <.5.p.x.N.m.h.=.d Z x x Z D Z :.r.a.@.d x S S S D A p y 3 1 O ; 4 4 6 3 3 1 1 1 1 1 4 4 1 1 1 4 4 4 6 6 4 1 1 1 1 4 1 1 1 1 1 1 1 1 1 1 1 1 4 4 1 1 1 4 4 4 4 4 6 6 6 6 6 6 6 6 6 6 6 6 6 6 6 6 6 6 Z S 5.a.$.y z T y.y.W Q x.;X;X-X). .y Z A A D D E D i 6 3 6 x Z ~ W W y.u.! Y 4.p.a.L % $ & 3 i i i y 3 3 6 U R S 4 1 1 1 1 & 1 1 3 3 3 x Z 6 6 3 3 3 3 3 3 6 6 6 3 p p y 3 6 6 6 3 1 1 6 3 3 * u d d d L #.#.#.g.].:X-X[.m.j.M.m.p.2.U D Z 6 i i p y 3 y Z A S x 1 r *.u.U @.k.x.1.B Z A A D K Q 3.3.2.2.2.Q Q T U U I I S S v 4 4 1 1 & % d 6.:.c y J Y k ; 3 u +.$._.[.c.M , 4 x 6 6 6 6 4 4 6 6 6 z 4 4 1 1 1 1 & & 1 1 , ; ; ; O O ; 1 3 3 6 , , O O O O O O O O O X X . X $ & 1 , > - o . . $ $ 1 , ; O O O ; ; 1 1 4 6 x z z c z z c x 6 6 c v Z 6 v c c z 6 x Z Z x c l > . @ $ t | P 1.,.j , ; 1 ; , , 1 1 4 > h > O O O O O o o o o . . . . @ # # $ % 1 > l > o . . . . . . . . . X X X O o o o o o O o o o o o o o O O O o o o o O O o O o o o o o o o O o o o O O O O O - o o o o o o o o o o o o o o o o o o o o o o o o o o o o o o o o o o o o o o o o o o o o o o o o o o o o o o o o o o o o o o o o o o o o o o o o o o o o o o o o o o o o o o o o o o o o o o o o o o o o o o o o o o o o o . o o o o o . . . . . o o o o . o . . . o o o o . o o o o . . . . . . . o o o o o o o o o . o . o o o o o o o . o o o o o o . . o o o o . . o o . . . o o o . . . . . . . . . . . . . . . . . . . . . . . . . . . . . . . . . . . . . . . . . . . . . . . . . . . . . . . . . . . . . . . . . . . . . . . . . . . . . . . . . . . . . . . . . . . . . . . . . . . . . . . . . . . . . . . . . . . . . . . . . . . . . . . . . . . . . . . . . . . . . . . . . . . . . . . . . . . . . . . . . . . . . . . . . . . . . . . . . . . . . . . . . . . . . . . . . . . . . . . . . . . . . . . . . . . . . . . . . . . . . . . . . . . . . . . . . . . . . . . . . . . . . . . . . . . . . . . . . . . . . . . . . . . . . . . . . . . . . . . . . . . . . . . . . . . . . . . . . . . . . . . . . . . . . . . . . . . . . . . . . . . . . . . . . . . . . . . . . . . . . . . . . . . . . . . . . . . . . . . . . . . . . . . . . . . . . . . . . . . . . . . . . . ",
". . . . . . . . . . . . . . . . . . . . . . . . . . . . . . . . . . . . . . . . . . . . . . . . . . . . . . . . . . . . . . . . . . . . . . . . . . . . . . . . o . . . . . . . . . . . . . . . . . . . . . . . . . o o o o o o o o o o o o o o o o o o o o o o o o o o o o o o o o o o o o o o o o o o o o o o o o o o o o o o o o o o o o o o o o o o o o o o o o o o o o o o o o o o o o o o o o o o o o o o o o o o o o o o o o o o o o o o o o o o o o o o o o o o o o o o O O O O O O o o o o O O o o o o o o o O o o o o o o o O O O o o o o O O o o o O O O o o O O O O O O O O O O O O O O O o o o o o O O O O O O O O O O O o O O O O O O O O O O O O O O O O o O O O O O O O O O O O o o o O O O o o o O O O O O O O O O O O O O O O O O O O O O O O O O O O O O O O O O O O O O O o O O O O O O O O O O O O O O O O O O O O O O O O O O O O O O O O O O O O O O O O O O O O O O O O O O O O O O O O O O O O O O O O O O O O O O O O O O O O O O O O O O O O O O O O O O O O O O O O O O O O O O O O O O O O O O O O O O O O O O O O O O O O O O O O O O O O O O O O O O O O O O O O O O O O O O O O O O O O O O O O O O O O O O O O O O O O O O O - - ; ; ; , ; 1 1 & O O O O O - ; - - - - O O O - O O O O - - - O O O ; - - - O O - - O O - - - - O ; ; O O & & & , ; ; ; , j c c v v v S S S Z A A J A i 6 6 z 6 6 4 4 z z z c c x x x x v v N B :.>.w.e.x.x.a.a.p.p.p.z.z.z.a.a.a.u.i.p.8.p.x.x.a.a.b.x.a.a.a.s.s.y.y.y.3.2.<.4.4.8.8.p.p.y.+.&.] >.r.N./.O.&.1.4.+. .p 3 3 3 3 3 6 6 6 6 6 3 3 & & 1 1 1 & O , c 1.<.! P F S A Z S Y Y U E Q 5.8.z.v.N._.O.| p p A I Y K L 3.y.+.d p x y 3 3 6 3 * & & 1 1 4 4 1 * * 1 3 * 1 1 1 1 1 1 1 1 1 1 4 4 1 1 1 4 4 1 1 1 1 1 1 1 1 1 1 1 1 1 1 1 1 1 1 1 1 1 1 1 1 1 6 6 6 4 4 6 6 6 6 6 6 6 6 6 6 6 x v B 4.3.p 6 x I T ! W 2.x.+X;X{.h.s x S A A Z D U S y y 3 6 6 K W E W u.#.D D 5.x.V.u.s 3 & 1 3 y 6 3 6 Z S S v 4 1 1 1 1 3 3 3 3 6 6 Z D Z 6 3 3 3 3 y i 6 x Z Z A Z 6 1 & & 3 * * 3 y u d @.h._.}.j.y.! ! Q #.a.m.m.p.4.2.3.T I v 6 6 3 3 6 i y y i Z x 6 4 O = o.).x.c t h.[.z.V b A D A D E 3.3.2.2.2.Q Q T U U U I U S v 4 1 1 ; 1 $ u Q 1., ; y K I j O u +.$.g.M.N.e.V , 1 1 6 6 6 4 4 6 6 x z 4 4 4 1 1 1 1 3 6 1 , ; ; ; O O O O & 3 4 j , - O O O O O O X X X X . X % * 6 c k j - . X $ % 4 j > o O O ; & & 1 6 6 4 z x c c z x 6 6 x c v Z p S N c z 6 6 6 6 j j > o . @ # = r r v M h > - O 1 , 4 4 4 z j h > O O O O O o o . . o o o . . + X % * 4 j h > o . . o . . . . . X X X . o o o o o o O O o o o o o o O O O o o o o O O o o o o o o o o O O o o o O O O O O - o o o o o o o o o o o o o o o o o o o o o o o o o o o o o o o o o o o o o o o o o o o o o o o o o o o o o o o o o o o o o o o o o o o o o o o o o o o o o o o o o o o o o o . o o o o o o o o o o o o o o o o o o o o o o . o o o o o o o . . o o o o . . o . . . o o o o . . o o o . . . . . . . o o o o o o o o o . . . o o o o o o o o o o o o . . . . . . o o o . . . o . . . o o . . . . . . . . . . . . . . . . . . . . . . . . . . . . . . . . . . . . . . . . . . . . . . . . . . . . . . . . . . . . . . . . . . . . . . . . . . . . . . . . . . . . . . . . . . . . . . . . . . . . . . . . . . . . . . . . . . . . . . . . . . . . . . . . . . . . . . . . . . . . . . . . . . . . . . . . . . . . . . . . . . . . . . . . . . . . . . . . . . . . . . . . . . . . . . . . . . . . . . . . . . . . . . . . . . . . . . . . . . . . . . . . . . . . . . . . . . . . . . . . . . . . . . . . . . . . . . . . . . . . . . . . . . . . . . . . . . . . . . . . . . . . . . . . . . . . . . . . . . . . . . . . . . . . . . . . . . . . . . . . . . . . . . . . . . . . . . . . . . . . . . . . . . . . . . . . . . . . . . . . . . . . . . . . . . . . . . . . . . . . . . . . . . ",
". . . . . . . . . . . . . . . . . . . . . . . . . . . . . . . . . . . . . . . . . . . . . . . . . . . . . . . . . . . . . . . . . . . . . . . . . . . . . . . . o . . . . . . . . . . . . . . . . . . . . . . . . o o o o o o o o o o o o o o . . o o o o o o o o o o o o . o o o o o o o o o o o o o o o o o o o o o o o o o o o o o o o o o o o o o o o o o o o o o o o o o o o o o o o o o o o o o o o o o o o o o o o o o o o o o o o o o o o o o o o o o o O o O o o o o o o o o o o o O O o o O O o o o o o o o o o o o o o o o O O O o o o o O O O O O O O O O O O O O O O O o o o O O O O O O o o o o o O O O O O O o o O O O O O O O O O O O O O O O O o o O O O o o O O O O O O O O O O O O O O O o o O O O O O O O O o o O O O O O O O O O O O O O O O O O O O O O O O O O O O O O O O O O O O O O O O O O O O O O O O O O O O O O O O O O O O O O O O O O O O O O O O O O O O O O O O O O O O O O O O O O O O O O O O O O O O O O O O O O O O O O O O O O O O O O O O O O O O O O O O O O O O O O O O O O O O O O O O O O O O O O O O O O O O O O O O O O O O O O O O O O O O O O O O ; ; O O O O O O O O O O O O O O O O O O O O O O O ; ; O O O ; - ; ; ; , ; ; & & O O O - - - - - - - - ; O O ; O O - - ; ; O O ; ; - - O O O O O O - - - - O O O ; ; 1 * e r % ; , , , , 4 z 4 4 4 z v v v I U W L P J A Z S Z Z Z v v v x v v x x v c x x x c V >.>.7.8.p.p.p.p.p.p.z.z.z.x.m.j.u.i.p.i.z.x.m.j.b.n.b.x.a.a.s.s.s.#.! E Q T <.4.7.e.z.x.u.@.&.0.r.OX'./...' <.!  .t 3 6 6 3 6 6 6 6 6 6 6 3 3 & & & & O O - 4 v I Y D A S U U U U U I U T E Q Q 2.i.z.a.*.@.L L J D 1.4.u.g.u.#.@. .u e * 1 4 4 3 1 3 3 1 4 3 3 * * 1 & * 1 1 & & 1 1 1 1 1 1 1 1 1 1 1 , 4 1 1 1 1 1 1 1 1 1 1 1 1 1 1 1 1 1 1 1 1 1 1 1 1 1 1 6 6 4 4 4 6 6 6 6 6 6 6 6 6 6 6 6 6 v v S i y v v T #.Q <.z.+X:X}.@.A Z A A A Z S D Z i y y 6 6 S D D K K J D E i.N.B.a.y.A * * y 3 Z A Z x 4 1 3 3 1 3 3 6 6 6 y y y A U D 6 6 3 3 y A A Z 6 i p s s p u u u d +.+.+.P P +.h.}.-X=Xx.Q c 4 1 ; 6 U U I B B v 4 4 6 6 6 6 6 6 3 y A D x 4 4 O $ r -.}.z.c u *.[.N.1.v S D A D E ! 3.3.2.Q T T T U U U I U I v z 1 O ; ; & & Z v , - % ..u.:.h * s #.3.3.p.x.8.B , 1 6 6 6 4 4 6 4 4 4 4 4 4 1 1 1 1 3 6 1 , ; - O O O # w q e x j > ; O O o O O O O X X X X O & & 1 b c j > o X X & 1 , - o O O O & & 3 6 4 4 x x v c x 6 6 x v v c x i A S S Z Z v z > > - o . @ # # = r u S M l > o X O ; , 1 1 , j > - o O X o o o o o o o o o . . . X $ 1 4 h h - . X o o . . . . . X . . o o o o O O O o o o O O O o o o o O O O O O o o o O O O o o o o O O O o o O O O O O O o o o o o o o o o o o o o o o o o o o o o o o o o o o o o o o o o o o o o o o o o o o o o o o o o o o o o o o o o o o o o o o o o o o o o o o o o o o o o o o o o o o o o o . . o o o o o o o o o o o o o o o o o o o o o o o o o o o o o . . o o o o . . o . . . o o o o o o o o . . o o . o o o o o o o o o . o o . . . o o o o o o o o o o o o . . o o o o . . . o o o o . . . o o . . . . . . . . . . . . . . . . . . . . . . . . . . . . . . . . . . . . . . . . . . . . . . . . . . . . . . . . . . . . . . . . . . . . . . . . . . . . . . . . . . . . . . . . . . . . . . . . . . . . . . . . . . . . . . . . . . . . . . . . . . . . . . . . . . . . . . . . . . . . . . . . . . . . . . . . . . . . . . . . . . . . . . . . . . . . . . . . . . . . . . . . . . . . . . . . . . . . . . . . . . . . . . . . . . . . . . . . . . . . . . . . . . . . . . . . . . . . . . . . . . . . . . . . . . . . . . . . . . . . . . . . . . . . . . . . . . . . . . . . . . . . . . . . . . . . . . . . . . . . . . . . . . . . . . . . . . . . . . . . . . . . . . . . . . . . . . . . . . . . . . . . . . . . . . . . . . . . . . . . . . . . . . . . . . . . . . . . . . . . . . . . . . ",
". . . . . . . . . . . . . . . . . . . . . . . . . . . . . . . . . . . . . . . . . . . . . . . . . . . . . . . . . . . . . . . . . . . . . . . . . . . . . . . . . . . . . . . . . . . . . . . . . . . . . . . . . o o o o o o o o o . . o o o o o o o o o o o o o o o o o o o o o o o o o o o o o o o o o o o o o o o o o o o o o o o o o . o o o o o o o o o o o o o o o o o o o o o o o o o o o o o o o o o o o o o o o o o o o o o o o o o o o o o o o o o o o o O O o o o o o O o o o o O O o o O O o o o o o o O O o o o o o o o O O O o o o o O O O o O O O O O O O O O O O O o o O O O O O O O o - O O o O O O O O o o O O O O O O O O O O O O O O O O O O o O O O O O O O O O O O O O O O O O O O O o o O O O O O O O O O O O O O O O O O O O O O O O O O O o O O O O O O O O O O O - O O O O O O O O O O O O O O O O O O O O O O O O O O O O O O O O O O O O O O O O O O O O O O O O O O O O O O O O O O O O O O O O O O O O O O O O O O O O O O O O O O O O O O O O O O O O O O O O O O O O O O O O O O O O O O O O O O O O O O O O O O O O O O O O O O O O O O O O O O O O O O - - - ; ; ; O O O O O O O O O O O O O O O O O O O O O O ; - O O O O ; - ; ; , , , 1 O O O O O O - - - - - - - ; O O ; O - - - - O O O O ; - - - O O O O O O - - ; O O O , , 1 e t r % ; > > , 4 4 4 1 4 4 4 z z c V B S A A D S S S S S S S Z v v v v v x v v v v v v Y 1.1.7.e.p.p.p.p.i.i.p.z.z.p.a.a.i.i.p.p.x.m.m.V.C.n.b.b.a.a.s.s.s.s.! Q Q Q Q 4.8.e.c.v.m.*.&.f.b.B.`./.@.R 2.L d u 6 6 6 6 6 6 6 6 6 6 6 3 1 1 & X O O ; , z Z Z v S S Y Y U U D D U T T E E E E 2.4.4.y.#.! E J A Y 7.z.N.M.k.*.O.| r e 3 4 1 3 4 6 6 6 4 i A p y 1 1 1 4 4 & & 1 1 1 1 1 1 1 1 1 1 4 1 1 1 1 , 1 1 1 1 1 1 1 1 ; & & 1 1 1 1 1 1 1 1 1 1 1 1 6 6 6 4 4 6 6 6 6 6 3 3 6 6 6 6 6 3 6 c v Z i 6 6 v T 3.Q <.v.;X{.g.s 6 D D A Z i Z D D Z i A x x Z i y 6 x U i.a.5.5.x.m.u.+.d s p S S x 6 3 & & 1 3 3 3 3 3 6 6 3 6 Z U D x 6 3 1 6 y i 6 3 y u  ...@.*.*.$.u.l.l.j.#.E E #.u.y.T I c 4 O & & 6 v v z 4 4 6 6 6 6 i i y 3 3 y y p Z 4 1 & * y P +.j.a.T E #.M.N.4.I Z D A D E ! 3.2.2.2.T T T U U U U I I v z 4 O ; ; O O 1 4 : - $  .s.7.M o X 6 S U E 3.p.4.B 4 6 6 4 4 1 1 1 1 1 4 , , , 1 & 1 1 6 1 , ; - O O o w } } d I M > ; O O O o O O O O O O O O - - O O - , > - . . . o O O O O O O & & 3 3 6 x x x v c x y i v N v x 4 6 s +.#.T V M l > - O o o # # q % e p I V M h o X O O O O ; , , - - O o o . o o o o o . . . . . . . X X o > > o X X . o . . . . . X X . o o O o O O o o o o O O O O o o o o O O o O o o o O O o o o o o O O o o o O O O O O o o o o o o o o o o o o o o o o o o o o o o o o o o o o o o o o o o o o o o o o o o o o o o o o o o o o o o o o o o o o o o o o o o o o o o o o o o o o o o o o o o o o o o o o o o o o . o o o o o o o o o o o o o o o o o o o o o o o o o o . o o o o . . o . . . o o o o o o o o . o o o o o o o o o o o o o o o o o o o o o o o . . o o o o o o . . o o o o . . . o o o o . . . o o . . . . . . . . . . . . . . . . . . . . . . . . . . . . . . . . . . . . . . . . . . . . . . . . . . . . . . . . . . . . . . . . . . . . . . . . . . . . . . . . . . . . . . . . . . . . . . . . . . . . . . . . . . . . . . . . . . . . . . . . . . . . . . . . . . . . . . . . . . . . . . . . . . . . . . . . . . . . . . . . . . . . . . . . . . . . . . . . . . . . . . . . . . . . . . . . . . . . . . . . . . . . . . . . . . . . . . . . . . . . . . . . . . . . . . . . . . . . . . . . . . . . . . . . . . . . . . . . . . . . . . . . . . . . . . . . . . . . . . . . . . . . . . . . . . . . . . . . . . . . . . . . . . . . . . . . . . . . . . . . . . . . . . . . . . . . . . . . . . . . . . . . . . . . . . . . . . . . . . . . . . . . . . . . . . . . . . . . . . . . . . . . . . ",
". . . . . . . . . . . . . . . . . . . . . . . . . . . . . . . . . . . . . . . . . . . . . . . . . . . . . . . . . . . . . . . . . . . . . . . . . . . . . . . . . . . . . . . . . . . . . . . . . . . . . . . . o o o o . . o o o o o o o o o o o o o o o o o o o o o o o o o o o o o o o o o o o o . o o o o o o o o o o o o o o o o o o o o o o o o o o o o o o o o o o o o o o o o o o o o o o o o o o o o o o o o o o o o o o o o o o o o o o o o o o o o o o o o O o o o o o O O O o o O O o O O O O O O O o O O O O O o o o o o o O o o o O O O o o o O O O O O o o o O O O O O O o o o o o o O o - - - - o o o O O O O O O o O O o O O O O O O O o o O O O O O O O O O O o o O O O O O O o O O O O O O O o o O o o o O O O O O O O O O O O O O O O O O O O O O O O O O O O O O O O O O O O O O O O O O O O O O O O O O O O O O O O O O O O O O O O O O O O O O O O O O O O O O O O O O O O O O O O O O O O O O O O O O O O O O O O O O O O O O O O O O O O O O O O O O O O O O O O O O O O O O O O O O O O O O O O O O O O O O O O O O O O ; O O O O O O O O O O O O O O O O - - - - - - O O O O O O O O O O O O O O O O O - ; O O O O O O O O O O O O - ; , ; , , ; ; O O O O O O O O O O O O O O O O O O O O - - - O O O - - - - - ; ; O O - - - - O O O ; ; & $ $ $ O O - ; ; , 1 , , , , , 4 4 z c z z 4 4 4 z z z z z c c v x x v v v v v v v v B I T <.7.e.z.z.x.a.p.p.p.p.p.p.p.i.p.p.z.z.x.m.m.V.C.I.n.b.a.a.s.s.s.s.%.~ Q Q Q 2.5.8.z.c.v.m.g.f.n.b.j.*.@.K Y U A s u y 6 6 6 3 3 6 6 6 6 3 1 & & & O O ; , z v A Z S S Z Z S D A Z A D T T E E E E U T <.3.y.y.#.! #.#.K <.7.c.+X]./.O.o.r * 4 1 3 6 B Y D A S E P u * & 1 2 1 1 1 1 1 1 1 1 1 1 1 1 1 4 1 1 1 1 1 1 1 1 1 1 1 1 1 O O & 1 1 1 1 1 1 1 1 1 1 1 1 1 3 3 4 4 4 6 3 3 3 3 3 6 6 6 6 6 3 6 6 x x 6 6 6 6 Z U Q U 8.OX=Xh.s 6 S D Z x i p D U D i Z Z Z A p y 3 Z E 3.i.5.<.<.p.m.M.k.$.%./ F 6 1 & & & 3 3 3 3 3 3 6 6 6 6 x Z v 6 6 3 1 1 3 y y u +.=._.].{.{.{.m.y.y.y.! E D D D A Z 4 4 Z x 1 & * y i 6 6 1 1 3 6 3 3 6 6 6 3 y i i 6 1 1 & % d s.4.B D ! 2.I P h.B.8.Y Z A D D E ! ! 3.2.2.T T U U U U U I I v z 4 ; 1 1 O O 1 4 4 ; X e P <.M - X O 4 Z S U E 3.<.N z 4 1 1 1 1 1 1 1 1 1 , , 1 1 1 1 1 1 , ; - - O . w } } ..4.,.l - O o o o O O O O O O O - ; ; ; - - - - o o . . o o O O O O O O & * y A v z 4 c v Z A D Y :.v 4 1 6 d @.u.8.,.M , O - - O O @ + O & 1 6 i x k l > O O O O O ; , , , > - - o o o o o . . . . . . . . . . . . o o . X X X O o o . X X X X o O O O O O O o o o o o o o o o o o o o o o o o o o o O o o o O o o o o o o o O O O o o o o o o o o o o o o o o o o o o o o o o o o o o o o o o o o o o o o o o o o o o o o o o o o o o o o o o o o o o o o o o o o o o o o o o o o o o o o o o o o o o o o o o o o o . o o o . . o o o o o o o o . . o o o o o o . o o o o . o o o o o o o o o . o o o . o o . o o o o o . . o o . . o o o o . . o o o o o o o o o o o . . . o o . . . . . . o o o o o o o o o o o . . . o o . . . . . . . . . . . . . . . . . . . . . . . . . . . . . . . . . . . o . o . . o . . . . . . . . . . . . . . . . . . . . . . . . . . . . . . . . . . . . . . . . . . . . . . . . . . . . . . . . . . . . . . . . . . . . . . . . . . . . . . . . . . . . . . . . . . . . . . . . . . . . . . . . . . . . . . . . . . . . . . . . . . . . . . . . . . . . . . . . . . . . . . . . . . . . . . . . . . . . . . . . . . . . . . . . . . . . . . . . . . . . . . . . . . . . . . . . . . . . . . . . . . . . . . . . . . . . . . . . . . . . . . . . . . . . . . . . . . . . . . . . . . . . . . . . . . . . . . . . . . . . . . . . . . . . . . . . . . . . . . . . . . . . . . . . . . . . . . . . . . . . . . . . . . . . . . . . . . . . . . . . . . . . . . . . . . . . . . . . . . . . . . . . . ",
"  . . . . . . . . . . . . . . . . . . . . . . . . . . . . . . . . . . . . . . . . . . . . . . . . . . . . . . . . . . . . . . . . . . . . . . . . . . . . . . . . . . . . . . . . . . . . . . . . . . . . . . . o o o o . . . o o o o o o o o o o o o o o o o o o o o . o o o o o o o o o o o o o o o o . o o o o o o o o o o o o o o o o o o o o o o o o o o o o o o o o o o o o o o o o o o o o o o o o o o o o o o o o o o o o o o o o o o o o o o o o o o o o o o o O o o o o O O O o o O O O o o O O O O O o o O O O o o o o o o o O o o O O O O O o O O O O O o o O o O O O O O O o o o o o o O O o O - - o o o o O O O O o o O O O O O O O O O O o o O O O O O O O O O O o o o O O O O o o O o O O O O O O o O o o o O O o O O O O O O O O O O O O O O O O O O O O O O O O O O O O O O O O O O O O O O O O O O O O O O O O O O O O O O O O O O O O O O O O O O O O O O O O O O O O O O O O O O O O O O O O O O O O O O O O O O O O O O O O O O O O O O O O O O O O O O O O O O O O O O O O O O O O O O O O O O O O O O O O O O O O O O O O ; O O O O O O O O O O O O O O O O - - - - - O O O O O O O O O O O O O O O O O O - - O O O O O O O O O O O - - ; , , , ; ; ; O O O O O O O O O O O O O O O O O O O O - - - - O O - - - - - ; ; O O - - - - ; ; - , ; O & & & O O O O - - , , , , , , , 4 4 4 4 , , 4 4 j z z 4 i y 3 4 4 4 4 c c v v x v v B I T <.7.e.z.x.x.a.p.p.p.p.a.a.a.p.p.p.z.x.v.m.m.V.C.C.b.m.m.m.C.f.s.s.%.~ Q <.<.4.8.8.e.c.v.m.g.s.n.n.$.+.J I Y S Z p p 3 6 6 6 6 6 3 6 3 3 1 1 & & & & & 1 4 v S Z x v S A A Z S A A Z Z S D D E U U U T Q 4.8.a.u.p.u.$. .p N 7.c.;X`.^.-.f * 3 6 3 6 c V U D S U L d r & ; , 1 & 1 1 1 1 1 1 1 1 1 1 1 1 1 1 1 1 1 1 1 1 1 1 1 1 1 O O & 1 1 1 1 1 1 1 1 1 1 1 1 1 3 1 1 4 4 6 3 3 1 1 1 3 6 6 6 6 6 6 6 6 6 x i 6 6 6 v I U U 8.v.m.u.p 3 p Z Z i i Z S S Z i Z A A A i i Z D Q 3.3.D x S y.[.:X{.M.l.#.L %.%.P p p y y y y 6 6 3 3 6 3 * e e e e u +.+.+.+.@.g.].:X;X=XB.m.3.D D E W E A A A A i 6 6 6 6 1 & & y i 6 6 3 1 3 6 6 1 & * * y i A i 1 O & & e J Q 1.c 6 S B z t =.B.z.Y v A D A D Q ! 2.2.2.T T U U U U U U I v c 4 1 1 & O 1 1 1 , , - O y D N > o X X 1 x v A K 2.1.N > ; 1 1 , 1 1 1 1 1 4 , , 1 1 O & & & & & & & O # w g @.8.t.l O O O O X O O O O O O - - O 1 , ; - o o O o . . X X O O O & * 3 3 3 i Z v c z x x Z A I V V N 6 u d +.+.T :.M > O O O O - - - - - o - ; * 3 z k h - O O O - , , , , > - - o o . o o . . . . . . . . . . . . . . . X X X O O - O O X X O o o o O O O o o o o o o o o o o o o o o o o o o o o o o o o o O o o o o o o o O O O O o o o o o o o o o o o o o o o o o o o o o o o o o o o o o o o o o o o o o o o o o o o o o o o o o o o o o o o o o o o o o o o o o o o o o o o o o o o o o o o o o o o o o o o o . o o o . . . o o o o o o . . . . o o o o o o o o o o o o o o o o o o o o . o o o o o o . . . o o o o . o o . . o o o o . . o o o o o o o o o o o . . . o o o . . . . o o o o o o o o o o o o o o o o o . . o o . . . o . . . o . . . . . . . . . . . . . . . . . . . . . . . . . . . . . . . . . . . . . . . . . . . . . . . . . . . . . . . . . . . . . . . . . . . . . . . . . . . . . . . . . . . . . . . . . . . . . . . . . . . . . . . . . . . . . . . . . . . . . . . . . . . . . . . . . . . . . . . . . . . . . . . . . . . . . . . . . . . . . . . . . . . . . . . . . . . . . . . . . . . . . . . . . . . . . . . . . . . . . . . . . . . . . . . . . . . . . . . . . . . . . . . . . . . . . . . . . . . . . . . . . . . . . . . . . . . . . . . . . . . . . . . . . . . . . . . . . . . . . . . . . . . . . . . . . . . . . . . . . . . . . . . . . . . . . . . . . . . . . . . . . . . . . . . . . . . . . . . . . . . . . . . . . . . . . . . . . . . . . . . . . . . . . . . . . . . . .   ",
"  . . . . . . . . . . . . . . . . . . . . . . . . . . . . . . . . . . . . . . . . . . . . . . . . . . . . . . . . . . . . . . . . . . . . . . . . . . . . . . . . . . . . . . . . . . . . . . . . . . . . . . . . o o . . o o o o o . o . o o o o . o o o o o o . o o o o o o o o o o o o o o o o o . . o o o o o o o o o o o o o o o o o o o o o o o o o o o o o o o o o o o o o o o o o o o o o o o o o o o o o o o o o o o o o o o o o o o o o o o o o o o o o o o o o O O O o o o O o o o O O o o O o o o o O O O O O O O o O O O o o o O O O O O O O o O O O O O O O O O O O o O O o o o o o o o o o o - - o o o O O O O O o O O O o o O O O O O O o o O O o O O O O O O O O O O O O O O O o O O O O O O O O O O O O O O O O O O O o O O O O O O O O O O O O O O O O O O O O O O O O O O O O O O O O O O O O O O O O O O O O O O O O O O O O O O O O O O O O O O O O O O O O O O O O O O O O O O O O O O O O O O O O O O O O O O O O O O O O O O O O O O O O O O O O O O O O O O O O O O O O O O O O O O O O O O O O O O O O O O O O O O O O O O O O O O O O O O O O O O O O O O - O O O O O O O O O O O O O O O O O O O O O - - O O O O O O O O O O O - - ; , , ; ; 1 1 O O - - - - - - - - ; O ; - - - - ; O O ; - - - O O ; O - - - - O O ; ; - - - - ; ; , , ; 1 3 3 * * 3 1 - - ; , , , , , , , 4 1 4 4 4 4 z c :.:.K +.d p z c 6 6 z 4 z z x v v B B I <.7.8.e.z.p.p.p.p.z.p.a.j.a.a.p.p.z.x.m.m.m.V.Z.l.j.m.j.j.s.s.s.%.%.~ E T <.1.8.8.e.c.v.x.j.x.b.%.X.d i v v Z Z i 3 3 1 4 6 6 6 6 6 3 3 & & & & & & 1 4 z v v 6 6 v v x Z Z v S A Z 6 i Z S S D S S I U 1.7.x.j.g.u.$...t y N w.OX{./.O.t e 3 i y 3 6 c v I I E +.d e * & & & 1 1 1 1 1 1 1 1 1 1 1 1 1 1 1 1 1 1 1 1 1 1 1 ; ; 1 1 & 1 1 1 1 1 1 1 1 1 1 1 1 1 1 1 1 1 1 6 6 6 6 1 1 1 3 3 6 6 6 4 4 6 6 x v x x 6 6 6 v U E v V z.m.u.u u A Z Z A i i A A i i A A A A Z i i D E y.y.L y 6 u.=X;X;X[.j.y.s.b.s.W K A i i 6 6 3 3 * * u +.*.*.g.$.$.u.$.#.L W #.j.N.m.p.2.S 3 3 y A D A i p p A A i 6 4 4 3 & & 3 6 6 1 1 1 1 1 1 & $ e y i 6 6 6 1 1 & 3 3 i S v x x c j O r =.B.c.1.v A S A D Q 3.2.2.2.Q T U U U U T T Y v c 4 1 & & ; 1 1 1 , , - O % u v k - X X O 1 1 6 6 J #.#.T z - & 1 4 1 & 1 4 4 4 , 1 1 & y p u s P A z , + = r J <.:.l - X X O O O & ; - - o O O O O - - O o X X o o X X X O O O & e y 6 z z 6 x c c 6 6 x c c c j 6 p d +.E V l > o $ & 1 1 ; ; , ; - - - o . $ e 6 c l > O O O O ; ; - - - o o o o o o . . . . . . . . . . . . . . . . X X X O O - ; O X X O o o o o O O O o o O O o o o O O O O O o o o o o O o o O O O O o o o o o o o o O O O - o o o o o o o o o o o o o o o o o o o o o o o o o o o o o o o o o o o o o o o o o o o o o o o o o o o o o o o o o o o o o o o o o o o o o o o o o o o o o o o o o o o o o o o . . o o o . . . o o o o o . . o . o o o o o o o o o o o o o o o o o o o o o o o o o o o o o . . . . . o o o o . o o o o o o . o o o o o o o o o . . . . . . . o o o . . . o o . . o o o . . . o o o . . . . . . . . . . . . . . . . . . . . . . . . . . . . . . . . . . . . . . . . . . . . . . . . . . . . . . . . . . . . . . . . . . . . . . . . . . . . . . . . . . . . . . . . . . . . . . . . . . . . . . . . . . . . . . . . . . . . . . . . . . . . . . . . . . . . . . . . . . . . . . . . . . . . . . . . . . . . . . . . . . . . . . . . . . . . . . . . . . . . . . . . . . . . . . . . . . . . . . . . . . . . . . . . . . . . . . . . . . . . . . . . . . . . . . . . . . . . . . . . . . . . . . . . . . . . . . . . . . . . . . . . . . . . . . . . . . . . . . . . . . . . . . . . . . . . . . . . . . . . . . . . . . . . . . . . . . . . . . . . . . . . . . . . . . . . . . . . . . . . . . . . . . . . . . . . . . . . . . . . . . . . . . . . . . . . . . . . . . . . . . . . . . . .   ",
"  . . . . . . . . . . . . . . . . . . . . . . . . . . . . . . . . . . . . . . . . . . . . . . . . . . . . . . . . . . . . . . . . . . . . . . . . . . . . . . . . . . . . . . . . . . . . . . . . . . . . . . . . o o . . . o o o o o o . o o o o o o o . . o . . . o o o o o o o o o o o o o o o o o o o o o o o o o . o o o o o o o o o o o o o o o o o o o o o o o o o o o o o o o o o o o o o o o o o o o o o o o o o o o o o o o o o o o o o o o o o o o o o o o o o O O O o o o o o o o o O O o O o o o o o O O O O O o o O O O O o o O O O O O O o o O O O O O O O O O O O O O O O O O o O O O O o o o o o o O O O O O O O O O O O O O O o O O O O O O O o O O O O O O O O O O O O O O O O O O O O O O O O O O O O O O O O O O O o o O O O O O O O O o O O O O O O O O O O O O O O O O O O O O O O O O O O O O O O O O O O O O O O O O O O O O O O O O O O O O O O O O O O O O O O O O O O O O O O O O O O O O O O O O O O O O O O O O O O O O O O O O O O O O O O O O O O O O O O O O O O O O O O O O O O O O O O O O O O O O O O O O O O O ; - O O O O O O O O O O O O O O O O O O O O O O O O O O O O O O O O O O O O O O ; O O O O O O O O O O O - - , , , ; 1 1 ; ; O - - - - - - - - - ; ; - - - - ; O O - - - - O O ; - - - - - ; O O - - - - O O ; , , ; 1 3 3 3 3 3 1 ; ; , 1 1 ; ; - , , , 4 4 4 1 4 4 c ,.7.W +.L S v F Z 6 6 4 z x x v v v v I Y 1.7.8.z.p.p.p.p.z.p.a.a.a.i.i.p.z.x.m.m.V.C.C.l.j.m.j.a.a.u.u.#.#.W U T T <.4.e.e.z.x.x.N.v.j.=.-.o.R B A A A i 3 7 5 2 1 6 6 6 6 3 3 & & & O & 1 4 z x Z p y y 6 x 6 6 x x x Z Z i y 6 v v S A p i v B 1.8.j.*.$.#.@...d S 1.r.OX).O.| u y 6 6 3 3 1 4 z Y #.+.u 3 6 y % & - O & 1 1 1 1 1 1 1 1 1 1 1 1 1 1 & & 1 1 1 1 ; O 1 1 1 1 1 1 1 1 1 1 1 1 1 1 1 1 1 1 3 1 1 3 6 6 1 1 1 1 1 1 3 3 6 4 4 6 6 x v x x x 6 6 Z S T K Z V c.M.g.P A Z Z A p y A A i y i A A p p y 6 6 A ! u.y.K Z D a.[.=XB.a.y.2.2.2.T S Z Z i p J J A A u #._.{.:X}.j.y.y.E S 6 4 6 Z K D Z 6 1 3 6 i Z x 6 6 y J J i 6 1 1 1 6 a 3 3 6 6 1 O 1 1 & O & 3 A F b , & 1 1 1 3 3 & y J A Z v c z ; r @.M.c.4.S A S A D U Q 2.2.2.Q T T T U U T T Y B v 4 1 1 & 1 1 1 1 ; , O X $ * 6 j ; O O O X & 4 4 u ..=.k.i.c 1 1 4 4 1 1 4 4 4 4 , ; & p P J W y.~ N j ; O & 3 x c j , O O ; & & 1 ; - - - O O O O O O o O X X o o o X X X O O & * 3 6 z z 4 z c x 6 v c b 6 3 u d J D S N l > . $ % * 2 z 4 1 4 , - - o . . $ % 3 z l h o O X O O - - - o o o o o o o . . . . . . . o o . . . . . . . . X X O O o - - X X O o o o o o O O o o O o o o o O O O O O o o o o o O o o O O o o o o o o o o o o O O O - o o o o o o o o o o o o o o o o o o o o o o o o o o o o o o o o o o o o o o o o o o o o o o o o o o o o o o o o o o o o o o o o o o o o o o o o o o o o o o o o o o o o o o o . . o o o o . . o o o o o . . o o o o o o o o o o o o o o o o o o o o o o o o o o o o o o . . . . o o o o o o o o o o o o . . o o o o o o . . o o . . o . . o o o o o . . o o . o o o o . . . o o . . . . . . . . . . . . . . . . . . . . . . . . . . . . . . . . . . . . . . . . . . . . . . . . . . . . . . . . . . . . . . . . . . . . . . . . . . . . . . . . . . . . . . . . . . . . . . . . . . . . . . . . . . . . . . . . . . . . . . . . . . . . . . . . . . . . . . . . . . . . . . . . . . . . . . . . . . . . . . . . . . . . . . . . . . . . . . . . . . . . . . . . . . . . . . . . . . . . . . . . . . . . . . . . . . . . . . . . . . . . . . . . . . . . . . . . . . . . . . . . . . . . . . . . . . . . . . . . . . . . . . . . . . . . . . . . . . . . . . . . . . . . . . . . . . . . . . . . . . . . . . . . . . . . . . . . . . . . . . . . . . . . . . . . . . . . . . . . . . . . . . . . . . . . . . . . . . . . . . . . . . . . . . . . . . . . . . . . . . . . . . . . . . . . .   ",
"    . . . . . . . . . . . . . . . . . . . . . . . . . . . . . . . . . . . . . . . . . . . . . . . . . . . . . . . . . . . . . . . . . . . . . . . . . . . . . . . . . . . . . . . . . . . . . . . . . . . . . . . o o . o o o o o o o o o o o o o o o o o o o . . . . o o o o o o o o o o o o o o o o o o o o o o o o . o o o o o o o o o o o o o o o o o o o o o o o o o o o o o o o o o o o o o o o o o o o o o o o o o o o o o o o o o o o o o o o o o o o o o O o o o o O o O o o o o O O o O O O O o o o o O o o o o o o o o o o o o o O O O O O O o O O O O O o O O O O O O O O O O O O o O O O O o o o o o O O O O O o O O O O O O O O O O O O O O O O O o o O O O O o o O O o O O O O O O O O O O O O O O O O O O O O O O O O O O O O O O O O O O O O o O O O O O O O O O O O O O O O O O O O O O O O O O O O O O O O O O O O O O O O O O O O O O O O O O O O O O O O O O O O O O O O O O O O O O O O O O O O O O O O O O O O O O O O O O O O O O O O O O O O O O O O O O O O O O O O O O O O O O O O O O O O O O O O O O O O O O O O O O O - O O O O O O O O O O O O O O O O O O O O O O O O O O O O O O O O ; O O O O O O ; O O O O O O O O O O O ; , ; , ; ; ; O ; ; O ; O ; ; ; ; ; ; - ; - - - - - O O O - - - - O O - - - - - - - O O ; ; O - O O O - - O O O O O & O O ; , , 1 1 1 ; - , , , 4 4 , 1 4 4 z z z 6 c V V v Z A A Z x x x x v v v v I Y 1.7.8.8.p.p.p.p.p.p.p.i.y.i.8.e.z.x.m.m.V.C.n.b.j.j.j.j.a.u.u.#.~ E T T Q 2.8.e.z.z.x.m.N.N.k.*.%.^ 1.5.@.+.D Z p a 9 7 1 3 6 6 6 6 3 & & & $ O , l v D L P d a y i i y i 6 6 6 6 i i 6 v v B A u y x v V 7.a.=.*.#.y.$.@.K Q 7.z.j.=...t * 4 6 3 3 & & z 5.u. .u z v s u * O O & & & & 1 1 1 ; ; 1 1 1 1 1 & & & 1 1 1 1 ; & 1 1 1 1 1 1 1 1 1 1 1 & & 1 1 1 1 1 1 1 1 1 6 1 1 1 1 1 1 3 3 3 3 3 6 6 6 6 Z Z x Z x 6 Z Z v y.u.p <.v.}.h.d 6 4 6 Z Z Z Z i y i Z i i y 3 3 3 6 6 D ! #.L p +.g.u.y.y.#.K y & 1 1 1 3 s #.g.g.u.#.$.u.M.=XB.a.T v i Z i 6 6 i A A A p y 3 3 6 i i i y y s $.$.L p 3 & & 9 ] F 6 Z i 3 1 1 1 & & 3 Z R v , ; O & 1 6 6 3 3 p A A v v c z , $  .j.c.4.I A A A S U Q 2.2.2.Q Q T T U U U T Y I v z 1 1 1 1 1 1 1 ; ; O O O O 1 1 O & 2 1 $ & ; 1 s O./.|.+Xe.N 1 3 1 1 4 4 4 4 4 1 ; O 1 3 6 v v c k j ; & & 3 3 6 x z 4 , , O & , , - - o O O O O O O O O X X o o . X O X X O O 1 1 1 4 4 x x x y y v C { f | ..$.<.V M h - o + & & # w n i 3 x j h - o . . X % e 3 l l - O X X O - - - o o o o o o o o . . . . . . . . . . . . . . . . X X O O o - o X X X o o o o o O o o o O O o o o o O O O O o o o o O O o o o o o o o o O O O o o O O O o - o o o o o o o o o o o o o o o o o o o o o o o o o o o o o o o o o o o o o o o o o o o o o o o o o o o o o o o o o o o o o o o o o o o o o o o o o o o o o o o o o o o o o o o o o o o o o o o o . o . o o . o o o o . . o o o o o o o o o o . . o o o o o o . . o o o o o o o o o o . . . . o o o o o o o o o o o o o . . . o o o o o o o o o o o o . o o o . . o o o o . o o o . . . . . . o o . . . . . . . . . . . . . . . . . . . . . . . . . . . . . . . . . . . . . . . . . . . . . . . . . . . . . . . . . . . . . . . . . . . . . . . . . . . . . . . . . . . . . . . . . . . . . . . . . . . . . . . . . . . . . . . . . . . . . . . . . . . . . . . . . . . . . . . . . . . . . . . o o . . . . . . . . . . . . . . . . . . . . . . . . . . . . . . . . . . . . . . . . . . . . . . . . . . . . . . . . . . . . . . . . . . . . . . . . . . . . . . . . . . . . . . . . . . . . . . . . . . . . . . . . . . . . . . . . . . . . . . . . . . . . . . . . . . . . . . . . . . . . . . . . . . . . . . . . . . . . . . . . . . . . . . . . . . . . . . . . . . . . . . . . . . . . . . . . . . . . . . . . . . . . . . . . . . . . . . . . . . . . . . . . . . . . . . . . . . .     ",
"    . . . . . . . . . . . . . . . . . . . . . . . . . . . . . . . . . . . . . . . . . . . . . . . . . . . . . . . . . . . . . . . . . . . . . . . . . . . . . . . . . . . . . . . . . . . . . . . . . . o o o o o o o o o o o o o o o o o o o o o o o o o o o o o o o o o o o o o o o o o o o o o o o o o o o o o o . . o o o o o o o o o o o o o o o o o o o o o o o o o o o o o o o o o o o o o o o o o o o o o o o o o o o o o o o o o o o o o o o o o o o o o O o o o o o o o o o o O O O o O O O O o o o o O O o o o o o o o o o o o o O O O O O O O O O O O O o o o O O O O O O O O O O O O O O O O o o o o O O O O o o O O O O O O O O O O O O O O O O O O o O O O O O O O O O O O O o O O O O O O O O O O O O O O O O O O O O O O O O O O O O O O O O O O O O O O O O O O O O O O O O O O O O O O O O O O O O O O O O O O O O O O O O O O O O O O O O O O O O O O O O O O O O O O O O O O O O O O O O O O O O O O O O O O O O O O O O O O O O O O O O O O O O O O O O O O O O O O O O O O O O O O O O O O O O O O O O O O O O O O O O O O O O O - O O O O O O O O - - O O O O O O O O O O O O O O O O O O O ; ; - O O O O O O O O O O O O O O O O ; ; , ; , ; ; 1 1 O O O O O O O O O O O O O O O O O O O O ; - - ; ; ; - - - - - ; - - O O ; O O ; ; O O O O O O O O o X X O ; , , 1 1 1 O O ; , , , , , 1 1 4 4 4 1 4 , j c c z 6 6 x x x x v v v v S I Y 1.7.7.8.p.p.p.p.p.p.i.i.8.8.8.z.x.m.m.m.C.C.n.b.j.j.j.j.a.u.#.#.K S I T <.4.8.e.c.N.[.[.=XM.*.=.+.E 1.3.+.J S Z p p a 6 3 3 6 6 6 6 3 3 1 & $ X , k V Q #.%.&.] F p J p A p y 6 6 6 6 6 6 v V U s u 3 4 c >.e.j.h.g.p.g.*.@.#.<.e.m.).^.X.r , x 6 y * = z 2.$. .e 4 v Z p y * $ O O & & 1 1 & & & & 1 1 1 1 & & & 1 1 1 1 1 & 1 1 1 & & & & & 1 1 1 1 1 1 1 1 3 6 3 3 1 6 6 3 3 3 3 1 3 3 3 3 3 3 6 6 6 6 i Z Z Z S D D A 6 4.l.*.A 4.+X}.l.s % e y p s d d u u d d d u u d P  .d d J #.u.*.*.h.h.g.g.k.h.*.+.+.+.#.#.u.j.M.M.k.j.u.y.y.p.5.U Z Z Z Z Z Z i i Z A A A A i 6 6 6 Z F A p p #.u.y.S 4 1 ; 2 ) H 4 6 Z 6 1 3 3 6 6 6 x v 4 & $ & 1 3 3 6 6 x v v Z x 6 6 4 , O d u.8.4.Y A A A A D Q Q 2.2.Q Q T T U U U U Y I v z 4 1 1 1 1 & 1 ; ; ; - O O & & O O 1 1 * & O & u ..=._.+XoX>.z 1 3 6 6 4 4 4 4 1 , , & & 1 ; ; 1 1 , ; & & 6 A A x z j , , 1 1 , , ; - O O O O O O O O O O O O O o . . X X O ; 1 1 1 1 1 4 4 6 y i B C ) X.O./.x.w.,.l - X o O ; q w } g d J B M l > . . . . % r y c M h - O X O - - - o o o o o o o o o . . . . . . . . . . o o X X . . . . . . . . X X X o o o o o O o o o O O o o o o o o O o o o o o O O o o O O o o o o O O O O O O O O - - o o o o o o o o o o o o o o o o o o o o o o o o o o o o o o o o o o o o o o o o o o o o o o o o o o o o o o o o o o o o o o o o o o o o o o o o o o o o o o o o o o o o o o o o o o o o o o o o o o o o o o . o o o o . o o o o . o o o o o . . . o o o o o . . . . o o o o o o o o . . . o o o o o o o o o . . o o o . . . o o o o o o o o o o o o o o o o o . o o o o o o o o o o o o . . . . o . . o . o o . . . . . . . . . . . . . . . . . . . . . . . . . . . . . . . . . . . . . . . . . . . . . . . . . . . . . . . . . . . . . . . . . . . . . . . . . . . . . o . . . . . . . . . . . . . . . . . . . . . . . . . . . . . . . . . . . . . . . . . . . . . . . . . . . . . . . . . . o o . . . . . . . . . . . . . . . . . . . . . . . . . . . . . . . . . . . . . . . . . . . . . . . . . . . . . . . . . . . . . . . . . . . . . . . . . . . . . . . . . . . . . . . . . . . . . . . . . . . . . . . . . . . . . . . . . . . . . . . . . . . . . . . . . . . . . . . . . . . . . . . . . . . . . . . . . . . . . . . . . . . . . . . . . . . . . . . . . . . . . . . . . . . . . . . . . . . . . . . . . . . . . . . . . . . . . . . . . . . . . . . . . . . . . . . . . . .     ",
"      . . . . . . . . . . . . . . . . . . . . . . . . . . . . . . . . . . . . . . . . . . . . . . . . . . . . . . . . . . . . . . . . . . . . . . . . . . . . . . . . . . . . . . . . . . . . . . . o o o o o o o o o o o o o o o o o o o o o o o o o o o o o . . . o o o . o o o o o o o o o o o o o o o o o o o . . . o o o o o o o o o o o o o o o o o o o o o o o o o o o o o o o o o o o o o o o o o o o o o o o o o o o o o o o o o o o O o o o o o o o o o o o o o o O O o o o o O O O o O O O O o o O O O O O o o o o O o o o o o o O O O O O O O O O O O o o o O O O o O O O O O O O O O O O O O o o o o O O o o o O O O o O O O O o o O O O O O O O O O O O O O O O O O O O O O O O O O O O O O O O O O O O O O O O O O O O O O O O O O O O O O O O - O O O O O O O O O O O O O O O O O O O O O O O O O O O O O O O O O O O O O O O O O O O O O O O O O O O O O O O O O O O O O O O O O O O O O O O O O O O O O O O O O O O O O O O O O O O O O O O O O O O O O O O O O O O O O O O O O O O O O O O O O O O O O O O O O O O ; ; O O O O O O O - O O O O O O O O ; - O O O O O O O O O O O - - O O O O O O O O - ; O O O O ; O O O O O O O O O O ; - , , , ; O 1 1 O O - - O O O O O O O O O O O O O O O O ; - ; ; ; ; ; ; ; ; ; ; ; ; ; ; ; ; ; ; ; ; ; O O O ; , > , * e 3 4 4 1 1 1 1 ; ; ; , , 1 4 , 4 1 1 1 4 4 4 1 1 4 z z 4 4 z z v v v v v A A S V :.7.7.8.p.p.p.i.p.i.i.8.8.8.8.z.x.m.V.C.C.C.n.b.b.a.a.a.a.u.$.$.$.#.3.3.i.i.z.c.v.+X-X{.=X_./.O.-.` R P u x c S A p p y y y 3 3 6 6 4 1 1 3 3 * 3 B 1.8.y.%.&.[ F Z J J J A i i i i y y y x v S A p 3 6 v 1.7.z.j.j.m.j.h.@.+.W 7.oX]./.(.g q 6 Z i a 7 z S L u y 3 6 c v D p * X O & 1 1 1 & & & & & 1 1 1 & 1 & 1 1 1 1 1 1 1 1 3 3 p p p y 6 6 6 Z i 6 6 6 y i 6 3 3 6 6 6 6 6 6 6 6 6 6 y i y 6 6 6 6 y y i 6 Z U E J p A y.l.#.Q N.:X{.h.*.*.*.g.k._.k.h.h.k._.h.g.h.'.'._._.h.u.u.j.}.{.{.{.{.{.-X:X:X{.M.m.a.u.u.a.a.a.a.a.y.U S Z Z 6 y i 6 6 6 3 6 6 y i i A Z i 6 6 6 i A A y y A W E x 4 1 ; O : ) ) 1 1 1 1 & 3 3 6 6 3 3 y e * 3 3 3 3 6 i Z v x Z v 4 6 x 4 O r @.p.2.I A Z A S D U Q Q Q Q Q T T T U U U I S v z 4 1 1 1 1 & & 1 ; ; - O X = a F c ; O & & & O $ u +.#.y.p.8.V z 1 6 i 6 4 4 4 1 4 , O O O O O & & , : q f u S B c , > 1 * 6 c j > , ; O O O O O O & O O O O O o o o . X X O & & 1 1 4 2 3 6 y F H S L @.@.@.u.r.t.M , ; ; ; O - # w g t  .6.>.,.l o . . . . $ r r v ,.M > O X O , , , - - O O o o o . . . . . . @ # @ X X O O - O O o o o . . . . . X O o o O O o o o O O O o o o O O O O O O O O o o o O O O O O O o o o o o o o O O O O O - - O O o o o o o o o o o o o o o o o o o o o o o o o o o o o o o o o o o o o o o o o o o o o o o o o o o o o o o o o o o o o o o o o o o o o o o o o o o o o o o o o o o o o o o o o o o o o o o o o o o o o o . o o o o o o o o o o o o o o . . . o o o o o o o o o o o o o o o o o o o o o o o o o o o o o o . . o o o o o o o . . . o o o o . . o o o o . . o o o . . . . . . . . . . o o . . . o o o o . . o . . . . . . . . . . . . . . . . . . o o . . . . . . . . . . . . . . . . . . . . . . . . . . . . . . . . . . . . . . . . . . . . . . . . . . . . . . . . . . . . . . o . . . . . . . . . . . . . . . . . . . . . . . . . . . . . . . . . . . . . . . . . . . . . . . . . . . . . . . . . . . . . . . . . . . . . . . . . . . . . . . . . . . . . . . . . . . . . . . . . . . . . . . . . . . . . . . . . . . . . . . . . . . . . . . . . . . . . . . . . . . . . . . . . . . . . . . . . . . . . . . . . . . . . . . . . . . . . . . . . . . . . . . . . . . . . . . . . . . . . . . . . . . . . . . . . . . . . . . . . . . . . . . . . . . . . . . . . . . . . . . . . . . . . . . . . . . . . . . . . . . . . . . . . . . . . . . . . . . . . . . . . . . . . . . . .       ",
"      . . . . . . . . . . . . . . . . . . . . . . . . . . . . . . . . . . . . . . . . . . . . . . . . . . . . . . . . . . . . . . . . . . . . . . . . . . . . . . . . . . . . . . . . . . . . . . . . . . o . . o o . o o o . o o o o o o o o o o o o o o o o . . . o o o . o o o o o o o . o o o o o o o o o o o . . . . o o o o o o o o o o o o o o o o o o o o o o o o o o o o o o o o o o o o o o o o o o o o o o o o o o o o o o o o o O O O o o o o o o o o o o o o O O O o o o O O O O O O O O o o o O O O O O o o o o O o o o o o o O O O O O O O O O O O O O O O O o o O O O o O O O O O O O O o O o o O O O O O O O O o o O O O O O o O O O O O O O O O O O O O O O O O O O O O O O O O O O O O O O O O O O O O O O O O O O O O O O O O O O O O O O O O O O O O O O O O O O O O O O O O O O O O O O O O O O O O O O O O O O O O O O O O O O O O O O O O O O O O O O O O O O O O O O O O O O O O O O O O O O O O O O O O O O O O O O O O O O O O O O O O O O O O O O O O O O O O O O O O O O O O O O O O O O O O O O O O O O ; O O O O O O O O - - O O O O O O O O - - O O O O ; ; ; O - - - - O O ; ; O O O O - - ; O O O O O O O ; O O O O O O ; , , , , & & 1 1 O O - - O O O ; O O ; ; ; ; O O O O O O O ; ; ; ; O O O ; ; ; ; ; ; ; ; ; ; ; ; ; ; ; & O O , z c x p p Z x 6 6 6 1 & 1 ; ; ; , 1 1 4 4 4 4 4 4 4 4 4 4 4 4 z z z z z x v v v v S S S Y 1.7.7.8.p.p.p.a.a.p.i.i.p.p.z.x.m.m.V.C.C.C.V.m.V.V.j.j.m.m.M.h./.=.u.y.y.y.i.z.z.x.m.x.v.M./.^.-.~.( d u z N S A p p p y 6 3 3 3 3 1 1 4 x Z p J E <.<.3.P a 3 6 x Z Z p i i i i i p y y 6 6 x v v x x v I Y 4.8.p.m.B.).=... .1.oX+X`.(.;.g 3 v Z y 3 4 6 Z A p y 3 z v I U J r & & & & & & & & 1 & & 1 1 1 1 1 1 1 1 1 1 1 6 6 i i A P J p 6 6 Z Z Z 6 6 i i 6 6 6 6 6 6 y 6 6 6 6 6 6 6 6 6 6 6 3 3 3 y y y i A U ! #.$.$.#.p.u.u.m.=X=X[.}.}.[.{.-X:X-X{.[.-X-X{.M.M.=X-X-X{.B.j.u.u.m.=X;X=X=X=X=X=X+XN.x.z.5.U S S Z A D U Z x 6 3 3 6 6 1 1 1 1 & & & * 3 y y 3 3 3 3 3 3 6 y y p 6 6 3 3 3 3 1 & X _ K.&.4 1 O & 3 3 1 1 & e u J A i 6 6 6 i i i i y i S v Z A 6 O r =.k.i.T S Z A D D D E Q Q Q Q T T U U U U S S v x 4 1 1 1 1 & & 1 ; ; O O O = f ~ B > . . & 1 & X O 6 Z Z D Q <.V z 6 x 6 4 1 4 4 4 1 O - - ; O O O ; q w g t S :.c , , 3 y Z c k > ; O O O O O X O 1 1 1 1 - O O O O . X X * * & 1 4 2 8 a u A / q.~ @.*.y.4.5.8.1.c j , , & O ; : q = r p :.,.M > o . . . . X % r y V M h O X & 1 , > - - o . o o . . . @ @ @ X + + + & 1 1 ; 1 1 O o - - . . . . X X o o o O o o o o O O O o o o o O O o O O O O O o o o o O O O O o o o o o o O o O O O O O - o o o o o o o o o o o o o o o o o o o o o o o o o o o o o o o o o o o o o o o o o o o o o o o o o o o o o o o o o o o o o o o o o o o o o o o o o o o o o o o o o o o o o o o o o o o o o o o o o o o o o o . o o o o o o o o o o o o o o . . . o o o . o o o o o o o o o . o o o o o o o o o o o o o o o . . . o o o o o o . . . . o o o o . o o o o . . . o o o o . . o o o o . . o o o o o o . . . . . . . . o o o o o o o o o o o o o o o o o o o o o o o . . . . . . . . . . . . . . . . . . . . . . . . . . . . . . . . . . . . . . . . . . . . . . . . . . . . . . . . . . . . . . . . . . . . . . . . . . . . . . . . . . . . . . . . . . . . . . . . . . . . . . . . . . . . . . . . . . . . . . . . . . . . . . . . . . . . . . . . . . . . . . . . . . . . . . . . . . . . . . . . . . . . . . . . . . . . . . . . . . . . . . . . . . . . . . . . . . . . . . . . . . . . . . . . . . . . . . . . . . . . . . . . . . . . . . . . . . . . . . . . . . . . . . . . . . . . . . . . . . . . . . . . . . . . . . . . . . . . . . . . . . . . . . . . . . . . . . . . . . . . . . . . . . . . . . . . . . . . . . . . . . . . . . . . . . . . . . . . . . . . . . . . . . . .       ",
"        . . . . . . . . . . . . . . . . . . . . . . . . . . . . . . . . . . . . . . . . . . . . . . . . . . . . . . . . . . . . . . . . . . . . . . . . . . . . . . . . . . . . . . o o o . . o . . . . . . . . . o o o o . . . o . o o o o . o o . . o o o o o o o o o o o o o o o o o o o o o o o o o o o o o o . o o o o o o o o o o o o o o o o o o o o o o o o o o o o o o o o o o o o o o o o o o o o o o o o o o o o o o o o o o o o o o o o o o o o o o o o o o O O O O o o o O O O O O O O o o o o O O O o o o o o O O O O O O o O O O O O O O O o O O O O O O O O O O O O o o O O o o O O O O O O O O O O O O O O O O O O O O O O O O O O o O O o O O O O O O o o O O O O o o O O O O O O O O O O O O O O O O O O O O O O O O O O O O O O O O O O O O O O O O O O O O O O O O O O O O O O O O O O O O O O O O O O O O O O O O O O O O O O O O O O O O O O O O O O O O O O O O O O O O O O O O O O O O O O O O O O O O O O O O O O O O O O O O O O O O O O O O O ; ; ; O O O O O O O ; ; ; ; ; ; ; - - - O O O O O O O O O O O O O O O O O O O O - ; ; ; ; ; ; - - - - - - - - ; ; ; ; ; ; O O O O - - - - - - - - ; - O O ; O ; O O ; ; O O O O - , , , , & & 1 ; ; - - - O - ; ; O O O O O O ; O ; ; O O O O O O O O O ; ; ; ; ; ; ; ; ; ; ; ; ; O O ; ; O O 1 z c 6 6 6 z c 6 Z Z 3 % & ; ; ; , 4 4 4 4 z z z 4 1 4 z 4 1 4 z 4 z z 4 6 v v v v S S S Y 1.7.7.8.p.z.x.x.j.a.a.p.p.p.x.x.m.m.V.V.V.M.M.M.B.[.'.`.[.+X=X_.).=.+.K U S S I Y D E 7.*X+X/.^.XX;.g u y v V I p p i y 3 6 6 3 3 3 3 1 4 z v D K E U D A 6 3 1 3 6 6 6 6 6 y y i i i y y y 6 x v v v 6 x v I E E 4.z.B.]./.=. .E c.@X{./.-.g & 6 3 * 3 1 3 Z U J p 3 1 6 v I ~ +.u * & & & & & & & & & & 1 & 1 1 1 1 & & 1 4 6 6 6 6 6 6 3 3 1 4 4 4 4 4 6 A p 3 6 1 1 1 3 3 3 1 1 4 1 4 3 3 3 3 i y 3 y y i A P W W y.m.[.].k.a.y.i.p.p.p.a.x.x.x.x.B.[.B.x.p.a.x.p.3.! y.i.i.i.2.U S S Q y.p.a.a.p.i.3.U v v v v 4 1 1 & & 1 1 1 1 1 1 1 1 1 O & 1 a i * * * y y 3 3 * 1 3 3 6 6 i Z Z Z Z 6 6 6 x x 6 4 q !.E.6.z O 1 6 4 1 ; & & p L E S x Z Z Z i i y i A A v Z A D 1 t O.`.N.8.S A D D D D U Q ! Q Q T Q U U U I S S v x 4 1 ; 1 1 1 1 ; ; O O O ; O & 1 z > o . X & & O O 1 y Z Z D E <.B z , j , 1 3 z z 4 1 , , , & O - O # w g d 2.>.N c 6 z c 4 j j ; X X O O O . X O 1 6 p 6 , - O X O O @ = r y c j 4 3 a a P W s.s.*.*.a.p.x.j.h.a.7.M h O X $ : 1 & & 1 > > > - o o o . o . . $ % e 4 M l - X & 1 , > > o . . . o . . @ @ + + & 1 , , , 2 2 2 6 3 1 - - o . . . X X X O o o O O o o o o o O o o o o o o o o o o o o o o o o o o o O o o O O O o o o O O O O O o - o o o o o o o o o o o o o o o o o o o o o o o o o o o o o o o o o o o o o o o o o o o o o o o o o o o o o o o o o o o o o o o o o o o o o o o o o o o o o o o o o o o o o o o o o o o o o o o o o o o o o o o o . . o o o o o o o o o o o . . . o . . . . o o . . o . . . o . . . . . o o . o . . o . . . o o o o o o o o o o o o o o . . . . o o o o o . o o o o o o o o o o o o o o o o . o o o o o . . o o o o o o . . . . o o o o o o o o o o o o o o o . . . . . . . . . . . . . . . . . . . . . . . . . . . . . . . . . . . . . . . . . . . . . . . . . . . . . . . . . . . . . . . . . . . . . . . . . . . . . . . . . . . . . . . . . . . . . . . . . . . . . . . . . . . . . . . . . . . . . . . . . . . . . . . . . . . . . . . . . . . . . . . . . . . . . . . . . . . . . . . . . . . . . . . . . . . . . . . . . . . . . . . . . . . . . . . . . . . . . . . . . . . . . . . . . . . . . . . . . . . . . . . . . . . . . . . . . . . . . . . . . . . . . . . . . . . . . . . . . . . . . . . . . . . . . . . . . . . . . . . . . . . . . . . . . . . . . . . . . . . . . . . . . . . . . . . . . . . . . . . . . . . . . . . . . . . . . . . . . . . . . . . . . . . .       ",
"        . . . . . . . . . . . . . . . . . . . . . . . . . . . . . . . . . . . . . . . . . . . . . . . . . . . . . . . . . o . . . . . . . . . . . . . . . . . . . . . . . . . . . . . . . . . . . . . . . . . . . o o o o . . . o o o o o o . o o o o o o o o o o o o o o o o o o o o o o o o o o o o o o o o o o . o o o o o o o o o o o o o o o o o o o o o o o o o o o o o o o o o o o o o o o o o o o o o o o o o o o o o o o o o o o o o o o o o o o o o o o o o o O O o O o o O O O O O o o o o o o o o o o o o o o o O O O O O O o o O O O O O o o o O O O O O O O O O O O O O o O O O o O O O O O O O O O O O O O O O O O O O O O O O O O O o o o o O O o O O O o O O O O O O o O O O o O O O O O O O O O O O O O O O O O O O O O O O O O O O O O O O O O O O O O O O O O O O O O O O O O O O O O O O O O O O O O O O O O O O O O O O O O O O O O O O O O O O O O O O O O O O O O O O O O O O O O O O O O O O O O O O O O O O O O O O O O O O O O O O O O O O O O O O O O O O O O O O O O O O O O O O O O O O O O O O O O O O O O O ; O ; O O O O - ; ; ; ; ; ; ; O O O - - ; ; O O O O O O O O ; ; - - - - - - - - - O O O ; O O O O ; O O O O O - , , , ; O & 1 O O ; - - - - O ; O O O O O O ; ; ; ; O O O O O O O O O O O ; ; O O O ; ; ; ; ; ; O O ; ; ; & O & ; ; ; j k N c B S u t e 3 4 , , 1 1 , , 4 4 4 1 4 4 z 1 1 4 z 4 4 4 4 z c v S S S S S Y 1.7.7.8.p.x.x.x.m.m.j.a.a.x.x.N.B.[.[.{.{.[.[.[.[.B.M.h.u.p.y.#.P s p 6 x 6 3 v v A Y w.oX@X`.^.XX;.g e y v V I A A y 3 3 6 6 6 6 3 3 3 1 4 4 6 x Z A A Z p 3 3 3 3 6 6 6 6 6 y 6 6 i i y 3 6 6 x x 6 3 4 v I E K U 4.c.N._.=.#.y.m.B.B.).O.X.[ 5 3 y 3 7 y i S K s y 3 6 x v U L s u 3 1 1 * & O O O O O & & O O ; & & 3 3 1 1 1 1 1 1 1 1 1 1 1 & & & 1 v Z 3 & 1 1 1 1 4 1 1 O O O X $ $ e u +.L J P P ~ #.#.y.s.y.y.x.=X-Xg.D v I T U U D S S S S ! y.3.U D D D S i 6 i Z Z x 4 z S I D S S U U I S x 4 1 4 1 1 1 ; & O & O O O & & 1 1 1 ; O 1 6 Z A A A p i y 3 3 1 1 1 1 1 1 1 6 4 6 6 4 4 4 4 4 6 6 . [ Y.n.Y O & 6 4 1 O O * p K D S v 6 6 i Z Z i A K E U A J W 4 r O.`.+X8.S A A A A S U E Q Q Q Q T U T T I S S v x 4 1 ; 1 1 1 1 ; O O O O ; O O 1 , , - O O X & 1 1 & r d W S A D E B j > - 1 1 3 6 6 4 4 , , & & , ; # w g d <.>.:.v 4 j l ; - - O O o X X O @ + + & * 3 z j - O O o . . X % 6 N c 1 = a d +.y.a.a.g.u.a.x.x.M.M.v.r.>.l O O & & & & 4 j > > > o . . . . . . . . $ r y N M h - O & ; , , - o o o o O O O + : ; 1 4 , ; - - : 2 & 3 3 6 4 & $ $ X X X O O o o O O o o o o o o o o o o o o o o o o o o o o o o o o o o o o o O O o o o O O O O O o - o o o o o o o o o o o o o o o o o o o o o o o o o o o o o o o o o o o o o o o o o o o o o o o o o o o o o o o o o o o o o o o o o o o o o o o o o o o o o o o o o o o o o o o o o o o o o o o o o o o o o o o o . o o o o o o o o o o o o . o o o o o . . . . . . o . . . o . . . . . o o . . . . o o . . o o o o o o o . o o o o o . . . . . o o o o o o o o o o o o o o o o o o o o o o o o o o o o o o o o o o o . . . . . . . . . . . . . . . . . . . . . . . . . . . . . . . . . . . . . . . . . . . . . . . . . . . . . . . . . . . . . . . . . . . . . . . . . . . . . . . . . . . . . . . . . . . . . . . . . . . . . . . . . . . . . . . . . . . . . . . . . . . . . . . . . . . . . . . . . . . . . . . . . . . . . . . . . . . . . . . . . . . . . . . . . . . . . . . . . . . . . . . . . . . . . . . . . . . . . . . . . . . . . . . . . . . . . . . . . . . . . . . . . . . . . . . . . . . . . . . . . . . . . . . . . . . . . . . . . . . . . . . . . . . . . . . . . . . . . . . . . . . . . . . . . . . . . . . . . . . . . . . . . . . . . . . . . . . . . . . . . . . . . . . . . . . . . . . . . . . . . . . . . . . . . . . . . . . . . . . . . . . . . . .         ",
"        . . . . . . . . . . . . . . . . . . . . . . . . . . . . . . . . . . . . . . . . . . . . . . . . . . . . . . . . . . . . . . . . . . . . . . . . . . . . . . . . . . . . . . . . . . . . . . . . . . . . o o o o o o . . o o o o o o o o o o o o o o o o o o o o o o o o o o o o o o o o o o o o o o o o o o . o o o o o o o o o o o o o o o o o o o o o o o o o o o o o o o o o o o o o o o o o o o o o o o o o o o o o o o o o o o o o o o o o o o o o o O o o o o O O O o o O O O O o o o o o o o o O o o o o o o o O O O o o o o O O O o O O O o o O O O O O O O O O O O O o O O O O o O O O O O O O O O O O O O O O O O O O O O O O O O O O O O O O o O O O O o O O O O O O O O o o O O O O O O O O O O O O O O O O O O O O O O O O O O O O O O O O O O O O O O O O O O O O O O O O O O O O O O O O O O O O O O O O O O O O O O O O O O O O O O O O O O O O O O O O O O O O O O O O O O O O O O O O O O O O O O O O O O O O O O O O O O O O O O O O O O O O O O O O O O O O O O O O O O O O O O O O O O O O O O O O O O O O O O O O O O ; ; - - O O - O O O O O O O O ; ; ; O O O O ; ; O O - - - - - - - - ; - - O O ; O O O O O ; ; O O O - , , , , ; O & ; O O ; O ; - O O ; ; ; O O O O ; O O O ; ; ; ; O O ; ; ; ; O O ; ; ; ; ; ; ; ; ; ; 1 ; O ; O & X X X O O ; h k ,.>.Y P d r 3 4 , , 1 1 ; 1 4 1 1 1 1 1 , ; 1 4 j 4 6 6 z c c S D S S v v B :.>.7.8.p.p.p.x.x.v.x.m.j.m.m.v.N.B.[.'.k.j.u.y.#.! W K D S v 6 3 3 1 3 4 3 3 6 6 i Y w.oX@X`.^.^.;.g r y 6 N B Z i y 3 3 6 6 6 4 3 3 3 1 1 1 1 4 x x Z Z p p p y 3 3 3 4 4 3 3 3 3 6 6 3 1 1 4 6 4 6 3 3 4 v D D A S :.7.p.u.x.B._.h.V.x.*.O.f 4 v E / F d s S D d u 1 6 4 z c S L +.s i Z i 3 O O X O O O O O O ; i K p & O & & & 1 1 1 1 ; ; 1 1 3 6 6 6 1 O . . . X O & $ $ * y p s P #.g.l.l.u.~ K D D U Q Q Q T U Y z.OXx.A 1 z S D S x 1 1 1 & 6 Z 6 3 3 3 * * 1 1 1 1 1 & O 1 z v Z Z i 3 3 6 6 6 6 1 O O O O O O O O O O O O & & & & O O 1 1 6 D W W Z 6 6 3 1 & O O O O O 1 1 1 1 1 1 1 1 1 1 1 1 O X ' C.e.z O 2 1 ; O & 1 y Z x v x 6 6 6 x Z y p D U U A J #.Y & | ).OXe.v Z Z Z Z A D E Q Q Q U U U U U I S S v x 4 1 1 1 1 1 1 1 ; O O O - O & 1 , ; o . X O O & 1 O % d L T v Z K Q :.l - & 1 3 y v c z 4 1 1 & ; - # w f s Y M j , ; - - - O O O O O X X o o + 7 u p S c h - - O + + # q % * 6 6 2 q f d +.u.a.p.i.i.a.m.m.c.e.7.>.,.> O O + & * 1 j j - o o . . o o . o o . . $ r e z l h - X O ; , ; ; - - O O O O O O o - - - - - - o . . X X O 2 1 * f t r 2 O O O o o O o o o o o o o o o o o o o o o o o o o o o o o o o o o o O O O O o o o O O O O o o o o o o o o o o o o o o o o o o o o o o o o o o o o o o o o o o o o o o o o o o o o o o o o o o o o o o o o o o o o o o o o o o o o o o o o o o o o o o o o o o o o o o o o . o o o o o o o o o o o o o o o o o O . o o o o o o o o o o o o o o o . o o o o o o o o . . o o o o . . . o o o o o o o . o o o o o o o o o . . o o o o o o . . o o o o o o o o o o o o o o o o o o o o o o o o o o o o o o o o o o o o o . . . . . . . . . . . . . . . . . . . . . . . . . . . . . . . . . . . . . . . . . . . . . . . . . . . . . . . . . . . . . . . . . . . . . . . . . . . . . . . . . . . . . . . . . . . . . . . . . . . . . . . . . . . . . . . . . . . . . . . . . . . . . . . . . . . . . . . . . . . . . . . . . . . . . . . . . . . . . . . . . . . . . . . . . . . . . . . . . . . . . . . . . . . . . . . . . . . . . . . . . . . . . . . . . . . . . . . . . . . . . . . . . . . . . . . . . . . . . . . . . . . . . . . . . . . . . . . . . . . . . . . . . . . . . . . . . . . . . . . . . . . . . . . . . . . . . . . . . . . . . . . . . . . . . . . . . . . . . . . . . . . . . . . . . . . . . . . . . . . . . . . . . . . . . . . . . . . . . . . . . . . . . .           ",
"          . . . . . . . . . . . . . . . . . . . . . . . . . . . . . . . . . . . . . . . . . . . . . . . . . . . . . . . . . . . . . . . . . . . . . . . . . . . . . . . . . . . . . . . . . . . . o . . . . o o o o o o o o . o o o o o o o o . o o o o o o o o o o o o o o o o o o o o o o o o o o o o o o o o o o . o o o o o o o o o o o o o o o o o o o o o o o o o o o o o o o o o o o o o o o o o o o o o o o o o o o o o o O o o o o o o o o o o o o o o o O o o o o O O o o o o O O o o o o o o o o o O O O o o o o o o O o o o o O O o o o o O O O O O O O O O O O O o O O O o O O O O o O O O O O O O O O O O O O O O o O O O O O o O O O O O O O O O O O O O o o O O O O o o O O O O O O O O O O O O O O O O O O O O O O O O o O O O O O O O O O O O O O O O O O O O O O O O O O O O O O O O O O O O O O O O O O O O O O O O O O O O O O O O O O O O O O O O O O O O O O O O O O O O O O O O O O O O O O O O O O O O O O O O O O O O O O O O O O O O O O O O O O O O O O O O O O O O O O O O O O O O O O O O O O O O O O O O O O O O O O O O O O O O O O O O O O O O O O ; ; O O O O O O O O O O - - - O O - - O O O O ; O O O O O O O O O ; - ; , ; ; & & & O O O - O ; O O O O O O O O O O O O O O - - - - ; O O - - ; ; O ; ; ; - - - O ; ; ; ; ; O O O O O O - ; 1 1 6 v :.>.:.S u e & & , j z 4 3 3 6 1 4 4 4 4 4 6 6 5 j , 4 4 c c v Z A A v v v B V :.7.8.8.p.p.i.i.z.z.y.#.#.! <.4.3.#.~ K Z 6 1 1 1 1 1 1 3 1 4 1 1 3 3 1 4 6 3 3 x B 7.r.OX_.^.O.X.f e * 1 c c i p u y 3 3 3 1 1 1 1 1 1 1 1 6 4 z x 6 6 i i A p y 3 3 3 3 1 1 6 6 3 * 1 1 1 1 6 6 6 6 y y i A Z y p v V 7.z.@X;X]./.l.c.m.O.| 5 V T / ~ @.d x S s p 4 4 1 3 4 z S P s i v v 3 & O X O O O O O ; x D F y X X O & & & & O O O O ; ; 1 1 1 $ X & u d d d p p s J P L W W W u.j.j.u.~ Z 6 4 4 v v c 4 4 4 ; c 8.p.U y 3 Z S S v 6 6 3 3 3 1 1 & 1 3 3 y i 6 3 3 3 3 3 1 4 1 6 Z A i y 6 y i Z S F O X . O O O O O O X X O & O O O O O O 1 Z D Z 6 4 1 1 & O O O O O O O & 1 1 1 1 ; ; ; ; ; O 1 X 3 q.b.4., O O O 1 1 1 1 4 4 6 6 4 6 6 6 6 3 i D S v 6 J y.5.z r @.x.8.B 6 x x x Z A K Q Q Q U U U U Y I S v v 4 1 1 1 ; 1 1 1 ; ; O O O O O & 3 6 , o . X O O O & 1 1 & y S B v Z W 2.<.c - & 3 p v N j , ; ; O O O < w f  .R C p p z > O O O O O - O O o . X O = a p B M h - O O O = q g f  .P B k q r d +.$.a.8.4.4.5.i.8.>.,.h > , O X O $ & & ; > - o X X X o o o . . o . . . $ % 3 j l - X O ; , ; ; ; ; o o o o o o o o . o o o o . . . . . . . X X r r e 4 , O o o o o o o o o o o o o o o o o o O O o O o o o o o o o o o o o o o O O o o o O O O o o o o o o o o o o o o o o o o o o o o o o o o o o o o o o o o o o o o o o o o o o o o o o o o o o o o o o o o o o o o o o o o o o o o o o o o o o o o o o o o o o o o o o o o o o o o o o o o o o o o o o o o o o o o . . o o o o o o o o o o o o o o . o o o o o o o o . o o o o . . . . . o o o o o o . o o o o o o o o o . . o o . . o o o o o o o o o o o o o o o o o o . . . . o o o o o o o o o o o o o . o o . . . . . . . . . . . . . . . . . . . . . . . . . . . . . . . . . . . . . . . . . . . . . . . . . . . . . . . . . . . . . . . . . . . . . . . . . . . . . . . . . . . . . . . . . . . . . . . . . . . . . . . . . . . . . . . . . . . . . . . . . . . . . . . . . . . . . . . . . . . . . . . . . . . . . . . . . . . . . . . . . . . . . . . . . . . . . . . . . . . . . . . . . . . . . . . . . . . . . . . . . . . . . . . . . . . . . . . . . . . . . . . . . . . . . . . . . . . . . . . . . . . . . . . . . . . . . . . . . . . . . . . . . . . . . . . . . . . . . . . . . . . . . . . . . . . . . . . . . . . . . . . . . . . . . . . . . . . . . . . . . . . . . . . . . . . . . . . . . . . . . . . . . . . . . . . . . . . . . . . . . . . . . . . . .           ",
"            . . . . . . . . . . . . . . . . . . . . . . . . . . . . . . . . . . . . . . . . . . . . . . . . . . . . . . . . . o . . . . . . . . . . . . . . . . . . . . . . . . . . . . . . . . . . . . . . . . o o o o o o . o . o o o o o . o o o o o o . o o o o o o o o o . o o o o o o o o o o o o o o o o o o o o . . o o o o o o o o o o o o o o o o o o o o o o o o o o o o o o o o o o o o o o o o o o o o o o o o o o o o o o o o o o o o o o o o o o o o O o o o o O O O o o O o o o O O o o o o o O O O O o O O o o o o o o o o o o o O o o O O O O O o o O O O O o O O O o O O O O o o O O O O o o O O O O O O O O o o O O O O o o O O O O O o O O O O O O o O O O O O O o O O O O O O O O O O O O O O O O O O O O - - O O o O O O O O O O O O O O O O O O O O O O O O O O O O O O O O O O O O O O O O O O O O O O O O O O O O O O O O O O O O O O O O O O O O O O O O O O O O O O O O O O O O O O O O O O O O O O O O O O O O O O O O O O O O O O O O O O O O O O O O O O O O O O O O O O O O O O O O O O O O O O O O O O O O O O O O O O O O O O O O O O O O O - O O O O O O O O O O O O O O O O O O O O O O O O O O O O O O O O O O O - ; ; ; ; ; O & O O O O O O O O O ; O O O O O ; ; O O - - - - - - ; - - - - - O O O O - - - - O ; ; - - ; O O O O , , , 4 x x i A I B b 4 1 & O ; l M c v i y 6 4 z c N N v s u 7 8 , , z c c v i i x v v v B :.1.4.8.8.p.i.5.6.~ / F & O O O & 1 ; ; 1 4 4 3 6 6 1 4 1 3 3 1 1 1 1 1 1 4 1 3 6 c v Y w.z.g.O.X.t e * * 1 j c Z s s y 1 3 * * & & & ; , 4 3 6 4 4 6 6 3 6 6 i p y 3 3 * * 3 4 z x u e 3 1 1 1 3 6 6 v I W +.+.p i i A I 7.c.OX=X].).l.N.M.^.X.f b z S #.@.u 1 Z p y 4 1 3 3 6 4 4 x y y x z 1 & 1 & O O O O 1 i Z x 1 O O O O O O O O O & 1 1 1 & 3 y y e u +.g.l.l.$.L W ! ~ ~ D S v z c B z O O ; & 1 z v v x 1 & & 1 3 6 B Y Z y 6 x v v z 4 6 i y 3 3 1 3 6 x S A i i i i y y 6 6 6 6 Z A D A Z 6 6 x ~ ~ 6 O X X O O & & O O O & & O O O O & & 1 1 1 1 1 6 1 1 & & & & & & & & 1 1 1 1 1 1 1 1 1 1 1 O * y 6 9.8.v O O & 1 1 3 1 4 4 3 1 1 3 3 6 3 3 i S v v 1 p #.i.B $ t u.8.V x x x 6 6 Z D E Q Q T U U U Y I S v z 4 1 1 1 ; ; ; ; O ; O O O & O O 3 p 6 ; . X O O O & 1 1 O . 1 z c z i P 3.1.k , 1 3 v N j ; O ; ; O - > 0 g X.6.8.s.#.1.M , & & - O O + o o X % & - o . - h > o O X X X = g o.$.u.7.V a t +.#.y.p.p.8.:.:.N c B c , + O $ $ & & 1 - - @ @ X $ & - - o . . . . @ # # = r r v M h - O O 1 , - - - o o o o o o . . . . o . . . . . . . . . . . . . X - - O o o o o o o o o o O O O O o o o o O O O O O O o o o o O O o o o o o O O o o o O O O o o o O o o o o o o o o o o o o o o o o o o o o o o o o o o o o o o o o o o o o o o o o o o o o o o o o o o o o o o o o o o o o o o o o o o o o o o o o o o o o o o o o o o o o o o o o o o o o o o o o o o o o o o o o . . o o o o o o o o o o o o o . . . o o o o o o o . . o o o o o . o o o o o o o o . . o o . . . o o o o . o o . . o o o o o o o o o o . . . . o o o o . . . . o o o o . . . . o o o o o . . o . . . . . . . . . . . . . . . . . . . . . . . . . . . . . . . . . . . . . . . . . . . . . . . . . . . . . . . . . . . . . . . . . . . . . . . . . . . . . . . . . . . . . . . . . . . . . . . . . . . . . . . . . . . . . . . . . . . . . . . . . . . . . . . . . . . . . . . . . . . . . . . . . . . . . . . . . . . . . . . . . . . . . . . . . . . . . . . . . . . . . . . . . . . . . . . . . . . . . . . . . . . . . . . . . . . . . . . . . . . . . . . . . . . . . . . . . . . . . . . . . . . . . . . . . . . . . . . . . . . . . . . . . . . . . . . . . . . . . . . . . . . . . . . . . . . . . . . . . . . . . . . . . . . . . . . . . . . . . . . . . . . . . . . . . . . . . . . . . . . . . . . . . . . . . . . . . . . . . . . . . . . . . . . .             ",
"              . . . . . . . . . . . . . . . . . . . . . . . . . . . . . . . . . . . . . . . . . . . . . . . . . . . . . . . . . . . . . . . . . . . . . . . . . . . . . . . . . . . . . . . . . . . . . . . . . . o o o o . . . . o o o o o o o o o o o o o o o o o o o o o o . . . . . . o o o o o o o o o o o . o o o o . o o o o o o o o o o o o o o o o o o o o o o o o o o o o o o o o o o o o o o o o o o o o o o o o o o o o o o o o o o o o o o o o o o o o O O o o o O O O O O o o o o O o o o o o O o o o O O O O O o o o o o O O o o o o o o o O O O O o O O O O o o O O O o O O O O O O O O O O O O O O O o o o O O O O O O O O O o O O O O o o O O O O O O O O O O O O O O O O O O O O O O O O O O o o O O O O O O O O O O O O O O O O O O O O O O O O O O O O O O O O O O O O O O O O O O O O O O O O O O O O O O O O O O O O O O O O O O O O O O O O O O O O O O O O O O O O O O O O O O O O O O O O O O O O O O O O O O O O O O O O O O O O O O O O O O O O O O O O O O O O O O O O O O O O O O O O O O O O O O O O O O O O O O O O O O O - O O O O O O O O O O O O O O O O O O O O O O O O O O O O O O O O O O O O O O O O O O O O O - - ; ; , ; & O ; O O O O O O O O O O O - - ; O O O - - - O O O O O O O O - - O O O - - - - O O - ; - O O O O O - ; 1 1 6 c j z v x 4 1 & & 1 1 , l M c x 3 3 1 4 4 N ,.M v p y 3 3 y 3 6 c v Z i 6 x v v v B 1.1.8.i.p.i.y.~ ^ f = O ; > 4 6 y 6 6 4 4 4 1 3 3 4 1 1 1 1 1 1 1 1 1 1 1 3 3 3 x c v v 7.e.u...| r * * * O j c A s u 3 4 6 3 * & & O ; , 4 4 3 1 4 4 3 1 1 1 1 3 6 6 Z y 3 6 z z Z p u 1 1 4 1 3 3 6 N 7.a.h.O.X.H b Z S <.7.i.x.x.m.N.+X[./.O.| 2 z I L d e 1 6 y y 3 1 1 1 1 1 4 z x i y 6 1 1 1 1 & O O 6 F i 1 O O O O O X X X X & & 3 y u s P +.#.#.! y.b.V.l.y.A 4 4 4 1 ; O O & ; 4 x 3 % * 4 1 4 x 4 4 1 & & 3 y A Z v B S Z 6 6 4 4 x 6 6 A A i 6 6 6 6 x Z 6 6 x Z Z x x x i Z Z A A Z A S S v v v U U 3 X X X X & 1 1 4 3 1 1 1 & 1 3 i 6 1 1 1 1 6 6 1 1 1 & 1 1 1 1 1 1 1 1 1 1 1 1 1 1 1 1 1 & y s D S <.Y ; O 1 4 6 6 3 4 4 3 4 3 3 3 3 3 3 Z S v x 4 3 J 5.V & t $.p.1.v x x 6 6 i A E Q T T T U U I I S v x 4 1 & 1 ; ; ; ; O O O O O & & O & y Z z o . O O o & 3 1 ; O O O 4 z 6 y K 4.V z , O , j , , & 1 1 - - - < w f #.x.8.4.>.:.x 3 , , 1 o @ X $ & e p B l > o O O . . . . O X @ = f +.#.~ +.+.y.8.8.5.5.7.:.N z z z b { w q % 3 4 j > < # w w q e 3 k h > . . . @ # w w = t d U :.,.j - O O - - - - o o . . . o o o . o o . . . o . . . . . . . . . X O O o o o o o o o o o o O O O O o o o O O O O O O o o o O O O O O o o o o O O o o o O O O o o o O o o o o o o o o o o o o o o o o o o o o o o o o o o o o o o o o o o o o o o o o o o o o o o o o o o o o o o o o o o o o o o o o o o o o o o o o o o o o o o o o o o o o o o o o o o o o o o o o o o o o o o o o . . o o o o o o o o o o o o o o o o o o o o o o o . . o o o o o o o o o o o o o o . . o o . . . . o o o o o o . . o o o o o o o o o o o . . . o o o o . . . . o o o o . . . . o o o o o o o . . . . . o . . . . . . . . . . . . . . . . . . . . . . . . . . . . . . . . . . . . . . . . . . . . . . . . . . . . . . . . . . . . . . . . . . . . . . . . . . . . . . . . . . . . . . . . . . . . . . . . . . . . . . . . . . . . . . . . . . . . . . . . . . . . . . . . . . . . . . . . . . . . . . . . . . . . . . . . . . . . . . . . . . . . . . . . . . . . . . . . . . . . . . . . . . . . . . . . . . . . . . . . . . . . . . . . . . . . . . . . . . . . . . . . . . . . . . . . . . . . . . . . . . . . . . . . . . . . . . . . . . . . . . . . . . . . . . . . . . . . . . . . . . . . . . . . . . . . . . . . . . . . . . . . . . . . . . . . . . . . . . . . . . . . . . . . . . . . . . . . . . . . . . . . . . . . . . . . . . . . . . . . . .               ",
"              . . . . . . . . . . . . . . . . . . . . . . . . . . . . . . . . . . . . . . . . . . . . . . . . . . . . . . . . . . . . . . . . . . . . . . . . . . . . . . . . . . . . . . . . . . . o o o o o . o o o o o . . . o o o o o o o o o o o o o o o o o o o o o o . . . . . . . . . o o o o o o o o o o . o o o o o o o o o o o o o o o o o o o o o o o o o o o o o o o o o o o o o o o o o o o o o o o o o o o o o o o o o o o o o o o o o o o o o o o o o O o o o o o o o O O o o o O O O o o o o o O O o o o o o o O O O o O o O O o O O o o O O O O O O O O O O O O O o o O O O O O O O O O O O O O O O O O O O O O O O o o O O O O o o O O o o O O O O O O O O O O O O O o o O O O O O O O O O o o o O O O O O O O O O O O O O O O O O O O O O O O O O O O O O O O O O O O O O O O O O O O O O O O O O O O O O O O O O O O O O O O O O O O O O O O O O O O O O O O O O O O O O O O O O O O O O O O O O O O O O O O O O O O O O O O O O O O O O O O O O O O O O O O O O O O O O O O O O O O O O O O O O O O O O O O O O O O O O O O O O O O O O O O O O O O O O O O O O O O O O O O O O O O O - O ; O O O O O O O O O O O O O O O O O O - ; ; ; ; & & O ; O O O O O O O O O O - - - O O O ; - - - - O O O O O O O O O O O ; ; - O O O O O - - O O O - , , 4 y t d a 5 : , j 4 4 1 & 3 1 1 , j z 4 4 4 4 4 1 z c c N V 1.y.*.@.d Z Z A Z i 6 v v B B Y 1.4.8.5.y.W J a 0 = + , j j z 4 6 3 3 4 z x 6 y y 6 6 1 4 4 1 3 & & 1 ; 4 6 6 1 6 x 6 6 V 7.y...X.| = = & & j k v p y 3 4 6 3 * & $ X O , , 4 1 1 1 1 1 1 1 1 1 1 4 v S Z y 3 4 4 4 6 3 1 1 4 1 1 1 4 N >.e.j.=.O.d 3 6 v Y 4.y.#.3.w.c.OX=X'.O.X.f b v A u 3 4 6 p p 3 3 1 4 4 1 6 6 6 6 6 y 6 1 1 1 1 3 6 6 6 & X O O O O 1 p s s J P L W E W ~ #.~ E S x v I F Z 6 1 ; ; O O & 1 3 1 1 4 S s.*.s 1 & 4 4 1 1 & & 1 6 Z D D x x v v 6 3 1 4 z v v U U A Z i i y 3 3 1 1 1 4 6 6 6 6 6 Z D D A Z Z Z Z Z 6 6 x v 6 & X X X 1 3 4 6 6 6 6 1 1 6 A Z 6 1 1 6 6 6 6 6 6 1 1 1 6 1 1 1 1 1 1 1 1 3 1 1 4 4 1 1 1 3 s W x c c , & 1 4 4 4 1 1 4 3 6 6 3 3 3 3 6 A S v 6 4 3 y U V 1 r =.x.8.v x x 6 6 6 Z D E T T T U U D S v v 4 4 , ; & 1 1 ; ; O O O O O O ; O & y Z c - X O - o X = 3 4 , ; ; O 3 Z b Z K E Y l - X O , 4 6 6 z j , ; - # % d 5.>.V M , * 6 k j & o # % t A c 4 4 > > . X X $ $ $ * * % = } ;.-.O.h.m.z.e.7.1.<.V M C w w g g } } UX;...#.<.:.l < w } } o. .#.1.:.M > O X . @ # # % t  .~ 7.,.M > - O O - o o o o . . . o o o o o o o . o O O . . . . . . . . X X X o o o o O O o o o o o o O O O o o o O O O O o o o o O O o o o o o o o o o O o o O O O o o o O o o o o o o o o o o o o o o o o o o o o o o o o o o o o o o o o o o o o o o o o o o o o o o o o o o o o o o o o o o o o o o o o o o o o o o o o o o o o o o o o o o o o o . o o o o o o o o o o o o o o o o o . . . o o o o o o o o o o o o o o o o o o o o o o o o o o o o o o o . . o o o o o o o o o o o o . . o o o o o o o o o o o o . . . . o o o o o o o o o o o o o o o o o o o o o o o o . . . o . o . . . . o . . . . . . . . . . . . . . . . . . . . . . . . . . . . . . . . . . . . . . . . . . . . . . . . . . . . . . . . . . . . . . . . . . . . . . . . . . . . . . . . . . . . . . . . . . . . . . . . . . . . . . . . . . . . . . . . . . . . . . . . . . . . . . . . . . . . . . . . . . . . . . . . . . . . . . . . . . . . . . . . . . . . . . . . . . . . . . . . . . . . . . . . . . . . . . . . . . . . . . . . . . . . . . . . . . . . . . . . . . . . . . . . . . . . . . . . . . . . . . . . . . . . . . . . . . . . . . . . . . . . . . . . . . . . . . . . . . . . . . . . . . . . . . . . . . . . . . . . . . . . . . . . . . . . . . . . . . . . . . . . . . . . . . . . . . . . . . . . . . . . . . . . . . . . . . . . . . . . . . . . . .               ",
"                . . . . . . . . . . . . . . . . . . . . . . . . . . . . . . . . . . . . . . . . . . . . . . . . . . . . . . . . . . . . . . . . . . . . . . . . . . . . . . . . . . . . . . . . . . . . . . . . . o o o o o . o o o o o o . o o o o o o o . . o o o o o o o o o o o o o o o o o o o o o o o o o o o o o o o o o o o o o o o o o o o o o o o o o o o o o o o o o o o o o o o o o o o o o o o o o o o o o o o o o o o o o o o o o o o o o o o o o o o o O o o o o o o o o O o o o O O o o o o o o O O o o o o O o O O o o o o O o O O o o o o O O O O O O O O O O O O o o O O O o O O O O O O O O O O O O O O O O O O O o O O O O o o O O O O O O O O O O O O o o o O O O O o O O O O o O O O o o O O O O O O O O O O O O O O O O O O O O O O O O O O O O O O O O O O O O O O O O O O O O O O O O O O O O O O O O O O O O O O O O O O O O O O O O O O O O O O O O O O O O O O O O O O O O O O O O O O O O O O O O O O O O O O O O O O O O O O O O O O O O O O O O O O O O O O O O O O O O O O O O O O O O O O O O O O O O O O O O O O O O O O O O O O O O O O O O O O O O O O O O O O O O O O O O O O ; O O O O O O O O O O O O O O O - - ; ; , ; & & O O O O O ; O O O O O O ; - - O O O O O O O O O O - O O O O O O O O - - - - O O O O - O O O O ; j c x y t | r = = : , j j 4 3 3 3 1 ; , 4 4 4 4 4 1 1 1 ; j M ,.t.p.$.#.P A A A Z 6 x v B B Y Y <.1.T I Z y $ X @ - , 4 6 4 4 4 1 1 4 x x x 6 3 3 3 1 1 4 4 3 3 3 3 6 i i 6 1 4 6 z 6 6 :.w.x./.^.o.g @ & & , j z 3 3 1 4 1 1 1 & $ O O ; 4 4 1 1 1 1 1 1 1 ; 1 1 4 z v x 6 1 1 1 1 1 1 1 1 1 & & 1 4 z V >.8.u.@. .u 3 4 N 4.y.$.P V 7.e.oX+X).O.t 5 4 y * & 4 v L s e 1 1 4 4 4 6 3 1 6 x i 3 1 1 6 A P Z 6 1 O O O ; ; 6 ~ #.#.#.~ ~ K Z Z S I S x 1 - O O o o O O 1 1 1 3 6 S S Z 6 6 z I b.s.p O & 1 1 & 1 1 1 6 6 Z Z Z 6 6 x v x 3 1 1 4 v v S U D Z Z Z i y 3 & & & & 1 1 1 1 6 6 Z D D Z i i 6 6 6 4 1 1 6 3 1 & O O 1 1 1 1 6 Z Z Z x 6 6 3 1 3 Z A A x 6 Z Z 6 1 1 1 1 1 1 1 1 1 1 1 1 1 1 1 1 1 4 1 y S 4 ; , 4 1 3 1 1 4 4 1 1 6 6 6 6 6 6 3 6 A S v 6 4 6 3 Z B 4 r O.M.z.v v x 6 6 6 i D E E Q T T U U I S v 4 4 1 ; 1 1 & O O ; O O O O O ; ; & & 6 4 , O O - o . @ 7 x c 4 , O & x v S J #.y.1.k . X 1 x Z v c z > , - o X $ 4 l > . X % 3 c 4 * % e | ..#.1.c 1 1 1 & % * y y y u u u a } ;.(./.].@X*Xw.1.Y N C { } } } ;.;.!.UX!.Z.l.N.r.t.,.< q w g f P 6.7.>.,.l - O o o o . X $ r s U :.M h > - O o o o o o o O O o o o - o o o . o & * $ O - o . . . X X X O O O o o O O o o O o o o O O O o o o O o O O o o o o O O o o o o O o o o O O o O O O O o - o o o o o o o o o o o o o o o o O o o o o o o o o o o o o o o o o o o o o o o o o o o o o o o o o o o o o o o o o o o o o o o o o o o o o o o o o o o o o o o o o o o o o o o o o o o o o o o o o o o o o o o o o o o o o o o o o o o o o o o o o o o o o o . . . . . . o o o o o o o . . o o o o . . . . o o o o . . o o o o o o o . o o o o . . o o o o o o . o o o o o o o o o o o o o o o o o o o . . . . o o . . . . . . . . . . . . . . . . . . . . . . . . . . . . . . . . . . . . . . . . . . . . . . . . . . . . . . . . . . . . . . . . . . . . . . . . . . . . . . . . . . . . . . . . . . . . . . . . . . . . . . . . . . . . . . . . . . . . . . . . . . . . . . . . . . . . . . . . . . . . . . . . . . . . . . . . . . . . . . . . . . . . . . . . . . . . . . . . . . . . . . . . . . . . . . . . . . . . . . . . . . . . . . . . . . . . . . . . . . . . . . . . . . . . . . . . . . . . . . . . . . . . . . . . . . . . . . . . . . . . . . . . . . . . . . . . . . . . . . . . . . . . . . . . . . . . . . . . . . . . . . . . . . . . . . . . . . . . . . . . . . . . . . . . . . . . . . . . . . . . . . . . . . . . . . . . . . . . . . . . . . . . . .                 ",
"                  . . . . . . . . . . . . . . . . . . . . . . . . . . . . . . . . . . . . . . . . . . . . o . . o . . . . . . . . . . . . . . . . . . . . . . . . . . . . . . . . . . . . . . . . . . . . . . . . o o o o o o o o o o o o o o o o o o o o . . o o o o o o . o o o o o o o o o o o o o o o o o o o o o o o o o o o o o o o o o o o o o o o o o o o o o o o o o o o o o o o o o o o o o o o o o o o o o o o o o o o o o o o o o o o o o o o o o o o o O O o o o o o o o o O O o o o o o o o o o o O O o o o O O O O O o o o o o o o o o O O O O O O O O O O O O O O O O O O O o o o O O O o o O O O O O O O O O O O O O O O O O O O O O O O O O O O O O O O O O o o o O O O O O O O O o o O O O O O O O O O O O O O O O O O O o O O O O O O O O O O O O O O O O O O O O O O O O O O O O O O O O O O O O O O O O O O O O O O O O O O O O O O O O O O O O O - O - - - O O O O O O O O O O O O O O O O O O O O O O O O O O O O O O O O O O O O O O O O O O O O O O O O O O O O O O O O O O O O O O - O O O O O O O O O O O O O O O O O O O O O O O O O O O O O O O O O O - O O O O O O O O O O O O O O O O O O O O O O O O O O O O O O - - , ; ; ; & & ; ; O O O O ; O O O O ; O ; ; - O O O O ; O O O - - - - - - - ; ; - - - - - ; O O - - - O O O O - > j z z e t t r e 2 , j z z 4 & & 1 , > , 4 4 1 1 1 1 ; O , l M V c c N B A A A Z x v v v B I S S S x 1 X X X o ; , 1 1 3 3 1 ; , 4 6 x i y 3 1 1 & 1 1 4 4 6 6 v v A s p 3 1 6 c c x S 7.*XN./.^.o.g O * & 1 , 4 1 1 1 1 & & & & & & O 1 4 1 3 * 1 1 1 1 1 ; 1 1 1 1 4 1 1 1 1 1 1 1 1 1 1 & & & 1 1 1 z B V Y U D A u 3 c :.8.u.@.d A N t.c.m.=.| * 3 3 * & 4 B E d r 1 4 4 1 1 3 4 6 6 x 6 6 3 6 D ~ K 6 4 z 4 1 1 , 4 S ~ ~ E U S 6 1 O ; 1 1 ; O O ; ; 1 3 3 3 3 3 1 3 6 v B I x 6 1 4 v U S 1 O & O O 1 1 6 6 6 6 6 6 6 6 6 6 6 6 3 1 1 1 1 6 x A A Z 6 6 Z Z i 3 3 1 & & & & 1 1 1 6 A D A Z 6 6 6 6 4 1 3 3 6 6 1 1 O O & & 3 y A D S v 4 1 1 1 6 Z S S Z i A Z 6 1 1 1 1 1 1 1 1 1 1 1 1 1 1 1 1 1 4 1 1 4 , O & 1 6 3 3 3 4 4 1 3 6 6 6 6 6 6 6 6 A Z Z x 6 6 6 x v 4 r O.`.N.Y v x i y 6 6 A E E Q Q T U U I I v 4 1 1 1 1 1 O O O ; O O O O O 1 1 1 ; 1 1 , ; O - - . @ = a Z x 1 , - O 1 x A #.y.a.5.v 1 y Z B c 4 4 4 , O & & & O o O X $ % e i Z p u  ...@.y.5.1.v 6 3 1 3 3 6 y y p i Z Z [ o.O.).+XoXr.e.<.R { { { } } o.%.d.P.P.l.j.N.oXr.t.,., O ; - , 4 c N M l > O O o o o . . . X r u S V k h , O O O - - o o o o o o o o . o o o . X % % ; > - o . . X X O O O O O O O O O O O O o O o O o o o o o o O o o o o o O O o o O O O O O o O O O O O O O - - o o o o O O o o o o o o o o o o o o o o o o o o o o o o o o o o o o o o o o o o o o o o o o o o o o o o o o o o o o o o o o o o o o o o o o o o o o o o o o o o o o o o o o o o o o o o o o o o o o o o o o o o o o o o o o o . o o o . . o o o o o o o o o . . . . . . . . o o o o o . o o o o o . . . . o o o o . . o o o o o o . . o o o o o o o o o o . . . . . o . . o o o o . . o . . o . . o o o o o o o o . . . . . . . . . . . . . . . . . . . o o . . . . . . . . . . . . . . . . . . . . . . . . . . . . . . . . . . . . . . . . . . . . . . . . . . . . . . . . . . . . . . . . . . . . . . . . . . . . . . . . . . . . . . . . . . . . . . . . . . . . . . . . . . . . . . . . . . . . . . . . . . . . . . . . . . . . . . . . . . . . . . . . . . . . . . . . . . . . . . . . . . . . . . . . . . . . . . . . . . . . . . . . . . . . . . . . . . . . . . . . . . . . . . . . . . . . . . . . . . . . . . . . . . . . . . . . . . . . . . . . . . . . . . . . . . . . . . . . . . . . . . . . . . . . . . . . . . . . . . . . . . . . . . . . . . . . . . . . . . . . . . . . . . . . . . . . . . . . . . . . . . . . . . . . . . . . . . . . . . . . . . . .                   ",
"                    . . . . . . . . . . . . . . . . . . . . . . . . . . . . . . . . . . . . . . . . . . . o . . o . . . . . . . . . . . . . . . . . . . . . . . . . . . . . . . . . . . . . . . . . . . . . . . . o o o o o o o o o o o o o o o o o o o o o o . . o o o o . o o o o o o o o o o o o o o o o o o o o o o o o o o o o o o o o o o o o o o o o o o o o o o o o o o o o o o o o o o o o o o o o o o o o o o o o o o o o o o o o o o o o O O o o o o o o O O O o o o o o o O O O o o o o o o o o o O O O o o o O O O o o o o o o o o o o o O O O O O O O o o o o O O O O O O O O O O o O O O o o O O O O O O O O O O O O O O O O O O O O O O O O O O o O O O O O O O O o O O O O O O O O O O O O O O O O O O O O O O O O O O O O O o o o o O O O O O O O O O O O O O O O O O O O O O O O O O O O O O O O O O O O O O O O O O O O O O O O O O O O O O O O O O O O O O O O O O O O O O O O O O O O O O O O O O O O O O O O O O O O O O O O O O O O O O O O O O O O O O O O O O O O O O O O O O O O O - O O O O O O O O O O O O O O O O O O O O O O O O O O O O O O O O O O - - - - O O O O O O O O O O O O ; O O O O O O O O O O O O O O - ; , , , ; 1 & ; O O O O O O O O O O O O O O O O O O O O O ; O O O O O O O O - - - - - - - ; O O - - - O O O O O O , j k 6 d d d u 2 , z c z 1 & ; ; ; , , , 1 1 1 1 , , , O ; , j j k k c x Z x x c c v v S v x 4 1 ; O O X O - ; , 1 & * * & - , 4 6 6 3 3 1 1 1 1 & & 1 4 4 z v B x y * & , 4 z N I E 4.r.x./.O.| = ; 3 % 1 , 4 1 * & 1 & & & & & & O 1 4 1 3 * 1 1 1 1 & 1 1 1 1 1 1 1 1 1 1 1 4 4 6 6 6 3 3 3 1 1 1 4 6 x 6 v B I A p Z B :.8.u.@.d p V w.z.$...t u p y * 4 v K d u 1 1 1 3 3 1 4 x x 6 6 6 x Z S Z 3 1 4 6 6 3 1 ; 1 4 4 1 1 6 i 3 1 6 6 x 6 1 1 1 1 1 3 6 6 6 4 4 4 4 6 z z 4 6 3 1 4 4 4 1 O O O O 1 1 6 6 6 6 6 6 6 3 3 3 6 3 3 1 & & & 3 3 6 i A i i i i i p y 6 3 3 3 3 3 1 & & 3 Z A A v 6 6 x 6 6 1 3 1 3 6 3 1 & O O 1 6 A Z Z x v Z x 6 4 6 6 x x 6 6 6 6 6 4 4 4 1 1 1 1 3 3 3 1 1 1 1 1 1 1 1 1 1 4 , O & 3 6 6 3 6 6 6 6 6 6 6 6 6 6 6 6 6 Z Z Z Z x 6 x x v x r -.|.B.7.v 6 i Z i i A D E Q Q T T U I S v 4 1 1 1 1 1 ; O ; ; ; O O & 1 ; ; ; O & 1 , - O o o . . @ = p S c j , O X ; 6 s +.g.j.p.:.v v N k ; & & & * y p A 6 1 2 = e e 6 v D A A J J W 2.<.:.N , O ; ; O ; 1 3 4 4 1 1 a X.O.*.x.v.x.p.7.q.] H P F F A U 1.:.9.#.y.8.t.,.,.k - O - > - - - - - . . o o o o o o . . X % r y N M k , O O O - - - o o o o . . . o o o o . . . X o o o . . X X X O O O O O O O O o o o O o o o o o o o o o o o o o o o o o O o o O O O O O O O O O O O O O - - O o o o o o o o o o o o o o o o o o o o o o o o o o o o o o o o o o o o o o o o o o o o o o o o o o o o o o o o o o o o o o o o o o o o o o o o o o o o o o o o o o o o o o o o o o o o o o o o o o o o o o o o o o o o o o o o o o . o o o o o o o o o o o . . o o o o o o o o o o o . o o o o . . . . . . o o o o o o o . . o o . . . . o o o o o o o o o . . . . o . . . . o . . . . . . . . . . o o o o o o o o o . . . . . . . . . . . . . . . o o . . . . . . . . . . . . . . . . . . . . . . . . . . . . . . . . . . . . . . . . . . . . . . . . . . . . . . . . . . . . . . . . . . . . . . . . . . . . . . . . . . . . . . . . . . . . . . . . . . . . . . . . . . . . . . . . . . . . . . . . . . . . . . . . . . . . . . . . . . . . . . . . . . . . . . . . . . . . . . . . . . . . . . . . . . . . . . . . . . . . . . . . . . . . . . . . . . . . . . . . . . . . . . . . . . . . . . . . . . . . . . . . . . . . . . . . . . . . . . . . . . . . . . . . . . . . . . . . . . . . . . . . . . . . . . . . . . . . . . . . . . . . . . . . . . . . . . . . . . . . . . . . . . . . . . . . . . . . . . . . . . . . . . . . . . . . . . . . . . . . . . . . .                     ",
"                      . . . . . . . . . . . . . . . . . . . . . . . . . . . . . . . . . . . . . . . . . . . . . . . . . . . . . . . . . . . . . . . . . . . . . . . . . . . . . . . . . . . . . . . . . . . . . . o o o o o o o o o o o o . . o o o o . o o o o . o o o o o o o o o o o o o o o o o o o o o o o o o o o o o o o o o o o o o o o o o o o o o o o o o o o o o o o o o o o o o o o o o o o o o o o o o o o o o o o o o o o o o o o o o o o o o o o o o o o O O O O o O O o O o o o o o o o o o O O o o o o o o o o o o o o o o o o o o O O O O O O O o o O O o o O O O O O O O O O o O O O O o O O O O O O O O O O O O O O O O O O O O O O O O O O O O O O O O O O O O O O O O O O O O O O O O O O O O O O O O O O O O O O O O O O o o O O O O O O O O O O O O O O O O O O O O O O O O O O O O O O O O O O O O O O O O O O O O O O O O O O O O O O O O O O O O O O O O O O O O O O O O O O O O O O O O O O O O O O O O O O O O O O O O O O O O O O O O O O O O O O O O O O O O O O O O O O O O O - O O O O O O O O O O O O O O O O O O O O O O O O O O - O O O O O O O O O O O O O O O O O O O O O O O ; O O O O O O O O O O O O O - - ; ; , ; ; & ; ; O O O O O O O O O O O O O O O O O O O O O O O O O O O O O O - - - - - - - ; O O - - - O O ; O O O , j k z 3 e * 3 z c z z 4 1 & O - - - ; ; , ; ; ; ; O O ; - ; , j j c c 6 6 6 4 z c v Z i 6 1 O . X O O o - , , , , 4 1 1 O O 1 4 6 1 & & & 1 4 1 & & 1 , , 4 v v 3 & & 1 1 4 z N Y E Q w.p.=.O.t q 2 3 e * 1 4 3 * * & O & & & 1 1 1 4 x 6 3 & & ; 1 & & 1 1 1 1 & & & & 1 1 4 4 z x 6 Z i 3 3 3 3 6 6 3 3 4 z z c v i y 6 B 1.5.#.P p z :.e.a.@. .P d u 3 4 c D P u 1 4 6 3 * 1 4 4 4 3 1 x v i 3 * 1 1 3 3 6 6 4 4 6 6 6 1 6 Z A p y i Z 6 6 1 1 1 1 4 1 3 4 4 4 4 4 4 4 4 4 1 1 3 3 1 1 O O O & & 1 6 6 6 6 6 6 6 6 6 3 3 6 6 3 3 3 & 1 6 J L +.#.W K D D A A A A i y y 6 i Z 6 3 & & 3 6 6 6 6 6 6 Z 6 6 6 6 6 1 1 2 1 O X 1 Z Z Z 6 4 4 S Q R x 4 4 4 4 6 6 4 4 1 1 1 1 1 1 1 1 3 3 3 1 1 1 1 1 1 1 1 1 1 1 , & 3 y 6 6 3 6 6 6 6 6 6 6 6 6 6 6 6 6 6 x x x 6 6 6 6 v 4 % o.`.=Xc.I y Z S Z Z A D E Q Q T T U I S v 4 1 1 1 1 & O 1 1 & 1 ; ; O O O O O O O 1 1 - O o o . . @ = r A Y N , - - - & t ..*.k.x.e.:.V B c 4 O & 1 3 3 Z S Z 2 { g  .J N l , * 3 6 b F A B V k , O O O O & & 1 4 , , 1 r | ..$.p.z.x.z.w.>.R J U :.M k C c 4 3 i v V M l > o O O - - . . . . . . . . . . . o . . . X % r y N ,.M > O O & ; - o o o o o o o o o o . . . . . . . . . . X X X O O O O O O O o O O O o O o o o o o o o o o o o o o o o o o o o o o O O O O O o O O O O O O - o o o o o o o o o o o o o o o o o o o o o o o o o o o o o o o o o o o o o o o o o o o o o o o o o o o o o o o o o o o o o o o o o o o o o o o o o o o o o o o o o o o o o o o o o o o o o o o o o o o o o o o o o o o o o o o o o o o o o o o o o o o o o o o o o . . . o o o o . . . . o o . . o o . . . . o o o o o o o . . . o o o . . . . o o o o o o o . . o o . . o o o o o o o . . . o o . . o o o o o o o o o o o . . . . . . . . . . . . . . . . . . o . . . . . . . . . . . . . . . . . . . . . . . . . . . . . . . . . . . . . . . . . . . . . . . . . . . . . . . . . . . . . . . . . . . . . . . . . . . . . . . . . . . . . . . . . . . . . . . . . . . . . . . . . . . . . . . . . . . . . . . . . . . . . . . . . . . . . . . . . . . . . . . . . . . . . . . . . . . . . . . . . . . . . . . . . . . . . . . . . . . . . . . . . . . . . . . . . . . . . . . . . . . . . . . . . . . . . . . . . . . . . . . . . . . . . . . . . . . . . . . . . . . . . . . . . . . . . . . . . . . . . . . . . . . . . . . . . . . . . . . . . . . . . . . . . . . . . . . . . . . . . . . . . . . . . . . . . . . . . . . . . . . . . . . . . . . . . . . . . . . . .                       ",
"                        . . . . . . . . . . . . . . . . . . . . . . . . . . . . . . . . . . . o o . . . . . . . . . . . . . . . . . . . . . . . . . . . . . . . . . . . . . . . . . . . . . . . . . . . . . . . . o o o o o o o . o o o o o o o o o o . o o o o o o o o o o o o o o o o o o . . o . o . o o o o o o o o o o o o o o o o o o o o o o o o o o o o o o o o o o o o o o o o o o o o o o o o o o o o o o o o o o o o o o o o o o o o o o o o o o o o o o O O O O O O O O O O O O o o o o o o o o O O o o o O o o o o o o o o o o o o o o O O O O O O O o O O O O o O O O O O O O O O O O O O o o O O O O O O O O O O O O O O O O O O O O O O O O O O O O O O O O o o O O o o O O O O O O O O O O O o O O O O O O O O O O O O O O O O O O O O O O O O O O O O O O O O O O O O O O O O O O O O O O O O O O O O O O O O O O O O O O O O O O O O O O O O O O O O O O O O O O O O O O O O O O O O O O O O O O O O O O O O O O O O O O O O O O O O O O O O O O O O O O O O O O O O O O O O O O O O O O O - O O O O O O O O O O O O O O O O O O O O O O O O O - - O O O O O O O O O O O O O O O O O O O O O O O ; O O O O O O O O - O O O O - ; ; ; , ; O & O ; O O O O O O O O O O O O O O O O O O O O O O O O O O O O O O - O - - - - - ; O O - - - O O ; - O O ; ; O : < - - > k c 4 z 4 & % * & + + ; ; , ; ; ; ; O O , , , , , z z 4 6 6 4 z c v Z p e & O . . O O O - ; 1 & ; , j z 6 p u u 1 1 1 1 1 & & 1 1 1 4 z v A s y 3 1 & , , 4 1 4 N B Z S >.8.=.O.o.w q * e * , 4 6 u e & & O & ; ; 1 4 x x 6 3 1 1 ; 1 ; 1 4 4 6 3 3 & & & 1 1 4 4 4 z Z A Z 6 4 6 i i 6 3 1 4 4 1 1 4 4 6 3 b V T E D i v 1.e.m.g.@.L s u e 4 z S J y 1 4 4 1 & & 1 1 1 3 3 6 6 3 6 A J p 3 1 3 1 1 6 Z A Z 6 x i y 3 3 6 6 3 1 1 1 1 1 4 1 1 1 1 1 1 1 1 1 1 & 3 3 1 & & & O O & 3 6 6 6 6 6 6 6 6 6 i Z i Z A A Z i 6 6 x S W #.#.#.E U E E D A Z Z Z i 6 6 6 6 6 6 1 3 i y 3 1 1 1 6 6 6 6 6 6 6 6 1 1 1 & O & 1 6 6 4 4 , x U ~ S 4 1 1 1 1 1 1 1 1 1 1 1 1 1 1 1 3 3 3 1 1 1 1 1 1 1 1 1 & 6 1 1 y i 6 4 1 3 6 4 6 6 6 6 6 3 6 6 6 6 6 6 6 6 6 6 6 3 i 6 * | /.-XoXY i Z S Z Z Z D E Q Q T T U I v z 4 1 1 1 1 O X O 1 & & 1 ; O ; O O O O O 1 4 , O O . . . . @ = a T 1.c > - o & t @.u.a.x.z.e.1.N c c 1 & 1 1 1 4 z 4 ; < g X.$.7.,.> $ 1 j 5 e p I V B x 6 c 1 3 6 6 1 - < 0 f | O.=.u.p.z.z.e.t.,.N z j M l q q * y 6 z j > - o . . o o o o . . . . . . . . . . . o . . . . $ r e N M M > O O & 3 y 3 , , - - - o o o . o . . . . . . . . X X X X O o o o o o o o O O O o O o o o o o o o o o o o o o o o o o o o o O O O O O o o O O O O O O - o o o o o o o o o o o o o o o o o o o o o o o o o o o o o o o o o o o o o o o o o o o o o o o o o o o o o o o o o o o o o o o o o o o o o o o o o o o o o o o o o o o o o o o o o o o o o o o o o o o o o o o o o o o o o o o o o o o o o o o o o o o o o o o o o . . . o . o o . o . . o . . . o o . o o . o o o o o o o o . . o o . . . o . . o o o . o o . o o o o . o o o o o o o . . . o o o o o o . . o o o o o o o . . . . . . . . . . . . . . . . . . . . . . . . . . . . . . . . . . . . . . . . . . . . . . . . . . . . . . . . . . . . . . . . . . . . . . . . . . . . . . . . . . . . . . . . . . . . . . . . . . . . . . . . . . . . . . . . . . . . . . . . . . . . . . . . . . . . . . . . . . . . . . . . . . . . . . . . . . . . . . . . . . . . . . . . . . . . . . . . . . . . . . . . . . . . . . . . . . . . . . . . . . . . . . . . . . . . . . . . . . . . . . . . . . . . . . . . . . . . . . . . . . . . . . . . . . . . . . . . . . . . . . . . . . . . . . . . . . . . . . . . . . . . . . . . . . . . . . . . . . . . . . . . . . . . . . . . . . . . . . . . . . . . . . . . . . . . . . . . . . . . . . . . . . . . . . . . . . . . . . .                         ",
"                          . . . . . . . . . . . . . . . . . . . . . . . . . . . . . . . . . o o o o . . . . . . . . . . . . . . . . . . . . . . . . . . . . . . . . . . . . . . . . . . . . . . . . . . . . . . o o o o o o o o . . o o o o o . . . o o o . o o o o o o o o o o o o o o o o . . . . . . o o o o o o o o o o o o o o o o o o o o o o o o o o o o o o o o o o o o o o o o o o o o o o o o o o o o o o o o o o o o o o o o o o o o o o o o o o o o o O o o o o o o o o O o O O o o O O O o o o o O o o O O O O o o O o O O o o o o o o O O O O O O O O O O O O O O O O o o O O O o O O O O O O O O O O O O O O O O O O O O O o O O O O O O O o o O O O o o O O O O O O o o O O O O O O O o O O O O O O O O O O O O O O O O O O O O O O O O O O O O O O O O O O O O O O O O O O O O O O O O O O O O O O O O O O O O O O O O O O O O O O O O O O O O O O O O O O O O O O O O O O O O O O O O O O O O O O O O O O O O O O O O O O O O O O O O O O O O O O O O O O O O O O O O O O O O O O O O O O O - O O O O O O O O O O O O O O O O O O O O O O O O O O - O O O O O O O O O O O O O O O O O O O O O O O - O O O O O O O O O O O O - - - ; ; ; ; & & O ; - O O O O O O O O O O O O O O O O O O O O O O O - O O O O O O O O O - ; - - O O ; - - O O O ; ; , O $ $ X + + < > j z c N v p t r e q < - ; ; ; ; ; O ; ; , , , , j z z 4 4 z c c v y y * $ X o o o O ; - ; 1 & & O , k N v A d r & 1 4 4 1 1 & & O - > k U +. .r * 1 1 1 4 4 1 3 v c 6 v >.c./.^.-.} w & * $ 1 z 6 u t * O O & ; , 4 z v x 6 3 1 1 ; ; , 4 z x x 6 1 1 1 & 1 1 1 4 4 4 x 6 6 4 4 x Z i 3 * 1 1 1 & * 1 4 4 4 b S U Q K A D 1.w.c.j.$.+.J p u y 1 6 y * 1 1 1 1 1 3 y y p i Z i 3 6 v T ~ s 3 1 1 & ; 1 6 Z 6 6 6 4 1 1 1 1 1 1 1 1 1 1 1 1 1 1 1 1 1 1 1 4 6 A p y 3 1 1 & & 1 1 3 6 6 6 6 6 6 6 6 6 6 Z Z Z Z D E K Z 6 x z v S U D D A S T Q U Z Z x x 6 6 x 6 1 1 4 4 i A A y y y 3 1 1 6 6 6 6 6 6 6 1 3 3 1 O O 1 1 4 1 1 1 x S Z x 4 4 1 1 3 1 3 1 1 6 6 3 3 1 1 1 1 1 1 1 1 1 1 1 1 1 & & 6 6 3 3 i x 4 1 1 4 4 4 6 6 6 6 6 6 6 6 6 6 6 6 6 6 6 6 3 y 6 6 t O.].OX<.x 6 x i i i A E Q Q T T U I v z 4 1 1 1 3 3 i 4 , 1 & & ; ; ; O O O O O & 1 , , O O o o X . @ = a T :.c 1 & 3 i A E 2.y.a.a.8.:.k 4 6 6 4 , ; ; , , - - = t +.7.>.k * 6 l > $ y v V B Z v N c 6 z 6 4 - q g X.O.^._.M.m.z.w.>.,.M h - - > + # = r y v c j - o o . o o o . . . . . . . . . . . X X o o . . . $ % * j k l > o O O & e 3 , h > - o o . . . . . . . . . . . . . X X X o o o O O o o o o o O o o o o O O O O o o o o o o o o O O o o o o o o O O o o o o O O O O O - o o o o o o o o o o o o o o o o o o o o o o o o o o o o o o o o o o o o o o o o o o o o o o o o o o o o o o o o o o o o o o o o o o o o o o o o o o o o o o o o o o o o o o o o o o o o o o o o o o o o o o o o o o o o o o o o o o o o o o o o o o o o o o o o o o o . o o o o o o o o o o o . o o o o o o o o . . . . o o o o o o . . o o o o o . . . o o o o o o . . o o o o o o o o . . o o o o o o . . o o . . o o o . . . . . . . . . . . . . . . . . . . . . . . o . . . . . . . . . . . . . . . . . . . . . . . . . . . . . . . . . . . . . . . . . . . . . . . . . . . . . . . . . . . . . . . . . . . . . . . . . . . . . . . . . . . . . . . . . . . . . . . . . . . . . . . . . . . . . . . . . . . . . . . . . . . . . . . . . . . . . . . . . . . . . . . . . . . . . . . . . . . . . . . . . . . . . . . . . . . . . . . . . . . . . . . . . . . . . . . . . . . . . . . . . . . . . . . . . . . . . . . . . . . . . . . . . . . . . . . . . . . . . . . . . . . . . . . . . . . . . . . . . . . . . . . . . . . . . . . . . . . . . . . . . . . . . . . . . . . . . . . . . . . . . . . . . . . . . . . . . . . . . . . . . . . . . . . . . . . . . .                           ",
"                            . . . . . . . . . . . . . . . . . . . . . . . . . . . . . . . . o o o o . . . . . . . . . . . . . . . . . . . . . . . . . . . . . . . . . . . . . . . . . . . . . . . . . . . . . . o o o o o o o o . . o o o o o . . . . . . . . o o o o o o o o o o o o o o o . . . . . . o o o o o o o o o o o o o o o o o o o o o o o o o o o o o o o o o o o o o o o o o o o o o o o o o o o o o o o o o o o o o o o o o o o o o o o o o o o o o o o o o o o o o o o o O O O o O O O O o o o O o o O O O o o o O O O O O o o o O O o o o O O O O O O O O O O O O O O o O O O o O O O O O O O O O O O O O O O O O O O o o o O O o O O O O o o o O O O O O O O O O O O O O O O O O O O O O O O O O O O O O O O O O O O O O O O O O O O O O O O O O O O O O O O O O O O O O O O O O O O O O O O O O O O O O O O O O O O O O O O O O O O O O O O O O O O O O O O O O O O O O O O O O O O O O O O O O O O O O O O O O O O O O O O O O O O O O O O O O O O O O O O O O O O O O O O O O O O O O O O - O O O O O O O O O O O O O O O O O O O O O O O O O O O O O O O O O O O O O O O O O O O O O O O O ; O ; O O O O O O O O O O O O - , ; ; ; ; ; & & O ; O O O O O O O O - - ; O O O O O O O O ; ; O O - - - - - - - O O O O ; ; - - O O - - - O O O O , , & & & $ $ + : : ; k M :.1.~ d t e : + - - ; ; ; ; O ; , ; ; , , j z z 4 4 z c c 6 * $ X . . X O O O ; ; 1 ; O & O > k N v 6 % $ & 1 1 1 1 1 1 & $ & 1 b F P d y 4 6 3 3 4 z 6 3 6 z x V t.oX`.^.(.} w & & * 4 c x u t * O O O 1 1 4 x x x 6 3 & O ; ; , 4 x Z 6 3 & ; ; 1 1 1 1 1 1 1 4 1 1 4 z v Z y 3 3 3 1 1 1 4 4 3 3 4 x Z U 2.E K K D V 7.z.g.=. .A A d e 6 y e * & 1 1 y A +.+.p Z Z i y 6 c c S A p 3 & X O 1 4 4 4 1 1 4 4 6 6 6 3 1 1 1 1 1 1 1 1 1 1 1 3 6 6 6 D #.+.p 3 4 4 6 3 6 x i 6 6 6 6 6 6 6 6 6 6 6 x x x v U U 6 & & ; , 4 4 4 6 6 x S S S Z i 6 6 6 6 6 6 3 1 1 1 6 Z 6 y J P s y 3 4 6 6 6 6 6 6 6 6 6 6 & O O 1 1 1 1 1 4 4 6 6 6 6 6 3 4 4 6 6 6 Z Z 6 6 3 1 1 1 1 1 1 1 1 1 1 1 1 & 3 i Z 6 6 x x 4 1 1 4 4 4 1 4 6 6 6 6 6 6 6 6 6 6 6 6 6 3 6 6 6 6 r O.`.+X4.v 6 6 i i i A U E Q Q U U I v 4 1 1 1 1 3 p ~ I , , ; O O ; ; O O O O O O 1 4 , & & ; - O . . @ = F <.Y v 6 4 4 z 4 6 K #.y.z.8.B 4 6 x z 4 4 ; 1 , , - O $ 3 c V c 3 6 z > - - ; > 4 4 6 b v 4 , 1 3 2 g o.O.^.).[.+Xv.r.>.,.M > - O O O O O X $ & 4 j , - o - o o o . . . o . . . . . . o . X X o o . . X $ % * , h j ; o o o . . O - > > o . . . . . . . . . . . . . . . X X . o O o O O o o o o o o O o o o O O O O o o o O o o O O O O O O o o o o o o o o o o O O O O O o o o o O o o o o o o o o o o o o o o o o o o o o o o o o o o o o o o o o o o o o o o o o o o o o o o o o o o o o o o o o o o o o o o o o o o o o o o o o o o o o o o o o o o o o o o o o o o o o o o o o o o o o o o o o o o o o o o o o o o o o o o o o o o o o o o o o o o o o o o o o o o o o o o o o o o o o o . . . o o o o o o o . o o o o o . . . o o o o o o . . o o o o o o o o o o o o o o o o . . o o . . o o o . . . . . . . . . . . . . . . . . . . . . . . . . . . . . . . . . . . . . . . . . . . . . . . . . . . . . . . . . . . . . . . . . . . . . . . . . . . . . . . . . . . . . . . . . . . . . . . . . . . . . . . . . . . . . . . . . . . . . . . . . . . . . . . . . . . . . . . . . . . . . . . . . . . . . . . . . . . . . . . . . . . . . . . . . . . . . . . . . . . . . . . . . . . . . . . . . . . . . . . . . . . . . . . . . . . . . . . . . . . . . . . . . . . . . . . . . . . . . . . . . . . . . . . . . . . . . . . . . . . . . . . . . . . . . . . . . . . . . . . . . . . . . . . . . . . . . . . . . . . . . . . . . . . . . . . . . . . . . . . . . . . . . . . . . . . . . . . . . . . . . . . . . . . . . . . . . . . . .                             ",
"                              . . . . . . . . . . . . . . . . . . . . . . . . . . . . . . . . . . . . . . . . . . . . . . . . . . . . . . . . . . . . . . . . . . . . . . . . . . . . . . . . . . . o o o o o o o o o o o o o o o o o o o o o . . . . . . . . o o o o o o o o o o o o o o o o . . . . . . o o o o o o o o o o o o o o o o o o o o o o o o o o o o o o o o o o o o o o o o o o o o o o o o o o o o o o o o o o o o o o o o o o o o o o o o o o o o O o o o O o o o o o O O O o o O O o o o O O O o o O O o o o O O O O o o O O O o o o o o O O O O O O O O O O O O O o O O O O O O o o o O O O O O O O O O O O O O O O O O O O O O O O O O O O O O O O O O O O O O O O O O O O O O O O O O O O O O O O O O O O O O O O O O O O O O O O O O O O O O O O O O O O O O O O O O O O O O O O O O O O O O O O O O O O O O O O O O O O O O O O O O O O O O O O O O O O O O O O O O O O O O O O O O O O O O O O O O O O O O O O O O O O O O O O O O O O O O O O O O O O O O O O O O O O O O O O O O O O O O O O O O O O O O O O O O O - O O O O O O O O O O O O O O O O O O O O O O O O O O O O O O O O O O O ; O O O O O O O O - ; ; O - ; ; - ; 1 1 & O O O O O O O O O O O - - - O O O O O O O O ; ; ; ; - ; - O O ; ; - - - - - O O O O O - - - O O O O O ; 1 1 1 * % X + + < k ,.,.1.A u r $ + - - ; ; ; ; ; O ; ; 1 ; , j , 4 4 4 4 4 4 1 $ $ X o o . X O O O ; ; 1 ; O O & , j j 1 1 & & 1 1 & & & 1 j c y | X.g 0 1 1 c v 6 y 6 v x y 6 6 4 x :.r.OX`.^.(.;.w & 3 3 4 c v y r % O & 1 1 4 4 6 6 6 3 & O O & 1 1 4 4 6 3 & & O ; 1 1 1 1 1 & 1 1 1 & , 4 4 6 6 6 6 3 3 3 3 4 1 3 6 x Z S Y T Q Q K u x :.r.M./.O.s K +.J K P d u y * 3 D #.u.@.u 6 6 6 3 1 1 1 z S P u % O O : 4 1 1 1 1 1 4 4 6 6 6 1 1 1 1 1 1 1 3 3 6 6 6 6 6 Z E W L p 1 4 4 4 6 6 6 6 6 6 6 6 3 6 6 6 6 6 6 6 6 6 x v S Z & O O 1 4 6 6 6 6 6 6 v Z i i i i i i 6 6 6 3 1 3 6 6 1 1 A #.#.P p 3 1 1 4 4 6 x x x x 6 1 & O & 1 6 6 6 4 4 4 4 4 6 6 6 6 4 6 x S Z Z 6 6 6 6 6 3 4 1 1 1 1 1 1 1 1 3 p A A Z x v x 4 1 1 1 4 4 4 4 4 6 6 6 6 6 x 6 4 6 3 6 6 6 6 3 6 i e X.`.=Xz.Y x y i Z Z A D E Q Q U U I v 4 1 & & & & y E T z , ; O ; ; O O O O O O O 1 4 , 1 1 4 - o . . X = f ~ 4.1.N 4 1 4 , 1 i E ! y.a.a.<.z > j z z 4 1 4 , ; & * 3 4 4 1 3 3 4 z , , ; & 1 4 a y A v z 1 1 6 9 f O.^.`.OXc.w.>.,.k j - O O O X X X X X & 1 , , ; O O o o . . . . . . . . . . . o X X O O O o . X % r e , h > - O - o . . . . o o . . . . . . . . . . . . . . . . . X X O O O O O o o o o o o O O O o o o o o O O O O o O O O o o o o o o O O o o o o o o O O O O O O o o o o O O o o o o o o o o o o o o o o o o o o o o o o o o o o o o O o o o o o o o o o o o o o o o o o o o o o o o o o o o o o o o o o o o o o o o o o o o o o o o o o o o o o o o o o o o o o o o o o o o o o o o o o o o o o o o o o o o o o o o o o o o o o o o o o o o o o o o . . . . o o . . o o o o . . o o o . . . . o o . . . . . o o o o o o o o o o o o o o o o o o o o o o o . o o o o o o . . o o . . o o o o o . . . . . . . . . . . . o . . . . . . . . . . . . . . . . . . . . . . . . . . . . . . . . . . . . . . . . . . . . . . . . . . . . . . . . . . . . . . . . . . . . . . . . . . . . . . . . . . . . . . . . . . . . . . . . . . . . . . . . . . . . . . . . . . . . . . . . . . . . . . . . . . . . . . . . . . . . . . . . . . . . . . . . . . . . . . . . . . . . . . . . . . . . . . . . . . . . . . . . . . . . . . . . . . . . . . . . . . . . . . . . . . . . . . . . . . . . . . . . . . . . . . . . . . . . . . . . . . . . . . . . . . . . . . . . . . . . . . . . . . . . . . . . . . . . . . . . . . . . . . . . . . . . . . . . . . . . . . . . . . . . . . . . . . . . . . . . . . . . . . . . . . . . . . . . . . . . .                               ",
"                                  . . . . . . . . . . . . . . . . . . . . . . . . . . . . . . . . . . . . . . . . . . . . . . . . . . . . . . . . . . o . . . . . . . . . . . . . . . . . . . . . . o o . . o o o o o o o . o o o o o o . . o o o o o o o . o o o o o o o o o o o o o o o o o o o o o o o o o o o o o o o o o o o o o o o o o o o o o o o o o o o o o o o o o o o o o o o o o o o o o o o o o o o o o o o o o o o o o o o o o o o o o o o o o o o O o o o o o o o o O O O O o o O o o o o O O O o o o o o o o O O O O o o O O O O o O o O O O O O O O O O O O O O O o o O O O O O o o O O O O o O O O O O O O O O O O O O O O O O O O o o O O O O O O O o O O O O O O O O O O O O O O O O O O O O O O O O O O O O O O O O O O O O O O O O O O O O O O O O O O O O O O O O O O O O O O O O O O O O O O O O O O O O O O O O O O O O O O O O O O O O O O O O O O O O O O O O O O O O O O O O O O O O O O O O O O O O O O O O O O - - O O O O O O O O O O O O O O O O O O O O O O O O O O O O O O O O O O O O O O O O O O O O O O O O O O O O O O O O O O O O O O O O O O O O O O O O O O O O O O O ; O ; O O O O O O O O ; ; - - - - ; ; ; 1 1 O O O O O O O O O O O O O O O O O O O - - - - - - - - - ; - O O O O - - - O O O O O O O - - - O O - O O ; 4 4 4 3 e e = q q j k c z 4 & & & O - - ; 1 ; O ; ; ; , , ; , j 4 3 6 6 1 1 1 $ @ . . o o O O - - ; ; O O O O & & ; , , 1 1 3 1 1 1 & & 1 j ,.w.s.O.X.f @ $ 3 v v 6 3 v v 6 y 6 z 6 6 1.r.oX`.^.^.o.q 1 1 3 1 z c 6 e $ O & 1 4 1 4 6 4 1 1 ; , 1 * * 3 1 1 , 1 1 & & & 1 1 1 1 1 1 & O 1 1 1 1 3 3 1 1 6 6 6 y 3 6 6 6 i Z A D S U <.2.+. .p I r.B.`.^...K J E ! u.@. .J P s D Q #. .u p 3 3 1 1 1 3 4 c A s r $ O ; 1 1 1 1 1 1 4 4 4 1 1 1 1 1 1 3 p p p 6 6 x x x 6 6 v E #.a X & 1 1 3 6 6 6 6 Z Z 6 3 6 6 6 3 3 3 3 6 4 4 6 S x & & O 1 1 6 6 6 6 6 6 6 Z Z Z Z 6 6 6 6 6 6 6 6 6 6 6 3 1 4 A D A J A 3 3 3 1 4 4 4 x x 6 3 1 O X ; 4 6 6 6 4 4 1 1 4 6 6 6 6 6 6 x x 6 6 6 6 6 6 1 4 1 1 1 1 & & O 1 6 i i Z v v 4 4 6 1 1 1 4 4 4 1 4 6 6 6 6 x x 6 4 3 3 3 6 6 3 3 y i 3 X./.{.OX7.v p i i Z S D U Q Q E U I c 4 ; 1 1 1 & 1 4 z , , O O O ; & & O ; & & & 1 1 1 1 4 4 - o X % r r f / 3.7.:.v 3 6 , 2 5 i D #.*._.V.8.V j 1 1 4 ; 1 , + $ % 3 6 4 4 4 4 4 4 , , & O o - 1 e A Y V , 1 3 y u O./.'.v.r.>.N j , - o @ @ X O X X O O O O O - - O o . . . . . . . . . . . . X O O O O O O . @ $ t t u c M h - o - o . . . . . . . . . . . . . . . . . . . . . . . . X X O O O O o o o o o o O O O o o o o o o o O O O O O O o o o o o o O O o o o o o O O O O O - O o o o o O O o o o o o o o o o o o o o o o o o o o o o o o o o o o o o o o o o o o o o o o o o o o o o o o o o o o o o o o o o o o o o o o o o o o o o o o o o o o o o o o o o o o o o o o o o o o o o o o o o o o o o o . . . o o o o o o o o o o o o o o o o o o o o o o . o o o o . . o . o o . o o o o . . . o o o o . . o o o o . . . . o o . . . . . . . . . . . . o o o o o o o o . . o o o o o o . . . o o o o o o . . . o . . . . . . . . o o . . . . . . o . . . . . . . . . . . . . . . . . . . . . . . . . . . . . . . . . . . . . . . . . . . . . . . . . . . . . . . . . . . . . . . . . . . . . . . . . . . . . . . . . . . . . . . . . . . . . . . . . . . . . . . . . . . . . . . . . . . . . . . . . . . . . . . . . . . . . . . . . . . . . . . . . . . . . . . . . . . . . . . . . . . . . . . . . . . . . . . . . . . . . . . . . . . . . . . . . . . . . . . . . . . . . . . . . . . . . . . . . . . . . . . . . . . . . . . . . . . . . . . . . . . . . . . . . . . . . . . . . . . . . . . . . . . . . . . . . . . . . . . . . . . . . . . . . . . . . . . . . . . . . . . . . . . . . . . . . . . . . . . . . . . . . . . . . . . . .                                   ",
"                                    . . . . . . . . . . . . . . . . . . . . . . . . . . . . . . . . . . . . . . . . . . . . . . . . . . . . . . . . . . . . . . . . . . . . . . o . . . . . . . . . . o . . o o o . o o . . o o o o o o o . o o o o o o o o o . o . o o o o o o o o o o o o o o o o o o o o o o o o o o o o o o o o o o o o o o o o o o o o o o o o o o o o o o o o o o o o o o o o o o o o o o o o o o o o o o o o o o o o o o o o o o o O o o o o O o O O o o o o o o o o o o O O o o o o o O O o o O o o o o O O O O o o O O O O O o O O O O O o O O O O o o O O O O O O O O O O O O O O O O O O O O O O O O O O O O O O O o O O O o o o O O O O O O O O O O O O O O o O O O O O O O O O O O O O O O O O O O O O O O O O O O O O O O O O O O O O O O O O O O O O O O O O O O O O O O O O O O O O O O O O O O O O O O O O O O O O O O O O O O O O O O O O O O O O O O O O O O O O O O O O O O O O O O O O O O O O O O O O - - O O O O O O O O O O O O O O O O O O O O O O O O O O O O O O O O O O O O O O O O O O O O O O O O O O O O O O O O O O O O O O O O O O O O O O O O O O O O O O O O O O ; - O O O O O O O O ; - - - - ; , 1 1 ; O O O O O O O O - - ; ; O O O O O O O - O O O O O O - - - - - - O O - - ; O O O O O O O ; ; - O O ; O O ; , z z 6 y e * 2 < < , 4 , ; ; & & ; - - - ; O O O ; ; ; , , , , z c c z e e % = # . o O O O - , , 1 1 O O O O O O ; , , 1 1 3 3 & 1 1 1 4 k >.w.p.+.P B N K d s Z 6 4 v v 6 3 3 c v 6 I t.r.k.O.X.r $ 1 1 & 1 4 z 6 * $ + & 1 1 & 1 4 1 & 1 O , z Z s d y & & 1 1 1 & & 1 1 1 1 1 1 1 1 1 1 1 3 3 1 1 1 4 6 Z i 3 6 x Z Z A A A D U <.4.u.$.+.! e.OX]./.O.d D U 2.y.#.P K P J S U L +.+.J y 6 6 i p A s u p J d t r * & 1 1 1 & & & 1 1 1 3 1 1 3 3 p A A i 6 1 4 4 4 4 4 z Q ~ 7 & & 3 6 1 4 4 6 6 x 6 6 6 6 6 6 3 3 3 3 6 6 6 4 x 6 & O O 1 3 6 4 6 6 6 6 6 x Z Z x x 6 6 6 6 6 6 6 6 6 6 6 6 1 , 1 1 6 y 3 3 y u p 3 * 1 4 4 4 4 1 & O & 1 x x 4 1 4 4 6 6 6 6 6 6 6 4 4 4 1 4 4 1 1 1 1 4 1 1 & O O O 1 3 6 6 6 4 4 5 4 1 1 4 1 4 4 4 1 1 4 4 4 6 6 x 4 1 1 3 3 6 6 4 1 3 6 6 t =.}.OXw.v i Z Z Z A S U E Q Q T B c , ; 1 ; & & O O - , ; O O O O O O O O O & 1 1 1 1 1 1 , ; & r | d A m ( / 5.4.1.S 6 4 8 0 a A K @.).'.N.e.B 3 * & X X + + % r A v j , , , 1 ; ; O O O o o X $ * v B b 6 y e y  .@.u.w.>.N 4 , - + # w = % & ; - O O O O O O o o . . . . . . . . . . . . X X O O O - O o . @ = | | d V ,.l - o - o o o . . . . . . . . . . . . . . . . . . . . X O O O O O O O o o O O o O O O o o O O o o o o o o o o o o o o O O o o O O o o O o o O O O O O o o o o o o o O o o o o o o o o o o o o o o o o o o o o o o o o o o o o o o o o o o o o o o o o o o o o o o o o o o o o o o o o o o o o o o o o o o o o o o o o o o o o o o o o o o o o o o o o o o o o o o o o o o o o o o o o o o o o o o o o o o o o o o o o o o o o o . o . o o o o o o o o o o . . o o o o . . o o o o o o o o o o o o . . . o . . . . . . . . . . . . . o o o o o o o . . o o o o o o . . o o o o o o o o . . o . . . . . . . . . o . . . . . . o . . . . . . . . . . . . . . . . . . . . . . . . . . . . . . . . . . . . . . . . . . . . . . . . . . . . . . . . . . . . . . . . . . . . . . . . . . . . . . . . . . . . . . . . . . . . . . . . . . . . . . . . . . . . . . . . . . . . . . . . . . . . . . . . . . . . . . . . . . . . . . . . . . . . . . . . . . . . . . . . . . . . . . . . . . . . . . . . . . . . . . . . . . . . . . . . . . . . . . . . . . . . . . . . . . . . . . . . . . . . . . . . . . . . . . . . . . . . . . . . . . . . . . . . . . . . . . . . . . . . . . . . . . . . . . . . . . . . . . . . . . . . . . . . . . . . . . . . . . . . . . . . . . . . . . . . . . . . . . . . . . . . . . . . . . . .                                     ",
"                                        . . . . . . . . . . . . . . . . . . . . . . . . . . . . . . . . . . . . . . . . . . . . . . . . . . . . . . . . . . . . . . . . . . . . o . . . . . . . . . . o . . . o o . . . . o o o o o o o o o o o o o o o o o o . o o o o o o o o o o o o o o o o o o o o o o o o o o o o o o o o o o o o o o o o o o o o o o o o o o o o o o o o o o o o o o o o o o o o o o o o o o o o o o o o o o o o o o o o o o O O O O o o o o O O O O O O o o o o o o o o O O o o o o o o O O O O o o o o o O o o O o O O O O O O O O O O o o O O O O o o O O O O O O O O O O O O O O O O O O O O O O O O O o o O O O O O O O O O o o O O O O O O O O o O O O O O O O O O O O O O O O O O O O O O O O O O O O O O O O O O O O O O O O O O O O O O O O O O O O O O O O O O O O O O O O O O O O O O O O O O O O O O O O O O O O O O O O O O O O O O O O O O O O O O O O O O O O O O O O O O O O O O O O O O O O O O O O - O O O O O O O O O O O O O O O O O O O O O O O O O O O O O O O O O O O O O O O O O O O O O O O O O O O O O O O O O O O O O O O O O O O O O O O O O O O O O O O O ; O O O O O O O O O O O O O - - - ; , 1 1 1 1 O O O O - - - - - - O O O ; - O O O O O O O O O O O O - - - - - - - - - ; O O O O O O O ; ; - ; O O O O ; , , j 4 & & & O - , , , 4 1 1 & & ; - o O ; O O O - O O , , , ; j M ,.N y r r # # . O O O O - , , & & O O O O O O O , , , 1 * * & & 1 1 1 z N :.N 4 v >.w.4.P u y 4 c v Z p 3 1 c B x Z 1.7.y...| r & 1 O & 1 4 4 1 * & 2 , 1 * * 2 : & & O & ; c V K d f * & & 1 1 1 1 1 ; ; 1 ; 1 1 1 4 4 6 3 1 1 1 1 6 6 6 6 6 6 A A Z y i i S U Q 8.x.j.*.y.z.OX=X`.^.X.D D U D Z 6 6 3 6 S K E E K A 6 x v A D ! *.=.+.E #.$.+.d e & 1 3 3 u u u p p A Z Z 6 6 Z Z 6 6 6 6 3 & 1 , 4 I 6.D O 1 6 6 6 1 6 4 4 4 4 4 6 6 4 4 4 6 6 6 6 6 6 4 1 6 6 & O O 1 6 6 6 6 6 6 6 6 x x Z x x 6 6 6 6 6 x 6 6 6 6 6 6 6 3 1 & O O 1 3 6 A P s u * 1 1 4 1 1 & $ e p x 6 6 4 4 6 6 6 x x 6 6 6 4 4 1 1 1 , ; 1 1 1 1 1 1 O O O 1 1 1 3 6 1 ; 0 [ H 6 4 4 4 4 4 1 1 1 1 1 4 6 6 6 4 1 1 1 6 6 3 4 4 1 3 x e ..k.v.7.B x S Z Z A S U U Q T T B z , O O O O O O O ; ; O ; O O O O O O O O O ; ; 1 1 1 ; ; 1 e d +.E v h q f L y.8.<.S c 5 q a i D +.$.a.m.v.8.U A p 3 * = f t  .3.<.I 4 1 & & & & O - O O O O X X & 3 Z Z F g H d  .2.>.:.6 1 , - w w w r r 6 j > ; ; O O O O o . . . . . . . . . . X . . . O O O O O o . . @ r | |  .:.,.k , - - o o o o . . . . . . . . . . . . . . . . . X X X O O O O O O O o o O O O O o o o o O o o o o o o o o o o o o O O O o o O O O O O o o O O O O o o o o o o o O o o o o o o o o o o o o o o o o o o o o o o o o o o o o o o o o o o o o o o o o o o o o o o o o o o o o o o o o o o o o o o o o o o o o o o o o o o o o o o o o o o o o o o o o o o o o o o o o o o o o o o o o o o o o o o o o o o o o o o o o o o o o o o . o . o o o o o o o o o o o . o o o o o o o o o o o o o o o o o o o o o o o o o o o o o o o o . . . o o o o o o . . . o o . . o o o o o o o o o o o o o o o . . . . . . . . . o . o o . . . . . . . . . . . . . . . . . . . . . . . . . . . . . . . . . . . . . . . . . . . . . . . . . . . . . . . . . . . . . . . . . . . . . . . . . . . . . . . . . . . . . . . . . . . . . . . . . . . . . . . . . . . . . . . . . . . . . . . . . . . . . . . . . . . . . . . . . . . . . . . . . . . . . . . . . . . . . . . . . . . . . . . . . . . . . . . . . . . . . . . . . . . . . . . . . . . . . . . . . . . . . . . . . . . . . . . . . . . . . . . . . . . . . . . . . . . . . . . . . . . . . . . . . . . . . . . . . . . . . . . . . . . . . . . . . . . . . . . . . . . . . . . . . . . . . . . . . . . . . . . . . . . . . . . . . . . . . . . . . . . . . . . . . . . . . .                                         ",
"                                          . . . . . . . . . . . . . . . . . . . . . . . . . . . . . . . . . . . . . . . . . . . . . . . . . . . . . . . . . . . . . . . . . . . o . . . . . . . . . . o o o o o o o . . . . o o o o o o o o o o o o o o o o . . o o o o o o o o o o o o o o o o o o o o o o o o o o o o o o o o o o o o o o o o o o o o o o o o o o o o o o o o o o o o o o o o o o o o o o o o o o o o o o o o o o o o o o o o o O O O O O O o o o O O o o o o O O O o o o O O O o o o o o o o o o o o O O o o O o o o o o O O O O O O O O O O O O O O O O O O O o O O O O O O O O O O O O O O O O O O O O O O O O O O O O O O O O O O O O O O O O O O O O O O O O O O O O O O O O O O O O O O O O O O O O O O O O O O O O O O O O O O O O O O O O O O O O O O O O O O O O O O O O O O O O O O O O O O O O O O O O O O O O O O O O O O O O O O O O O O O O O O O O O O O O O O O O O O O O O O O O O O O O O O O O O O O O O O O O O O O O O O O O O O O O O O O O O O O O O O O O O O O O O O O O O O O O O O O O O O O O O O ; ; O O O O O O O O O O O O O O O O O O O O O O O O O O O O ; ; O O O O O O O O O O ; O O - - , ; ; ; ; 1 O O O O O - - - - - ; - - - - O ; - - - O ; ; ; ; ; O O - - - - - - - O O O O ; ; O O O O ; ; - O O O O O O ; - , ; O O O O ; > , , 4 4 1 & & ; - o O O - - O - O O ; , ; O , M ,.M 3 % $ @ . o O O O O - ; , & O O O O O O O O - , , 1 & * 1 ; ; 1 & 1 4 z x 6 6 N :.B 6 & , k V I s d 6 4 c B Z p Y 7.y...X.t & 1 ; O O , , 1 * 3 4 z i y 0 0 2 2 X X X O j N v y % & & & 1 ; 1 & & O ; 1 ; ; 1 1 4 4 6 6 3 1 1 1 6 6 6 6 6 6 6 i 6 3 3 6 S Q 3.e.c.M.g.y.i.v.N.'./.O.P K K p * & O O 4 S K A x 4 1 1 4 x x c 7.V.).+.2.5.u.$.+.u * 3 p +.$.@.+.+.+.L K J A i 6 6 6 6 A A i * O , x R U 6 O 1 6 6 4 3 1 4 4 4 4 1 3 6 4 4 4 6 6 6 6 6 6 4 1 6 3 & O O 1 6 6 6 6 6 6 6 6 6 x x x 6 6 6 6 6 6 6 6 6 6 6 6 6 6 6 3 3 & & & 1 ; 1 D ~ L p 3 & 1 * 1 O * @.$.A , 6 6 4 4 6 6 x x 6 4 4 4 6 6 1 1 ; 1 1 1 1 1 1 O O O 1 1 1 1 3 6 6 O q ;.' S , 4 4 4 1 1 1 1 1 1 6 6 6 6 4 1 1 1 6 6 4 4 1 1 3 x 3 u $.x.8.Y v S A Z S D D U Q T T B j , O O O O O O O O O O O O & & O ; ; 1 1 O - O O 1 1 1 1 3 e y 6 c h o # q d #.i.8.1.Y k + = 6 v Z J #.a.m.v.e.2.! ~ ~  . . .#.8.i.y.#.J y * * 3 3 4 ; O 1 4 , - + = 3 y ( ] &...$.8.t.M 1 & > < w w f t p c M j , ; O O O O o . . . . . . . . . . O O X X X O o o O o . @ @ % | | P :.,.l - - - o o o . . . . . . o o . . . . . . . @ X X $ $ X O O O O O O O o o O o o o O O o o O O o o o o o o o o O o o o O O o o O O O O o o o O O O O o o o o o o o O O o o o o o o o o o o o o o o o o o o o o o o o o o o o o o o o o o o o o o o o o o o o o o o o o o o o o o o o o o o o o o o o o o o o o o o o o o o o o o o o o o o o o o o o o o o o o o o o o o o o o o o o o o o o o o o o o o o o o o o o o o o . . . o o . . . . . o o o o o . o o o o o o o o o o o o o o o . . . o o o o . . o o o o . o o o o . . . . . o o o . . . . . . . . . o o o o o o o o o o o o o o o . . . . . . . . o . . . o . . . . . . . . . . . . . . . . . . . . . . . . . . . . . . . . . . . . . . . . . . . . . . . . . . . . . . . . . . . . . . . . . . . . . . . . . . . . . . . . . . . . . . . . . . . . . . . . . . . . . . . . . . . . . . . . . . . . . . . . . . . . . . . . . . . . . . . . . . . . . . . . . . . . . . . . . . . . . . . . . . . . . . . . . . . . . . . . . . . . . . . . . . . . . . . . . . . . . . . . . . . . . . . . . . . . . . . . . . . . . . . . . . . . . . . . . . . . . . . . . . . . . . . . . . . . . . . . . . . . . . . . . . . . . . . . . . . . . . . . . . . . . . . . . . . . . . . . . . . . . . . . . . . . . . . . . . . . . . . . . . . . . . . . . . . .                                             ",
"                                                . . . . . . . . . . . . . . . . . . . . . . . . . . . . . . . . . . . . . . . . . . . . . . . . . . . . . . . . . . . . . . . o o . . . . . . . . . . o o o o o o o . o . . o o o o o o o o o o o o o o o o . . o o o o o o o o o o o o o o o o o o o o o o o o o o o o o o o o o o o o o o o o o o o o o o o o o o o o o o o o o o o o o o o o o o o o o o o o o o o o o o o o o o o o o o o o o O O O O O o o o o o O o o o o O O O o o o o O o o o o o o o o O o o o O o O O O O o o o o O O O O o O O O O o o o O O O O O O O O O O O O O O O O O O O O O O O O O O O O O O O O O O O O O O O O O O O O O O o o O O O o O O O O O O O O O O O O O O O O O O O O O O O O O O O O O O O O O O O O O O O O O O O O O O O O O O O O O O O O O O O O O O O O O O O O O O O O O O O O O O O O O O O O O O O O O O O O O O O O O O O O O O O O O O O O O O O O O O O O O O O O O O O O O O O O O O O O O O O O O O O O O O O O O O O O O O O O O O O O O O O O O O O O O O O O O O O O O O O O O O ; O O O O O O O O O O O O O O O O O O O O O O O O O O O ; O ; - O O O O O O O O O O O O O - - , ; ; ; ; 1 O O O O O - - - - ; ; - - - - O ; ; - - O O O O O O O O - - - - - ; - O O O O - - O O O O ; ; - O O O O O O O X X O O - - ; , , , 4 4 4 1 & $ O + o o O O - - O O O - - o X - h N c 2 @ X X O O O O O O - ; - O O O ; O O O O O - ; , , & & & ; , 1 1 1 1 3 3 6 3 1 4 1 & O , k :.B u u 1 4 c B v i Y 7.y...X.r $ & O O O , , 4 3 6 v I D F f f f q : O O O , j , 1 & & 1 ; 1 O 1 & & O O O O O O ; , 1 6 6 3 1 1 4 6 3 3 6 6 4 3 3 4 1 1 x B Y T 7.e.a.u.i.x.x.z.x.k./.@.P J u * O O O 4 S p 6 6 6 3 & 1 4 4 4 1.i.+.y c N Y Q W P p S 3.u.g.$.+.L W K A p J P A y 6 x K #.+.* X , x v x 1 1 1 1 1 1 1 1 1 1 1 1 1 3 1 1 4 4 6 6 3 3 6 6 1 1 1 1 & O O 1 1 6 6 6 6 6 6 6 6 6 6 6 6 i A A i 6 6 6 6 6 6 y 6 3 y y 6 6 3 1 & X O 1 v S D A y 3 3 1 O y l.}.~ o 4 6 4 4 4 4 6 6 6 4 1 1 1 3 6 6 1 1 1 1 1 1 ; O O O 1 1 1 1 3 3 6 O w ;.d.R j 1 4 1 1 1 1 1 1 1 1 6 6 6 1 1 1 1 6 6 4 1 & & 6 6 6 u +.j.x.8.B S A A S S D U U T Y v j ; O O O O O O O O O O O 1 y 3 1 ; ; & 1 1 ; O O 1 1 4 4 3 3 4 > > - . . = f P y.i.4.1.V 4 a s D K W Q Q i.x.z.1.Y A +.$.*.u.z.i.g.`.}.B.x.! P +.+.K Z 3 * 3 1 & $ $ r e n ` [ ..g.r.t.M 4 O < < # q r u S V M , , ; O O O O . . . . . . . X X X O O O O X X O o o O o . . . % r t Z :.M j - - - o o . . . . o . . o . . . . . . . . . . X $ & O O o o O O O O o o o o o o O O o o O O o o O o o o o o O O o o o o o o O O o o o o o O O O O o o o o o o o O O o o O O o o O o o o o o o o o o o o o o o o o o o o o o o o o o o o o o o o o o o o o o o o o o o o o o o o o o o o o o o o o o o o o o o o o o o o o o o o o o o o o o o o o o o o o o o o o o o o o o o o o o o o o o o o o o o o o o o o o o o . . . . o o o o . . . o o o o o . o o o o o o o o o o o o o o . . . . o o o o o . o o o o o o o o o . . . . . o o o o . . o . . . . . o o o o o o o o o o o o o o o . . . . . . . . . . . . . . . . . . . . . . . . . . . . . . . . . . . . . . . . . . . . . . . . . . . . . . . . . . . . . . . . . . . . . . . . . . . . . . . . . . . . . . . . . . . . . . . . . . . . . . . . . . . . . . . . . . . . . . . . . . . . . . . . . . . . . . . . . . . . . . . . . . . . . . . . . . . . . . . . . . . . . . . . . . . . . . . . . . . . . . . . . . . . . . . . . . . . . . . . . . . . . . . . . . . . . . . . . . . . . . . . . . . . . . . . . . . . . . . . . . . . . . . . . . . . . . . . . . . . . . . . . . . . . . . . . . . . . . . . . . . . . . . . . . . . . . . . . . . . . . . . . . . . . . . . . . . . . . . . . . . . . . . . . . . . . . . . . . . . . . .                                                 ",
"                                                    . . . . . . . . . . . . . . . . . . . . . . . . . . . . . . . . . . . . . . . . . . . . . . . . . . . . . . . . . . . . . o o . . . . . . . . . . o o o o o o o o o . o o o o o o o o o o o o . . . o o o o o o o o o o o o o o o o o o o o o o o o o o o o o o o o o o o o o o o o o o o o o o o o o o o o o o o o o o o o o o o o o o o o o o o o o o o o o o o o o o o o o o o o o o o o o o o o O O o o o o O O o o o o O O o o o o O O o o o o o o O O O O o o o o O O O o o o o o O O O O o O O O o o o o O O o o O O O O O O O O O O O O O O O O O O O O O O O O O O O O o o o O O O o O O O O O O O o o O O O O O O O O O O O O O O O O O O O O O O O O O O O O O O O O O O O O O O O O O O O O O O O O O O O O O O O O O O O O O O O O O O O O O O O O O O O O O O O O O O O O O O O O O O O O O O O O O O O O O O O O O O O O O O O O O O O O O O O O O O O O O O O O O O O O O O O O O O O O O O O O O O O O O O O O O O O O O O O O O O O O O O O O O O O O O O O O O O O O O O ; O O O O - - - O O O O O O O O O O O O O O O O ; ; O O O O O O O O O O O O O ; O O O O - - - , ; ; ; 1 1 O O O O ; O O O O O O - O O O O O - - - - O O O O O O O - ; - O O ; O - O - - - - - O O O ; ; - O O O O - O $ $ $ O - ; , , , z 4 4 c z 4 * $ & + + O O O - - O O O O o o O 1 3 6 7 = @ o O O O O O O O - - O O - - ; ; O O O O O - ; , & & * & 1 1 4 4 1 1 6 z 4 1 1 & & & , k B v y 3 1 4 6 v v x V 7.3...| r $ & O O O ; , z z v Y T Q ~ F f g w < ; O O O O O O O 1 ; ; ; 1 1 1 & & & O O O O ; ; 1 6 6 1 1 4 4 1 1 3 3 1 1 1 4 6 6 6 v I I S Y 1.1.4.z.m.g.y.r.+X`.-.&.P u e & & - c A p 6 x i 3 3 1 1 1 1 4 z , ; O , j c U ~ D S <.6.! U S S S v 6 6 Z Z Z 6 6 4 A #.+.* X 1 4 4 ; 1 1 3 3 1 1 1 1 1 1 1 1 1 3 1 1 1 1 6 6 3 6 6 6 1 1 1 1 & O O 1 1 1 1 6 6 6 6 6 6 6 6 6 6 K #.W A 6 Z Z Z Z Z A A Z A K E D Z 3 & $ X O ; , 4 x 6 6 6 3 3 Z y.x.T o 4 4 4 1 1 1 4 4 4 4 4 1 1 4 x S v 4 1 1 1 ; O O O 1 1 1 1 3 3 3 i 1 q ;.G.9.k 1 4 1 1 1 1 1 1 1 4 6 6 6 4 1 1 1 1 1 4 1 & & 3 6 i u  .h.N.z.Y D D S S S S D U U Y c , ; O & O ; O O O O O O O 3 p A 4 , - O ; 1 ; O & & 3 6 4 4 , > - o . . . . q f P 3.4.4.<.U P W 2.4.<.Y B Y 5.y.4.Y Z p J #.p.e.7.#.=.k.OXr.4.L @.$.y.2.U D J J +. . .....#.#.@.=.a.r.t.M , O O + X $ % 6 c N j ; O O O X X o . . O . . X O X O O . . o O O O O o O O O O . . $ r r z M M > o - - - o . . o o o . . . . . . . . . . . . . X X X O o o o O O O O o o o o o o O o o o o o o o O O O o o O O O o o o o o o o O o o o o o O O O O o o o o o o o O o o o o o o o O O O O O o o o o o o o o o o o o o o o o o o o o o o o o o o o o o o o o o o o o o o o o o o o o o o o o o o o o o o o o o o o o o o o o o o o o o o o o o o o o o o o o o o o o o o o o o o o o o o o o o o o o o o o o o o o o o o o . . o o o o o o . . o o o o . . o o o o o o o . . . o o o o . . o . o o o o o o o o o o o o o o o o o o o o o o o o o o o o o o o o o o . o . . o o o o . . o o o . . . . . . . . . . . . . . . . . . . . . . . . . . . . . . . . . . . . . . . . . . . . . . . . . . . . . . . . . . . . . . . . . . . . . . . . . . . . . . . . . . . . . . . . . . . . . . . . . . . . . . . . . . . . . . . . . . . . . . . . . . . . . . . . . . . . . . . . . . . . . . . . . . . . . . . . . . . . . . . . . . . . . . . . . . . . . . . . . . . . . . . . . . . . . . . . . . . . . . . . . . . . . . . . . . . . . . . . . . . . . . . . . . . . . . . . . . . . . . . . . . . . . . . . . . . . . . . . . . . . . . . . . . . . . . . . . . . . . . . . . . . . . . . . . . . . . . . . . . . . . . . . . . . . . . . . . . . . . . . . . . . . . . . . . . . . . . . . . . . . .                                                     ",
"                                                          . . . . . . . . . . . . . . . . . . . . . . . . . . . . . . . . . . . . . . . . . . . . . . . . . . . . . . . . . . . o . . . . . . . . . . o o o o o o o o o o o o o . o o o o . o o o . . . o o . o o o o o o o o o o o o o o o o o o o o o o o o o o o o o o o o o o o o o o o o o o o o o o o o o o o o o o o o o o o o o o o o o o o o o o o o o o o o o o o o o o o o o o o o o o o o o o o o o o o O O O o o o o o o o o o O O o o o o o o O O O O o o o o O O o o o o o o O O O O O O O O o o o o O O O o O O o o O O O O O O O O O o O O O O o o O O O O O O O O O o o O O o o O O O O O O O o o O O O O O O O O O O O O O O O O O O O O O O O O O O O o O O O O O O O O O O O O O O O O O O O O O O O O O O O O O O O O O O O O O O O O O O O O O O O O O O O O O O O O O O O O O O O O O O O O O O O O O O O O O O O O O O O O O O O O O O O O O O O O O O O O O O O O O O O O O O O O O O O O O O O O O O O O O O O O O O O O O O O O O O O O O O O O O O O O O O O O O O ; O O O O - O - O O O O O O O O O O O O O O O O ; ; ; O O O O O O O O O O O O O O O O O - - , ; ; ; 1 1 & O O O O ; O O O O O ; - - O O O O - - - - - - ; O O - - - O O O O O O - - - - - - - ; O O - - - O O O ; ; O & % & & , , > j z v x z c c 6 * % & + + o O O O O O O - 1 1 6 6 3 y e = = X O O O O O O O O O O O O - ; ; ; O O O O O O - ; , 3 y * & 1 ; 1 4 4 4 4 4 4 1 1 1 1 4 4 x 6 3 3 4 4 1 6 v x B :.4. .| t % & 1 O X ; , j c B Y T 4.2.L g } w o & & & ; O O & & O ; ; 1 1 1 1 1 1 1 1 ; O O ; 1 4 6 3 1 1 4 4 1 3 3 3 4 4 v S S A Z Z S S D Z v V 7.c.M.=.$.e.@X]./.L.%.u u * & 4 x A p 6 6 6 3 6 1 & 1 1 & O - 1 1 1 , , v Z 6 4 z z 4 4 4 z 4 1 4 , 4 4 4 1 , - 6 J p * O 4 6 1 1 1 3 3 3 1 1 1 1 1 1 3 1 1 3 1 1 1 1 1 1 1 1 1 1 1 1 1 1 & & O 1 1 3 3 6 6 6 6 6 6 6 6 6 A #.s.W A 6 Z S S Z Z S S D U E E U A 6 3 1 & & O o o O - 1 4 6 i S B N , O 1 1 4 6 3 1 4 4 4 4 4 4 1 4 4 S S 4 1 1 ; O O O & 1 1 1 1 1 3 i A 1 0 ;.Y.e.N 1 1 1 1 1 1 1 1 1 1 6 x x 4 4 1 1 1 1 1 1 1 1 3 6 6 y  .=.M.c.1.D D D S S S S D U I c , O O O ; ; O O O O O O O & y i z , - O O O & & * 3 6 6 4 4 , , O X . . . . @ = f ^ #.#.y.i.5.4.7.1.V N c z i s L ! Q I j z v :.:.c y A :.,.N 4 p D I V B S A K +.%.@.*.*.g.g.g.g.p.w.>.k < + X O X & 1 , > , O O O O . X . o . . X O o O O X o o o . O O O O O O O O O o o O r t r z M l - o - - o . . . . o . . . . . . X X X . . . . . X X . o o o o O O O O o o o o o o O O o o o o o o O O O O o o O O o o o o o o o o o o O O O O O O O O o o o o o o o O o o o o o o o o o o o o o o o o o o o o o o o o o o o o o o o o o o o o o o o o o o o o o o o o o o o o o o o o o o o o o o o o o o o o o o o o o o o o o o o o o o o o o o o o o o o o o o o o o o o o o o o o o o o o o o o o o o o o o o o o o o o o o o o o o o o o o o o o . . . o o o o o o . . . o o o o . . o o o o o o o o o o o o o o o o o o o o o o o o o o o o o o o o o o o o . . . o o o o . . . . . o . . . . . . . . . . . . . . . . . . . . . . . . . . . . . . . . . . . . . . . . . . . . . . . . . . . . . . . . . . . . . . . . . . . . . . . . . . . . . . . . . . . . . . . . . . . . . . . . . . . . . . . . . . . . . . . . . . . . . . . . . . . . . . . . . . . . . . . . . . . . . . . . . . . . . . . . . . . . . . . . . . . . . . . . . . . . . . . . . . . . . . . . . . . . . . . . . . . . . . . . . . . . . . . . . . . . . . . . . . . . . . . . . . . . . . . . . . . . . . . . . . . . . . . . . . . . . . . . . . . . . . . . . . . . . . . . . . . . . . . . . . . . . . . . . . . . . . . . . . . . . . . . . . . . . . . . . . . . . . . . . . . . . . . . . . . . . . . . . .                                                           ",
"                                                                  . . . . . . . . . . . . . . . . . . . . . . . . . . . . . . . . . . . . . . . . . . . o . . . . . . . . . . . o . . . . . . . . . o o o o o o o o o o o o . . . . o o o o o o o o o o o o o o o o o o o o o o o o o o o o o o o o o o o o o o o o o o o o o o o o o o o o o o o o o o o o o o o o o o o o o o o o o o o o o o o o o o o o o o o o o o o o o o o o o o o o o o o o o o o o o o o o o O O O O O O O O O o o o o o o o o o o o o o o o O O O O O o o o o o o O O O O O O O O O O O O O O O O O O O O O O O O O O O O O O O O O O O O O O O O O O o O o o o o O O O O O O O O O O O O O O O O o o O O O O O O O o O O O O O O O O O O O O O O O O O O O O O O O O O O O O O O O O O O O O O O O O O O O O O O O O O O O O O O O O O O O O O O O O O O O O O O O O O O O O O O O O O O O O O O O O O O O O O O O O O O O O O O O O O O O O O O O O O O O O O O O O O O O O O O O O O O O O O O O O O O O O O O O O O O O O O O O O O O O O O O O O O O O O O O O O O O O O O O O O O O O O O O O O O O O O O O O O O O O O - - - - ; ; O O O O O O O O O O - - , ; ; 1 1 1 & O O O O O O O O O O - - - O O O - - - - - - - - - - ; - - - ; O O O O ; ; O O O O ; ; O O - - - O O ; ; ; & & * * * 4 4 j j z z x c c c 6 3 & O + o o o O o o o o ; x F F i 3 * 1 O X X X . O O O O O O O O O O - - ; ; O O O O O O - ; , 6 y y * & 1 1 1 4 4 1 1 1 1 1 & , , 4 6 i u e 6 4 1 4 v 6 v :.4.+.| t % & ; O X O , j v S Y Y 1.5.+.o.} w O & & & 1 O O & & & O ; 1 1 ; 1 1 1 1 1 ; O O ; 1 3 3 1 1 1 4 6 6 6 3 6 x v I T U D D A A A A i 6 Y e.c.M./.$.7.oX{./.XX&.d e y 3 4 i i 3 3 6 3 1 6 3 1 4 4 1 O 1 4 4 1 1 1 4 6 1 1 1 4 1 1 1 1 1 1 1 1 ; ; ; O O o 6 A p 3 1 6 6 3 1 & 1 4 6 3 1 1 1 3 3 3 1 1 4 4 4 1 1 1 1 1 1 1 1 1 1 1 1 & & O 1 1 6 i 6 3 6 6 6 6 6 6 6 D y.y.E 6 6 x S Z x x v v S I v S S A i i 6 3 & & X X . . O - 4 x S S 6 & ; ; 1 1 6 6 6 6 4 4 4 6 6 4 1 1 6 x 4 ; O O O O 1 1 1 1 1 3 3 3 p A 1 0 ;.Y.b.N 1 3 1 1 1 1 1 1 & 1 6 v c 4 4 1 1 1 1 1 1 4 1 3 3 6 * t =.m.c.1.S D U S S S A D Y v z , O O O ; O O O O ; O O O X X & 4 , O X $ $ & * y p x z 4 4 , ; O O . X . . . X g &.%.$.u.z.e.7.:.k z j , , & * u +.i.7.,.h - ; z x 6 , > - . . . o o - - O & 6 Z Z D +.*.j.j.a.p.e.t.:.j q q $ & 1 4 , , ; O O O O o . . . O o . . o o o o o . o O O O O O O O O O O O @ # = t | t v M h o O O o o . . . . . . . . . X X & & X . . . . . . X X O O O O O O O O o o o o o o o O O O O O O O O O o o o o o o o o o o o o o o o O O O O O O O - - O O o o o o o o o o o o o o o o o o o o o o o o o o o o o o o o o o o o o o o o o o o o o o o o o o o o o o o o o o o o o o o o o o o o o o o o o o o o o o o o o o o o o o o o o o o o o o o o o o o o o o o o o o o o o o o o o o o o o o o o o o o o o o o o o o o . . o o o o o o o o o o o o o o o o . . . . . . . . o o o o o o o o o o o o o o o o . . . . . o o o o o o o o o o o o o o o o . . . . . . . o o o o o o o o o o . . . . . . . . . . . . . . . . . . . . . . . . . . . . . . . . . . . . . . . . . . . . . . . . . . . . . . . . . . . . . . . . . . . . . . . . . . . . . . . . . . . . . . . . . . . . . . . . . . . . . . . . . . . . . . . . . . . . . . . . . . . . . . . . . . . . . . . . . . . . . . . . . . . . . . . . . . . . . . . . . . . . . . . . . . . . . . . . . . . . . . . . . . . . . . . . . . . . . . . . . . . . . . . . . . . . . . . . . . . . . . . . . . . . . . . . . . . . . . . . . . . . . . . . . . . . . . . . . . . . . . . . . . . . . . . . . . . . . . . . . . . . . . . . . . . . . . . . . . . . . . . . . . . . . . . . . . . . . . . . . . . . . . . . . . . . . .                                                                   "
};
