/* XPM */
static char *__2160[] = {
/* columns rows colors chars-per-pixel */
"19 35 28 1 ",
"  c black",
". c #010101",
"X c #101010",
"o c gray12",
"O c #202020",
"+ c gray19",
"@ c gray25",
"# c #505050",
"$ c #606060",
"% c gray38",
"& c #6F6F6F",
"* c gray44",
"= c gray50",
"- c #808080",
"; c #8E8E8E",
": c gray56",
"> c #909090",
", c #9F9F9F",
"< c #A0A0A0",
"1 c #AFAFAF",
"2 c gray69",
"3 c gray",
"4 c gray75",
"5 c gray81",
"6 c #DFDFDF",
"7 c #EFEFEF",
"8 c #FEFEFE",
"9 c white",
/* pixels */
"                   ",
"                   ",
"                   ",
"                   ",
"                   ",
"                   ",
"                   ",
"      X@$$@+       ",
"    @49999996:X    ",
"   =99999999996X   ",
"  O9994$#@#>699:   ",
"  >99-      O797X  ",
"  599+       <99#  ",
"  999        -99*  ",
" O999        -99,  ",
" +999        -99,  ",
" @999        -992  ",
" @999        -994  ",
" @999        -994  ",
" @999        -994  ",
" @999        -994  ",
" @999        -994  ",
" @999        -994  ",
" @999        -994  ",
" O999        -99,  ",
" O999        -99,  ",
"  999        -99-  ",
"  699O       199#  ",
"  >99:      X699o  ",
"  +999,#@O@&699,   ",
"   -99999999996o   ",
"    $69999999,O    ",
"      +#**$#X      ",
"                   ",
"                   "
};
