/* XPM */
static char *__800[] = {
/* columns rows colors chars-per-pixel */
"200 30 33 1 ",
"  c None",
". c white",
"X c white",
"o c white",
"O c white",
"+ c white",
"@ c white",
"# c white",
"$ c white",
"% c white",
"& c white",
"* c white",
"= c white",
"- c white",
"; c white",
": c white",
"> c white",
", c white",
"< c white",
"1 c white",
"2 c white",
"3 c white",
"4 c white",
"5 c white",
"6 c white",
"7 c white",
"8 c white",
"9 c white",
"0 c white",
"q c white",
"w c white",
"e c None",
"r c white",
/* pixels */
"                                                                                                                                                                                                        ",
"                                                                                                                                                                                                        ",
"                                                                                                                                                                                                        ",
"                                                                                                                                                                                                        ",
"                                                                                                                                                                                                        ",
"                                                                                                                                                                                                        ",
"                                                                                                                                                                                                        ",
"        +6ww6+                                                                                                                                                                                          ",
"        84&;58                                                                                                                                                                                          ",
"       Or&  ;r.                                                                                                                                                                                         ",
"       ;r&  &r&                                                                                                                                                                                         ",
"       >r&  &r;                                                                                                                                                                                         ",
"       >r&  +r>                                                                                                                                                                                         ",
"       >r&  &r>                                                                                                                                                                                         ",
"       ;r&  &r;                                                                                                                                                                                         ",
"       Or;  ;rO                                                                                                                                                                                         ",
"        04++20                                                                                                                                                                                          ",
"        &7ee7&                                                                                                                                                                                          ",
"                                                                                                                                                                                                        ",
"                                                                                                                                                                                                        ",
"                                                                                                                                                                                                        ",
"                                                                                                                                                                                                        ",
"                                                                                                                                                                                                        ",
"                                                                                                                                                                                                        ",
"                                                                                                                                                                                                        ",
"                                                                                                                                                                                                        ",
"                                                                                                                                                                                                        ",
"                                                                                                                                                                                                        ",
"                                                                                                                                                                                                        ",
"                                                                                                                                                                                                        "
};
