/* XPM */
static char *__2160[] = {
/* columns rows colors chars-per-pixel */
"19 35 21 1 ",
"  c black",
". c #010101",
"X c #101010",
"o c gray12",
"O c #202020",
"+ c gray25",
"@ c #505050",
"# c #606060",
"$ c gray44",
"% c #808080",
"& c #818181",
"* c gray56",
"= c gray62",
"- c #9F9F9F",
"; c #A0A0A0",
": c #AFAFAF",
"> c gray",
", c gray75",
"< c #EFEFEF",
"1 c #FEFEFE",
"2 c white",
/* pixels */
"                   ",
"                   ",
"                   ",
"                   ",
"                   ",
"                   ",
"                   ",
"          X#       ",
"        +*<2       ",
"     X$,2222       ",
"   +-<222222       ",
"   :222<;222       ",
"   +2,+XO222       ",
"    X   O222       ",
"        O222       ",
"        O222       ",
"        O222       ",
"        O222       ",
"        O222       ",
"        O222       ",
"        O222       ",
"        O222       ",
"        O222       ",
"        O222       ",
"        O222       ",
"        O222       ",
"        O222       ",
"        O222       ",
"        O222       ",
"    @---:222----X  ",
"    &22222222222O  ",
"    &22222222222o  ",
"                   ",
"                   ",
"                   "
};
