/* XPM */
static char *__600[] = {
/* columns rows colors chars-per-pixel */
"200 30 12 1 ",
"  c None",
". c white",
"X c white",
"o c white",
"O c white",
"+ c white",
"@ c white",
"# c white",
"$ c white",
"% c white",
"& c white",
"* c None",
/* pixels */
"                                                                                                                                                                                                        ",
"                                                                                                                                                                                                        ",
"                                                                                                                                                                                                        ",
"                                                                                                                                                                                                        ",
"                                                                                                                                                                                                        ",
"                                                                                                                                                                                                        ",
"                                                                                                                                                                                                        ",
"          .@                                                                                                                                                                                            ",
"         #$$                                                                                                                                                                                            ",
"         +o$                                                                                                                                                                                            ",
"          X$                                                                                                                                                                                            ",
"          X$                                                                                                                                                                                            ",
"          X$                                                                                                                                                                                            ",
"          X$                                                                                                                                                                                            ",
"          X$                                                                                                                                                                                            ",
"         #$*$o                                                                                                                                                                                          ",
"                                                                                                                                                                                                        ",
"                                                                                                                                                                                                        ",
"                                                                                                                                                                                                        ",
"                                                                                                                                                                                                        ",
"                                                                                                                                                                                                        ",
"                                                                                                                                                                                                        ",
"                                                                                                                                                                                                        ",
"                                                                                                                                                                                                        ",
"                                                                                                                                                                                                        ",
"                                                                                                                                                                                                        ",
"                                                                                                                                                                                                        ",
"                                                                                                                                                                                                        ",
"                                                                                                                                                                                                        ",
"                                                                                                                                                                                                        "
};
