/* XPM */
static char *__800[] = {
/* columns rows colors chars-per-pixel */
"200 30 19 1 ",
"  c None",
". c white",
"X c white",
"o c white",
"O c white",
"+ c white",
"@ c white",
"# c white",
"$ c white",
"% c white",
"& c white",
"* c white",
"= c white",
"- c white",
"; c white",
": c white",
"> c white",
", c None",
"< c white",
/* pixels */
"                                                                                                                                                                                                        ",
"                                                                                                                                                                                                        ",
"                                                                                                                                                                                                        ",
"                                                                                                                                                                                                        ",
"                                                                                                                                                                                                        ",
"                                                                                                                                                                                                        ",
"                                                                                                                                                                                                        ",
"         o-;$                                                                                                                                                                                           ",
"        =>:<$                                                                                                                                                                                           ",
"        O%O<$                                                                                                                                                                                           ",
"          O<$                                                                                                                                                                                           ",
"          O<$                                                                                                                                                                                           ",
"          O<$                                                                                                                                                                                           ",
"          O<$                                                                                                                                                                                           ",
"          O<$                                                                                                                                                                                           ",
"          O<$                                                                                                                                                                                           ",
"         $&<*O                                                                                                                                                                                          ",
"        o<<<<>                                                                                                                                                                                          ",
"                                                                                                                                                                                                        ",
"                                                                                                                                                                                                        ",
"                                                                                                                                                                                                        ",
"                                                                                                                                                                                                        ",
"                                                                                                                                                                                                        ",
"                                                                                                                                                                                                        ",
"                                                                                                                                                                                                        ",
"                                                                                                                                                                                                        ",
"                                                                                                                                                                                                        ",
"                                                                                                                                                                                                        ",
"                                                                                                                                                                                                        ",
"                                                                                                                                                                                                        "
};
