/* XPM */
static char *__2160[] = {
/* columns rows colors chars-per-pixel */
"19 35 28 1 ",
"  c black",
". c #010101",
"X c gray6",
"o c #101010",
"O c gray12",
"+ c #202020",
"@ c gray19",
"# c #3F3F3F",
"$ c gray25",
"% c #505050",
"& c #5F5F5F",
"* c #606060",
"= c gray44",
"- c gray50",
"; c #808080",
": c gray56",
"> c #909090",
", c #9F9F9F",
"< c #AEAEAE",
"1 c gray75",
"2 c gray81",
"3 c gray87",
"4 c #DFDFDF",
"5 c gray88",
"6 c #EFEFEF",
"7 c gray94",
"8 c #FEFEFE",
"9 c white",
/* pixels */
"                   ",
"                   ",
"                   ",
"                   ",
"                   ",
"                   ",
"                   ",
"     X@%**$o       ",
"  o=169999991$     ",
"  #99999999999-    ",
"   66,=*$$=2999$   ",
"   o        1991   ",
"            $999o  ",
"            +999+  ",
"            +999+  ",
"            $999   ",
"            =991   ",
"           o499*   ",
"           :995    ",
"          -999$    ",
"         %999;     ",
"        +699>      ",
"       +4992       ",
"      o4994+       ",
"      <994+        ",
"     -996@         ",
"    -999*          ",
"   &999;           ",
"  @799;            ",
"  1999,,,,,,,,,,o  ",
"  19999999999999+  ",
"  19999999999999O  ",
"                   ",
"                   ",
"                   "
};
