/* XPM */
static char *__800[] = {
/* columns rows colors chars-per-pixel */
"200 30 39 1 ",
"  c None",
". c white",
"X c white",
"o c white",
"O c white",
"+ c white",
"@ c white",
"# c white",
"$ c white",
"% c white",
"& c white",
"* c white",
"= c white",
"- c white",
"; c white",
": c white",
"> c white",
", c white",
"< c white",
"1 c white",
"2 c white",
"3 c white",
"4 c white",
"5 c white",
"6 c white",
"7 c white",
"8 c white",
"9 c white",
"0 c white",
"q c white",
"w c white",
"e c white",
"r c white",
"t c white",
"y c white",
"u c white",
"i c white",
"p c None",
"a c white",
/* pixels */
"                                                                                                                                                                                                        ",
"                                                                                                                                                                                                        ",
"                                                                                                                                                                                                        ",
"                                                                                                                                                                                                        ",
"                                                                                                                                                                                                        ",
"                                                                                                                                                                                                        ",
"                                                                                                                                                                                                        ",
"        <7tq3O                                                                                                                                                                                          ",
"        >-&=84                                                                                                                                                                                          ",
"            <w                                                                                                                                                                                          ",
"            1w                                                                                                                                                                                          ",
"            84                                                                                                                                                                                          ",
"           2u#                                                                                                                                                                                          ",
"          >p-                                                                                                                                                                                           ",
"         *u<                                                                                                                                                                                            ",
"        @w5                                                                                                                                                                                             ",
"        6q%##@                                                                                                                                                                                          ",
"       Opppppp                                                                                                                                                                                          ",
"                                                                                                                                                                                                        ",
"                                                                                                                                                                                                        ",
"                                                                                                                                                                                                        ",
"                                                                                                                                                                                                        ",
"                                                                                                                                                                                                        ",
"                                                                                                                                                                                                        ",
"                                                                                                                                                                                                        ",
"                                                                                                                                                                                                        ",
"                                                                                                                                                                                                        ",
"                                                                                                                                                                                                        ",
"                                                                                                                                                                                                        ",
"                                                                                                                                                                                                        "
};
