/* XPM */
static char *__2160[] = {
/* columns rows colors chars-per-pixel */
"19 35 27 1 ",
"  c black",
". c #010101",
"X c gray6",
"o c #101010",
"O c #111111",
"+ c gray12",
"@ c #202020",
"# c gray19",
"$ c gray25",
"% c #505050",
"& c #606060",
"* c gray44",
"= c gray50",
"- c #808080",
"; c #8E8E8E",
": c gray56",
"> c #909090",
", c #9F9F9F",
"< c #A0A0A0",
"1 c #AFAFAF",
"2 c gray75",
"3 c gray81",
"4 c gray87",
"5 c #DFDFDF",
"6 c #EFEFEF",
"7 c #FEFEFE",
"8 c white",
/* pixels */
"                   ",
"                   ",
"                   ",
"                   ",
"                   ",
"                   ",
"                   ",
"     o#&&$#        ",
"  $>58888885=      ",
"  <88888888885o    ",
"  &83>*%$%<888-    ",
"  oo       *886o   ",
"           o888$   ",
"            588&   ",
"            588&   ",
"            688$   ",
"           @885    ",
"           ,88-    ",
"     #%&*:288>     ",
"     2888888-      ",
"     288888885@    ",
"     X$$&*>5886@   ",
"           @5882   ",
"            *886   ",
"            #888+  ",
"            @888@  ",
"            @888o  ",
"            $885   ",
"            ,88,   ",
"  #62:*&&&>2888@   ",
"  ,88888888888&    ",
"  %1688888882#     ",
"     #$&&&#o       ",
"                   ",
"                   "
};
