/* XPM */
static char *__2160[] = {
/* columns rows colors chars-per-pixel */
"19 35 19 1 ",
"  c black",
". c #010101",
"X c #101010",
"o c gray12",
"O c #202020",
"+ c gray13",
"@ c gray19",
"# c gray25",
"$ c #414141",
"% c #606060",
"& c #808080",
"* c #909090",
"= c #9F9F9F",
"- c gray69",
"; c gray75",
": c #DFDFDF",
"> c gray88",
", c #FEFEFE",
"< c white",
/* pixels */
"                   ",
"                   ",
"                   ",
"                   ",
"                   ",
"                   ",
"                   ",
"                   ",
"      ;<<@         ",
"     O<<>          ",
"     %<<*          ",
"     ;<<@          ",
"    O<<:           ",
"    %<<*           ",
"    ;<<@           ",
"   O<<:     X#@    ",
"   %<<*     =<=    ",
"   ;<<@     :<=    ",
"  O<<:     @<<=    ",
"  %<<*     #<<=    ",
"  ;<<@     #<<=    ",
" O<<:      #<<=    ",
" %<<*      #<<=    ",
" ;<<&%%%%%%&<<;%%O ",
" :<<<<<<<<<<<<<<<% ",
" :<<<<<<<<<<<<<<<% ",
" oOOOOOOOOO%<<-OOX ",
"           #<<=    ",
"           #<<=    ",
"           #<<=    ",
"           #<<=    ",
"           #<<=    ",
"                   ",
"                   ",
"                   "
};
