/* XPM */
static char *__800[] = {
/* columns rows colors chars-per-pixel */
"200 30 30 1 ",
"  c None",
". c white",
"X c white",
"o c white",
"O c white",
"+ c white",
"@ c white",
"# c white",
"$ c white",
"% c white",
"& c white",
"* c white",
"= c white",
"- c white",
"; c white",
": c white",
"> c white",
", c white",
"< c white",
"1 c white",
"2 c white",
"3 c white",
"4 c white",
"5 c white",
"6 c white",
"7 c white",
"8 c white",
"9 c white",
"0 c None",
"q c white",
/* pixels */
"                                                                                                                                                                                                        ",
"                                                                                                                                                                                                        ",
"                                                                                                                                                                                                        ",
"                                                                                                                                                                                                        ",
"                                                                                                                                                                                                        ",
"                                                                                                                                                                                                        ",
"                                                                                                                                                                                                        ",
"         =3                                                                                                                                                                                             ",
"         2>                                                                                                                                                                                             ",
"        o0#                                                                                                                                                                                             ",
"        *4                                                                                                                                                                                              ",
"        <,  1*                                                                                                                                                                                          ",
"       o9$  4*                                                                                                                                                                                          ",
"       %4   9*                                                                                                                                                                                          ",
"       ;000000;                                                                                                                                                                                         ",
"       +@@@@9-+                                                                                                                                                                                         ",
"            9*                                                                                                                                                                                          ",
"            9*                                                                                                                                                                                          ",
"                                                                                                                                                                                                        ",
"                                                                                                                                                                                                        ",
"                                                                                                                                                                                                        ",
"                                                                                                                                                                                                        ",
"                                                                                                                                                                                                        ",
"                                                                                                                                                                                                        ",
"                                                                                                                                                                                                        ",
"                                                                                                                                                                                                        ",
"                                                                                                                                                                                                        ",
"                                                                                                                                                                                                        ",
"                                                                                                                                                                                                        ",
"                                                                                                                                                                                                        "
};
