/* XPM */
static char *__2160[] = {
/* columns rows colors chars-per-pixel */
"19 35 29 1 ",
"  c black",
". c #010101",
"X c #101010",
"o c gray12",
"O c #202020",
"+ c gray13",
"@ c gray19",
"# c gray25",
"$ c #414141",
"% c #505050",
"& c #515151",
"* c #5F5F5F",
"= c #606060",
"- c gray44",
"; c gray50",
": c #808080",
"> c #818181",
", c gray56",
"< c #909090",
"1 c #9F9F9F",
"2 c #A0A0A0",
"3 c #AFAFAF",
"4 c gray75",
"5 c gray81",
"6 c #DFDFDF",
"7 c gray88",
"8 c #EFEFEF",
"9 c #FEFEFE",
"0 c white",
/* pixels */
"                   ",
"                   ",
"                   ",
"                   ",
"                   ",
"                   ",
"                   ",
"                   ",
"   600000000000    ",
"   600000000000    ",
"   600<:::::;::    ",
"   600O            ",
"   600O            ",
"   600O            ",
"   600O            ",
"   600o            ",
"   600O            ",
"   600O            ",
"   6003,:=%@       ",
"   2000000006;     ",
"    <7000000005X   ",
"       XO$%2000:   ",
"            3008   ",
"            $000O  ",
"            O000$  ",
"            X000$  ",
"            X000@  ",
"            @000   ",
"            1004   ",
"  O04,-===-4000*   ",
"  :00000000000:    ",
"  %2600000004$     ",
"     @$%=*%X       ",
"                   ",
"                   "
};
