/* XPM */
static char *__2160[] = {
/* columns rows colors chars-per-pixel */
"19 35 28 1 ",
"  c black",
". c #010101",
"X c #101010",
"o c #111111",
"O c gray12",
"+ c #202020",
"@ c gray13",
"# c gray19",
"$ c #3F3F3F",
"% c gray25",
"& c #505050",
"* c #606060",
"= c gray38",
"- c gray44",
"; c gray50",
": c #808080",
"> c gray56",
", c #909090",
"< c #9F9F9F",
"1 c #A0A0A0",
"2 c #AFAFAF",
"3 c gray75",
"4 c gray81",
"5 c gray87",
"6 c #DFDFDF",
"7 c #EFEFEF",
"8 c #FEFEFE",
"9 c white",
/* pixels */
"                   ",
"                   ",
"                   ",
"                   ",
"                   ",
"                   ",
"                   ",
"      X#**&%X      ",
"    #399999993>+   ",
"   %99999999999*   ",
"   6994-&%&-249+   ",
"  &996        X    ",
"  >99*             ",
"  399$             ",
"  699%             ",
"  999%             ",
"  999%             ",
"  999% X+%#X       ",
"  99926999996<O    ",
"  9999999999996+   ",
"  9993,**%*19993   ",
"  999%      *999X  ",
"  999%       699*  ",
"  999%       399-  ",
"  799%       399:  ",
"  699%       399:  ",
"  299%       399-  ",
"  ,99&       399%  ",
"  %99<      +999X  ",
"   699<&%+%;799<   ",
"   %99999999996+   ",
"    +49999997,X    ",
"      +&*-*&X      ",
"                   ",
"                   "
};
