/* XPM */
static char *__2160[] = {
/* columns rows colors chars-per-pixel */
"19 35 19 1 ",
"  c black",
". c #010101",
"X c #101010",
"o c gray12",
"O c #202020",
"+ c gray25",
"@ c #5F5F5F",
"# c #606060",
"$ c #808080",
"% c #909090",
"& c #9F9F9F",
"* c #AFAFAF",
"= c gray",
"- c gray75",
"; c gray87",
": c #DFDFDF",
"> c #EFEFEF",
", c #FEFEFE",
"< c white",
/* pixels */
"                   ",
"                   ",
"                   ",
"                   ",
"                   ",
"                   ",
"                   ",
"                   ",
"  $<<<<<<<<<<<<O   ",
"  $<<<<<<<<<<<<O   ",
"  +$$$$$$$$$:<<o   ",
"            =<<O   ",
"            :<<O   ",
"            :<<O   ",
"            <<<    ",
"           X<<>    ",
"           +<<=    ",
"           %<<%    ",
"           :<<+    ",
"          +<<:     ",
"          *<<#     ",
"         O<<:      ",
"         &<<#      ",
"        +<<:       ",
"        =<<@       ",
"       +<<:        ",
"       =<<#        ",
"      +<<:         ",
"      =<<#         ",
"     #<<:          ",
"     :<<#          ",
"    #<<:           ",
"                   ",
"                   ",
"                   "
};
