/* XPM */
static char *__800[] = {
/* columns rows colors chars-per-pixel */
"200 30 29 1 ",
"  c None",
". c white",
"X c white",
"o c white",
"O c white",
"+ c white",
"@ c white",
"# c white",
"$ c white",
"% c white",
"& c white",
"* c white",
"= c white",
"- c white",
"; c white",
": c white",
"> c white",
", c white",
"< c white",
"1 c white",
"2 c white",
"3 c white",
"4 c white",
"5 c white",
"6 c white",
"7 c white",
"8 c white",
"9 c None",
"0 c white",
/* pixels */
"                                                                                                                                                                                                        ",
"                                                                                                                                                                                                        ",
"                                                                                                                                                                                                        ",
"                                                                                                                                                                                                        ",
"                                                                                                                                                                                                        ",
"                                                                                                                                                                                                        ",
"                                                                                                                                                                                                        ",
"        38888,                                                                                                                                                                                          ",
"        @@@@1,                                                                                                                                                                                          ",
"            1;                                                                                                                                                                                          ",
"            7&                                                                                                                                                                                          ",
"           @0$                                                                                                                                                                                          ",
"           -3                                                                                                                                                                                           ",
"           5=                                                                                                                                                                                           ",
"          &7O                                                                                                                                                                                           ",
"          3;                                                                                                                                                                                            ",
"         %8+                                                                                                                                                                                            ",
"         2<                                                                                                                                                                                             ",
"                                                                                                                                                                                                        ",
"                                                                                                                                                                                                        ",
"                                                                                                                                                                                                        ",
"                                                                                                                                                                                                        ",
"                                                                                                                                                                                                        ",
"                                                                                                                                                                                                        ",
"                                                                                                                                                                                                        ",
"                                                                                                                                                                                                        ",
"                                                                                                                                                                                                        ",
"                                                                                                                                                                                                        ",
"                                                                                                                                                                                                        ",
"                                                                                                                                                                                                        "
};
