/* XPM */
static char *__2160[] = {
/* columns rows colors chars-per-pixel */
"19 35 26 1 ",
"  c black",
". c #010101",
"X c #101010",
"o c #202020",
"O c gray19",
"+ c #313131",
"@ c gray25",
"# c #505050",
"$ c #5F5F5F",
"% c #606060",
"& c gray38",
"* c gray44",
"= c #808080",
"- c gray56",
"; c #909090",
": c #9F9F9F",
"> c #A0A0A0",
", c #AFAFAF",
"< c gray",
"1 c gray75",
"2 c gray81",
"3 c #DFDFDF",
"4 c #EFEFEF",
"5 c gray94",
"6 c #FEFEFE",
"7 c white",
/* pixels */
"                   ",
"                   ",
"                   ",
"                   ",
"                   ",
"                   ",
"                   ",
"      X@$%@@       ",
"    %17777777:o    ",
"   -77777777775+   ",
"  %7771*#@#>3773   ",
"  177=      o477@  ",
"  777+       ,77=  ",
" o777o       >77:  ",
" o777o       >77=  ",
" o777o       >77=  ",
" X777o       >77%  ",
"  477-       >77+  ",
"  ;7773-#+   >73   ",
"  o377777772,24+   ",
"   %72477777773+   ",
"  @77o +#=157774   ",
"  177o      *777@  ",
"  777o       177*  ",
" X777o       >77=  ",
" o777o       >77:  ",
" o777o       >77;  ",
"  777o       ,77=  ",
"  177-      o377#  ",
"  =777:#@o@*3773X  ",
"   177777777777*   ",
"    =377777771@    ",
"      @#%=%#o      ",
"                   ",
"                   "
};
