/* XPM */
static char *__600[] = {
/* columns rows colors chars-per-pixel */
"200 30 41 1 ",
"  c None",
". c white",
"X c white",
"o c white",
"O c white",
"+ c white",
"@ c white",
"# c white",
"$ c white",
"% c white",
"& c white",
"* c white",
"= c white",
"- c white",
"; c white",
": c white",
"> c white",
", c white",
"< c white",
"1 c white",
"2 c white",
"3 c white",
"4 c white",
"5 c white",
"6 c white",
"7 c white",
"8 c white",
"9 c white",
"0 c white",
"q c white",
"w c white",
"e c white",
"r c white",
"t c white",
"y c white",
"u c white",
"i c white",
"p c white",
"a c white",
"s c white",
"d c None",
/* pixels */
"                                                                                                                                                                                                        ",
"                                                                                                                                                                                                        ",
"                                                                                                                                                                                                        ",
"                                                                                                                                                                                                        ",
"                                                                                                                                                                                                        ",
"                                                                                                                                                                                                        ",
"                                                                                                                                                                                                        ",
"         3uu4                                                                                                                                                                                           ",
"        -e@@e*                                                                                                                                                                                          ",
"        28  9<                                                                                                                                                                                          ",
"        >y@ 9*                                                                                                                                                                                          ",
"        @udee                                                                                                                                                                                           ",
"        *8 *p-                                                                                                                                                                                          ",
"        <8  9<                                                                                                                                                                                          ",
"        -0  0-                                                                                                                                                                                          ",
"         5pp8                                                                                                                                                                                           ",
"                                                                                                                                                                                                        ",
"                                                                                                                                                                                                        ",
"                                                                                                                                                                                                        ",
"                                                                                                                                                                                                        ",
"                                                                                                                                                                                                        ",
"                                                                                                                                                                                                        ",
"                                                                                                                                                                                                        ",
"                                                                                                                                                                                                        ",
"                                                                                                                                                                                                        ",
"                                                                                                                                                                                                        ",
"                                                                                                                                                                                                        ",
"                                                                                                                                                                                                        ",
"                                                                                                                                                                                                        ",
"                                                                                                                                                                                                        "
};
