/* XPM */
static char *__800[] = {
/* columns rows colors chars-per-pixel */
"200 30 51 1 ",
"  c None",
". c white",
"X c white",
"o c white",
"O c white",
"+ c white",
"@ c white",
"# c white",
"$ c white",
"% c white",
"& c white",
"* c white",
"= c white",
"- c white",
"; c white",
": c white",
"> c white",
", c white",
"< c white",
"1 c white",
"2 c white",
"3 c white",
"4 c white",
"5 c white",
"6 c white",
"7 c white",
"8 c white",
"9 c white",
"0 c white",
"q c white",
"w c white",
"e c white",
"r c white",
"t c white",
"y c white",
"u c white",
"i c white",
"p c white",
"a c white",
"s c white",
"d c white",
"f c white",
"g c white",
"h c white",
"j c white",
"k c white",
"l c white",
"z c white",
"x c white",
"c c None",
"v c white",
/* pixels */
"                                                                                                                                                                                                        ",
"                                                                                                                                                                                                        ",
"                                                                                                                                                                                                        ",
"                                                                                                                                                                                                        ",
"                                                                                                                                                                                                        ",
"                                                                                                                                                                                                        ",
"                                                                                                                                                                                                        ",
"        ,tggt,                                                                                                                                                                                          ",
"        se,;rd                                                                                                                                                                                          ",
"       $v2  2v$                                                                                                                                                                                         ",
"       ;v2  2v$                                                                                                                                                                                         ",
"       Ovw@ 2k                                                                                                                                                                                          ",
"        9kvgp8                                                                                                                                                                                          ",
"        d2@6tg                                                                                                                                                                                          ",
"       ;v2  5v$                                                                                                                                                                                         ",
"       $v2  2v$                                                                                                                                                                                         ",
"        gw$$wg                                                                                                                                                                                          ",
"        2pkva6                                                                                                                                                                                          ",
"                                                                                                                                                                                                        ",
"                                                                                                                                                                                                        ",
"                                                                                                                                                                                                        ",
"                                                                                                                                                                                                        ",
"                                                                                                                                                                                                        ",
"                                                                                                                                                                                                        ",
"                                                                                                                                                                                                        ",
"                                                                                                                                                                                                        ",
"                                                                                                                                                                                                        ",
"                                                                                                                                                                                                        ",
"                                                                                                                                                                                                        ",
"                                                                                                                                                                                                        "
};
