/* XPM */
static char *__2160[] = {
/* columns rows colors chars-per-pixel */
"19 35 28 1 ",
"  c black",
". c #010101",
"X c #101010",
"o c #202020",
"O c gray19",
"+ c gray25",
"@ c #414141",
"# c #505050",
"$ c #515151",
"% c #606060",
"& c #6F6F6F",
"* c gray44",
"= c gray50",
"- c #808080",
"; c #818181",
": c gray56",
"> c #909090",
", c #9F9F9F",
"< c #A0A0A0",
"1 c #AFAFAF",
"2 c gray69",
"3 c gray75",
"4 c #C0C0C0",
"5 c gray81",
"6 c #DFDFDF",
"7 c #EFEFEF",
"8 c #FEFEFE",
"9 c white",
/* pixels */
"                   ",
"                   ",
"                   ",
"                   ",
"                   ",
"                   ",
"                   ",
"      XO#%#+       ",
"    o,7999999,o    ",
"   o69999999996X   ",
"   6995&#+#<699-   ",
"  +996X     o797X  ",
"  -99>       >99+  ",
"  199-       -99*  ",
"  399-       -99,  ",
"  399-       -99,  ",
"  199=       -993  ",
"  <99-       -993  ",
"  *993       -993  ",
"  +999=o    o1993  ",
"   49999666999993  ",
"   X<999999997993  ",
"     o*>,,,-+-993  ",
"             -993  ",
"             -992  ",
"             -99,  ",
"             -99-  ",
"             ,99#  ",
"            o699X  ",
"   ,51*#++#:799,   ",
"   799999999996o   ",
"  X>5999999993o    ",
"     X+#%*%#X      ",
"                   ",
"                   "
};
