/* XPM */
static char *__800[] = {
/* columns rows colors chars-per-pixel */
"200 30 44 1 ",
"  c None",
". c white",
"X c white",
"o c white",
"O c white",
"+ c white",
"@ c white",
"# c white",
"$ c white",
"% c white",
"& c white",
"* c white",
"= c white",
"- c white",
"; c white",
": c white",
"> c white",
", c white",
"< c white",
"1 c white",
"2 c white",
"3 c white",
"4 c white",
"5 c white",
"6 c white",
"7 c white",
"8 c white",
"9 c white",
"0 c white",
"q c white",
"w c white",
"e c white",
"r c white",
"t c white",
"y c white",
"u c white",
"i c white",
"p c white",
"a c white",
"s c white",
"d c white",
"f c white",
"g c None",
"h c white",
/* pixels */
"                                                                                                                                                                                                        ",
"                                                                                                                                                                                                        ",
"                                                                                                                                                                                                        ",
"                                                                                                                                                                                                        ",
"                                                                                                                                                                                                        ",
"                                                                                                                                                                                                        ",
"                                                                                                                                                                                                        ",
"        +9ipw-                                                                                                                                                                                          ",
"        qq--7r                                                                                                                                                                                          ",
"        d4  -dO                                                                                                                                                                                         ",
"        d4  -d:                                                                                                                                                                                         ",
"        u8  <d<                                                                                                                                                                                         ",
"        3pddpd1                                                                                                                                                                                         ",
"          +O-d1                                                                                                                                                                                         ",
"            -d:                                                                                                                                                                                         ",
"            :d+                                                                                                                                                                                         ",
"        33$-9t                                                                                                                                                                                          ",
"        6tsse-                                                                                                                                                                                          ",
"                                                                                                                                                                                                        ",
"                                                                                                                                                                                                        ",
"                                                                                                                                                                                                        ",
"                                                                                                                                                                                                        ",
"                                                                                                                                                                                                        ",
"                                                                                                                                                                                                        ",
"                                                                                                                                                                                                        ",
"                                                                                                                                                                                                        ",
"                                                                                                                                                                                                        ",
"                                                                                                                                                                                                        ",
"                                                                                                                                                                                                        ",
"                                                                                                                                                                                                        "
};
